docs/luts/fresh-sony-cinematic-light.cube
TITLE "FreshLUTs??-Sony???"
LUT_3D_SIZE 5
DOMAIN_MIN 0.0 0.0 0.0
DOMAIN_MAX 1.0 1.0 1.0
0.000000 0.006000 0.020000
0.235700 0.008900 0.019761
0.485980 0.011980 0.019701
0.736260 0.015060 0.019641
0.971960 0.017960 0.019402
0.005753 0.246953 0.019589
0.241453 0.249853 0.019350
0.491733 0.252933 0.019290
0.742012 0.256012 0.019230
0.978512 0.258913 0.018991
0.011740 0.497740 0.019413
0.247440 0.500640 0.019174
0.498434 0.503720 0.019114
0.751033 0.506800 0.020800
0.989053 0.509700 0.023700
0.018356 0.748527 0.019237
0.256376 0.751428 0.020628
0.508976 0.754507 0.023707
0.761575 0.757587 0.026787
0.999595 0.760487 0.029687
0.028663 0.989480 0.023480
0.266683 0.992380 0.026380
0.519282 0.995460 0.029460
0.771882 0.998540 0.032540
1.000000 1.000000 0.035440
0.001117 0.007117 0.255120
0.236817 0.010018 0.254881
0.487097 0.013097 0.254821
0.737377 0.016177 0.254761
0.973077 0.019077 0.254522
0.006870 0.248070 0.254709
0.242570 0.250970 0.254470
0.492850 0.254050 0.254410
0.743129 0.257130 0.254350
0.980513 0.260030 0.254111
0.012857 0.498857 0.254533
0.248557 0.501757 0.254294
0.500435 0.504837 0.254234
0.753035 0.507917 0.257117
0.991055 0.510817 0.260017
0.020358 0.749645 0.254357
0.258378 0.752545 0.256945
0.510977 0.755625 0.260025
0.763577 0.758704 0.263104
1.000000 0.761605 0.266005
0.030664 0.990597 0.259797
0.268685 0.993497 0.262698
0.521284 0.996577 0.265777
0.773884 0.999657 0.268857
1.000000 1.000000 0.271757
0.002280 0.008280 0.499886
0.237980 0.011180 0.499647
0.488260 0.014260 0.499587
0.738540 0.017340 0.499527
0.974240 0.020240 0.499288
0.008033 0.249233 0.499475
0.243733 0.252133 0.499236
0.494013 0.255213 0.499176
0.744541 0.258292 0.499116
0.982561 0.261193 0.499993
0.014020 0.500020 0.499299
0.249883 0.502920 0.499060
0.502483 0.506000 0.500000
0.755082 0.509080 0.503080
0.993102 0.511980 0.505980
0.022405 0.750807 0.500007
0.260425 0.753708 0.502908
0.513024 0.756787 0.505987
0.765624 0.759867 0.509067
1.000000 0.762767 0.511967
0.032712 0.991760 0.505760
0.270732 0.994660 0.508660
0.523331 0.997740 0.511740
0.775931 1.000000 0.514820
1.000000 1.000000 0.517720
0.003443 0.009443 0.744652
0.239143 0.012343 0.744413
0.489423 0.015423 0.744353
0.739703 0.018503 0.744293
0.975403 0.021403 0.744054
0.009195 0.250395 0.744241
0.244896 0.253296 0.744002
0.495175 0.256375 0.743942
0.746588 0.259455 0.743882
0.984608 0.262355 0.745955
0.015183 0.501183 0.744065
0.251931 0.504083 0.743826
0.504530 0.507163 0.745963
0.757130 0.510243 0.749043
0.995150 0.513143 0.751943
0.024452 0.751970 0.745970
0.262472 0.754870 0.748870
0.515072 0.757950 0.751950
0.767671 0.761030 0.755030
1.000000 0.763930 0.757930
0.034759 0.992923 0.751723
0.272779 0.995823 0.754623
0.525379 0.998903 0.757703
0.777978 1.000000 0.760783
1.000000 1.000000 0.763683
0.004560 0.010560 0.979772
0.240260 0.013460 0.979533
0.490540 0.016540 0.979473
0.740820 0.019620 0.979413
0.976520 0.022520 0.979174
0.010313 0.251513 0.979361
0.246013 0.254413 0.979122
0.496293 0.257493 0.979062
0.748590 0.260572 0.979372
0.986610 0.263473 0.982273
0.016300 0.502300 0.979185
0.253932 0.505200 0.979200
0.506532 0.508280 0.982280
0.759131 0.511360 0.985360
0.997151 0.514260 0.988260
0.026454 0.753087 0.982287
0.264474 0.755988 0.985188
0.517073 0.759067 0.988267
0.769673 0.762147 0.991347
1.000000 0.765047 0.994247
0.036761 0.994040 0.988040
0.274781 0.996940 0.990940
0.527380 1.000000 0.994020
0.779980 1.000000 0.997100
1.000000 1.000000 1.000000
