docs/luts/fresh-celluloid.cube
TITLE "FreshLUTs??-???"
LUT_3D_SIZE 33
DOMAIN_MIN 0.0 0.0 0.0
DOMAIN_MAX 1.0 1.0 1.0
0.000000 0.000000 0.040000
0.000000 0.000000 0.039215
0.026729 0.000000 0.038759
0.059533 0.000000 0.038378
0.092336 0.000000 0.037997
0.125140 0.000000 0.037615
0.157943 0.000000 0.037234
0.190747 0.000000 0.036853
0.223551 0.000000 0.036472
0.256354 0.000000 0.036091
0.289158 0.000000 0.035709
0.321962 0.000000 0.035328
0.354765 0.000000 0.034947
0.387569 0.000000 0.034566
0.420373 0.000000 0.034184
0.453176 0.000000 0.033803
0.485980 0.000000 0.033422
0.518784 0.000000 0.033041
0.551587 0.000000 0.032660
0.584391 0.000000 0.032278
0.617195 0.000000 0.031897
0.649998 0.000000 0.031516
0.682802 0.000000 0.031135
0.715606 0.000575 0.030753
0.748409 0.001273 0.030372
0.781213 0.001971 0.029991
0.814016 0.002669 0.029610
0.846820 0.003367 0.029229
0.879624 0.004065 0.028847
0.912427 0.004763 0.028466
0.945231 0.005461 0.028085
0.971960 0.006084 0.027629
0.971960 0.006379 0.026844
0.000293 0.000000 0.038753
0.000293 0.000000 0.037968
0.027022 0.000000 0.037512
0.059826 0.000000 0.037131
0.092630 0.000185 0.036749
0.125433 0.000883 0.036368
0.158237 0.001581 0.035987
0.191041 0.002279 0.035606
0.223844 0.002977 0.035224
0.256648 0.003675 0.034843
0.289452 0.004373 0.034462
0.322255 0.005071 0.034081
0.355059 0.005769 0.033700
0.387863 0.006467 0.033318
0.420666 0.007165 0.032937
0.453470 0.007863 0.032556
0.486273 0.008561 0.032175
0.519077 0.009259 0.031793
0.551881 0.009957 0.031412
0.584684 0.010655 0.031031
0.617488 0.011352 0.030650
0.650292 0.012050 0.030269
0.683095 0.012748 0.029887
0.715899 0.013446 0.029506
0.748703 0.014144 0.029125
0.781506 0.014842 0.028744
0.814310 0.015540 0.028362
0.847114 0.016238 0.027981
0.879917 0.016936 0.027600
0.912721 0.017634 0.027219
0.945525 0.018332 0.026837
0.972254 0.018955 0.026382
0.972254 0.019250 0.025597
0.001057 0.030412 0.037975
0.001057 0.030707 0.037190
0.027785 0.031330 0.036734
0.060589 0.032028 0.036353
0.093393 0.032726 0.035972
0.126196 0.033424 0.035590
0.159000 0.034122 0.035209
0.191804 0.034820 0.034828
0.224607 0.035518 0.034447
0.257411 0.036216 0.034065
0.290215 0.036914 0.033684
0.323018 0.037612 0.033303
0.355822 0.038310 0.032922
0.388626 0.039008 0.032541
0.421429 0.039706 0.032159
0.454233 0.040404 0.031778
0.487037 0.041102 0.031397
0.519840 0.041799 0.031016
0.552644 0.042497 0.030634
0.585448 0.043195 0.030253
0.618251 0.043893 0.029872
0.651055 0.044591 0.029491
0.683858 0.045289 0.029110
0.716662 0.045987 0.028728
0.749466 0.046685 0.028347
0.782269 0.047383 0.027966
0.815073 0.048081 0.027585
0.847877 0.048779 0.027203
0.880680 0.049477 0.026822
0.913484 0.050175 0.026441
0.946288 0.050873 0.026060
0.973017 0.051496 0.025604
0.973017 0.051791 0.024819
0.001820 0.062953 0.037197
0.001820 0.063248 0.036412
0.028549 0.063871 0.035956
0.061352 0.064569 0.035575
0.094156 0.065267 0.035194
0.126960 0.065965 0.034813
0.159763 0.066663 0.034431
0.192567 0.067361 0.034050
0.225370 0.068059 0.033669
0.258174 0.068757 0.033288
0.290978 0.069455 0.032906
0.323781 0.070153 0.032525
0.356585 0.070851 0.032144
0.389389 0.071549 0.031763
0.422192 0.072246 0.031382
0.454996 0.072944 0.031000
0.487800 0.073642 0.030619
0.520603 0.074340 0.030238
0.553407 0.075038 0.029857
0.586211 0.075736 0.029475
0.619014 0.076434 0.029094
0.651818 0.077132 0.028713
0.684622 0.077830 0.028332
0.717425 0.078528 0.027951
0.750229 0.079226 0.027569
0.783033 0.079924 0.027188
0.815836 0.080622 0.026807
0.848640 0.081320 0.026426
0.881444 0.082018 0.026044
0.914247 0.082716 0.025663
0.947051 0.083414 0.025282
0.973780 0.084037 0.024826
0.973780 0.084332 0.024041
0.002583 0.095494 0.036419
0.002583 0.095788 0.035634
0.029312 0.096412 0.035178
0.062115 0.097110 0.034797
0.094919 0.097808 0.034416
0.127723 0.098506 0.034035
0.160526 0.099204 0.033654
0.193330 0.099902 0.033272
0.226134 0.100600 0.032891
0.258937 0.101298 0.032510
0.291741 0.101995 0.032129
0.324545 0.102693 0.031747
0.357348 0.103391 0.031366
0.390152 0.104089 0.030985
0.422955 0.104787 0.030604
0.455759 0.105485 0.030223
0.488563 0.106183 0.029841
0.521366 0.106881 0.029460
0.554170 0.107579 0.029079
0.586974 0.108277 0.028698
0.619777 0.108975 0.028316
0.652581 0.109673 0.027935
0.685385 0.110371 0.027554
0.718188 0.111069 0.027173
0.750992 0.111767 0.026792
0.783796 0.112465 0.026410
0.816599 0.113163 0.026029
0.849403 0.113861 0.025648
0.882207 0.114559 0.025267
0.915010 0.115257 0.024885
0.947814 0.115955 0.024504
0.974543 0.116578 0.024048
0.974543 0.116873 0.023263
0.003346 0.128035 0.035642
0.003346 0.128329 0.034857
0.030075 0.128953 0.034401
0.062878 0.129651 0.034019
0.095682 0.130349 0.033638
0.128486 0.131047 0.033257
0.161289 0.131745 0.032876
0.194093 0.132442 0.032495
0.226897 0.133140 0.032113
0.259700 0.133838 0.031732
0.292504 0.134536 0.031351
0.325308 0.135234 0.030970
0.358111 0.135932 0.030588
0.390915 0.136630 0.030207
0.423719 0.137328 0.029826
0.456522 0.138026 0.029445
0.489326 0.138724 0.029064
0.522130 0.139422 0.028682
0.554933 0.140120 0.028301
0.587737 0.140818 0.027920
0.620540 0.141516 0.027539
0.653344 0.142214 0.027157
0.686148 0.142912 0.026776
0.718951 0.143610 0.026395
0.751755 0.144308 0.026014
0.784559 0.145006 0.025633
0.817362 0.145704 0.025251
0.850166 0.146402 0.024870
0.882970 0.147100 0.024489
0.915773 0.147798 0.024108
0.948577 0.148496 0.023726
0.975306 0.149119 0.023270
0.975306 0.149414 0.022486
0.004109 0.160576 0.034864
0.004109 0.160870 0.034079
0.030838 0.161494 0.033623
0.063642 0.162192 0.033242
0.096445 0.162889 0.032860
0.129249 0.163587 0.032479
0.162052 0.164285 0.032098
0.194856 0.164983 0.031717
0.227660 0.165681 0.031336
0.260463 0.166379 0.030954
0.293267 0.167077 0.030573
0.326071 0.167775 0.030192
0.358874 0.168473 0.029811
0.391678 0.169171 0.029429
0.424482 0.169869 0.029048
0.457285 0.170567 0.028667
0.490089 0.171265 0.028286
0.522893 0.171963 0.027905
0.555696 0.172661 0.027523
0.588500 0.173359 0.027142
0.621304 0.174057 0.026761
0.654107 0.174755 0.026380
0.686911 0.175453 0.025998
0.719715 0.176151 0.025617
0.752518 0.176849 0.025236
0.785322 0.177547 0.024855
0.818126 0.178245 0.024474
0.850929 0.178943 0.024092
0.883733 0.179641 0.023711
0.916536 0.180339 0.023330
0.949340 0.181037 0.022949
0.976069 0.181660 0.022493
0.976069 0.181954 0.021708
0.004872 0.193117 0.034086
0.004872 0.193411 0.033301
0.031601 0.194034 0.032845
0.064405 0.194732 0.032464
0.097208 0.195430 0.032083
0.130012 0.196128 0.031701
0.162816 0.196826 0.031320
0.195619 0.197524 0.030939
0.228423 0.198222 0.030558
0.261227 0.198920 0.030177
0.294030 0.199618 0.029795
0.326834 0.200316 0.029414
0.359637 0.201014 0.029033
0.392441 0.201712 0.028652
0.425245 0.202410 0.028270
0.458048 0.203108 0.027889
0.490852 0.203806 0.027508
0.523656 0.204504 0.027127
0.556459 0.205202 0.026746
0.589263 0.205900 0.026364
0.622067 0.206598 0.025983
0.654870 0.207296 0.025602
0.687674 0.207994 0.025221
0.720478 0.208692 0.024839
0.753281 0.209390 0.024458
0.786085 0.210088 0.024077
0.818889 0.210786 0.023696
0.851692 0.211484 0.023315
0.884496 0.212182 0.022933
0.917300 0.212880 0.022552
0.950103 0.213578 0.022171
0.976832 0.214201 0.021715
0.977087 0.214495 0.020930
0.005635 0.225658 0.033308
0.005635 0.225952 0.032523
0.032364 0.226575 0.032067
0.065168 0.227273 0.031686
0.097971 0.227971 0.031305
0.130775 0.228669 0.030924
0.163579 0.229367 0.030542
0.196382 0.230065 0.030161
0.229186 0.230763 0.029780
0.261990 0.231461 0.029399
0.294793 0.232159 0.029018
0.327597 0.232857 0.028636
0.360401 0.233555 0.028255
0.393204 0.234253 0.027874
0.426008 0.234951 0.027493
0.458812 0.235649 0.027111
0.491615 0.236347 0.026730
0.524419 0.237045 0.026349
0.557222 0.237743 0.025968
0.590026 0.238441 0.025587
0.622830 0.239139 0.025205
0.655633 0.239837 0.024824
0.688437 0.240535 0.024443
0.721241 0.241233 0.024062
0.754044 0.241931 0.023680
0.786848 0.242629 0.023299
0.819652 0.243327 0.022918
0.852455 0.244025 0.022537
0.885259 0.244723 0.022155
0.918063 0.245421 0.021774
0.951110 0.246119 0.021393
0.978161 0.246742 0.020937
0.978483 0.247036 0.020152
0.006398 0.258199 0.032530
0.006398 0.258493 0.031746
0.033127 0.259116 0.031290
0.065931 0.259814 0.030908
0.098734 0.260512 0.030527
0.131538 0.261210 0.030146
0.164342 0.261908 0.029765
0.197145 0.262606 0.029383
0.229949 0.263304 0.029002
0.262753 0.264002 0.028621
0.295556 0.264700 0.028240
0.328360 0.265398 0.027859
0.361164 0.266096 0.027477
0.393967 0.266794 0.027096
0.426771 0.267492 0.026715
0.459575 0.268190 0.026334
0.492378 0.268888 0.025952
0.525182 0.269586 0.025571
0.557986 0.270284 0.025190
0.590789 0.270982 0.024809
0.623593 0.271680 0.024428
0.656397 0.272378 0.024046
0.689200 0.273076 0.023665
0.722004 0.273774 0.023284
0.754808 0.274472 0.022903
0.787611 0.275170 0.022521
0.820415 0.275868 0.022140
0.853218 0.276566 0.021759
0.886254 0.277264 0.021378
0.919380 0.277962 0.020996
0.952505 0.278660 0.020615
0.979557 0.279283 0.020159
0.979879 0.279577 0.019374
0.007161 0.290740 0.031753
0.007161 0.291034 0.030968
0.033890 0.291657 0.030512
0.066694 0.292355 0.030131
0.099498 0.293053 0.029749
0.132301 0.293751 0.029368
0.165105 0.294449 0.028987
0.197909 0.295147 0.028606
0.230712 0.295845 0.028224
0.263516 0.296543 0.027843
0.296319 0.297241 0.027462
0.329123 0.297939 0.027081
0.361927 0.298637 0.026700
0.394730 0.299335 0.026318
0.427534 0.300033 0.025937
0.460338 0.300731 0.025556
0.493141 0.301429 0.025175
0.525945 0.302127 0.024793
0.558749 0.302825 0.024412
0.591552 0.303523 0.024031
0.624356 0.304221 0.023650
0.657160 0.304919 0.023269
0.689963 0.305617 0.022887
0.722767 0.306315 0.022506
0.755571 0.307013 0.022125
0.788374 0.307711 0.021744
0.821398 0.308409 0.021362
0.854524 0.309107 0.020981
0.887649 0.309805 0.020600
0.920775 0.310503 0.020219
0.953901 0.311201 0.019837
0.980952 0.311824 0.019382
0.981274 0.311921 0.019121
0.007925 0.323281 0.030975
0.007925 0.323575 0.030190
0.034653 0.324198 0.029734
0.067457 0.324896 0.029353
0.100261 0.325594 0.028972
0.133064 0.326292 0.028590
0.165868 0.326990 0.028209
0.198672 0.327688 0.027828
0.231475 0.328386 0.027447
0.264279 0.329084 0.027065
0.297083 0.329782 0.026684
0.329886 0.330480 0.026303
0.362690 0.331178 0.025922
0.395494 0.331876 0.025541
0.428297 0.332574 0.025159
0.461101 0.333272 0.024778
0.493904 0.333970 0.024397
0.526708 0.334668 0.024016
0.559512 0.335366 0.023634
0.592315 0.336064 0.023253
0.625119 0.336762 0.022872
0.657923 0.337460 0.022491
0.690726 0.338158 0.022110
0.723530 0.338856 0.021728
0.756542 0.339554 0.021347
0.789668 0.340252 0.020966
0.822793 0.340950 0.020585
0.855919 0.341648 0.020203
0.889045 0.342346 0.019822
0.922171 0.343044 0.019441
0.955297 0.343556 0.019556
0.982348 0.343885 0.019885
0.982670 0.343885 0.019885
0.008688 0.355822 0.030197
0.008688 0.356116 0.029412
0.035416 0.356739 0.028956
0.068220 0.357437 0.028575
0.101024 0.358135 0.028194
0.133827 0.358833 0.027813
0.166631 0.359531 0.027431
0.199435 0.360229 0.027050
0.232238 0.360927 0.026669
0.265042 0.361625 0.026288
0.297846 0.362323 0.025906
0.330649 0.363021 0.025525
0.363453 0.363719 0.025144
0.396257 0.364417 0.024763
0.429060 0.365115 0.024382
0.461864 0.365813 0.024000
0.494668 0.366511 0.023619
0.527471 0.367209 0.023238
0.560275 0.367907 0.022857
0.593079 0.368605 0.022475
0.625882 0.369303 0.022094
0.658686 0.370001 0.021713
0.691686 0.370699 0.021332
0.724811 0.371397 0.020951
0.757937 0.372095 0.020569
0.791063 0.372793 0.020188
0.824189 0.373491 0.019807
0.857315 0.374189 0.019426
0.890441 0.374711 0.019511
0.923567 0.375115 0.019915
0.956692 0.375519 0.020319
0.983744 0.375848 0.020648
0.984066 0.375848 0.020648
0.009451 0.388362 0.029419
0.009451 0.388657 0.028634
0.036180 0.389280 0.028178
0.068983 0.389978 0.027797
0.101787 0.390676 0.027416
0.134591 0.391374 0.027035
0.167394 0.392072 0.026654
0.200198 0.392770 0.026272
0.233001 0.393468 0.025891
0.265805 0.394166 0.025510
0.298609 0.394864 0.025129
0.331412 0.395562 0.024747
0.364216 0.396260 0.024366
0.397020 0.396958 0.023985
0.429823 0.397656 0.023604
0.462627 0.398354 0.023223
0.495431 0.399052 0.022841
0.528234 0.399750 0.022460
0.561038 0.400448 0.022079
0.593842 0.401146 0.021698
0.626830 0.401844 0.021316
0.659955 0.402542 0.020935
0.693081 0.403240 0.020554
0.726207 0.403938 0.020173
0.759333 0.404636 0.019792
0.792459 0.405334 0.019410
0.825585 0.405867 0.019467
0.858711 0.406271 0.019871
0.891836 0.406674 0.020275
0.924962 0.407078 0.020678
0.958088 0.407482 0.021082
0.985139 0.407811 0.021411
0.985461 0.407811 0.021411
0.010214 0.420903 0.028642
0.010214 0.421198 0.027857
0.036943 0.421821 0.027401
0.069746 0.422519 0.027019
0.102550 0.423217 0.026638
0.135354 0.423915 0.026257
0.168157 0.424613 0.025876
0.200961 0.425311 0.025495
0.233765 0.426009 0.025113
0.266568 0.426707 0.024732
0.299372 0.427405 0.024351
0.332176 0.428103 0.023970
0.364979 0.428801 0.023588
0.397783 0.429499 0.023207
0.430586 0.430197 0.022826
0.463390 0.430895 0.022445
0.496194 0.431593 0.022064
0.528997 0.432291 0.021682
0.561974 0.432989 0.021301
0.595099 0.433687 0.020920
0.628225 0.434385 0.020539
0.661351 0.435083 0.020157
0.694477 0.435781 0.019776
0.727603 0.436478 0.019395
0.760729 0.437023 0.019423
0.793854 0.437427 0.019827
0.826980 0.437830 0.020230
0.860106 0.438234 0.020634
0.893232 0.438638 0.021038
0.926358 0.439041 0.021441
0.959484 0.439445 0.021845
0.986535 0.439774 0.022174
0.986857 0.439774 0.022174
0.010977 0.453444 0.027864
0.010977 0.453739 0.027079
0.037706 0.454362 0.026623
0.070509 0.455060 0.026242
0.103313 0.455758 0.025860
0.136117 0.456456 0.025479
0.168920 0.457154 0.025098
0.201724 0.457852 0.024717
0.234528 0.458550 0.024336
0.267331 0.459248 0.023954
0.300135 0.459946 0.023573
0.332939 0.460644 0.023192
0.365742 0.461342 0.022811
0.398546 0.462040 0.022429
0.431350 0.462738 0.022048
0.464153 0.463436 0.021667
0.497117 0.464134 0.021286
0.530243 0.464832 0.020905
0.563369 0.465530 0.020523
0.596495 0.466228 0.020142
0.629621 0.466925 0.019761
0.662747 0.467623 0.019380
0.695873 0.468179 0.019379
0.728998 0.468582 0.019782
0.762124 0.468986 0.020186
0.795250 0.469390 0.020590
0.828376 0.469793 0.020993
0.861502 0.470197 0.021397
0.894628 0.470601 0.021801
0.927753 0.471004 0.022204
0.960879 0.471408 0.022608
0.987930 0.471737 0.022937
0.988253 0.471737 0.022937
0.011740 0.485985 0.027086
0.011740 0.486280 0.026301
0.038469 0.486903 0.025845
0.071273 0.487601 0.025464
0.104076 0.488299 0.025083
0.136880 0.488997 0.024701
0.169683 0.489695 0.024320
0.202487 0.490393 0.023939
0.235291 0.491091 0.023558
0.268094 0.491789 0.023177
0.300898 0.492487 0.022795
0.333702 0.493185 0.022414
0.366505 0.493883 0.022033
0.399309 0.494581 0.021652
0.432261 0.495279 0.021270
0.465387 0.495977 0.020889
0.498513 0.496675 0.020508
0.531639 0.497372 0.020127
0.564765 0.498070 0.019746
0.597891 0.498768 0.019364
0.631016 0.499335 0.019335
0.664142 0.499738 0.019738
0.697268 0.500142 0.020142
0.730394 0.500546 0.020546
0.763520 0.500949 0.020949
0.796646 0.501353 0.021353
0.829772 0.501757 0.021757
0.862897 0.502160 0.022160
0.896023 0.502564 0.022564
0.929149 0.502967 0.022967
0.962275 0.503371 0.023371
0.989326 0.503700 0.023700
0.989648 0.503700 0.023700
0.012503 0.518526 0.026308
0.012503 0.518821 0.025523
0.039232 0.519444 0.025067
0.072036 0.520142 0.024686
0.104839 0.520840 0.024305
0.137643 0.521538 0.023924
0.170447 0.522236 0.023542
0.203250 0.522934 0.023161
0.236054 0.523632 0.022780
0.268858 0.524330 0.022399
0.301661 0.525028 0.022018
0.334465 0.525726 0.021636
0.367405 0.526424 0.021255
0.400531 0.527121 0.020874
0.433657 0.527819 0.020493
0.466783 0.528517 0.020111
0.499909 0.529215 0.019730
0.533035 0.529913 0.019349
0.566160 0.530490 0.019290
0.599286 0.530894 0.019694
0.632412 0.531298 0.020098
0.665538 0.531701 0.020501
0.698664 0.532105 0.020905
0.731790 0.532509 0.021309
0.764916 0.532912 0.021712
0.798041 0.533316 0.022116
0.831167 0.533720 0.022520
0.864293 0.534123 0.022923
0.897419 0.534527 0.023327
0.930545 0.534931 0.023731
0.963671 0.535334 0.024134
0.990722 0.535663 0.024463
0.991044 0.535663 0.024463
0.013266 0.551067 0.025530
0.013266 0.551361 0.024746
0.039995 0.551985 0.024290
0.072799 0.552683 0.023908
0.105602 0.553381 0.023527
0.138406 0.554079 0.023146
0.171210 0.554777 0.022765
0.204013 0.555475 0.022383
0.236817 0.556173 0.022002
0.269621 0.556871 0.021621
0.302549 0.557568 0.021240
0.335675 0.558266 0.020859
0.368801 0.558964 0.020477
0.401927 0.559662 0.020096
0.435053 0.560360 0.019715
0.468179 0.561058 0.019334
0.501304 0.561646 0.019246
0.534430 0.562050 0.019650
0.567556 0.562453 0.020054
0.600682 0.562857 0.020457
0.633808 0.563261 0.020861
0.666934 0.563664 0.021264
0.700059 0.564068 0.021668
0.733185 0.564472 0.022072
0.766311 0.564875 0.022475
0.799437 0.565279 0.022879
0.832563 0.565683 0.023283
0.865689 0.566086 0.023686
0.898815 0.566490 0.024090
0.931940 0.566894 0.024494
0.965066 0.567297 0.024897
0.992117 0.567626 0.025226
0.992440 0.567626 0.025226
0.014029 0.583608 0.024753
0.014029 0.583902 0.023968
0.040758 0.584526 0.023512
0.073562 0.585224 0.023131
0.106366 0.585922 0.022749
0.139169 0.586620 0.022368
0.171973 0.587318 0.021987
0.204776 0.588015 0.021606
0.237693 0.588713 0.021224
0.270819 0.589411 0.020843
0.303945 0.590109 0.020462
0.337071 0.590807 0.020081
0.370197 0.591505 0.019700
0.403322 0.592203 0.019318
0.436448 0.592802 0.019202
0.469574 0.593206 0.019606
0.502700 0.593609 0.020009
0.535826 0.594013 0.020413
0.568952 0.594417 0.020817
0.602078 0.594820 0.021220
0.635203 0.595224 0.021624
0.668329 0.595628 0.022028
0.701455 0.596031 0.022431
0.734581 0.596435 0.022835
0.767707 0.596839 0.023239
0.800833 0.597242 0.023642
0.833959 0.597646 0.024046
0.867084 0.598049 0.024449
0.900210 0.598453 0.024853
0.933336 0.598857 0.025257
0.966462 0.599260 0.025660
0.993513 0.599589 0.025989
0.993835 0.599589 0.025989
0.014792 0.616149 0.023975
0.014792 0.616443 0.023190
0.041521 0.617067 0.022734
0.074325 0.617764 0.022353
0.107129 0.618462 0.021972
0.139932 0.619160 0.021590
0.172837 0.619858 0.021209
0.205963 0.620556 0.020828
0.239089 0.621254 0.020447
0.272215 0.621952 0.020065
0.305341 0.622650 0.019684
0.338466 0.623348 0.019303
0.371592 0.623958 0.019158
0.404718 0.624361 0.019561
0.437844 0.624765 0.019965
0.470970 0.625169 0.020369
0.504096 0.625572 0.020772
0.537222 0.625976 0.021176
0.570347 0.626380 0.021580
0.603473 0.626783 0.021983
0.636599 0.627187 0.022387
0.669725 0.627591 0.022791
0.702851 0.627994 0.023194
0.735977 0.628398 0.023598
0.769102 0.628802 0.024002
0.802228 0.629205 0.024405
0.835354 0.629609 0.024809
0.868480 0.630013 0.025213
0.901606 0.630416 0.025616
0.934732 0.630820 0.026020
0.967858 0.631224 0.026424
0.994909 0.631552 0.026752
0.995231 0.631552 0.026752
0.015555 0.648690 0.023197
0.015555 0.648984 0.022412
0.042284 0.649607 0.021956
0.075088 0.650305 0.021575
0.107981 0.651003 0.021194
0.141107 0.651701 0.020813
0.174233 0.652399 0.020431
0.207359 0.653097 0.020050
0.240485 0.653795 0.019669
0.273610 0.654493 0.019288
0.306736 0.655114 0.019114
0.339862 0.655517 0.019517
0.372988 0.655921 0.019921
0.406114 0.656325 0.020325
0.439240 0.656728 0.020728
0.472365 0.657132 0.021132
0.505491 0.657535 0.021536
0.538617 0.657939 0.021939
0.571743 0.658343 0.022343
0.604869 0.658746 0.022746
0.637995 0.659150 0.023150
0.671121 0.659554 0.023554
0.704246 0.659957 0.023957
0.737372 0.660361 0.024361
0.770498 0.660765 0.024765
0.803624 0.661168 0.025168
0.836750 0.661572 0.025572
0.869876 0.661976 0.025976
0.903001 0.662379 0.026379
0.936127 0.662783 0.026783
0.969253 0.663187 0.027187
0.996304 0.663515 0.027516
0.996626 0.663515 0.027516
0.016319 0.681231 0.022419
0.016319 0.681525 0.021634
0.043125 0.682148 0.021179
0.076251 0.682846 0.020797
0.109377 0.683544 0.020416
0.142503 0.684242 0.020035
0.175628 0.684940 0.019654
0.208754 0.685638 0.019272
0.241880 0.686269 0.019069
0.275006 0.686673 0.019473
0.308132 0.687077 0.019877
0.341258 0.687480 0.020280
0.374384 0.687884 0.020684
0.407509 0.688288 0.021088
0.440635 0.688691 0.021491
0.473761 0.689095 0.021895
0.506887 0.689499 0.022299
0.540013 0.689902 0.022702
0.573139 0.690306 0.023106
0.606265 0.690710 0.023510
0.639390 0.691113 0.023913
0.672516 0.691517 0.024317
0.705642 0.691921 0.024721
0.738768 0.692324 0.025124
0.771894 0.692728 0.025528
0.805020 0.693131 0.025931
0.838145 0.693535 0.026335
0.871271 0.693939 0.026739
0.904397 0.694342 0.027142
0.937523 0.694746 0.027546
0.970649 0.695150 0.027950
0.997700 0.695479 0.028279
0.998022 0.695479 0.028279
0.017147 0.713772 0.021642
0.017470 0.714066 0.020857
0.044521 0.714689 0.020401
0.077647 0.715387 0.020020
0.110772 0.716085 0.019638
0.143898 0.716783 0.019257
0.177024 0.717425 0.019025
0.210150 0.717829 0.019429
0.243276 0.718233 0.019833
0.276402 0.718636 0.020236
0.309528 0.719040 0.020640
0.342653 0.719443 0.021043
0.375779 0.719847 0.021447
0.408905 0.720251 0.021851
0.442031 0.720654 0.022254
0.475157 0.721058 0.022658
0.508283 0.721462 0.023062
0.541408 0.721865 0.023465
0.574534 0.722269 0.023869
0.607660 0.722673 0.024273
0.640786 0.723076 0.024676
0.673912 0.723480 0.025080
0.707038 0.723884 0.025484
0.740164 0.724287 0.025887
0.773289 0.724691 0.026291
0.806415 0.725095 0.026695
0.839541 0.725498 0.027098
0.872667 0.725902 0.027502
0.905793 0.726306 0.027906
0.938919 0.726709 0.028309
0.972044 0.727113 0.028713
0.999096 0.727442 0.029042
0.999418 0.727442 0.029042
0.018543 0.746313 0.020864
0.018865 0.746607 0.020079
0.045916 0.747230 0.019623
0.079042 0.747928 0.019242
0.112168 0.748581 0.018981
0.145294 0.748985 0.019385
0.178420 0.749388 0.019788
0.211546 0.749792 0.020192
0.244671 0.750196 0.020596
0.277797 0.750599 0.020999
0.310923 0.751003 0.021403
0.344049 0.751407 0.021807
0.377175 0.751810 0.022210
0.410301 0.752214 0.022614
0.443427 0.752617 0.023018
0.476552 0.753021 0.023421
0.509678 0.753425 0.023825
0.542804 0.753828 0.024228
0.575930 0.754232 0.024632
0.609056 0.754636 0.025036
0.642182 0.755039 0.025439
0.675307 0.755443 0.025843
0.708433 0.755847 0.026247
0.741559 0.756250 0.026650
0.774685 0.756654 0.027054
0.807811 0.757058 0.027458
0.840937 0.757461 0.027861
0.874063 0.757865 0.028265
0.907188 0.758269 0.028669
0.940314 0.758672 0.029072
0.973440 0.759076 0.029476
1.000000 0.759405 0.029805
1.000000 0.759405 0.029805
0.019939 0.778854 0.020086
0.020261 0.779148 0.019301
0.047312 0.779737 0.018937
0.080438 0.780140 0.019340
0.113564 0.780544 0.019744
0.146690 0.780948 0.020148
0.179815 0.781351 0.020551
0.212941 0.781755 0.020955
0.246067 0.782159 0.021359
0.279193 0.782562 0.021762
0.312319 0.782966 0.022166
0.345445 0.783370 0.022570
0.378570 0.783773 0.022973
0.411696 0.784177 0.023377
0.444822 0.784581 0.023781
0.477948 0.784984 0.024184
0.511074 0.785388 0.024588
0.544200 0.785792 0.024992
0.577326 0.786195 0.025395
0.610451 0.786599 0.025799
0.643577 0.787002 0.026203
0.676703 0.787406 0.026606
0.709829 0.787810 0.027010
0.742955 0.788213 0.027413
0.776081 0.788617 0.027817
0.809207 0.789021 0.028221
0.842332 0.789424 0.028624
0.875458 0.789828 0.029028
0.908584 0.790232 0.029432
0.941710 0.790635 0.029835
0.974836 0.791039 0.030239
1.000000 0.791368 0.030568
1.000000 0.791368 0.030568
0.021334 0.811371 0.019371
0.021657 0.811371 0.019371
0.048708 0.811700 0.019700
0.081834 0.812104 0.020104
0.114959 0.812507 0.020507
0.148085 0.812911 0.020911
0.181211 0.813314 0.021315
0.214337 0.813718 0.021718
0.247463 0.814122 0.022122
0.280589 0.814525 0.022525
0.313714 0.814929 0.022929
0.346840 0.815333 0.023333
0.379966 0.815736 0.023736
0.413092 0.816140 0.024140
0.446218 0.816544 0.024544
0.479344 0.816947 0.024947
0.512470 0.817351 0.025351
0.545595 0.817755 0.025755
0.578721 0.818158 0.026158
0.611847 0.818562 0.026562
0.644973 0.818966 0.026966
0.678099 0.819369 0.027369
0.711225 0.819773 0.027773
0.744350 0.820177 0.028177
0.777476 0.820580 0.028580
0.810602 0.820984 0.028984
0.843728 0.821387 0.029388
