docs/luts/fresh-natural-warm.cube
TITLE "FreshLUTs??-????"
LUT_3D_SIZE 9
DOMAIN_MIN 0.0 0.0 0.0
DOMAIN_MAX 1.0 1.0 1.0
0.016250 0.007800 0.000427
0.135375 0.007800 0.000000
0.264662 0.007800 0.000000
0.393950 0.007800 0.000000
0.523237 0.007800 0.000000
0.652525 0.007800 0.000000
0.781812 0.007800 0.000000
0.911100 0.007800 0.000000
1.000000 0.007800 0.000000
0.016250 0.130029 0.000000
0.133951 0.129326 0.000000
0.263239 0.128564 0.000000
0.392526 0.127801 0.000000
0.521814 0.127039 0.000000
0.651101 0.126276 0.000000
0.780389 0.125514 0.000000
0.909676 0.124751 0.000000
1.000000 0.124049 0.000000
0.016250 0.257322 0.000000
0.132469 0.256619 0.000000
0.261756 0.255856 0.000000
0.391044 0.255094 0.000000
0.520332 0.254332 0.000000
0.649619 0.253569 0.000000
0.778907 0.252807 0.000000
0.908194 0.252044 0.000000
1.000000 0.251342 0.000000
0.016250 0.384614 0.000000
0.130987 0.383912 0.000000
0.260274 0.383149 0.000000
0.389562 0.382387 0.000000
0.518849 0.381624 0.000000
0.648137 0.380862 0.000000
0.777424 0.380099 0.000000
0.906712 0.379337 0.000000
1.000000 0.378634 0.000000
0.016250 0.511907 0.000000
0.129505 0.511205 0.000000
0.258792 0.510442 0.000000
0.388080 0.509680 0.000000
0.517367 0.508917 0.000000
0.646655 0.508155 0.000000
0.775942 0.507392 0.000000
0.905230 0.506630 0.000000
1.000000 0.505927 0.000000
0.016250 0.639200 0.000000
0.128022 0.638497 0.000000
0.257310 0.637735 0.000000
0.386597 0.636972 0.000000
0.515885 0.636210 0.000000
0.645173 0.635448 0.000000
0.774460 0.634685 0.000000
0.903748 0.633923 0.000000
1.000000 0.633220 0.000000
0.016250 0.766493 0.000000
0.126540 0.765790 0.000000
0.255828 0.765028 0.000000
0.385115 0.764265 0.000000
0.514403 0.763503 0.000000
0.643690 0.762740 0.000000
0.772978 0.761978 0.000000
0.902266 0.761215 0.000000
1.000000 0.760513 0.000000
0.016250 0.893786 0.000000
0.125058 0.893083 0.000000
0.254346 0.892321 0.000000
0.383633 0.891558 0.000000
0.512921 0.890796 0.000000
0.642208 0.890033 0.000000
0.771496 0.889271 0.000000
0.900783 0.888508 0.000000
1.000000 0.887806 0.000000
0.016250 1.000000 0.000000
0.123635 1.000000 0.000000
0.252922 1.000000 0.000000
0.382210 1.000000 0.000000
0.511497 1.000000 0.000000
0.640785 1.000000 0.000000
0.770072 1.000000 0.000000
0.899360 1.000000 0.000000
1.000000 1.000000 0.000000
0.016250 0.007800 0.125098
0.135095 0.007800 0.124395
0.264383 0.007800 0.123633
0.393670 0.007800 0.122870
0.522958 0.007800 0.122108
0.652245 0.007800 0.121345
0.781533 0.007800 0.120583
0.910821 0.007800 0.119821
1.000000 0.007800 0.119118
0.016250 0.129749 0.123674
0.133672 0.129047 0.122972
0.262959 0.128284 0.122209
0.392247 0.127522 0.121447
0.521534 0.126759 0.120684
0.650822 0.125997 0.119922
0.780110 0.125235 0.119160
0.909397 0.124472 0.118397
1.000000 0.123769 0.117694
0.016250 0.257042 0.122192
0.132190 0.256340 0.121490
0.261477 0.255577 0.120727
0.390765 0.254815 0.119965
0.520052 0.254052 0.119202
0.649340 0.253290 0.118440
0.778627 0.252527 0.117677
0.907915 0.251765 0.116915
1.000000 0.251062 0.116212
0.016250 0.384335 0.120710
0.130707 0.383632 0.120007
0.259995 0.382870 0.119245
0.389283 0.382108 0.118483
0.518570 0.381345 0.117720
0.647858 0.380583 0.116958
0.777145 0.379820 0.116195
0.906433 0.379058 0.115433
1.000000 0.378355 0.114730
0.016250 0.511628 0.119228
0.129225 0.510925 0.118525
0.258513 0.510163 0.117763
0.387800 0.509400 0.117000
0.517088 0.508638 0.116238
0.646375 0.507875 0.115475
0.775663 0.507113 0.114713
0.904951 0.506351 0.113951
1.000000 0.505648 0.113248
0.016250 0.638921 0.117746
0.127743 0.638218 0.117043
0.257031 0.637456 0.116281
0.386318 0.636693 0.115518
0.515606 0.635931 0.114756
0.644893 0.635168 0.113993
0.774181 0.634406 0.113231
0.903468 0.633643 0.112468
1.000000 0.632941 0.111766
0.016250 0.766214 0.116264
0.126261 0.765511 0.115561
0.255548 0.764748 0.114798
0.384836 0.763986 0.114036
0.514124 0.763224 0.113274
0.643411 0.762461 0.112511
0.772699 0.761699 0.111749
0.901986 0.760936 0.110986
1.000000 0.760234 0.110284
0.016250 0.893506 0.114781
0.124779 0.892804 0.114079
0.254066 0.892041 0.113316
0.383354 0.891279 0.112554
0.512641 0.890516 0.111791
0.641929 0.889754 0.111029
0.771216 0.888991 0.110266
0.900504 0.888229 0.109504
1.000000 0.887526 0.108801
0.016250 1.000000 0.113358
0.123355 1.000000 0.112655
0.252643 1.000000 0.111893
0.381930 1.000000 0.111130
0.511218 1.000000 0.110368
0.640505 1.000000 0.109605
0.769793 1.000000 0.108843
0.899081 1.000000 0.108081
1.000000 1.000000 0.107378
0.016250 0.007800 0.249769
0.134816 0.007800 0.249066
0.264103 0.007800 0.248304
0.393391 0.007800 0.247541
0.522679 0.007800 0.246779
0.651966 0.007800 0.246016
0.781254 0.007800 0.245254
0.910541 0.007800 0.244491
1.000000 0.007800 0.243789
0.016250 0.129470 0.248345
0.133392 0.128767 0.247642
0.262680 0.128005 0.246880
0.391968 0.127243 0.246118
0.521255 0.126480 0.245355
0.650543 0.125718 0.244593
0.779830 0.124955 0.243830
0.909118 0.124193 0.243068
1.000000 0.123490 0.242365
0.016250 0.256763 0.246863
0.131910 0.256060 0.246160
0.261198 0.255298 0.245398
0.390485 0.254535 0.244635
0.519773 0.253773 0.243873
0.649060 0.253010 0.243110
0.778348 0.252248 0.242348
0.907636 0.251486 0.241586
1.000000 0.250783 0.240883
0.016250 0.384056 0.245381
0.130428 0.383353 0.244678
0.259716 0.382591 0.243916
0.389003 0.381828 0.243153
0.518291 0.381066 0.242391
0.647578 0.380303 0.241628
0.776866 0.379541 0.240866
0.906153 0.378778 0.240103
1.000000 0.378076 0.239401
0.016250 0.511349 0.243899
0.128946 0.510646 0.243196
0.258234 0.509884 0.242433
0.387521 0.509121 0.241671
0.516809 0.508359 0.240909
0.646096 0.507596 0.240146
0.775384 0.506834 0.239384
0.904671 0.506071 0.238621
1.000000 0.505369 0.237919
0.016250 0.638641 0.242416
0.127464 0.637939 0.241714
0.256751 0.637176 0.240951
0.386039 0.636414 0.240189
0.515326 0.635651 0.239426
0.644614 0.634889 0.238664
0.773902 0.634127 0.237902
0.903189 0.633364 0.237139
1.000000 0.632661 0.236436
0.016250 0.765934 0.240934
0.125982 0.765232 0.240232
0.255269 0.764469 0.239469
0.384557 0.763707 0.238707
0.513844 0.762944 0.237944
0.643132 0.762182 0.237182
0.772419 0.761419 0.236419
0.901707 0.760657 0.235657
1.000000 0.759954 0.234954
0.016250 0.893227 0.239452
0.124499 0.892524 0.238749
0.253787 0.891762 0.237987
0.383075 0.891000 0.237225
0.512362 0.890237 0.236462
0.641650 0.889475 0.235700
0.770937 0.888712 0.234937
0.900225 0.887950 0.234175
1.000000 0.887247 0.233472
0.016250 1.000000 0.238029
0.123076 1.000000 0.237326
0.252363 1.000000 0.236564
0.381651 1.000000 0.235801
0.510939 1.000000 0.235039
0.640226 1.000000 0.234276
0.769514 1.000000 0.233514
0.898801 1.000000 0.232751
1.000000 1.000000 0.232049
0.016250 0.007800 0.374439
0.134537 0.007800 0.373737
0.263824 0.007800 0.372974
0.393112 0.007800 0.372212
0.522399 0.007800 0.371449
0.651687 0.007800 0.370687
0.780974 0.007800 0.369924
0.910262 0.007800 0.369162
1.000000 0.007800 0.368459
0.016250 0.129191 0.373016
0.133113 0.128488 0.372313
0.262401 0.127726 0.371551
0.391688 0.126963 0.370788
0.520976 0.126201 0.370026
0.650263 0.125438 0.369263
0.779551 0.124676 0.368501
0.908838 0.123913 0.367738
1.000000 0.123211 0.367036
0.016250 0.256484 0.371534
0.131631 0.255781 0.370831
0.260919 0.255019 0.370069
0.390206 0.254256 0.369306
0.519494 0.253494 0.368544
0.648781 0.252731 0.367781
0.778069 0.251969 0.367019
0.907356 0.251206 0.366256
1.000000 0.250504 0.365554
0.016250 0.383776 0.370051
0.130149 0.383074 0.369349
0.259436 0.382311 0.368586
0.388724 0.381549 0.367824
0.518011 0.380786 0.367061
0.647299 0.380024 0.366299
0.776587 0.379262 0.365537
0.905874 0.378499 0.364774
1.000000 0.377796 0.364071
0.016250 0.511069 0.368569
0.128667 0.510367 0.367867
0.257954 0.509604 0.367104
0.387242 0.508842 0.366342
0.516529 0.508079 0.365579
0.645817 0.507317 0.364817
0.775104 0.506554 0.364054
0.904392 0.505792 0.363292
1.000000 0.505089 0.362589
0.016250 0.638362 0.367087
0.127184 0.637659 0.366384
0.256472 0.636897 0.365622
0.385760 0.636135 0.364860
0.515047 0.635372 0.364097
0.644335 0.634610 0.363335
0.773622 0.633847 0.362572
0.902910 0.633085 0.361810
1.000000 0.632382 0.361107
0.016250 0.765655 0.365605
0.125702 0.764952 0.364902
0.254990 0.764190 0.364140
0.384277 0.763427 0.363377
0.513565 0.762665 0.362615
0.642852 0.761902 0.361853
0.772140 0.761140 0.361090
0.901428 0.760378 0.360328
1.000000 0.759675 0.359625
0.016250 0.892948 0.364123
0.124220 0.892245 0.363420
0.253508 0.891483 0.362658
0.382795 0.890720 0.361895
0.512083 0.889958 0.361133
0.641370 0.889195 0.360370
0.770658 0.888433 0.359608
0.899945 0.887670 0.358845
1.000000 0.886968 0.358143
0.016250 1.000000 0.362699
0.122797 1.000000 0.361997
0.252084 1.000000 0.361234
0.381372 1.000000 0.360472
0.510659 1.000000 0.359709
0.639947 1.000000 0.358947
0.769234 1.000000 0.358184
0.898522 1.000000 0.357422
1.000000 1.000000 0.356719
0.016250 0.007800 0.499110
0.134257 0.007800 0.498407
0.263545 0.007800 0.497645
0.392832 0.007800 0.496882
0.522120 0.007800 0.496120
0.651408 0.007800 0.495358
0.780695 0.007800 0.494595
0.909983 0.007800 0.493833
1.000000 0.007800 0.493130
0.016250 0.128912 0.497687
0.132834 0.128209 0.496984
0.262121 0.127446 0.496221
0.391409 0.126684 0.495459
0.520697 0.125922 0.494697
0.649984 0.125159 0.493934
0.779272 0.124397 0.493172
0.908559 0.123634 0.492409
1.000000 0.122932 0.491707
0.016250 0.256204 0.496204
0.131352 0.255502 0.495502
0.260639 0.254739 0.494739
0.389927 0.253977 0.493977
0.519214 0.253214 0.493214
0.648502 0.252452 0.492452
0.777789 0.251689 0.491689
0.907077 0.250927 0.490927
1.000000 0.250224 0.490224
0.016250 0.383497 0.494722
0.129870 0.382795 0.494020
0.259157 0.382032 0.493257
0.388445 0.381270 0.492495
0.517732 0.380507 0.491732
0.647020 0.379745 0.490970
0.776307 0.378982 0.490207
0.905595 0.378220 0.489445
1.000000 0.377517 0.488742
0.016250 0.510790 0.493240
0.128387 0.510087 0.492537
0.257675 0.509325 0.491775
0.386962 0.508562 0.491012
0.516250 0.507800 0.490250
0.645538 0.507038 0.489488
0.774825 0.506275 0.488725
0.904113 0.505513 0.487963
1.000000 0.504810 0.487260
0.016250 0.638083 0.491758
0.126905 0.637380 0.491055
0.256193 0.636618 0.490293
0.385480 0.635855 0.489530
0.514768 0.635093 0.488768
0.644055 0.634330 0.488005
0.773343 0.633568 0.487243
0.902630 0.632805 0.486480
1.000000 0.632103 0.485778
0.016250 0.765376 0.490276
0.125423 0.764673 0.489573
0.254711 0.763911 0.488811
0.383998 0.763148 0.488048
0.513286 0.762386 0.487286
0.642573 0.761623 0.486523
0.771861 0.760861 0.485761
0.901148 0.760098 0.484998
1.000000 0.759396 0.484296
0.016250 0.892668 0.488793
0.123941 0.891966 0.488091
0.253228 0.891203 0.487328
0.382516 0.890441 0.486566
0.511803 0.889678 0.485803
0.641091 0.888916 0.485041
0.770379 0.888154 0.484279
0.899666 0.887391 0.483516
1.000000 0.886688 0.482813
0.016250 1.000000 0.487370
0.122517 1.000000 0.486667
0.251805 1.000000 0.485905
0.381092 1.000000 0.485142
0.510380 1.000000 0.484380
0.639668 1.000000 0.483618
0.768955 1.000000 0.482855
0.898243 1.000000 0.482093
1.000000 1.000000 0.481390
0.016250 0.007800 0.623781
0.133978 0.007800 0.623078
0.263266 0.007800 0.622316
0.392553 0.007800 0.621553
0.521841 0.007800 0.620791
0.651128 0.007800 0.620028
0.780416 0.007800 0.619266
0.909703 0.007800 0.618503
1.000000 0.007800 0.617801
0.016250 0.128632 0.622357
0.132555 0.127930 0.621655
0.261842 0.127167 0.620892
0.391130 0.126405 0.620130
0.520417 0.125642 0.619367
0.649705 0.124880 0.618605
0.778992 0.124117 0.617842
0.908280 0.123355 0.617080
1.000000 0.122652 0.616377
0.016250 0.255925 0.620875
0.131072 0.255222 0.620172
0.260360 0.254460 0.619410
0.389647 0.253697 0.618648
0.518935 0.252935 0.617885
0.648223 0.252173 0.617123
0.777510 0.251410 0.616360
0.906798 0.250648 0.615598
1.000000 0.249945 0.614895
0.016250 0.383218 0.619393
0.129590 0.382515 0.618690
0.258878 0.381753 0.617928
0.388165 0.380990 0.617165
0.517453 0.380228 0.616403
0.646740 0.379465 0.615640
0.776028 0.378703 0.614878
0.905316 0.377941 0.614116
1.000000 0.377238 0.613413
0.016250 0.510511 0.617911
0.128108 0.509808 0.617208
0.257396 0.509046 0.616446
0.386683 0.508283 0.615683
0.515971 0.507521 0.614921
0.645258 0.506758 0.614158
0.774546 0.505996 0.613396
0.903833 0.505233 0.612633
1.000000 0.504531 0.611931
0.016250 0.637804 0.616429
0.126626 0.637101 0.615726
0.255913 0.636338 0.614963
0.385201 0.635576 0.614201
0.514489 0.634814 0.613439
0.643776 0.634051 0.612676
0.773064 0.633289 0.611914
0.902351 0.632526 0.611151
1.000000 0.631824 0.610449
0.016250 0.765096 0.614946
0.125144 0.764394 0.614244
0.254431 0.763631 0.613481
0.383719 0.762869 0.612719
0.513006 0.762106 0.611956
0.642294 0.761344 0.611194
0.771581 0.760581 0.610431
0.900869 0.759819 0.609669
1.000000 0.759116 0.608966
0.016250 0.892389 0.613464
0.123662 0.891687 0.612762
0.252949 0.890924 0.611999
0.382237 0.890162 0.611237
0.511524 0.889399 0.610474
0.640812 0.888637 0.609712
0.770099 0.887874 0.608949
0.899387 0.887112 0.608187
1.000000 0.886409 0.607484
0.016250 1.000000 0.612041
0.122238 1.000000 0.611338
0.251526 1.000000 0.610576
0.380813 1.000000 0.609813
0.510101 1.000000 0.609051
0.639388 1.000000 0.608288
0.768676 1.000000 0.607526
0.897963 1.000000 0.606763
1.000000 1.000000 0.606061
0.016250 0.007800 0.748451
0.133699 0.007800 0.747749
0.262986 0.007800 0.746986
0.392274 0.007800 0.746224
0.521561 0.007800 0.745461
0.650849 0.007800 0.744699
0.780137 0.007800 0.743936
0.909424 0.007800 0.743174
1.000000 0.007800 0.742471
0.016250 0.128353 0.747028
0.132275 0.127650 0.746325
0.261563 0.126888 0.745563
0.390850 0.126125 0.744800
0.520138 0.125363 0.744038
0.649425 0.124600 0.743275
0.778713 0.123838 0.742513
0.908001 0.123076 0.741751
1.000000 0.122373 0.741048
0.016250 0.255646 0.745546
0.130793 0.254943 0.744843
0.260081 0.254181 0.744081
0.389368 0.253418 0.743318
0.518656 0.252656 0.742556
0.647943 0.251893 0.741793
0.777231 0.251131 0.741031
0.906518 0.250368 0.740268
1.000000 0.249666 0.739566
0.016250 0.382939 0.744064
0.129311 0.382236 0.743361
0.258598 0.381473 0.742598
0.387886 0.380711 0.741836
0.517174 0.379949 0.741074
0.646461 0.379186 0.740311
0.775749 0.378424 0.739549
0.905036 0.377661 0.738786
1.000000 0.376959 0.738084
0.016250 0.510231 0.742581
0.127829 0.509529 0.741879
0.257116 0.508766 0.741116
0.386404 0.508004 0.740354
0.515691 0.507241 0.739591
0.644979 0.506479 0.738829
0.774266 0.505717 0.738066
0.903554 0.504954 0.737304
1.000000 0.504251 0.736601
0.016250 0.637524 0.741099
0.126347 0.636822 0.740397
0.255634 0.636059 0.739634
0.384922 0.635297 0.738872
0.514209 0.634534 0.738109
0.643497 0.633772 0.737347
0.772784 0.633009 0.736584
0.902072 0.632247 0.735822
1.000000 0.631544 0.735119
0.016250 0.764817 0.739617
0.124864 0.764114 0.738914
0.254152 0.763352 0.738152
0.383439 0.762590 0.737389
0.512727 0.761827 0.736627
0.642015 0.761065 0.735865
0.771302 0.760302 0.735102
0.900590 0.759540 0.734340
1.000000 0.758837 0.733637
0.016250 0.892110 0.738135
0.123382 0.891407 0.737432
0.252670 0.890645 0.736670
0.381957 0.889882 0.735907
0.511245 0.889120 0.735145
0.640532 0.888357 0.734382
0.769820 0.887595 0.733620
0.899108 0.886833 0.732858
1.000000 0.886130 0.732155
0.016250 1.000000 0.736711
0.121959 1.000000 0.736009
0.251246 1.000000 0.735246
0.380534 1.000000 0.734484
0.509821 1.000000 0.733721
0.639109 1.000000 0.732959
0.768397 1.000000 0.732196
0.897684 1.000000 0.731434
1.000000 1.000000 0.730731
0.016250 0.007800 0.873122
0.133419 0.007800 0.872419
0.262707 0.007800 0.871657
0.391995 0.007800 0.870895
0.521282 0.007800 0.870132
0.650570 0.007800 0.869370
0.779857 0.007800 0.868607
0.909145 0.007800 0.867845
1.000000 0.007800 0.867142
0.016250 0.128074 0.871699
0.131996 0.127371 0.870996
0.261284 0.126609 0.870234
0.390571 0.125846 0.869471
0.519859 0.125084 0.868709
0.649146 0.124321 0.867946
0.778434 0.123559 0.867184
0.907721 0.122796 0.866421
1.000000 0.122094 0.865719
0.016250 0.255366 0.870216
0.130514 0.254664 0.869514
0.259801 0.253901 0.868751
0.389089 0.253139 0.867989
0.518376 0.252376 0.867226
0.647664 0.251614 0.866464
0.776952 0.250852 0.865702
0.906239 0.250089 0.864939
1.000000 0.249386 0.864236
0.016250 0.382659 0.868734
0.129032 0.381957 0.868032
0.258319 0.381194 0.867269
0.387607 0.380432 0.866507
0.516894 0.379669 0.865744
0.646182 0.378907 0.864982
0.775469 0.378144 0.864219
0.904757 0.377382 0.863457
1.000000 0.376679 0.862754
0.016250 0.509952 0.867252
0.127549 0.509249 0.866549
0.256837 0.508487 0.865787
0.386125 0.507725 0.865025
0.515412 0.506962 0.864262
0.644700 0.506200 0.863500
0.773987 0.505437 0.862737
0.903275 0.504675 0.861975
1.000000 0.503972 0.861272
0.016250 0.637245 0.865770
0.126067 0.636542 0.865067
0.255355 0.635780 0.864305
0.384642 0.635017 0.863542
0.513930 0.634255 0.862780
0.643217 0.633492 0.862017
0.772505 0.632730 0.861255
0.901793 0.631968 0.860493
1.000000 0.631265 0.859790
0.016250 0.764538 0.864288
0.124585 0.763835 0.863585
0.253873 0.763073 0.862823
0.383160 0.762310 0.862060
0.512448 0.761548 0.861298
0.641735 0.760785 0.860535
0.771023 0.760023 0.859773
0.900310 0.759260 0.859010
1.000000 0.758558 0.858308
0.016250 0.891831 0.862806
0.123103 0.891128 0.862103
0.252390 0.890365 0.861340
0.381678 0.889603 0.860578
0.510966 0.888841 0.859816
0.640253 0.888078 0.859053
0.769541 0.887316 0.858291
0.898828 0.886553 0.857528
1.000000 0.885851 0.856826
0.016250 1.000000 0.861382
0.121679 1.000000 0.860679
0.250967 1.000000 0.859917
0.380255 1.000000 0.859155
0.509542 1.000000 0.858392
0.638830 1.000000 0.857630
0.768117 1.000000 0.856867
0.897405 1.000000 0.856105
1.000000 1.000000 0.855402
0.016250 0.007800 0.990250
0.133140 0.007800 0.990250
0.262428 0.007800 0.990250
0.391715 0.007800 0.990250
0.521003 0.007800 0.990250
0.650290 0.007800 0.990250
0.779578 0.007800 0.990250
0.908865 0.007800 0.990250
1.000000 0.007800 0.990250
0.016250 0.127794 0.990250
0.131717 0.127092 0.990250
0.261004 0.126329 0.990250
0.390292 0.125567 0.990250
0.519579 0.124804 0.990250
0.648867 0.124042 0.990250
0.778154 0.123279 0.990250
0.907442 0.122517 0.990250
1.000000 0.121814 0.990250
0.016250 0.255087 0.990250
0.130234 0.254384 0.990250
0.259522 0.253622 0.990250
0.388810 0.252860 0.990250
0.518097 0.252097 0.990250
0.647385 0.251335 0.990250
0.776672 0.250572 0.990250
0.905960 0.249810 0.989610
1.000000 0.249107 0.988907
0.016250 0.382380 0.990250
0.128752 0.381677 0.990250
0.258040 0.380915 0.990250
0.387327 0.380152 0.990250
0.516615 0.379390 0.990250
0.645903 0.378628 0.989653
0.775190 0.377865 0.988890
0.904478 0.377103 0.988128
1.000000 0.376400 0.987425
0.016250 0.509673 0.990250
0.127270 0.508970 0.990250
0.256558 0.508208 0.990250
0.385845 0.507445 0.989695
0.515133 0.506683 0.988933
0.644420 0.505920 0.988170
0.773708 0.505158 0.987408
0.902995 0.504395 0.986645
1.000000 0.503693 0.985943
0.016250 0.636966 0.990250
0.125788 0.636263 0.989738
0.255076 0.635501 0.988976
0.384363 0.634738 0.988213
0.513651 0.633976 0.987451
0.642938 0.633213 0.986688
0.772226 0.632451 0.985926
0.901513 0.631688 0.985163
1.000000 0.630986 0.984461
0.016250 0.764258 0.988958
0.124306 0.763556 0.988256
0.253593 0.762793 0.987493
0.382881 0.762031 0.986731
0.512168 0.761268 0.985968
0.641456 0.760506 0.985206
0.770744 0.759744 0.984444
0.900031 0.758981 0.983681
1.000000 0.758278 0.982978
0.016250 0.891551 0.987476
0.122824 0.890849 0.986774
0.252111 0.890086 0.986011
0.381399 0.889324 0.985249
0.510686 0.888561 0.984486
0.639974 0.887799 0.983724
0.769261 0.887036 0.982961
0.898549 0.886274 0.982199
1.000000 0.885571 0.981496
0.016250 1.000000 0.986053
0.121400 1.000000 0.985350
0.250688 1.000000 0.984588
0.379975 1.000000 0.983825
0.509263 1.000000 0.983063
0.638550 1.000000 0.982300
0.767838 1.000000 0.981538
0.897125 1.000000 0.980775
1.000000 1.000000 0.980073
