docs/luts/fresh-cinematic-forest.cube
TITLE "FreshLUTs??-????"
LUT_3D_SIZE 33
DOMAIN_MIN 0.0 0.0 0.0
DOMAIN_MAX 1.0 1.0 1.0
0.000000 0.074250 0.000000
0.000000 0.073189 0.000000
0.000000 0.072308 0.000000
0.031948 0.071427 0.000000
0.065912 0.070546 0.000000
0.099851 0.069665 0.000000
0.133768 0.068784 0.000000
0.167662 0.067903 0.000000
0.201533 0.067022 0.000000
0.235380 0.066141 0.000000
0.269205 0.065259 0.000000
0.303006 0.064378 0.000000
0.336784 0.063497 0.000000
0.370540 0.062616 0.000000
0.404272 0.061735 0.000000
0.437981 0.060854 0.000000
0.471667 0.059973 0.000000
0.505329 0.059092 0.000000
0.538969 0.058211 0.000000
0.572586 0.057329 0.000000
0.606179 0.056448 0.000000
0.639749 0.055567 0.000000
0.673297 0.054686 0.000000
0.706821 0.053805 0.000000
0.740322 0.052924 0.000000
0.773800 0.052043 0.000000
0.807255 0.051162 0.000000
0.840686 0.050280 0.000000
0.874095 0.049399 0.000000
0.907481 0.048518 0.000000
0.940843 0.047637 0.000000
0.974182 0.046756 0.000000
0.977919 0.045695 0.000000
0.000000 0.072131 0.000000
0.000000 0.071071 0.000000
0.000543 0.070190 0.000000
0.034484 0.069309 0.000000
0.068401 0.068427 0.000000
0.102296 0.067546 0.000000
0.136168 0.066665 0.000000
0.170016 0.065784 0.000000
0.203841 0.064903 0.000000
0.237643 0.064022 0.000000
0.271423 0.063141 0.000000
0.305179 0.062260 0.000000
0.338912 0.061379 0.000000
0.372621 0.060497 0.000000
0.406308 0.059616 0.000000
0.439972 0.058735 0.000000
0.473612 0.057854 0.000000
0.507230 0.056973 0.000000
0.540824 0.056092 0.000000
0.574395 0.055211 0.000000
0.607943 0.054330 0.000000
0.641468 0.053448 0.000000
0.674970 0.052567 0.000000
0.708449 0.051686 0.000000
0.741905 0.050805 0.000000
0.775337 0.049924 0.000000
0.808747 0.049043 0.000000
0.842133 0.048162 0.000000
0.875496 0.047281 0.000000
0.908837 0.046400 0.000000
0.942154 0.045518 0.000000
0.975448 0.044637 0.000000
0.979139 0.043577 0.000000
0.000000 0.079930 0.000000
0.000000 0.078869 0.000000
0.003152 0.077988 0.000000
0.037047 0.077107 0.000000
0.070920 0.076226 0.000000
0.104769 0.075345 0.000000
0.138595 0.074464 0.000000
0.172398 0.073583 0.000000
0.206178 0.072702 0.000000
0.239935 0.071821 0.000000
0.273669 0.070939 0.000000
0.307379 0.070058 0.000000
0.341067 0.069177 0.000000
0.374731 0.068296 0.000000
0.408373 0.067415 0.000000
0.441991 0.066534 0.000000
0.475586 0.065653 0.000000
0.509158 0.064772 0.000000
0.542707 0.063891 0.000000
0.576233 0.063009 0.000000
0.609736 0.062128 0.000000
0.643215 0.061247 0.000000
0.676672 0.060366 0.000000
0.710105 0.059485 0.000000
0.743516 0.058604 0.000000
0.776903 0.057723 0.000000
0.810267 0.056842 0.000000
0.843608 0.055960 0.000000
0.876926 0.055079 0.000000
0.910221 0.054198 0.000000
0.943493 0.053317 0.000000
0.976741 0.052436 0.000000
0.980388 0.051375 0.000000
0.000000 0.112522 0.000000
0.000000 0.111462 0.000000
0.005965 0.110581 0.000000
0.039815 0.109699 0.000000
0.073642 0.108818 0.000000
0.107446 0.107937 0.000000
0.141227 0.107056 0.000000
0.174985 0.106175 0.000000
0.208719 0.105294 0.000000
0.242431 0.104413 0.000000
0.276119 0.103532 0.000000
0.309785 0.102651 0.000000
0.343427 0.101769 0.000000
0.377046 0.100888 0.000000
0.410642 0.100007 0.000000
0.444215 0.099126 0.000000
0.477765 0.098245 0.000000
0.511291 0.097364 0.000000
0.544795 0.096483 0.000000
0.578275 0.095602 0.000000
0.611733 0.094720 0.000000
0.645167 0.093839 0.000000
0.678578 0.092958 0.000000
0.711966 0.092077 0.000000
0.745331 0.091196 0.000000
0.778673 0.090315 0.000000
0.811992 0.089434 0.000000
0.845288 0.088553 0.000000
0.878560 0.087672 0.000000
0.911810 0.086790 0.000000
0.945036 0.085909 0.000000
0.978240 0.085028 0.000000
0.981840 0.083968 0.000000
0.000000 0.145114 0.000000
0.000000 0.144054 0.000000
0.008690 0.143173 0.000000
0.042494 0.142292 0.000000
0.076276 0.141411 0.000000
0.110035 0.140529 0.000000
0.143770 0.139648 0.000000
0.177482 0.138767 0.000000
0.211172 0.137886 0.000000
0.244838 0.137005 0.000000
0.278481 0.136124 0.000000
0.312101 0.135243 0.000000
0.345698 0.134362 0.000000
0.379271 0.133480 0.000000
0.412822 0.132599 0.000000
0.446350 0.131718 0.000000
0.479854 0.130837 0.000000
0.513335 0.129956 0.000000
0.546794 0.129075 0.000000
0.580229 0.128194 0.000000
0.613641 0.127313 0.000000
0.647030 0.126432 0.000000
0.680396 0.125550 0.000000
0.713738 0.124669 0.000000
0.747058 0.123788 0.000000
0.780355 0.122907 0.000000
0.813628 0.122026 0.000000
0.846878 0.121145 0.000000
0.880106 0.120264 0.000000
0.913310 0.119383 0.000000
0.946491 0.118502 0.000000
0.979649 0.117620 0.000000
0.983204 0.116560 0.000000
0.000000 0.177707 0.000000
0.000000 0.176646 0.000000
0.011325 0.175765 0.000000
0.045084 0.174884 0.000000
0.078821 0.174003 0.000000
0.112534 0.173122 0.000000
0.146224 0.172240 0.000000
0.179891 0.171359 0.000000
0.213535 0.170478 0.000000
0.247156 0.169597 0.000000
0.280753 0.168716 0.000000
0.314328 0.167835 0.000000
0.347879 0.166954 0.000000
0.381408 0.166073 0.000000
0.414913 0.165192 0.000000
0.448395 0.164310 0.000000
0.481854 0.163429 0.000000
0.515290 0.162548 0.000000
0.548703 0.161667 0.000000
0.582093 0.160786 0.000000
0.615460 0.159905 0.000000
0.648803 0.159024 0.000000
0.682124 0.158143 0.000000
0.715421 0.157262 0.000000
0.748696 0.156380 0.000000
0.781947 0.155499 0.000000
0.815175 0.154618 0.000000
0.848380 0.153737 0.000000
0.881562 0.152856 0.000000
0.914721 0.151975 0.000000
0.947856 0.151094 0.000000
0.980969 0.150213 0.000000
0.984479 0.149152 0.000000
0.000000 0.210299 0.000000
0.000000 0.209238 0.000000
0.013871 0.208357 0.000000
0.047585 0.207476 0.000000
0.081276 0.206595 0.000000
0.114944 0.205714 0.000000
0.148589 0.204833 0.000000
0.182210 0.203952 0.000000
0.215809 0.203070 0.000000
0.249384 0.202189 0.000000
0.282937 0.201308 0.000000
0.316466 0.200427 0.000000
0.349972 0.199546 0.000000
0.383455 0.198665 0.000000
0.416915 0.197784 0.000000
0.450352 0.196903 0.000000
0.483766 0.196022 0.000000
0.517156 0.195140 0.000000
0.550524 0.194259 0.000000
0.583868 0.193378 0.000000
0.617190 0.192497 0.000000
0.650488 0.191616 0.000000
0.683763 0.190735 0.000000
0.717015 0.189854 0.000000
0.750244 0.188973 0.000000
0.783450 0.188091 0.000000
0.816633 0.187210 0.000000
0.849792 0.186329 0.000000
0.882929 0.185448 0.000000
0.916042 0.184567 0.000000
0.949133 0.183686 0.000000
0.982200 0.182805 0.000000
0.985665 0.181744 0.000000
0.000000 0.242891 0.000000
0.000000 0.241830 0.000000
0.016328 0.240949 0.000000
0.049997 0.240068 0.000000
0.083643 0.239187 0.000000
0.117265 0.238306 0.000000
0.150865 0.237425 0.000000
0.184441 0.236544 0.000000
0.217994 0.235663 0.000000
0.251524 0.234782 0.000000
0.285031 0.233900 0.000000
0.318515 0.233019 0.000000
0.351976 0.232138 0.000000
0.385414 0.231257 0.000000
0.418828 0.230376 0.000000
0.452220 0.229495 0.000000
0.485588 0.228614 0.000000
0.518933 0.227733 0.000000
0.552256 0.226851 0.000000
0.585555 0.225970 0.000000
0.618831 0.225089 0.000000
0.652084 0.224208 0.000000
0.685313 0.223327 0.000000
0.718520 0.222446 0.000000
0.751704 0.221565 0.000000
0.784864 0.220684 0.000000
0.818002 0.219803 0.000000
0.851116 0.218921 0.000000
0.884207 0.218040 0.000000
0.917275 0.217159 0.000000
0.950320 0.216278 0.000000
0.983342 0.215397 0.000000
0.986761 0.214336 0.000000
0.000000 0.275483 0.000000
0.000000 0.274423 0.000000
0.018697 0.273542 0.000000
0.052320 0.272660 0.000000
0.085920 0.271779 0.000000
0.119497 0.270898 0.000000
0.153051 0.270017 0.000000
0.186582 0.269136 0.000000
0.220090 0.268255 0.000000
0.253575 0.267374 0.000000
0.287037 0.266493 0.000000
0.320475 0.265612 0.000000
0.353891 0.264730 0.000000
0.387283 0.263849 0.000000
0.420652 0.262968 0.000000
0.453998 0.262087 0.000000
0.487321 0.261206 0.000000
0.520621 0.260325 0.000000
0.553898 0.259444 0.000000
0.587152 0.258563 0.000000
0.620383 0.257681 0.000000
0.653590 0.256800 0.000000
0.686775 0.255919 0.000000
0.719936 0.255038 0.000000
0.753074 0.254157 0.000000
0.786189 0.253276 0.000000
0.819281 0.252395 0.000000
0.852350 0.251514 0.000000
0.885396 0.250633 0.000000
0.918419 0.249751 0.000000
0.951418 0.248870 0.000000
0.984395 0.247989 0.000000
0.987769 0.246929 0.000000
0.000000 0.308075 0.000000
0.000000 0.307015 0.000000
0.020976 0.306134 0.000000
0.054554 0.305253 0.000000
0.088109 0.304372 0.000000
0.121641 0.303490 0.000000
0.155149 0.302609 0.000000
0.188635 0.301728 0.000000
0.222097 0.300847 0.000000
0.255537 0.299966 0.000000
0.288953 0.299085 0.000000
0.322346 0.298204 0.000000
0.355716 0.297323 0.000000
0.389063 0.296441 0.000000
0.422387 0.295560 0.000000
0.455688 0.294679 0.000000
0.488966 0.293798 0.000000
0.522220 0.292917 0.000000
0.555452 0.292036 0.000000
0.588660 0.291155 0.000000
0.621845 0.290274 0.000000
0.655008 0.289393 0.000000
0.688147 0.288511 0.000000
0.721263 0.287630 0.000000
0.754356 0.286749 0.000000
0.787425 0.285868 0.000000
0.820472 0.284987 0.000000
0.853496 0.284106 0.000000
0.886496 0.283225 0.000000
0.919473 0.282344 0.000000
0.952428 0.281463 0.000000
0.985359 0.280581 0.000000
0.988688 0.279521 0.000000
0.000000 0.340668 0.000000
0.000000 0.339607 0.000000
0.023166 0.338726 0.000000
0.056699 0.337845 0.000000
0.090208 0.336964 0.000000
0.123695 0.336083 0.000000
0.157158 0.335201 0.000000
0.190598 0.334320 0.000000
0.224015 0.333439 0.000000
0.257409 0.332558 0.000000
0.290780 0.331677 0.000000
0.324128 0.330796 0.000000
0.357453 0.329915 0.000000
0.390755 0.329034 0.000000
0.424033 0.328153 0.000000
0.457289 0.327271 0.000000
0.490521 0.326390 0.000000
0.523730 0.325509 0.000000
0.556916 0.324628 0.000000
0.590079 0.323747 0.000000
0.623219 0.322866 0.000000
0.656336 0.321985 0.000000
0.689430 0.321104 0.000000
0.722500 0.320223 0.000000
0.755548 0.319341 0.000000
0.788572 0.318460 0.000000
0.821574 0.317579 0.000000
0.854552 0.316698 0.000000
0.887507 0.315817 0.000000
0.920439 0.314936 0.000000
0.953348 0.314055 0.000000
0.986234 0.313174 0.000453
0.989385 0.312835 0.000635
0.000000 0.373260 0.000000
0.000000 0.372199 0.000000
0.025267 0.371318 0.000000
0.058754 0.370437 0.000000
0.092219 0.369556 0.000000
0.125660 0.368675 0.000000
0.159078 0.367794 0.000000
0.192473 0.366913 0.000000
0.225844 0.366031 0.000000
0.259193 0.365150 0.000000
0.292519 0.364269 0.000000
0.325821 0.363388 0.000000
0.359101 0.362507 0.000000
0.392357 0.361626 0.000000
0.425590 0.360745 0.000000
0.458800 0.359864 0.000000
0.491987 0.358983 0.000000
0.525151 0.358101 0.000000
0.558292 0.357220 0.000000
0.591409 0.356339 0.000000
0.624504 0.355458 0.000000
0.657575 0.354577 0.000000
0.690624 0.353696 0.000000
0.723649 0.352815 0.000000
0.756651 0.351934 0.000000
0.789630 0.351052 0.000000
0.822586 0.350171 0.000000
0.855519 0.349290 0.000000
0.888429 0.348409 0.000000
0.921316 0.347528 0.000450
0.954054 0.347329 0.000829
0.986714 0.347527 0.001027
0.989795 0.347545 0.001046
0.000000 0.405852 0.000000
0.000000 0.404791 0.000000
0.027279 0.403910 0.000000
0.060721 0.403029 0.000000
0.094140 0.402148 0.000000
0.127536 0.401267 0.000000
0.160908 0.400386 0.000000
0.194258 0.399505 0.000000
0.227584 0.398624 0.000000
0.260888 0.397743 0.000000
0.294168 0.396861 0.000000
0.327425 0.395980 0.000000
0.360659 0.395099 0.000000
0.393870 0.394218 0.000000
0.427058 0.393337 0.000000
0.460223 0.392456 0.000000
0.493364 0.391575 0.000000
0.526483 0.390694 0.000000
0.559578 0.389812 0.000000
0.592651 0.388931 0.000000
0.625700 0.388050 0.000000
0.658726 0.387169 0.000000
0.691729 0.386288 0.000000
0.724709 0.385407 0.000000
0.757666 0.384526 0.000000
0.790599 0.383645 0.000000
0.823510 0.382764 0.000000
0.856398 0.381882 0.000447
0.889143 0.381643 0.000843
0.921804 0.381842 0.001042
0.954465 0.382040 0.001240
0.987125 0.382238 0.001438
0.990206 0.382256 0.001456
0.000000 0.438444 0.000000
0.000000 0.437384 0.000000
0.029202 0.436503 0.000000
0.062599 0.435621 0.000000
0.095972 0.434740 0.000000
0.129323 0.433859 0.000000
0.162650 0.432978 0.000000
0.195954 0.432097 0.000000
0.229235 0.431216 0.000000
0.262493 0.430335 0.000000
0.295728 0.429454 0.000000
0.328940 0.428572 0.000000
0.362129 0.427691 0.000000
0.395294 0.426810 0.000000
0.428437 0.425929 0.000000
0.461556 0.425048 0.000000
0.494652 0.424167 0.000000
0.527725 0.423286 0.000000
0.560776 0.422405 0.000000
0.593803 0.421524 0.000000
0.626806 0.420642 0.000000
0.659787 0.419761 0.000000
0.692745 0.418880 0.000000
0.725679 0.417999 0.000000
0.758591 0.417118 0.000000
0.791479 0.416237 0.000443
0.824233 0.415958 0.000858
0.856894 0.416156 0.001056
0.889554 0.416354 0.001254
0.922215 0.416552 0.001452
0.954876 0.416751 0.001651
0.987536 0.416949 0.001849
0.990617 0.416967 0.001867
0.000000 0.471036 0.000000
0.000000 0.469976 0.000000
0.031036 0.469095 0.000000
0.064387 0.468214 0.000000
0.097716 0.467332 0.000000
0.131021 0.466451 0.000000
0.164303 0.465570 0.000000
0.197561 0.464689 0.000000
0.230797 0.463808 0.000000
0.264010 0.462927 0.000000
0.297199 0.462046 0.000000
0.330366 0.461165 0.000000
0.363509 0.460284 0.000000
0.396629 0.459402 0.000000
0.429726 0.458521 0.000000
0.462800 0.457640 0.000000
0.495851 0.456759 0.000000
0.528879 0.455878 0.000000
0.561884 0.454997 0.000000
0.594866 0.454116 0.000000
0.627824 0.453235 0.000000
0.660760 0.452354 0.000000
0.693672 0.451472 0.000000
0.726561 0.450591 0.000440
0.759323 0.450273 0.000873
0.791983 0.450471 0.001071
0.824644 0.450669 0.001269
0.857305 0.450867 0.001467
0.889965 0.451065 0.001665
0.922626 0.451263 0.001863
0.955286 0.451461 0.002061
0.987947 0.451660 0.002260
0.991028 0.451678 0.002278
0.000000 0.503629 0.000000
0.000000 0.502568 0.000000
0.032781 0.501687 0.000000
0.066087 0.500806 0.000000
0.099370 0.499925 0.000000
0.132629 0.499044 0.000000
0.165866 0.498162 0.000000
0.199080 0.497281 0.000000
0.232270 0.496400 0.000000
0.265437 0.495519 0.000000
0.298581 0.494638 0.000000
0.331703 0.493757 0.000000
0.364800 0.492876 0.000000
0.397875 0.491995 0.000000
0.430927 0.491114 0.000000
0.463956 0.490232 0.000000
0.496961 0.489351 0.000000
0.529944 0.488470 0.000000
0.562903 0.487589 0.000000
0.595840 0.486708 0.000000
0.628753 0.485827 0.000000
0.661643 0.484946 0.000437
0.694413 0.484588 0.000888
0.727073 0.484786 0.001086
0.759734 0.484984 0.001284
0.792394 0.485182 0.001482
0.825055 0.485380 0.001680
0.857716 0.485578 0.001878
0.890376 0.485776 0.002076
0.923037 0.485974 0.002274
0.955697 0.486172 0.002472
0.988358 0.486370 0.002670
0.991439 0.486389 0.002689
0.000000 0.536221 0.000000
0.001153 0.535160 0.000000
0.034437 0.534279 0.000000
0.067698 0.533398 0.000000
0.100935 0.532517 0.000000
0.134149 0.531636 0.000000
0.167341 0.530755 0.000000
0.200509 0.529874 0.000000
0.233654 0.528992 0.000000
0.266776 0.528111 0.000000
0.299875 0.527230 0.000000
0.332950 0.526349 0.000000
0.366003 0.525468 0.000000
0.399032 0.524587 0.000000
0.432039 0.523706 0.000000
0.465022 0.522825 0.000000
0.497982 0.521944 0.000000
0.530920 0.521062 0.000000
0.563834 0.520181 0.000000
0.596724 0.519300 0.000433
0.629502 0.518902 0.000902
0.662163 0.519100 0.001100
0.694824 0.519299 0.001299
0.727484 0.519497 0.001497
0.760145 0.519695 0.001695
0.792805 0.519893 0.001893
0.825466 0.520091 0.002091
0.858126 0.520289 0.002289
0.890787 0.520487 0.002487
0.923448 0.520685 0.002685
0.956108 0.520883 0.002883
0.988769 0.521081 0.003081
0.991850 0.521100 0.003100
0.000000 0.568813 0.000000
0.002766 0.567752 0.000000
0.036004 0.566871 0.000000
0.069219 0.565990 0.000000
0.102411 0.565109 0.000000
0.135580 0.564228 0.000000
0.168726 0.563347 0.000000
0.201849 0.562466 0.000000
0.234949 0.561585 0.000000
0.268025 0.560704 0.000000
0.301079 0.559822 0.000000
0.334109 0.558941 0.000000
0.367116 0.558060 0.000000
0.400100 0.557179 0.000000
0.433062 0.556298 0.000000
0.465999 0.555417 0.000000
0.498914 0.554536 0.000000
0.531806 0.553655 0.000430
0.564592 0.553217 0.000917
0.597253 0.553415 0.001115
0.629913 0.553613 0.001313
0.662574 0.553811 0.001511
0.695234 0.554009 0.001709
0.727895 0.554208 0.001908
0.760556 0.554406 0.002106
0.793216 0.554604 0.002304
0.825877 0.554802 0.002502
0.858537 0.555000 0.002700
0.891198 0.555198 0.002898
0.923859 0.555396 0.003096
0.956519 0.555594 0.003294
0.989180 0.555792 0.003492
0.992261 0.555811 0.003511
0.000652 0.601405 0.000000
0.004289 0.600345 0.000000
0.037482 0.599464 0.000000
0.070652 0.598582 0.000000
0.103798 0.597701 0.000000
0.136922 0.596820 0.000000
0.170023 0.595939 0.000000
0.203100 0.595058 0.000000
0.236154 0.594177 0.000000
0.269186 0.593296 0.000000
0.302194 0.592415 0.000000
0.335179 0.591533 0.000000
0.368141 0.590652 0.000000
0.401079 0.589771 0.000000
0.433995 0.588890 0.000000
0.466888 0.588009 0.000427
0.499682 0.587532 0.000932
0.532342 0.587730 0.001130
0.565003 0.587928 0.001328
0.597664 0.588126 0.001526
0.630324 0.588324 0.001724
0.662985 0.588522 0.001922
0.695645 0.588720 0.002120
0.728306 0.588918 0.002318
0.760966 0.589117 0.002516
0.793627 0.589315 0.002715
0.826288 0.589513 0.002913
0.858948 0.589711 0.003111
0.891609 0.589909 0.003309
0.924269 0.590107 0.003507
0.956930 0.590305 0.003705
0.989591 0.590503 0.003903
0.992672 0.590522 0.003922
0.002132 0.633997 0.000000
0.005723 0.632937 0.000000
0.038871 0.632056 0.000000
0.071995 0.631175 0.000000
0.105096 0.630293 0.000000
0.138175 0.629412 0.000000
0.171230 0.628531 0.000000
0.204262 0.627650 0.000000
0.237271 0.626769 0.000000
0.270257 0.625888 0.000000
0.303220 0.625007 0.000000
0.336159 0.624126 0.000000
0.369076 0.623245 0.000000
0.401969 0.622363 0.000423
0.434772 0.621847 0.000947
0.467432 0.622045 0.001145
0.500093 0.622243 0.001343
0.532753 0.622441 0.001541
0.565414 0.622639 0.001739
0.598074 0.622837 0.001937
0.630735 0.623035 0.002135
0.663396 0.623233 0.002333
0.696056 0.623431 0.002531
0.728717 0.623629 0.002729
0.761377 0.623827 0.002927
0.794038 0.624025 0.003125
0.826699 0.624224 0.003324
0.859359 0.624422 0.003522
0.892020 0.624620 0.003720
0.924680 0.624818 0.003918
0.957341 0.625016 0.004116
0.990002 0.625214 0.004314
0.993083 0.625233 0.004333
0.003522 0.666590 0.000000
0.007068 0.665529 0.000000
0.040170 0.664648 0.000000
0.073250 0.663767 0.000000
0.106306 0.662886 0.000000
0.139338 0.662005 0.000000
0.172348 0.661123 0.000000
0.205335 0.660242 0.000000
0.238299 0.659361 0.000000
0.271239 0.658480 0.000000
0.304157 0.657599 0.000000
0.337051 0.656718 0.000420
0.369861 0.656161 0.000961
0.402522 0.656359 0.001159
0.435182 0.656557 0.001357
0.467843 0.656756 0.001556
0.500504 0.656954 0.001754
0.533164 0.657152 0.001952
0.565825 0.657350 0.002150
0.598485 0.657548 0.002348
0.631146 0.657746 0.002546
0.663807 0.657944 0.002744
0.696467 0.658142 0.002942
0.729128 0.658340 0.003140
0.761788 0.658538 0.003338
0.794449 0.658736 0.003536
0.827109 0.658934 0.003734
0.859770 0.659133 0.003933
0.892431 0.659331 0.004131
0.925091 0.659529 0.004329
0.957752 0.659727 0.004527
0.990412 0.659925 0.004725
0.993494 0.659944 0.004744
0.004824 0.699182 0.000000
0.008324 0.698121 0.000000
0.041381 0.697240 0.000000
0.074415 0.696359 0.000000
0.107426 0.695478 0.000000
0.140413 0.694597 0.000000
0.173378 0.693716 0.000000
0.206319 0.692835 0.000000
0.239237 0.691953 0.000000
0.272132 0.691072 0.000417
0.304951 0.690476 0.000976
0.337612 0.690674 0.001174
0.370272 0.690872 0.001372
0.402933 0.691070 0.001570
0.435593 0.691268 0.001768
0.468254 0.691466 0.001966
0.500915 0.691665 0.002165
0.533575 0.691863 0.002363
0.566236 0.692061 0.002561
0.598896 0.692259 0.002759
0.631557 0.692457 0.002957
0.664217 0.692655 0.003155
0.696878 0.692853 0.003353
0.729539 0.693051 0.003551
0.762199 0.693249 0.003749
0.794860 0.693447 0.003947
0.827520 0.693645 0.004145
0.860181 0.693843 0.004343
0.892842 0.694042 0.004542
0.925502 0.694240 0.004740
0.958163 0.694438 0.004938
0.990823 0.694636 0.005136
0.993904 0.694655 0.005154
0.006036 0.731774 0.000000
0.009491 0.730713 0.000000
0.042503 0.729832 0.000000
0.075491 0.728951 0.000000
0.108457 0.728070 0.000000
0.141399 0.727189 0.000000
0.174318 0.726308 0.000000
0.207214 0.725427 0.000413
0.240041 0.724791 0.000991
0.272701 0.724989 0.001189
0.305362 0.725187 0.001387
0.338022 0.725385 0.001585
0.370683 0.725583 0.001783
0.403344 0.725781 0.001981
0.436004 0.725979 0.002179
0.468665 0.726177 0.002377
0.501325 0.726375 0.002575
0.533986 0.726573 0.002773
0.566647 0.726772 0.002972
0.599307 0.726970 0.003170
0.631968 0.727168 0.003368
0.664628 0.727366 0.003566
0.697289 0.727564 0.003764
0.729950 0.727762 0.003962
0.762610 0.727960 0.004160
0.795271 0.728158 0.004358
0.827931 0.728356 0.004556
0.860592 0.728554 0.004754
0.893252 0.728752 0.004952
0.925913 0.728951 0.005151
0.958574 0.729149 0.005349
0.991234 0.729347 0.005547
0.994315 0.729365 0.005565
0.007159 0.764366 0.000000
0.010569 0.763306 0.000000
0.043536 0.762424 0.000000
0.076479 0.761543 0.000000
0.109399 0.760662 0.000000
0.142295 0.759781 0.000410
0.175130 0.759105 0.001005
0.207791 0.759304 0.001204
0.240452 0.759502 0.001402
0.273112 0.759700 0.001600
0.305773 0.759898 0.001798
0.338433 0.760096 0.001996
0.371094 0.760294 0.002194
0.403755 0.760492 0.002392
0.436415 0.760690 0.002590
0.469076 0.760888 0.002788
0.501736 0.761086 0.002986
0.534397 0.761284 0.003184
0.567057 0.761482 0.003382
0.599718 0.761681 0.003581
0.632379 0.761879 0.003779
0.665039 0.762077 0.003977
0.697700 0.762275 0.004175
0.730360 0.762473 0.004373
0.763021 0.762671 0.004571
0.795682 0.762869 0.004769
0.828342 0.763067 0.004967
0.861003 0.763265 0.005165
0.893663 0.763463 0.005363
0.926324 0.763661 0.005561
0.958985 0.763860 0.005760
0.991645 0.764058 0.005958
0.994726 0.764076 0.005976
0.008194 0.796958 0.000000
0.011558 0.795898 0.000000
0.044479 0.795017 0.000000
0.077377 0.794136 0.000407
0.110220 0.793420 0.001020
0.142881 0.793618 0.001218
0.175541 0.793816 0.001416
0.208202 0.794014 0.001614
0.240862 0.794212 0.001813
0.273523 0.794411 0.002011
0.306184 0.794609 0.002209
0.338844 0.794807 0.002407
0.371505 0.795005 0.002605
0.404165 0.795203 0.002803
0.436826 0.795401 0.003001
0.469487 0.795599 0.003199
0.502147 0.795797 0.003397
0.534808 0.795995 0.003595
0.567468 0.796193 0.003793
0.600129 0.796391 0.003991
0.632790 0.796590 0.004190
0.665450 0.796788 0.004388
0.698111 0.796986 0.004586
0.730771 0.797184 0.004784
0.763432 0.797382 0.004982
0.796092 0.797580 0.005180
0.828753 0.797778 0.005378
0.861414 0.797976 0.005576
0.894074 0.798174 0.005774
0.926735 0.798372 0.005972
0.959395 0.798570 0.006170
0.992056 0.798769 0.006369
0.995137 0.798787 0.006387
0.009139 0.829551 0.000000
0.012458 0.828490 0.000404
0.045310 0.827735 0.001035
0.077970 0.827933 0.001233
0.110631 0.828131 0.001431
0.143292 0.828329 0.001629
0.175952 0.828527 0.001827
0.208613 0.828725 0.002025
0.241273 0.828923 0.002223
0.273934 0.829121 0.002421
0.306595 0.829320 0.002620
0.339255 0.829518 0.002818
0.371916 0.829716 0.003016
0.404576 0.829914 0.003214
0.437237 0.830112 0.003412
0.469898 0.830310 0.003610
0.502558 0.830508 0.003808
0.535219 0.830706 0.004006
0.567879 0.830904 0.004204
0.600540 0.831102 0.004402
0.633200 0.831300 0.004600
0.665861 0.831499 0.004799
0.698522 0.831697 0.004997
0.731182 0.831895 0.005195
0.763843 0.832093 0.005393
0.796503 0.832291 0.005591
0.829164 0.832489 0.005789
0.861825 0.832687 0.005987
0.894485 0.832885 0.006185
0.927146 0.833083 0.006383
0.959806 0.833281 0.006581
0.992467 0.833479 0.006779
0.995548 0.833498 0.006798
0.009979 0.862229 0.001229
0.013060 0.862248 0.001248
0.045721 0.862446 0.001446
0.078381 0.862644 0.001644
0.111042 0.862842 0.001842
0.143703 0.863040 0.002040
0.176363 0.863238 0.002238
0.209024 0.863436 0.002436
0.241684 0.863634 0.002634
0.274345 0.863832 0.002832
0.307005 0.864030 0.003030
0.339666 0.864229 0.003229
0.372327 0.864427 0.003427
0.404987 0.864625 0.003625
0.437648 0.864823 0.003823
0.470308 0.865021 0.004021
0.502969 0.865219 0.004219
0.535630 0.865417 0.004417
0.568290 0.865615 0.004615
0.600951 0.865813 0.004813
0.633611 0.866011 0.005011
0.666272 0.866209 0.005209
0.698933 0.866408 0.005408
0.731593 0.866606 0.005606
0.764254 0.866804 0.005804
0.796914 0.867002 0.006002
0.829575 0.867200 0.006200
