docs/luts/fresh-green-orange-cinematic.cube
TITLE "FreshLUTs??-????"
LUT_3D_SIZE 5
DOMAIN_MIN 0.0 0.0 0.0
DOMAIN_MAX 1.0 1.0 1.0
0.000000 0.035000 0.000000
0.242898 0.029506 0.000000
0.528040 0.024012 0.000000
0.813182 0.018518 0.000000
1.000000 0.013024 0.000000
0.000000 0.248900 0.000000
0.232685 0.237904 0.000000
0.517826 0.225952 0.000000
0.802968 0.213999 0.000000
1.000000 0.203004 0.000000
0.000000 0.529948 0.000000
0.219418 0.518952 0.000000
0.506741 0.507000 0.000000
0.798971 0.498102 0.000000
1.000000 0.492600 0.000000
0.001920 0.810995 0.000000
0.215161 0.802852 0.000000
0.507391 0.796394 0.000000
0.799621 0.789935 0.000000
1.000000 0.784434 0.000000
0.015836 1.000000 0.000000
0.218863 1.000000 0.000000
0.511093 1.000000 0.000000
0.803323 1.000000 0.000000
1.000000 1.000000 0.000000
0.000000 0.032905 0.258548
0.240687 0.027411 0.250057
0.525828 0.021917 0.240608
0.810970 0.016423 0.231160
1.000000 0.010929 0.222668
0.000000 0.244594 0.242465
0.230473 0.233598 0.233973
0.515615 0.221645 0.224525
0.800756 0.209693 0.215076
1.000000 0.198697 0.206585
0.000000 0.525641 0.223328
0.217207 0.514646 0.214837
0.507232 0.502693 0.205388
0.799462 0.495890 0.195940
1.000000 0.490388 0.187448
0.004623 0.806689 0.204192
0.215652 0.800641 0.195701
0.507882 0.794182 0.186252
0.800112 0.787724 0.176804
1.000000 0.782222 0.168312
0.018539 1.000000 0.188108
0.219354 1.000000 0.179617
0.511584 1.000000 0.170168
0.803814 1.000000 0.160720
1.000000 1.000000 0.152228
0.000000 0.030811 0.533160
0.238338 0.025316 0.524668
0.523480 0.019822 0.515220
0.808622 0.014328 0.505772
1.000000 0.008834 0.497280
0.000000 0.240151 0.517076
0.228125 0.229155 0.508585
0.513266 0.217202 0.499136
0.799166 0.205250 0.489688
1.000000 0.196206 0.481196
0.000000 0.521198 0.497940
0.215356 0.510203 0.489448
0.507586 0.500000 0.480000
0.799816 0.493542 0.470552
1.000000 0.488040 0.462060
0.007325 0.803794 0.478804
0.216006 0.798292 0.470312
0.508236 0.791834 0.460864
0.800466 0.785375 0.451415
1.000000 0.779874 0.442924
0.021241 1.000000 0.462720
0.219708 1.000000 0.454228
0.511938 1.000000 0.444780
0.804168 1.000000 0.435332
1.000000 1.000000 0.426840
0.000000 0.028716 0.807772
0.235990 0.023222 0.799280
0.521132 0.017728 0.789832
0.806273 0.012233 0.780383
1.000000 0.006739 0.771892
0.000000 0.235707 0.791688
0.225776 0.224712 0.783196
0.510918 0.212759 0.773748
0.799521 0.200807 0.764299
1.000000 0.193858 0.755808
0.000000 0.516755 0.772552
0.215710 0.505759 0.764060
0.507940 0.497652 0.754612
0.800170 0.491193 0.745163
1.000000 0.485692 0.736672
0.010028 0.801445 0.753415
0.216360 0.795944 0.744924
0.508590 0.789485 0.735475
0.800820 0.783027 0.726027
1.000000 0.777525 0.717535
0.023944 1.000000 0.737332
0.220062 1.000000 0.728840
0.512292 1.000000 0.719392
0.804522 1.000000 0.709943
1.000000 1.000000 0.701452
0.000000 0.026621 0.995440
0.233778 0.021127 0.992450
0.518920 0.015633 0.989460
0.804062 0.010139 0.986470
1.000000 0.004645 0.983480
0.000000 0.231401 0.989570
0.223565 0.220405 0.986580
0.508706 0.208453 0.983590
0.800012 0.197148 0.980600
1.000000 0.191646 0.977610
0.000000 0.512449 0.983700
0.216201 0.501898 0.980710
0.508431 0.495440 0.977720
0.800661 0.488982 0.974730
1.000000 0.483480 0.971740
0.012731 0.799234 0.977830
0.216851 0.793732 0.974840
0.509081 0.787274 0.971850
0.801311 0.780815 0.968860
1.000000 0.775314 0.965870
0.026647 1.000000 0.971960
0.220553 1.000000 0.968970
0.512783 1.000000 0.965980
0.805013 1.000000 0.962990
1.000000 1.000000 0.960000
