docs/luts/fresh-teal-orange-flog.cube
TITLE "FreshLUTs??-FLog??"
LUT_3D_SIZE 9
DOMAIN_MIN 0.0 0.0 0.0
DOMAIN_MAX 1.0 1.0 1.0
0.000000 0.021998 0.065000
0.109072 0.019759 0.059898
0.242259 0.017284 0.054797
0.375446 0.014809 0.049695
0.508633 0.012334 0.044593
0.641820 0.009859 0.039492
0.775006 0.007384 0.034390
0.908193 0.005407 0.029288
0.993302 0.004465 0.024186
0.000000 0.138395 0.054984
0.109114 0.136156 0.049883
0.242301 0.133681 0.044781
0.375488 0.131207 0.039679
0.508675 0.128732 0.034578
0.641862 0.126257 0.029476
0.775049 0.123782 0.024374
0.908236 0.121307 0.019273
0.996076 0.119068 0.014171
0.000000 0.264857 0.044969
0.108924 0.262618 0.039867
0.242111 0.260143 0.034765
0.375298 0.257668 0.029664
0.508485 0.255193 0.024562
0.641672 0.252718 0.019460
0.774859 0.250243 0.014358
0.908045 0.247768 0.009257
1.000000 0.245529 0.002823
0.000000 0.391318 0.034953
0.108734 0.389079 0.029851
0.241921 0.386604 0.024750
0.375108 0.384129 0.019648
0.508294 0.381654 0.014546
0.641481 0.379179 0.009444
0.777190 0.376704 0.003082
0.914033 0.374370 0.000000
1.000000 0.373072 0.000000
0.000000 0.517779 0.024937
0.108543 0.515540 0.019836
0.241730 0.513065 0.014734
0.374917 0.510590 0.009632
0.510484 0.508115 0.003341
0.647379 0.505746 0.000000
0.783019 0.504213 0.000000
0.918660 0.502680 0.000000
1.000000 0.501383 0.000000
0.000000 0.644240 0.014922
0.108353 0.642001 0.009820
0.243777 0.639526 0.003600
0.380724 0.637122 0.000000
0.516365 0.635589 0.000000
0.652005 0.634056 0.000000
0.787646 0.632523 0.000000
0.923287 0.630990 0.000000
1.000000 0.629693 0.000000
0.000736 0.770701 0.003858
0.114070 0.768498 0.000000
0.249711 0.766965 0.000000
0.385351 0.765432 0.000000
0.520992 0.763899 0.000000
0.656632 0.762366 0.000000
0.792273 0.760833 0.000000
0.927913 0.759300 0.000000
1.000000 0.758003 0.000000
0.009685 0.898106 0.000000
0.118697 0.896809 0.000000
0.254337 0.895276 0.000000
0.389978 0.893743 0.000000
0.525618 0.892210 0.000000
0.661259 0.890677 0.000000
0.796900 0.889144 0.000000
0.932540 0.887610 0.000000
1.000000 0.886313 0.000000
0.017276 1.000000 0.000000
0.123556 1.000000 0.000000
0.259197 1.000000 0.000000
0.394837 1.000000 0.000000
0.530478 1.000000 0.000000
0.666118 1.000000 0.000000
0.801759 1.000000 0.000000
0.937399 1.000000 0.000000
1.000000 1.000000 0.000000
0.000000 0.021171 0.168785
0.109143 0.018932 0.162386
0.242330 0.016457 0.155752
0.375517 0.013982 0.149117
0.508704 0.011508 0.142482
0.641891 0.009033 0.135847
0.775078 0.006558 0.129213
0.908265 0.005048 0.122578
0.993841 0.004106 0.116179
0.000000 0.137569 0.156038
0.109185 0.135330 0.149639
0.242372 0.132855 0.143005
0.375559 0.130380 0.136370
0.508746 0.127905 0.129735
0.641933 0.125430 0.123100
0.775120 0.122955 0.116466
0.908307 0.120481 0.109831
0.996614 0.118242 0.103432
0.000000 0.264030 0.143059
0.108995 0.261791 0.136660
0.242182 0.259316 0.130025
0.375369 0.256841 0.123390
0.508556 0.254366 0.116756
0.641743 0.251892 0.110121
0.774930 0.249417 0.103486
0.908388 0.246942 0.096716
1.000000 0.244703 0.088384
0.000000 0.390491 0.130079
0.108805 0.388252 0.123680
0.241992 0.385777 0.117046
0.375179 0.383302 0.110411
0.508366 0.380828 0.103776
0.641682 0.378353 0.097077
0.778735 0.375878 0.088509
0.915040 0.373902 0.082645
1.000000 0.372605 0.079415
0.000000 0.516952 0.117100
0.108615 0.514713 0.110701
0.241802 0.512239 0.104066
0.374989 0.509764 0.097432
0.512029 0.507289 0.088870
0.648385 0.505278 0.082819
0.784026 0.503745 0.079352
0.919667 0.502212 0.075886
1.000000 0.500915 0.072656
0.000000 0.643414 0.104120
0.108425 0.641175 0.097722
0.245323 0.638700 0.089231
0.381731 0.636655 0.082992
0.517372 0.635122 0.079526
0.653012 0.633589 0.076060
0.788653 0.632056 0.072593
0.924293 0.630523 0.069127
1.000000 0.629225 0.065897
0.002749 0.769875 0.089357
0.115077 0.768031 0.083165
0.250717 0.766498 0.079699
0.386358 0.764965 0.076233
0.521998 0.763432 0.072767
0.657639 0.761899 0.069300
0.793280 0.760366 0.065834
0.928920 0.758833 0.062368
1.000000 0.757536 0.059138
0.011159 0.897638 0.079637
0.119704 0.896341 0.076406
0.255344 0.894808 0.072940
0.390985 0.893275 0.069474
0.526625 0.891742 0.066008
0.662266 0.890209 0.062541
0.797906 0.888676 0.059075
0.933547 0.887143 0.055609
1.000000 0.885846 0.052379
0.018750 1.000000 0.073110
0.124563 1.000000 0.069880
0.260203 1.000000 0.066414
0.395844 1.000000 0.062947
0.531484 1.000000 0.059481
0.667125 1.000000 0.056015
0.802765 1.000000 0.052549
0.938406 1.000000 0.049082
1.000000 1.000000 0.045852
0.000000 0.020208 0.304036
0.109077 0.017969 0.297637
0.242264 0.015494 0.291002
0.375451 0.013019 0.284368
0.508638 0.010544 0.277733
0.641825 0.008069 0.271098
0.775012 0.005631 0.264463
0.908199 0.004689 0.257829
0.994379 0.003747 0.251430
0.000000 0.136606 0.291289
0.109120 0.134367 0.284890
0.242307 0.131892 0.278255
0.375494 0.129417 0.271621
0.508681 0.126942 0.264986
0.641867 0.124467 0.258351
0.775054 0.121992 0.251716
0.908241 0.119517 0.245082
0.997153 0.117278 0.238683
0.000000 0.263067 0.278309
0.108930 0.260828 0.271911
0.242116 0.258353 0.265276
0.375303 0.255878 0.258641
0.508490 0.253403 0.252006
0.641677 0.250928 0.245372
0.774864 0.248453 0.238737
0.909797 0.245978 0.231229
1.000000 0.243739 0.222897
0.000000 0.389528 0.265330
0.108739 0.387289 0.258931
0.241926 0.384814 0.252296
0.375113 0.382339 0.245662
0.508300 0.379864 0.239027
0.643091 0.377389 0.231591
0.780144 0.374915 0.223023
0.915910 0.373298 0.219104
1.000000 0.372001 0.215873
0.000000 0.515989 0.252351
0.108549 0.513750 0.245952
0.241736 0.511275 0.239317
0.376384 0.508800 0.231952
0.513438 0.506325 0.223384
0.649255 0.504674 0.219277
0.784896 0.503141 0.215811
0.920537 0.501608 0.212345
1.000000 0.500311 0.209114
0.000000 0.642450 0.239371
0.109678 0.640211 0.232313
0.246731 0.637736 0.223745
0.382601 0.636051 0.219451
0.518242 0.634518 0.215984
0.653882 0.632984 0.212518
0.789523 0.631451 0.209052
0.925163 0.629918 0.205586
1.000000 0.628621 0.202355
0.004762 0.768912 0.223870
0.115947 0.767427 0.219624
0.251587 0.765894 0.216158
0.387228 0.764361 0.212692
0.522868 0.762828 0.209225
0.658509 0.761295 0.205759
0.794149 0.759762 0.202293
0.929790 0.758229 0.198827
1.000000 0.756931 0.195596
0.012634 0.897034 0.216095
0.120573 0.895737 0.212865
0.256214 0.894204 0.209399
0.391855 0.892671 0.205933
0.527495 0.891138 0.202466
0.663136 0.889605 0.199000
0.798776 0.888072 0.195534
0.934417 0.886539 0.192068
1.000000 0.885242 0.188837
0.020224 1.000000 0.209569
0.125433 1.000000 0.206339
0.261073 1.000000 0.202872
0.396714 1.000000 0.199406
0.532354 1.000000 0.195940
0.667995 1.000000 0.192474
0.803635 1.000000 0.189007
0.939276 1.000000 0.185541
1.000000 1.000000 0.182311
0.000000 0.019245 0.439287
0.109012 0.017006 0.432888
0.242199 0.014531 0.426253
0.375386 0.012056 0.419618
0.508573 0.009581 0.412984
0.641760 0.007106 0.406349
0.774947 0.005272 0.399714
0.908134 0.004330 0.393079
0.994918 0.003388 0.386681
0.000000 0.135642 0.426540
0.109054 0.133403 0.420141
0.242241 0.130928 0.413506
0.375428 0.128454 0.406871
0.508615 0.125979 0.400237
0.641802 0.123504 0.393602
0.774989 0.121029 0.386967
0.908176 0.118554 0.380332
0.997692 0.116315 0.373934
0.000000 0.262103 0.413560
0.108864 0.259864 0.407161
0.242051 0.257390 0.400527
0.375238 0.254915 0.393892
0.508425 0.252440 0.387257
0.641612 0.249965 0.380622
0.774799 0.247490 0.373988
0.911205 0.245015 0.365743
1.000000 0.243086 0.359091
0.000000 0.388565 0.400581
0.108674 0.386326 0.394182
0.241861 0.383851 0.387547
0.375048 0.381376 0.380912
0.508235 0.378901 0.374278
0.644499 0.376426 0.366104
0.781139 0.374227 0.359029
0.916780 0.372694 0.355563
1.000000 0.371397 0.352332
0.000000 0.515026 0.387601
0.108484 0.512787 0.381202
0.241671 0.510312 0.374568
0.377793 0.507837 0.366465
0.514485 0.505603 0.359202
0.650125 0.504070 0.355736
0.785766 0.502537 0.352270
0.921406 0.501004 0.348804
1.000000 0.499707 0.345573
0.000000 0.641487 0.374622
0.111087 0.639248 0.366826
0.247830 0.636979 0.359376
0.383471 0.635446 0.355909
0.519112 0.633913 0.352443
0.654752 0.632380 0.348977
0.790393 0.630847 0.345511
0.926033 0.629314 0.342045
1.000000 0.628017 0.338814
0.006517 0.768120 0.359313
0.116817 0.766823 0.356083
0.252457 0.765290 0.352617
0.388098 0.763757 0.349150
0.523738 0.762224 0.345684
0.659379 0.760691 0.342218
0.795019 0.759157 0.338752
0.930660 0.757624 0.335286
1.000000 0.756327 0.332055
0.014108 0.896430 0.352554
0.121443 0.895133 0.349324
0.257084 0.893600 0.345858
0.392725 0.892067 0.342391
0.528365 0.890534 0.338925
0.664006 0.889001 0.335459
0.799646 0.887468 0.331993
0.935287 0.885935 0.328526
1.000000 0.884638 0.325296
0.021698 1.000000 0.346028
0.126303 1.000000 0.342797
0.261943 1.000000 0.339331
0.397584 1.000000 0.335865
0.533224 1.000000 0.332399
0.668865 1.000000 0.328932
0.804505 1.000000 0.325466
0.940146 1.000000 0.322000
1.000000 1.000000 0.318770
0.000000 0.018281 0.574537
0.108946 0.016042 0.568138
0.242133 0.013567 0.561504
0.375320 0.011093 0.554869
0.508507 0.008618 0.548234
0.641694 0.006143 0.541600
0.774881 0.004912 0.534965
0.908068 0.003971 0.528330
0.995457 0.003029 0.521931
0.000000 0.134679 0.561790
0.108989 0.132440 0.555391
0.242176 0.129965 0.548757
0.375363 0.127490 0.542122
0.508549 0.125015 0.535487
0.641736 0.122540 0.528853
0.774923 0.120066 0.522218
0.908110 0.117591 0.515583
0.999200 0.115352 0.508699
0.000000 0.261140 0.548811
0.108798 0.258901 0.542412
0.241985 0.256426 0.535777
0.375172 0.253951 0.529143
0.508359 0.251477 0.522508
0.641546 0.249002 0.515873
0.775561 0.246527 0.508825
0.912614 0.244052 0.500257
1.000000 0.242482 0.495550
0.000000 0.387601 0.535831
0.108608 0.385362 0.529432
0.241795 0.382887 0.522798
0.374982 0.380413 0.516163
0.508854 0.377938 0.509186
0.645908 0.375463 0.500618
0.782009 0.373623 0.495488
0.917650 0.372090 0.492021
1.000000 0.370792 0.488791
0.000000 0.514063 0.522852
0.108418 0.511824 0.516453
0.242148 0.509349 0.509547
0.379201 0.506874 0.500979
0.515355 0.504999 0.495661
0.650995 0.503466 0.492195
0.786636 0.501933 0.488729
0.922276 0.500400 0.485262
1.000000 0.499103 0.482032
0.000000 0.640524 0.509672
0.112495 0.638285 0.501340
0.248700 0.636375 0.495834
0.384341 0.634842 0.492368
0.519981 0.633309 0.488902
0.655622 0.631776 0.485436
0.791263 0.630243 0.481969
0.926903 0.628710 0.478503
1.000000 0.627413 0.475273
0.007991 0.767516 0.495772
0.117687 0.766218 0.492542
0.253327 0.764685 0.489075
0.388968 0.763152 0.485609
0.524608 0.761619 0.482143
0.660249 0.760086 0.478677
0.795889 0.758553 0.475210
0.931530 0.757020 0.471744
1.000000 0.755723 0.468514
0.015582 0.895826 0.489013
0.122313 0.894529 0.485783
0.257954 0.892996 0.482316
0.393594 0.891463 0.478850
0.529235 0.889930 0.475384
0.664876 0.888397 0.471918
0.800516 0.886864 0.468451
0.936157 0.885330 0.464985
1.000000 0.884033 0.461755
0.023172 1.000000 0.482486
0.127173 1.000000 0.479256
0.262813 1.000000 0.475790
0.398454 1.000000 0.472324
0.534094 1.000000 0.468857
0.669735 1.000000 0.465391
0.805375 1.000000 0.461925
0.941016 1.000000 0.458459
1.000000 1.000000 0.455228
0.000000 0.017318 0.709788
0.108881 0.015079 0.703389
0.242068 0.012604 0.696754
0.375255 0.010129 0.690120
0.508442 0.007654 0.683485
0.641629 0.005495 0.676850
0.774816 0.004553 0.670215
0.908002 0.003612 0.663581
0.995995 0.002670 0.657182
0.000000 0.133716 0.697041
0.108923 0.131477 0.690642
0.242110 0.129002 0.684007
0.375297 0.126527 0.677373
0.508484 0.124052 0.670738
0.641671 0.121577 0.664103
0.774858 0.119102 0.657468
0.908045 0.116627 0.650834
1.000000 0.114388 0.643213
0.000000 0.260177 0.684061
0.108733 0.257938 0.677663
0.241920 0.255463 0.671028
0.375107 0.252988 0.664393
0.508294 0.250513 0.657758
0.641481 0.248038 0.651124
0.776969 0.245563 0.643338
0.913893 0.243175 0.635239
1.000000 0.241878 0.632009
0.000000 0.386638 0.671082
0.108543 0.384399 0.664683
0.241730 0.381924 0.658048
0.374917 0.379449 0.651414
0.510263 0.376974 0.643699
0.647238 0.374551 0.635412
0.782879 0.373018 0.631946
0.918520 0.371485 0.628480
1.000000 0.370188 0.625250
0.000000 0.513099 0.658103
0.108353 0.510860 0.651704
0.243557 0.508385 0.644060
0.380584 0.505928 0.635586
0.516225 0.504395 0.632120
0.651865 0.502862 0.628653
0.787506 0.501329 0.625187
0.923146 0.499796 0.621721
1.000000 0.498498 0.618491
0.000436 0.639560 0.644186
0.113904 0.637321 0.635854
0.249570 0.635771 0.632293
0.385211 0.634238 0.628827
0.520851 0.632705 0.625361
0.656492 0.631172 0.621894
0.792133 0.629639 0.618428
0.927773 0.628106 0.614962
1.000000 0.626809 0.611732
0.009466 0.766911 0.632231
0.118557 0.765614 0.629000
0.254197 0.764081 0.625534
0.389838 0.762548 0.622068
0.525478 0.761015 0.618602
0.661119 0.759482 0.615135
0.796759 0.757949 0.611669
0.932400 0.756416 0.608203
1.000000 0.755119 0.604973
0.017056 0.895222 0.625472
0.123183 0.893924 0.622241
0.258824 0.892391 0.618775
0.394464 0.890858 0.615309
0.530105 0.889325 0.611843
0.665745 0.887792 0.608376
0.801386 0.886259 0.604910
0.937027 0.884726 0.601444
1.000000 0.883429 0.598214
0.024647 1.000000 0.618945
0.128043 1.000000 0.615715
0.263683 1.000000 0.612248
0.399324 1.000000 0.608782
0.534964 1.000000 0.605316
0.670605 1.000000 0.601850
0.806245 1.000000 0.598384
0.941886 1.000000 0.594917
1.000000 1.000000 0.591687
0.000000 0.016355 0.845039
0.108815 0.014116 0.838640
0.242002 0.011641 0.832005
0.375189 0.009166 0.825370
0.508376 0.006691 0.818736
0.641563 0.005136 0.812101
0.774750 0.004194 0.805466
0.907937 0.003252 0.798831
0.996534 0.002311 0.792433
0.000000 0.132752 0.832292
0.108858 0.130513 0.825893
0.242044 0.128038 0.819258
0.375231 0.125564 0.812623
0.508418 0.123089 0.805989
0.641605 0.120614 0.799354
0.774792 0.118139 0.792719
0.908031 0.115664 0.786059
1.000000 0.113425 0.777726
0.000000 0.259214 0.819312
0.108667 0.256975 0.812913
0.241854 0.254500 0.806279
0.375041 0.252025 0.799644
0.508228 0.249550 0.793009
0.641415 0.247075 0.786374
0.778378 0.244600 0.777852
0.914763 0.242571 0.771698
1.000000 0.241274 0.768467
0.000000 0.385675 0.806333
0.108477 0.383436 0.799934
0.241664 0.380961 0.793299
0.374851 0.378486 0.786664
0.511672 0.376011 0.778213
0.648108 0.373947 0.771871
0.783749 0.372414 0.768405
0.919390 0.370881 0.764939
1.000000 0.369584 0.761708
0.000000 0.512136 0.793353
0.108287 0.509897 0.786954
0.244965 0.507422 0.778574
0.381454 0.505324 0.772045
0.517095 0.503790 0.768578
0.652735 0.502257 0.765112
0.788376 0.500724 0.761646
0.924016 0.499191 0.758180
1.000000 0.497894 0.754949
0.002449 0.638597 0.778699
0.114800 0.636700 0.772218
0.250440 0.635167 0.768752
0.386081 0.633634 0.765286
0.521721 0.632101 0.761819
0.657362 0.630568 0.758353
0.793002 0.629035 0.754887
0.928643 0.627502 0.751421
1.000000 0.626204 0.748190
0.010940 0.766307 0.768689
0.119426 0.765010 0.765459
0.255067 0.763477 0.761993
0.390708 0.761944 0.758527
0.526348 0.760411 0.755060
0.661989 0.758878 0.751594
0.797629 0.757345 0.748128
0.933270 0.755812 0.744662
1.000000 0.754515 0.741431
0.018530 0.894617 0.761930
0.124053 0.893320 0.758700
0.259694 0.891787 0.755234
0.395334 0.890254 0.751768
0.530975 0.888721 0.748301
0.666615 0.887188 0.744835
0.802256 0.885655 0.741369
0.937897 0.884122 0.737903
1.000000 0.882825 0.734672
0.026121 1.000000 0.755404
0.128912 1.000000 0.752173
0.264553 1.000000 0.748707
0.400194 1.000000 0.745241
0.535834 1.000000 0.741775
0.671475 1.000000 0.738309
0.807115 1.000000 0.734842
0.942756 1.000000 0.731376
1.000000 1.000000 0.728146
0.000000 0.015391 0.980289
0.108750 0.013152 0.973890
0.241937 0.010678 0.967256
0.375124 0.008203 0.960621
0.508311 0.005728 0.953986
0.641497 0.004777 0.947352
0.774684 0.003835 0.940717
0.907871 0.002893 0.934082
0.997073 0.001952 0.927683
0.000000 0.131789 0.967542
0.108792 0.129550 0.961143
0.241979 0.127075 0.954509
0.375166 0.124600 0.947874
0.508353 0.122125 0.941239
0.641540 0.119651 0.934605
0.774727 0.117176 0.927970
0.909439 0.114701 0.920572
1.000000 0.112462 0.912240
0.000000 0.258250 0.954563
0.108602 0.256011 0.948164
0.241789 0.253536 0.941529
0.374976 0.251061 0.934895
0.508163 0.248587 0.928260
0.642733 0.246112 0.920933
0.779786 0.243637 0.912365
0.915633 0.241967 0.908157
1.000000 0.240670 0.904926
0.000000 0.384711 0.941583
0.108412 0.382472 0.935185
0.241599 0.379998 0.928550
0.376027 0.377523 0.921294
0.513080 0.375048 0.912726
0.648978 0.373343 0.908330
0.784619 0.371810 0.904864
0.920259 0.370277 0.901397
1.000000 0.368980 0.898167
0.000000 0.511173 0.928604
0.109321 0.508934 0.921655
0.246374 0.506459 0.913088
0.382324 0.504719 0.908503
0.517965 0.503186 0.905037
0.653605 0.501653 0.901571
0.789246 0.500120 0.898105
0.924886 0.498587 0.894638
1.000000 0.497290 0.891408
0.004462 0.637634 0.913213
0.115670 0.636096 0.908677
0.251310 0.634563 0.905211
0.386951 0.633030 0.901744
0.522591 0.631497 0.898278
0.658232 0.629963 0.894812
0.793872 0.628430 0.891346
0.929513 0.626897 0.887879
1.000000 0.625600 0.884649
0.012414 0.765703 0.905148
0.120296 0.764406 0.901918
0.255937 0.762873 0.898452
0.391578 0.761340 0.894985
0.527218 0.759807 0.891519
0.662859 0.758274 0.888053
0.798499 0.756741 0.884587
0.934140 0.755208 0.881120
1.000000 0.753910 0.877890
0.020004 0.894013 0.898389
0.124923 0.892716 0.895159
0.260564 0.891183 0.891693
0.396204 0.889650 0.888226
0.531845 0.888117 0.884760
0.667485 0.886584 0.881294
0.803126 0.885051 0.877828
0.938766 0.883518 0.874361
1.000000 0.882221 0.871131
0.027595 1.000000 0.891863
0.129782 1.000000 0.888632
0.265423 1.000000 0.885166
0.401063 1.000000 0.881700
0.536704 1.000000 0.878234
0.672345 1.000000 0.874767
0.807985 1.000000 0.871301
0.943626 1.000000 0.867835
1.000000 1.000000 0.864604
0.000000 0.014565 1.000000
0.108821 0.012326 1.000000
0.242008 0.009851 1.000000
0.375195 0.007376 1.000000
0.508382 0.005360 1.000000
0.641569 0.004418 1.000000
0.774756 0.003476 1.000000
0.907943 0.002534 1.000000
0.997611 0.001592 1.000000
0.000000 0.130963 1.000000
0.108863 0.128724 1.000000
0.242050 0.126249 1.000000
0.375237 0.123774 1.000000
0.508424 0.121299 1.000000
0.641611 0.118824 1.000000
0.774798 0.116349 1.000000
0.910985 0.113874 1.000000
1.000000 0.111892 0.996567
0.000000 0.257424 1.000000
0.108673 0.255185 1.000000
0.241860 0.252710 1.000000
0.375047 0.250235 1.000000
0.508234 0.247760 1.000000
0.644279 0.245285 1.000000
0.780999 0.243032 0.996638
0.916639 0.241499 0.994705
1.000000 0.240202 0.992772
0.000000 0.383885 1.000000
0.108483 0.381646 1.000000
0.241670 0.379171 1.000000
0.377572 0.376696 1.000000
0.514345 0.374409 0.996709
0.649985 0.372876 0.994776
0.785626 0.371343 0.992843
0.921266 0.369810 0.990909
1.000000 0.368512 0.988976
0.000000 0.510346 1.000000
0.110866 0.508107 1.000000
0.247690 0.505785 0.996780
0.383331 0.504252 0.994847
0.518971 0.502719 0.992914
0.654612 0.501186 0.990981
0.790252 0.499653 0.989047
0.925893 0.498120 0.987114
1.000000 0.496823 0.985181
0.006297 0.636925 0.996851
0.116676 0.635628 0.994918
0.252317 0.634095 0.992985
0.387958 0.632562 0.991052
0.523598 0.631029 0.989119
0.659239 0.629496 0.987185
0.794879 0.627963 0.985252
0.930520 0.626430 0.983319
1.000000 0.625133 0.981386
0.013888 0.765236 0.993056
0.121303 0.763938 0.991123
0.256944 0.762405 0.989190
0.392584 0.760872 0.987256
0.528225 0.759339 0.985323
0.663865 0.757806 0.983390
0.799506 0.756273 0.981457
0.935146 0.754740 0.979524
1.000000 0.753443 0.977591
0.021478 0.893546 0.989261
0.125930 0.892249 0.987328
0.261570 0.890716 0.985394
0.397211 0.889183 0.983461
0.532852 0.887650 0.981528
0.668492 0.886117 0.979595
0.804133 0.884584 0.977662
0.939773 0.883050 0.975728
1.000000 0.881753 0.973795
0.029069 1.000000 0.985466
0.130789 1.000000 0.983532
0.266430 1.000000 0.981599
0.402070 1.000000 0.979666
0.537711 1.000000 0.977733
0.673351 1.000000 0.975800
0.808992 1.000000 0.973866
0.944632 1.000000 0.971933
1.000000 1.000000 0.970000
