docs/luts/fresh-sony-slog3-correction.cube
TITLE "FreshLUTs??-SonySLog3??"
LUT_3D_SIZE 9
DOMAIN_MIN 0.0 0.0 0.0
DOMAIN_MAX 1.0 1.0 1.0
0.011977 0.014017 0.029977
0.119133 0.014666 0.029214
0.245772 0.015434 0.028569
0.372411 0.016203 0.027924
0.499051 0.016971 0.027280
0.625690 0.017739 0.026635
0.752329 0.018507 0.025990
0.878968 0.019275 0.025345
0.986125 0.019925 0.024583
0.013299 0.125699 0.028525
0.120455 0.126349 0.027762
0.247094 0.127117 0.027117
0.373733 0.127885 0.026473
0.500373 0.128653 0.025828
0.627012 0.129421 0.025183
0.753651 0.130189 0.024539
0.880291 0.130957 0.023894
0.987447 0.131607 0.023131
0.014795 0.252109 0.027248
0.121951 0.252758 0.026485
0.248591 0.253526 0.025840
0.375230 0.254295 0.025196
0.501869 0.255063 0.024551
0.628508 0.255831 0.023906
0.755148 0.256599 0.023261
0.881787 0.257367 0.022617
0.989387 0.258017 0.021854
0.016291 0.378518 0.025971
0.123448 0.379168 0.025208
0.250087 0.379936 0.024563
0.376726 0.380704 0.023918
0.503366 0.381472 0.023274
0.630005 0.382240 0.022629
0.757064 0.383008 0.021984
0.884348 0.383776 0.021550
0.992149 0.384426 0.022200
0.017788 0.504928 0.024694
0.124944 0.505578 0.023931
0.251583 0.506346 0.023286
0.378223 0.507114 0.022641
0.505258 0.507882 0.021997
0.632542 0.508650 0.021510
0.759826 0.509418 0.022278
0.887109 0.510186 0.023046
0.994910 0.510836 0.023696
0.019284 0.631337 0.023416
0.126441 0.631987 0.022653
0.253453 0.632755 0.022009
0.380736 0.633524 0.021470
0.508020 0.634292 0.022238
0.635304 0.635060 0.023006
0.762587 0.635828 0.023774
0.889871 0.636596 0.024543
0.997672 0.637246 0.025192
0.021130 0.757747 0.022139
0.128930 0.758397 0.021431
0.256214 0.759165 0.022199
0.383498 0.759933 0.022967
0.510781 0.760701 0.023735
0.638065 0.761469 0.024503
0.765349 0.762237 0.025271
0.892632 0.763005 0.026039
1.000000 0.763655 0.026689
0.023891 0.884157 0.022277
0.131692 0.884807 0.022927
0.258976 0.885575 0.023695
0.386259 0.886343 0.024463
0.513543 0.887111 0.025231
0.640827 0.887879 0.025999
0.768110 0.888647 0.026767
0.895394 0.889415 0.027535
1.000000 0.890065 0.028185
0.026478 0.995839 0.023599
0.134279 0.996489 0.024249
0.261563 0.997257 0.025017
0.388846 0.998025 0.025785
0.516130 0.998793 0.026553
0.643414 0.999561 0.027321
0.770697 1.000000 0.028089
0.897981 1.000000 0.028857
1.000000 1.000000 0.029507
0.012224 0.014264 0.136192
0.119381 0.014914 0.135429
0.246020 0.015682 0.134784
0.372659 0.016450 0.134140
0.499298 0.017218 0.133495
0.625938 0.017987 0.132850
0.752577 0.018755 0.132206
0.879216 0.019523 0.131561
0.986373 0.020173 0.130798
0.013546 0.125947 0.134741
0.120703 0.126597 0.133978
0.247342 0.127365 0.133333
0.373981 0.128133 0.132688
0.500621 0.128901 0.132044
0.627260 0.129669 0.131399
0.753899 0.130437 0.130754
0.880538 0.131205 0.130109
0.987695 0.131855 0.129347
0.015043 0.252356 0.133463
0.122199 0.253006 0.132701
0.248838 0.253774 0.132056
0.375478 0.254542 0.131411
0.502117 0.255310 0.130766
0.628756 0.256078 0.130122
0.755395 0.256847 0.129477
0.882080 0.257615 0.128832
0.989881 0.258265 0.128069
0.016539 0.378766 0.132186
0.123696 0.379416 0.131423
0.250335 0.380184 0.130779
0.376974 0.380952 0.130134
0.503613 0.381720 0.129489
0.630274 0.382488 0.128845
0.757558 0.383256 0.128200
0.884841 0.384024 0.128304
0.992642 0.384674 0.128954
0.018036 0.505176 0.130909
0.125192 0.505826 0.130146
0.251831 0.506594 0.129501
0.378470 0.507362 0.128857
0.505752 0.508130 0.128212
0.633036 0.508898 0.128264
0.760319 0.509666 0.129032
0.887603 0.510434 0.129800
0.995404 0.511084 0.130450
0.019532 0.631585 0.129632
0.126688 0.632235 0.128869
0.253946 0.633003 0.128224
0.381230 0.633771 0.128224
0.508513 0.634539 0.128993
0.635797 0.635307 0.129761
0.763081 0.636076 0.130529
0.890364 0.636844 0.131297
0.998165 0.637494 0.131947
0.021623 0.757995 0.128355
0.129424 0.758645 0.128185
0.256708 0.759413 0.128953
0.383991 0.760181 0.129721
0.511275 0.760949 0.130489
0.638559 0.761717 0.131257
0.765842 0.762485 0.132025
0.893126 0.763253 0.132793
1.000000 0.763903 0.133443
0.024385 0.884405 0.129031
0.132185 0.885054 0.129681
0.259469 0.885823 0.130449
0.386753 0.886591 0.131217
0.514036 0.887359 0.131985
0.641320 0.888127 0.132753
0.768604 0.888895 0.133522
0.895887 0.889663 0.134290
1.000000 0.890313 0.134939
0.026972 0.996087 0.130353
0.134773 0.996737 0.131003
0.262056 0.997505 0.131771
0.389340 0.998273 0.132539
0.516624 0.999041 0.133307
0.643907 0.999809 0.134076
0.771191 1.000000 0.134844
0.898475 1.000000 0.135612
1.000000 1.000000 0.136262
0.012517 0.014557 0.261817
0.119673 0.015207 0.261055
0.246313 0.015975 0.260410
0.372952 0.016743 0.259765
0.499591 0.017511 0.259120
0.626231 0.018279 0.258476
0.752870 0.019047 0.257831
0.879509 0.019815 0.257186
0.986665 0.020465 0.256423
0.013839 0.126239 0.260366
0.120996 0.126889 0.259603
0.247635 0.127657 0.258958
0.374274 0.128426 0.258314
0.500913 0.129194 0.257669
0.627553 0.129962 0.257024
0.754192 0.130730 0.256380
0.880831 0.131498 0.255735
0.987987 0.132148 0.254972
0.015336 0.252649 0.259089
0.122492 0.253299 0.258326
0.249131 0.254067 0.257681
0.375770 0.254835 0.257037
0.502410 0.255603 0.256392
0.629049 0.256371 0.255747
0.755688 0.257139 0.255102
0.882619 0.257907 0.254458
0.990419 0.258557 0.253695
0.016832 0.379059 0.257812
0.123988 0.379709 0.257049
0.250628 0.380477 0.256404
0.377267 0.381245 0.255759
0.503906 0.382013 0.255115
0.630813 0.382781 0.254470
0.758096 0.383549 0.253825
0.885380 0.384317 0.254468
0.993181 0.384967 0.255118
0.018328 0.505468 0.256534
0.125485 0.506118 0.255772
0.252124 0.506886 0.255127
0.379007 0.507655 0.254482
0.506291 0.508423 0.253837
0.633574 0.509191 0.254428
0.760858 0.509959 0.255196
0.888142 0.510727 0.255964
0.995942 0.511377 0.256614
0.019825 0.631878 0.255257
0.127201 0.632528 0.254494
0.254485 0.633296 0.253850
0.381768 0.634064 0.254389
0.509052 0.634832 0.255157
0.636336 0.635600 0.255925
0.763619 0.636368 0.256693
0.890903 0.637136 0.257461
0.998704 0.637786 0.258111
0.022162 0.758288 0.253980
0.129962 0.758938 0.254349
0.257246 0.759706 0.255117
0.384530 0.760474 0.255885
0.511813 0.761242 0.256653
0.639097 0.762010 0.257421
0.766381 0.762778 0.258189
0.893664 0.763546 0.258957
1.000000 0.764196 0.259607
0.024923 0.884697 0.255195
0.132724 0.885347 0.255845
0.260008 0.886115 0.256613
0.387291 0.886883 0.257381
0.514575 0.887652 0.258149
0.641859 0.888420 0.258917
0.769142 0.889188 0.259686
0.896426 0.889956 0.260454
1.000000 0.890606 0.261104
0.027510 0.996380 0.256517
0.135311 0.997030 0.257167
0.262595 0.997798 0.257935
0.389878 0.998566 0.258703
0.517162 0.999334 0.259471
0.644446 1.000000 0.260240
0.771729 1.000000 0.261008
0.899013 1.000000 0.261776
1.000000 1.000000 0.262426
0.012810 0.014850 0.387443
0.119966 0.015500 0.386680
0.246606 0.016268 0.386035
0.373245 0.017036 0.385391
0.499884 0.017804 0.384746
0.626523 0.018572 0.384101
0.753163 0.019340 0.383456
0.879802 0.020108 0.382812
0.986958 0.020758 0.382049
0.014132 0.126532 0.385991
0.121288 0.127182 0.385228
0.247928 0.127950 0.384584
0.374567 0.128718 0.383939
0.501206 0.129486 0.383294
0.627845 0.130255 0.382650
0.754485 0.131023 0.382005
0.881124 0.131791 0.381360
0.988280 0.132441 0.380597
0.015628 0.252942 0.384714
0.122785 0.253592 0.383951
0.249424 0.254360 0.383307
0.376063 0.255128 0.382662
0.502703 0.255896 0.382017
0.629342 0.256664 0.381372
0.755981 0.257432 0.380728
0.883157 0.258200 0.380083
0.990958 0.258850 0.379786
0.017125 0.379352 0.383437
0.124281 0.380002 0.382674
0.250920 0.380770 0.382029
0.377560 0.381538 0.381385
0.504199 0.382306 0.380740
0.631351 0.383074 0.380095
0.758635 0.383842 0.379864
0.885919 0.384610 0.380632
0.993719 0.385260 0.381282
0.018621 0.505761 0.382160
0.125778 0.506411 0.381397
0.252417 0.507179 0.380752
0.379545 0.507947 0.380108
0.506829 0.508715 0.379824
0.634113 0.509483 0.380592
0.761396 0.510252 0.381360
0.888680 0.511020 0.382128
0.996481 0.511670 0.382778
0.020118 0.632171 0.380883
0.127740 0.632821 0.380120
0.255023 0.633589 0.379784
0.382307 0.634357 0.380553
0.509591 0.635125 0.381321
0.636874 0.635893 0.382089
0.764158 0.636661 0.382857
0.891442 0.637429 0.383625
0.999242 0.638079 0.384275
0.022700 0.758581 0.379863
0.130501 0.759231 0.380513
0.257785 0.759999 0.381281
0.385068 0.760767 0.382049
0.512352 0.761535 0.382817
0.639636 0.762303 0.383585
0.766919 0.763071 0.384353
0.894203 0.763839 0.385121
1.000000 0.764489 0.385771
0.025462 0.884990 0.381359
0.133263 0.885640 0.382009
0.260546 0.886408 0.382777
0.387830 0.887176 0.383545
0.515114 0.887944 0.384313
0.642397 0.888712 0.385082
0.769681 0.889481 0.385850
0.896965 0.890249 0.386618
1.000000 0.890899 0.387268
0.028049 0.996673 0.382681
0.135850 0.997323 0.383331
0.263133 0.998091 0.384099
0.390417 0.998859 0.384867
0.517701 0.999627 0.385636
0.644984 1.000000 0.386404
0.772268 1.000000 0.387172
0.899552 1.000000 0.387940
1.000000 1.000000 0.388590
0.013103 0.015143 0.513068
0.120259 0.015793 0.512305
0.246898 0.016561 0.511661
0.373538 0.017329 0.511016
0.500177 0.018097 0.510371
0.626816 0.018865 0.509727
0.753456 0.019633 0.509082
0.880095 0.020401 0.508437
0.987251 0.021051 0.507674
0.014425 0.126825 0.511617
0.121581 0.127475 0.510854
0.248220 0.128243 0.510209
0.374860 0.129011 0.509564
0.501499 0.129779 0.508920
0.628138 0.130547 0.508275
0.754778 0.131315 0.507630
0.881417 0.132083 0.506986
0.988735 0.132733 0.506223
0.015921 0.253235 0.510340
0.123078 0.253885 0.509577
0.249717 0.254653 0.508932
0.376356 0.255421 0.508287
0.502995 0.256189 0.507643
0.629635 0.256957 0.506998
0.756412 0.257725 0.506353
0.883696 0.258493 0.505708
0.991496 0.259143 0.505950
0.017418 0.379644 0.509062
0.124574 0.380294 0.508300
0.251213 0.381062 0.507655
0.377853 0.381831 0.507010
0.504606 0.382599 0.506365
0.631890 0.383367 0.505721
0.759173 0.384135 0.506028
0.886457 0.384903 0.506796
0.994258 0.385553 0.507446
0.018914 0.506054 0.507785
0.126070 0.506704 0.507022
0.252800 0.507472 0.506378
0.380084 0.508240 0.505733
0.507368 0.509008 0.505988
0.634651 0.509776 0.506756
0.761935 0.510544 0.507524
0.889219 0.511312 0.508292
0.997019 0.511962 0.508942
0.020477 0.632464 0.506508
0.128278 0.633114 0.505745
0.255562 0.633882 0.505949
0.382845 0.634650 0.506717
0.510129 0.635418 0.507485
0.637413 0.636186 0.508253
0.764696 0.636954 0.509021
0.891980 0.637722 0.509789
0.999781 0.638372 0.510439
0.023239 0.758873 0.506027
0.131040 0.759523 0.506677
0.258323 0.760291 0.507445
0.385607 0.761060 0.508213
0.512891 0.761828 0.508981
0.640174 0.762596 0.509749
0.767458 0.763364 0.510517
0.894742 0.764132 0.511285
1.000000 0.764782 0.511935
0.026000 0.885283 0.507523
0.133801 0.885933 0.508173
0.261085 0.886701 0.508941
0.388368 0.887469 0.509709
0.515652 0.888237 0.510477
0.642936 0.889005 0.511246
0.770219 0.889773 0.512014
0.897503 0.890541 0.512782
1.000000 0.891191 0.513432
0.028588 0.996965 0.508845
0.136388 0.997615 0.509495
0.263672 0.998383 0.510263
0.390956 0.999151 0.511031
0.518239 0.999920 0.511800
0.645523 1.000000 0.512568
0.772807 1.000000 0.513336
0.900090 1.000000 0.514104
1.000000 1.000000 0.514754
0.013396 0.015436 0.638694
0.120552 0.016086 0.637931
0.247191 0.016854 0.637286
0.373831 0.017622 0.636641
0.500470 0.018390 0.635997
0.627109 0.019158 0.635352
0.753748 0.019926 0.634707
0.880388 0.020694 0.634063
0.987544 0.021344 0.633300
0.014718 0.127118 0.637242
0.121874 0.127768 0.636479
0.248513 0.128536 0.635835
0.375153 0.129304 0.635190
0.501792 0.130072 0.634545
0.628431 0.130840 0.633900
0.755070 0.131608 0.633256
0.881710 0.132376 0.632611
0.989273 0.133026 0.631848
0.016214 0.253528 0.635965
0.123370 0.254178 0.635202
0.250010 0.254946 0.634557
0.376649 0.255714 0.633913
0.503288 0.256482 0.633268
0.629928 0.257250 0.632623
0.756950 0.258018 0.631979
0.884234 0.258786 0.631464
0.992035 0.259436 0.632114
0.017711 0.379937 0.634688
0.124867 0.380587 0.633925
0.251506 0.381355 0.633280
0.378145 0.382123 0.632636
0.505145 0.382891 0.631991
0.632428 0.383660 0.631424
0.759712 0.384428 0.632192
0.886996 0.385196 0.632960
0.994796 0.385846 0.633610
0.019207 0.506347 0.633411
0.126363 0.506997 0.632648
0.253339 0.507765 0.632003
0.380622 0.508533 0.631384
0.507906 0.509301 0.632152
0.635190 0.510069 0.632920
0.762473 0.510837 0.633688
0.889757 0.511605 0.634457
0.997558 0.512255 0.635106
0.021016 0.632757 0.632133
0.128817 0.633407 0.631371
0.256100 0.634175 0.632113
0.383384 0.634943 0.632881
0.510668 0.635711 0.633649
0.637951 0.636479 0.634417
0.765235 0.637247 0.635185
0.892519 0.638015 0.635953
1.000000 0.638665 0.636603
0.023777 0.759166 0.632191
0.131578 0.759816 0.632841
0.258862 0.760584 0.633609
0.386145 0.761352 0.634377
0.513429 0.762120 0.635145
0.640713 0.762888 0.635913
0.767996 0.763657 0.636681
0.895280 0.764425 0.637449
1.000000 0.765075 0.638099
0.026539 0.885576 0.633687
0.134340 0.886226 0.634337
0.261623 0.886994 0.635105
0.388907 0.887762 0.635873
0.516191 0.888530 0.636642
0.643474 0.889298 0.637410
0.770758 0.890066 0.638178
0.898042 0.890834 0.638946
1.000000 0.891484 0.639596
0.029126 0.997258 0.635009
0.136927 0.997908 0.635659
0.264210 0.998676 0.636427
0.391494 0.999444 0.637196
0.518778 1.000000 0.637964
0.646061 1.000000 0.638732
0.773345 1.000000 0.639500
0.900629 1.000000 0.640268
1.000000 1.000000 0.640918
0.013689 0.015729 0.764319
0.120845 0.016378 0.763556
0.247484 0.017147 0.762911
0.374123 0.017915 0.762267
0.500763 0.018683 0.761622
0.627402 0.019451 0.760977
0.754041 0.020219 0.760333
0.880680 0.020987 0.759688
0.987837 0.021637 0.758925
0.015011 0.127411 0.762868
0.122167 0.128061 0.762105
0.248806 0.128829 0.761460
0.375445 0.129597 0.760815
0.502085 0.130365 0.760171
0.628724 0.131133 0.759526
0.755363 0.131901 0.758881
0.882011 0.132669 0.758236
0.989812 0.133319 0.757474
0.016507 0.253821 0.761590
0.123663 0.254470 0.760827
0.250303 0.255238 0.760183
0.376942 0.256007 0.759538
0.503581 0.256775 0.758893
0.630220 0.257543 0.758249
0.757489 0.258311 0.757604
0.884773 0.259079 0.757628
0.992573 0.259729 0.758278
0.018003 0.380230 0.760313
0.125160 0.380880 0.759550
0.251799 0.381648 0.758906
0.378438 0.382416 0.758261
0.505683 0.383184 0.757616
0.632967 0.383952 0.757588
0.760250 0.384720 0.758356
0.887534 0.385489 0.759124
0.995335 0.386138 0.759774
0.019500 0.506640 0.759036
0.126656 0.507290 0.758273
0.253877 0.508058 0.757628
0.381161 0.508826 0.757548
0.508445 0.509594 0.758316
0.635728 0.510362 0.759084
0.763012 0.511130 0.759852
0.890296 0.511898 0.760621
0.998096 0.512548 0.761270
0.021554 0.633049 0.757759
0.129355 0.633699 0.757509
0.256639 0.634467 0.758277
0.383922 0.635236 0.759045
0.511206 0.636004 0.759813
0.638490 0.636772 0.760581
0.765773 0.637540 0.761349
0.893057 0.638308 0.762117
1.000000 0.638958 0.762767
0.024316 0.759459 0.758355
0.132117 0.760109 0.759005
0.259400 0.760877 0.759773
0.386684 0.761645 0.760541
0.513968 0.762413 0.761309
0.641251 0.763181 0.762077
0.768535 0.763949 0.762845
0.895819 0.764717 0.763613
1.000000 0.765367 0.764263
0.027077 0.885869 0.759851
0.134878 0.886519 0.760501
0.262162 0.887287 0.761269
0.389445 0.888055 0.762038
0.516729 0.888823 0.762806
0.644013 0.889591 0.763574
0.771296 0.890359 0.764342
0.898580 0.891127 0.765110
1.000000 0.891777 0.765760
0.029665 0.997551 0.761174
0.137465 0.998201 0.761823
0.264749 0.998969 0.762592
0.392033 0.999737 0.763360
0.519316 1.000000 0.764128
0.646600 1.000000 0.764896
0.773884 1.000000 0.765664
0.901167 1.000000 0.766432
1.000000 1.000000 0.767082
0.013981 0.016021 0.889944
0.121138 0.016671 0.889182
0.247777 0.017439 0.888537
0.374416 0.018207 0.887892
0.501055 0.018975 0.887247
0.627695 0.019744 0.886603
0.754334 0.020512 0.885958
0.880973 0.021280 0.885313
0.988130 0.021930 0.884550
0.015303 0.127704 0.888493
0.122460 0.128354 0.887730
0.249099 0.129122 0.887085
0.375738 0.129890 0.886441
0.502378 0.130658 0.885796
0.629017 0.131426 0.885151
0.755656 0.132194 0.884507
0.882550 0.132962 0.883862
0.990350 0.133612 0.883099
0.016800 0.254113 0.887216
0.123956 0.254763 0.886453
0.250595 0.255531 0.885808
0.377235 0.256299 0.885163
0.503874 0.257067 0.884519
0.630744 0.257836 0.883874
0.758028 0.258604 0.883229
0.885311 0.259372 0.883792
0.993112 0.260022 0.884442
0.018296 0.380523 0.885939
0.125453 0.381173 0.885176
0.252092 0.381941 0.884531
0.378938 0.382709 0.883886
0.506222 0.383477 0.883242
0.633505 0.384245 0.883752
0.760789 0.385013 0.884520
0.888073 0.385781 0.885288
0.995873 0.386431 0.885938
0.019793 0.506933 0.884661
0.127132 0.507583 0.883899
0.254416 0.508351 0.883254
0.381700 0.509119 0.883712
0.508983 0.509887 0.884480
0.636267 0.510655 0.885248
0.763551 0.511423 0.886017
0.890834 0.512191 0.886785
0.998635 0.512841 0.887435
0.022093 0.633342 0.883384
0.129894 0.633992 0.883673
0.257177 0.634760 0.884441
0.384461 0.635528 0.885209
0.511745 0.636296 0.885977
0.639028 0.637065 0.886745
0.766312 0.637833 0.887513
0.893596 0.638601 0.888281
1.000000 0.639251 0.888931
0.024854 0.759752 0.884519
0.132655 0.760402 0.885169
0.259939 0.761170 0.885937
0.387222 0.761938 0.886705
0.514506 0.762706 0.887473
0.641790 0.763474 0.888241
0.769073 0.764242 0.889009
0.896357 0.765010 0.889777
1.000000 0.765660 0.890427
0.027616 0.886162 0.886015
0.135417 0.886812 0.886665
0.262700 0.887580 0.887433
0.389984 0.888348 0.888202
0.517268 0.889116 0.888970
0.644551 0.889884 0.889738
0.771835 0.890652 0.890506
0.899119 0.891420 0.891274
1.000000 0.892070 0.891924
0.030203 0.997844 0.887338
0.138004 0.998494 0.887987
0.265287 0.999262 0.888756
0.392571 1.000000 0.889524
0.519855 1.000000 0.890292
0.647138 1.000000 0.891060
0.774422 1.000000 0.891828
0.901706 1.000000 0.892596
1.000000 1.000000 0.893246
0.014229 0.016269 0.996160
0.121385 0.016919 0.995397
0.248025 0.017687 0.994752
0.374664 0.018455 0.994108
0.501303 0.019223 0.993463
0.627943 0.019991 0.992818
0.754582 0.020759 0.992174
0.881221 0.021527 0.991529
0.988377 0.022177 0.990766
0.015551 0.127951 0.994708
0.122708 0.128601 0.993946
0.249347 0.129369 0.993301
0.375986 0.130138 0.992656
0.502625 0.130906 0.992011
0.629265 0.131674 0.991367
0.755904 0.132442 0.990722
0.883043 0.133210 0.990077
0.990844 0.133860 0.989699
0.017048 0.254361 0.993431
0.124204 0.255011 0.992668
0.250843 0.255779 0.992024
0.377482 0.256547 0.991379
0.504122 0.257315 0.990734
0.631237 0.258083 0.990090
0.758521 0.258851 0.989778
0.885805 0.259619 0.990546
0.993605 0.260269 0.991196
0.018544 0.380771 0.992154
0.125700 0.381421 0.991391
0.252340 0.382189 0.990747
0.379431 0.382957 0.990102
0.506715 0.383725 0.989738
0.633999 0.384493 0.990506
0.761282 0.385261 0.991274
0.888566 0.386029 0.992042
0.996367 0.386679 0.992692
0.020040 0.507180 0.990877
0.127626 0.507830 0.990114
0.254909 0.508598 0.989698
0.382193 0.509367 0.990467
0.509477 0.510135 0.991235
0.636760 0.510903 0.992003
0.764044 0.511671 0.992771
0.891328 0.512439 0.993539
0.999128 0.513089 0.994189
0.022586 0.633590 0.989777
0.130387 0.634240 0.990427
0.257671 0.635008 0.991195
0.384954 0.635776 0.991963
0.512238 0.636544 0.992731
0.639522 0.637312 0.993499
0.766805 0.638080 0.994267
0.894089 0.638848 0.995035
1.000000 0.639498 0.995685
0.025348 0.760000 0.991273
0.133149 0.760650 0.991923
0.260432 0.761418 0.992691
0.387716 0.762186 0.993459
0.515000 0.762954 0.994227
0.642283 0.763722 0.994995
0.769567 0.764490 0.995764
0.896851 0.765258 0.996532
1.000000 0.765908 0.997182
0.028109 0.886409 0.992770
0.135910 0.887059 0.993420
0.263194 0.887827 0.994188
0.390477 0.888595 0.994956
0.517761 0.889364 0.995724
0.645045 0.890132 0.996492
0.772328 0.890900 0.997260
0.899612 0.891668 0.998028
1.000000 0.892318 0.998678
0.030697 0.998092 0.994092
0.138497 0.998742 0.994742
0.265781 0.999510 0.995510
0.393065 1.000000 0.996278
0.520348 1.000000 0.997046
0.647632 1.000000 0.997814
0.774916 1.000000 0.998582
0.902199 1.000000 0.999350
1.000000 1.000000 1.000000
