docs/luts/fresh-powerful-cold.cube
TITLE "FreshLUTs??-???"
LUT_3D_SIZE 33
DOMAIN_MIN 0.0 0.0 0.0
DOMAIN_MAX 1.0 1.0 1.0
0.000000 0.006000 0.108000
0.000000 0.005902 0.106234
0.000000 0.006364 0.105029
0.000000 0.007294 0.104291
0.030898 0.008224 0.103552
0.063746 0.009154 0.102814
0.096595 0.010083 0.102076
0.129443 0.011013 0.101338
0.162291 0.011943 0.100600
0.195140 0.012872 0.099862
0.227988 0.013802 0.099123
0.260836 0.014732 0.098385
0.293685 0.015661 0.097647
0.326533 0.016591 0.096909
0.359381 0.017521 0.096171
0.392229 0.018451 0.095433
0.425078 0.019380 0.094694
0.457926 0.020310 0.093956
0.490774 0.021240 0.093218
0.523623 0.022169 0.092480
0.556471 0.023099 0.091742
0.589319 0.024029 0.091004
0.622168 0.024958 0.090266
0.655016 0.025888 0.089527
0.687864 0.026818 0.088789
0.720712 0.027748 0.088051
0.753561 0.028677 0.087313
0.786409 0.029607 0.086575
0.819257 0.030537 0.085837
0.852106 0.031466 0.085098
0.884954 0.032396 0.084360
0.903273 0.032859 0.083155
0.904156 0.032760 0.081389
0.000000 0.005807 0.104533
0.000000 0.005709 0.102767
0.000000 0.006172 0.101562
0.000000 0.007101 0.100824
0.032632 0.008031 0.100085
0.065480 0.008961 0.099347
0.098328 0.009891 0.098609
0.131177 0.010820 0.097871
0.164025 0.011750 0.097133
0.196873 0.012680 0.096395
0.229721 0.013609 0.095656
0.262570 0.014539 0.094918
0.295418 0.015469 0.094180
0.328266 0.016399 0.093442
0.361115 0.017328 0.092704
0.393963 0.018258 0.091966
0.426811 0.019188 0.091228
0.459660 0.020117 0.090489
0.492508 0.021047 0.089751
0.525356 0.021977 0.089013
0.558204 0.022906 0.088275
0.591053 0.023836 0.087537
0.623901 0.024766 0.086799
0.656749 0.025696 0.086060
0.689598 0.026625 0.085322
0.722446 0.027555 0.084584
0.755294 0.028485 0.083846
0.788143 0.029414 0.083108
0.820991 0.030344 0.082370
0.853839 0.031274 0.081631
0.886687 0.032203 0.080893
0.905006 0.032666 0.079688
0.905889 0.032568 0.077922
0.000000 0.031979 0.102680
0.000000 0.031881 0.100914
0.000000 0.032343 0.099709
0.003131 0.033273 0.098971
0.035979 0.034203 0.098233
0.068828 0.035133 0.097495
0.101676 0.036062 0.096756
0.134524 0.036992 0.096018
0.167373 0.037922 0.095280
0.200221 0.038851 0.094542
0.233069 0.039781 0.093804
0.265917 0.040711 0.093066
0.298766 0.041640 0.092327
0.331614 0.042570 0.091589
0.364462 0.043500 0.090851
0.397311 0.044430 0.090113
0.430159 0.045359 0.089375
0.463007 0.046289 0.088637
0.495856 0.047219 0.087898
0.528704 0.048148 0.087160
0.561552 0.049078 0.086422
0.594400 0.050008 0.085684
0.627249 0.050937 0.084946
0.660097 0.051867 0.084208
0.692945 0.052797 0.083470
0.725794 0.053727 0.082731
0.758642 0.054656 0.081993
0.791490 0.055586 0.081255
0.824339 0.056516 0.080517
0.857187 0.057445 0.079779
0.890035 0.058375 0.079041
0.908354 0.058838 0.077835
0.909237 0.058740 0.076069
0.000000 0.064143 0.101194
0.000000 0.064044 0.099428
0.000000 0.064507 0.098223
0.006846 0.065437 0.097485
0.039694 0.066366 0.096747
0.072542 0.067296 0.096009
0.105391 0.068226 0.095271
0.138239 0.069155 0.094532
0.171087 0.070085 0.093794
0.203935 0.071015 0.093056
0.236784 0.071945 0.092318
0.269632 0.072874 0.091580
0.302480 0.073804 0.090842
0.335329 0.074734 0.090103
0.368177 0.075663 0.089365
0.401025 0.076593 0.088627
0.433874 0.077523 0.087889
0.466722 0.078452 0.087151
0.499570 0.079382 0.086413
0.532418 0.080312 0.085674
0.565267 0.081242 0.084936
0.598115 0.082171 0.084198
0.630963 0.083101 0.083460
0.663812 0.084031 0.082722
0.696660 0.084960 0.081984
0.729508 0.085890 0.081246
0.762357 0.086820 0.080507
0.795205 0.087750 0.079769
0.828053 0.088679 0.079031
0.860901 0.089609 0.078293
0.893750 0.090539 0.077555
0.912068 0.091001 0.076349
0.912951 0.090903 0.074583
0.000000 0.096306 0.099709
0.000000 0.096208 0.097943
0.000000 0.096670 0.096737
0.010560 0.097600 0.095999
0.043409 0.098530 0.095261
0.076257 0.099460 0.094523
0.109105 0.100389 0.093785
0.141954 0.101319 0.093047
0.174802 0.102249 0.092308
0.207650 0.103178 0.091570
0.240498 0.104108 0.090832
0.273347 0.105038 0.090094
0.306195 0.105967 0.089356
0.339043 0.106897 0.088618
0.371892 0.107827 0.087879
0.404740 0.108757 0.087141
0.437588 0.109686 0.086403
0.470436 0.110616 0.085665
0.503285 0.111546 0.084927
0.536133 0.112475 0.084189
0.568981 0.113405 0.083450
0.601830 0.114335 0.082712
0.634678 0.115265 0.081974
0.667526 0.116194 0.081236
0.700375 0.117124 0.080498
0.733223 0.118054 0.079760
0.766071 0.118983 0.079022
0.798919 0.119913 0.078283
0.831768 0.120843 0.077545
0.864616 0.121772 0.076807
0.897464 0.122702 0.076069
0.915783 0.123165 0.074864
0.916666 0.123067 0.073098
0.000000 0.128470 0.098223
0.000000 0.128371 0.096457
0.000000 0.128834 0.095251
0.014275 0.129764 0.094513
0.047123 0.130693 0.093775
0.079972 0.131623 0.093037
0.112820 0.132553 0.092299
0.145668 0.133482 0.091561
0.178516 0.134412 0.090823
0.211365 0.135342 0.090084
0.244213 0.136272 0.089346
0.277061 0.137201 0.088608
0.309910 0.138131 0.087870
0.342758 0.139061 0.087132
0.375606 0.139990 0.086394
0.408454 0.140920 0.085655
0.441303 0.141850 0.084917
0.474151 0.142780 0.084179
0.506999 0.143709 0.083441
0.539848 0.144639 0.082703
0.572696 0.145569 0.081965
0.605544 0.146498 0.081226
0.638393 0.147428 0.080488
0.671241 0.148358 0.079750
0.704089 0.149287 0.079012
0.736937 0.150217 0.078274
0.769786 0.151147 0.077536
0.802634 0.152077 0.076798
0.835482 0.153006 0.076059
0.868331 0.153936 0.075321
0.901179 0.154866 0.074583
0.919498 0.155328 0.073378
0.920381 0.155230 0.071612
0.000000 0.160633 0.096737
0.000000 0.160535 0.094971
0.000000 0.160997 0.093766
0.017990 0.161927 0.093027
0.050838 0.162857 0.092289
0.083686 0.163787 0.091551
0.116534 0.164716 0.090813
0.149383 0.165646 0.090075
0.182231 0.166576 0.089337
0.215079 0.167505 0.088599
0.247928 0.168435 0.087860
0.280776 0.169365 0.087122
0.313624 0.170295 0.086384
0.346473 0.171224 0.085646
0.379321 0.172154 0.084908
0.412169 0.173084 0.084170
0.445017 0.174013 0.083431
0.477866 0.174943 0.082693
0.510714 0.175873 0.081955
0.543562 0.176802 0.081217
0.576411 0.177732 0.080479
0.609259 0.178662 0.079741
0.642107 0.179592 0.079002
0.674955 0.180521 0.078264
0.707804 0.181451 0.077526
0.740652 0.182381 0.076788
0.773500 0.183310 0.076050
0.806349 0.184240 0.075312
0.839197 0.185170 0.074574
0.872045 0.186099 0.073835
0.904894 0.187029 0.073097
0.923212 0.187492 0.071892
0.924095 0.187394 0.070126
0.000000 0.192797 0.095251
0.000000 0.192698 0.093485
0.000000 0.193161 0.092280
0.021704 0.194091 0.091542
0.054552 0.195020 0.090803
0.087401 0.195950 0.090065
0.120249 0.196880 0.089327
0.153097 0.197810 0.088589
0.185946 0.198739 0.087851
0.218794 0.199669 0.087113
0.251642 0.200599 0.086375
0.284491 0.201528 0.085636
0.317339 0.202458 0.084898
0.350187 0.203388 0.084160
0.383035 0.204317 0.083422
0.415884 0.205247 0.082684
0.448732 0.206177 0.081946
0.481580 0.207107 0.081207
0.514429 0.208036 0.080469
0.547277 0.208966 0.079731
0.580125 0.209896 0.078993
0.612973 0.210825 0.078255
0.645822 0.211755 0.077517
0.678670 0.212685 0.076778
0.711518 0.213614 0.076040
0.744367 0.214544 0.075302
0.777215 0.215474 0.074564
0.810063 0.216404 0.073826
0.842912 0.217333 0.073088
0.875760 0.218263 0.072350
0.908608 0.219193 0.071611
0.926927 0.219655 0.070406
0.927810 0.219557 0.068640
0.000000 0.224960 0.093765
0.000000 0.224862 0.091999
0.000000 0.225325 0.090794
0.025419 0.226254 0.090056
0.058267 0.227184 0.089318
0.091115 0.228114 0.088579
0.123964 0.229043 0.087841
0.156812 0.229973 0.087103
0.189660 0.230903 0.086365
0.222509 0.231832 0.085627
0.255357 0.232762 0.084889
0.288205 0.233692 0.084151
0.321053 0.234622 0.083412
0.353902 0.235551 0.082674
0.386750 0.236481 0.081936
0.419598 0.237411 0.081198
0.452447 0.238340 0.080460
0.485295 0.239270 0.079722
0.518143 0.240200 0.078983
0.550992 0.241129 0.078245
0.583840 0.242059 0.077507
0.616688 0.242989 0.076769
0.649536 0.243919 0.076031
0.682385 0.244848 0.075293
0.715233 0.245778 0.074554
0.748081 0.246708 0.073816
0.780930 0.247637 0.073078
0.813778 0.248567 0.072340
0.846626 0.249497 0.071602
0.879474 0.250427 0.070864
0.912323 0.251356 0.070126
0.930641 0.251819 0.068920
0.931524 0.251721 0.067154
0.000000 0.257124 0.092279
0.000000 0.257026 0.090513
0.000000 0.257488 0.089308
0.029133 0.258418 0.088570
0.061982 0.259347 0.087832
0.094830 0.260277 0.087094
0.127678 0.261207 0.086355
0.160527 0.262137 0.085617
0.193375 0.263066 0.084879
0.226223 0.263996 0.084141
0.259071 0.264926 0.083403
0.291920 0.265855 0.082665
0.324768 0.266785 0.081927
0.357616 0.267715 0.081188
0.390465 0.268644 0.080450
0.423313 0.269574 0.079712
0.456161 0.270504 0.078974
0.489010 0.271434 0.078236
0.521858 0.272363 0.077498
0.554706 0.273293 0.076759
0.587554 0.274223 0.076021
0.620403 0.275152 0.075283
0.653251 0.276082 0.074545
0.686099 0.277012 0.073807
0.718948 0.277942 0.073069
0.751796 0.278871 0.072331
0.784644 0.279801 0.071592
0.817493 0.280731 0.070854
0.850341 0.281660 0.070116
0.883189 0.282590 0.069378
0.916037 0.283520 0.068640
0.934356 0.283982 0.067434
0.935239 0.283884 0.065668
0.000000 0.289287 0.090794
0.000000 0.289189 0.089028
0.000000 0.289652 0.087822
0.032848 0.290581 0.087084
0.065696 0.291511 0.086346
0.098545 0.292441 0.085608
0.131393 0.293370 0.084870
0.164241 0.294300 0.084131
0.197089 0.295230 0.083393
0.229938 0.296159 0.082655
0.262786 0.297089 0.081917
0.295634 0.298019 0.081179
0.328483 0.298949 0.080441
0.361331 0.299878 0.079703
0.394179 0.300808 0.078964
0.427028 0.301738 0.078226
0.459876 0.302667 0.077488
0.492724 0.303597 0.076750
0.525572 0.304527 0.076012
0.558421 0.305457 0.075274
0.591269 0.306386 0.074535
0.624117 0.307316 0.073797
0.656966 0.308246 0.073059
0.689814 0.309175 0.072321
0.722662 0.310105 0.071583
0.755511 0.311035 0.070845
0.788359 0.311964 0.070106
0.821207 0.312894 0.069368
0.854055 0.313824 0.068630
0.886904 0.314754 0.067892
0.919752 0.315683 0.067154
0.938071 0.316146 0.065949
0.938363 0.316113 0.065363
0.000000 0.321451 0.089308
0.000000 0.321353 0.087542
0.003714 0.321815 0.086336
0.036563 0.322745 0.085598
0.069411 0.323674 0.084860
0.102259 0.324604 0.084122
0.135107 0.325534 0.083384
0.167956 0.326464 0.082646
0.200804 0.327393 0.081907
0.233652 0.328323 0.081169
0.266501 0.329253 0.080431
0.299349 0.330182 0.079693
0.332197 0.331112 0.078955
0.365046 0.332042 0.078217
0.397894 0.332972 0.077479
0.430742 0.333901 0.076740
0.463590 0.334831 0.076002
0.496439 0.335761 0.075264
0.529287 0.336690 0.074526
0.562135 0.337620 0.073788
0.594984 0.338550 0.073050
0.627832 0.339479 0.072311
0.660680 0.340409 0.071573
0.693529 0.341339 0.070835
0.726377 0.342269 0.070097
0.759225 0.343198 0.069359
0.792073 0.344128 0.068621
0.824922 0.345058 0.067882
0.857770 0.345987 0.067144
0.890618 0.346917 0.066406
0.922909 0.347909 0.066784
0.940344 0.348469 0.067344
0.940344 0.348469 0.067344
0.000000 0.353614 0.087822
0.000000 0.353516 0.086056
0.007429 0.353979 0.084851
0.040277 0.354908 0.084112
0.073125 0.355838 0.083374
0.105974 0.356768 0.082636
0.138822 0.357697 0.081898
0.171670 0.358627 0.081160
0.204519 0.359557 0.080422
0.237367 0.360487 0.079683
0.270215 0.361416 0.078945
0.303064 0.362346 0.078207
0.335912 0.363276 0.077469
0.368760 0.364205 0.076731
0.401608 0.365135 0.075993
0.434457 0.366065 0.075255
0.467305 0.366994 0.074516
0.500153 0.367924 0.073778
0.533002 0.368854 0.073040
0.565850 0.369784 0.072302
0.598698 0.370713 0.071564
0.631547 0.371643 0.070826
0.664395 0.372573 0.070087
0.697243 0.373502 0.069349
0.730091 0.374432 0.068611
0.762940 0.375362 0.067873
0.795788 0.376291 0.067135
0.828636 0.377221 0.066397
0.860959 0.378209 0.066709
0.892925 0.379237 0.067737
0.924890 0.380265 0.068765
0.942326 0.380825 0.069325
0.942326 0.380825 0.069325
0.000000 0.385778 0.086336
0.000000 0.385680 0.084570
0.011144 0.386142 0.083365
0.043992 0.387072 0.082627
0.076840 0.388002 0.081888
0.109688 0.388931 0.081150
0.142537 0.389861 0.080412
0.175385 0.390791 0.079674
0.208233 0.391720 0.078936
0.241082 0.392650 0.078198
0.273930 0.393580 0.077459
0.306778 0.394509 0.076721
0.339626 0.395439 0.075983
0.372475 0.396369 0.075245
0.405323 0.397299 0.074507
0.438171 0.398228 0.073769
0.471020 0.399158 0.073031
0.503868 0.400088 0.072292
0.536716 0.401017 0.071554
0.569565 0.401947 0.070816
0.602413 0.402877 0.070078
0.635261 0.403806 0.069340
0.668109 0.404736 0.068602
0.700958 0.405666 0.067863
0.733806 0.406596 0.067125
0.766654 0.407525 0.066387
0.799010 0.408510 0.066635
0.830975 0.409538 0.067663
0.862940 0.410565 0.068690
0.894906 0.411593 0.069718
0.926871 0.412621 0.070746
0.944307 0.413182 0.071307
0.944307 0.413182 0.071307
0.000000 0.417941 0.084850
0.000000 0.417843 0.083084
0.014858 0.418306 0.081879
0.047706 0.419235 0.081141
0.080555 0.420165 0.080403
0.113403 0.421095 0.079664
0.146251 0.422024 0.078926
0.179100 0.422954 0.078188
0.211948 0.423884 0.077450
0.244796 0.424814 0.076712
0.277644 0.425743 0.075974
0.310493 0.426673 0.075235
0.343341 0.427603 0.074497
0.376189 0.428532 0.073759
0.409038 0.429462 0.073021
0.441886 0.430392 0.072283
0.474734 0.431321 0.071545
0.507583 0.432251 0.070807
0.540431 0.433181 0.070068
0.573279 0.434111 0.069330
0.606127 0.435040 0.068592
0.638976 0.435970 0.067854
0.671824 0.436900 0.067116
0.704672 0.437829 0.066378
0.737060 0.438810 0.066560
0.769026 0.439838 0.067588
0.800991 0.440866 0.068616
0.832956 0.441894 0.069644
0.864922 0.442921 0.070671
0.896887 0.443949 0.071699
0.928852 0.444977 0.072727
0.946288 0.445538 0.073288
0.946288 0.445538 0.073288
0.000000 0.450105 0.083364
0.000254 0.450007 0.081598
0.018573 0.450469 0.080393
0.051421 0.451399 0.079655
0.084269 0.452329 0.078917
0.117118 0.453258 0.078179
0.149966 0.454188 0.077440
0.182814 0.455118 0.076702
0.215663 0.456047 0.075964
0.248511 0.456977 0.075226
0.281359 0.457907 0.074488
0.314207 0.458836 0.073750
0.347056 0.459766 0.073011
0.379904 0.460696 0.072273
0.412752 0.461626 0.071535
0.445601 0.462555 0.070797
0.478449 0.463485 0.070059
0.511297 0.464415 0.069321
0.544145 0.465344 0.068583
0.576994 0.466274 0.067844
0.609842 0.467204 0.067106
0.642690 0.468134 0.066368
0.675111 0.469111 0.066486
0.707076 0.470139 0.067514
0.739041 0.471166 0.068541
0.771007 0.472194 0.069569
0.802972 0.473222 0.070597
0.834937 0.474250 0.071625
0.866903 0.475278 0.072653
0.898868 0.476305 0.073680
0.930833 0.477333 0.074708
0.948269 0.477894 0.075269
0.948269 0.477894 0.075269
0.003086 0.482268 0.081878
0.003969 0.482170 0.080113
0.022287 0.482633 0.078907
0.055136 0.483562 0.078169
0.087984 0.484492 0.077431
0.120832 0.485422 0.076693
0.153681 0.486351 0.075955
0.186529 0.487281 0.075216
0.219377 0.488211 0.074478
0.252225 0.489141 0.073740
0.285074 0.490070 0.073002
0.317922 0.491000 0.072264
0.350770 0.491930 0.071526
0.383619 0.492859 0.070787
0.416467 0.493789 0.070049
0.449315 0.494719 0.069311
0.482164 0.495648 0.068573
0.515012 0.496578 0.067835
0.547860 0.497508 0.067097
0.580708 0.498438 0.066359
0.613161 0.499411 0.066411
0.645127 0.500439 0.067439
0.677092 0.501467 0.068467
0.709057 0.502495 0.069495
0.741023 0.503522 0.070522
0.772988 0.504550 0.071550
0.804953 0.505578 0.072578
0.836918 0.506606 0.073606
0.868884 0.507634 0.074634
0.900849 0.508662 0.075662
0.932814 0.509689 0.076689
0.950250 0.510250 0.077250
0.950250 0.510250 0.077250
0.006800 0.514432 0.080393
0.007683 0.514334 0.078627
0.026002 0.514796 0.077421
0.058850 0.515726 0.076683
0.091699 0.516656 0.075945
0.124547 0.517585 0.075207
0.157395 0.518515 0.074469
0.190243 0.519445 0.073731
0.223092 0.520374 0.072992
0.255940 0.521304 0.072254
0.288788 0.522234 0.071516
0.321637 0.523164 0.070778
0.354485 0.524093 0.070040
0.387333 0.525023 0.069302
0.420182 0.525953 0.068563
0.453030 0.526882 0.067825
0.485878 0.527812 0.067087
0.518726 0.528742 0.066349
0.551212 0.529712 0.066337
0.583177 0.530740 0.067365
0.615142 0.531767 0.068392
0.647108 0.532795 0.069420
0.679073 0.533823 0.070448
0.711038 0.534851 0.071476
0.743004 0.535879 0.072504
0.774969 0.536906 0.073531
0.806934 0.537934 0.074559
0.838900 0.538962 0.075587
0.870865 0.539990 0.076615
0.902830 0.541018 0.077643
0.934796 0.542045 0.078670
0.952231 0.542606 0.079231
0.952231 0.542606 0.079231
0.010515 0.546595 0.078907
0.011398 0.546497 0.077141
0.029717 0.546960 0.075935
0.062565 0.547889 0.075197
0.095413 0.548819 0.074459
0.128261 0.549749 0.073721
0.161110 0.550678 0.072983
0.193958 0.551608 0.072245
0.226806 0.552538 0.071507
0.259655 0.553468 0.070768
0.292503 0.554397 0.070030
0.325351 0.555327 0.069292
0.358200 0.556257 0.068554
0.391048 0.557186 0.067816
0.423896 0.558116 0.067078
0.456744 0.559046 0.066339
0.489262 0.560012 0.066262
0.521228 0.561040 0.067290
0.553193 0.562068 0.068318
0.585158 0.563096 0.069346
0.617123 0.564123 0.070373
0.649089 0.565151 0.071401
0.681054 0.566179 0.072429
0.713019 0.567207 0.073457
0.744985 0.568235 0.074485
0.776950 0.569263 0.075513
0.808915 0.570290 0.076540
0.840881 0.571318 0.077568
0.872846 0.572346 0.078596
0.904811 0.573374 0.079624
0.936777 0.574402 0.080652
0.954212 0.574962 0.081212
0.954212 0.574962 0.081212
0.014230 0.578759 0.077421
0.015113 0.578661 0.075655
0.033431 0.579123 0.074450
0.066279 0.580053 0.073711
0.099128 0.580983 0.072973
0.131976 0.581912 0.072235
0.164824 0.582842 0.071497
0.197673 0.583772 0.070759
0.230521 0.584701 0.070021
0.263369 0.585631 0.069283
0.296218 0.586561 0.068544
0.329066 0.587491 0.067806
0.361914 0.588420 0.067068
0.394762 0.589350 0.066330
0.427313 0.590313 0.066188
0.459278 0.591341 0.067216
0.491243 0.592368 0.068243
0.523209 0.593396 0.069271
0.555174 0.594424 0.070299
0.587139 0.595452 0.071327
0.619105 0.596480 0.072355
0.651070 0.597507 0.073382
0.683035 0.598535 0.074410
0.715001 0.599563 0.075438
0.746966 0.600591 0.076466
0.778931 0.601619 0.077494
0.810897 0.602647 0.078522
0.842862 0.603674 0.079549
0.874827 0.604702 0.080577
0.906792 0.605730 0.081605
0.938758 0.606758 0.082633
0.956193 0.607318 0.083193
0.956193 0.607318 0.083193
0.017944 0.610922 0.075935
0.018827 0.610824 0.074169
0.037146 0.611287 0.072964
0.069994 0.612216 0.072226
0.102842 0.613146 0.071487
0.135691 0.614076 0.070749
0.168539 0.615006 0.070011
0.201387 0.615935 0.069273
0.234236 0.616865 0.068535
0.267084 0.617795 0.067797
0.299932 0.618724 0.067059
0.332780 0.619654 0.066320
0.365363 0.620613 0.066113
0.397329 0.621641 0.067141
0.429294 0.622669 0.068169
0.461259 0.623697 0.069197
0.493224 0.624725 0.070225
0.525190 0.625752 0.071252
0.557155 0.626780 0.072280
0.589120 0.627808 0.073308
0.621086 0.628836 0.074336
0.653051 0.629864 0.075364
0.685016 0.630891 0.076391
0.716982 0.631919 0.077419
0.748947 0.632947 0.078447
0.780912 0.633975 0.079475
0.812878 0.635003 0.080503
0.844843 0.636030 0.081530
0.876808 0.637058 0.082558
0.908774 0.638086 0.083586
0.940739 0.639114 0.084614
0.958175 0.639675 0.085175
0.958175 0.639675 0.085175
0.021659 0.643086 0.074449
0.022542 0.642988 0.072683
0.040860 0.643450 0.071478
0.073709 0.644380 0.070740
0.106557 0.645310 0.070002
0.139405 0.646239 0.069264
0.172254 0.647169 0.068525
0.205102 0.648099 0.067787
0.237950 0.649028 0.067049
0.270798 0.649958 0.066311
0.303414 0.650914 0.066039
0.335379 0.651942 0.067067
0.367344 0.652969 0.068094
0.399310 0.653997 0.069122
0.431275 0.655025 0.070150
0.463240 0.656053 0.071178
0.495206 0.657081 0.072206
0.527171 0.658108 0.073233
0.559136 0.659136 0.074261
0.591102 0.660164 0.075289
0.623067 0.661192 0.076317
0.655032 0.662220 0.077345
0.686998 0.663247 0.078372
0.718963 0.664275 0.079400
0.750928 0.665303 0.080428
0.782893 0.666331 0.081456
0.814859 0.667359 0.082484
0.846824 0.668387 0.083512
0.878789 0.669414 0.084539
0.910755 0.670442 0.085567
0.942720 0.671470 0.086595
0.960156 0.672031 0.087156
0.960156 0.672031 0.087156
0.025373 0.675249 0.072963
0.026256 0.675151 0.071197
0.044575 0.675614 0.069992
0.077423 0.676543 0.069254
0.110272 0.677473 0.068516
0.143120 0.678403 0.067778
0.175968 0.679333 0.067039
0.208816 0.680262 0.066301
0.241464 0.681214 0.065964
0.273430 0.682242 0.066992
0.305395 0.683270 0.068020
0.337360 0.684298 0.069048
0.369325 0.685326 0.070075
0.401291 0.686353 0.071103
0.433256 0.687381 0.072131
0.465221 0.688409 0.073159
0.497187 0.689437 0.074187
0.529152 0.690465 0.075215
0.561117 0.691492 0.076242
0.593083 0.692520 0.077270
0.625048 0.693548 0.078298
0.657013 0.694576 0.079326
0.688979 0.695604 0.080354
0.720944 0.696631 0.081381
0.752909 0.697659 0.082409
0.784875 0.698687 0.083437
0.816840 0.699715 0.084465
0.848805 0.700743 0.085493
0.880771 0.701770 0.086520
0.912736 0.702798 0.087548
0.944701 0.703826 0.088576
0.962137 0.704387 0.089137
0.962137 0.704387 0.089137
0.029088 0.707413 0.071478
0.029971 0.707315 0.069712
0.048290 0.707777 0.068506
0.081138 0.708707 0.067768
0.113986 0.709637 0.067030
0.146834 0.710566 0.066292
0.179515 0.711515 0.065890
0.211480 0.712543 0.066918
0.243445 0.713570 0.067945
0.275411 0.714598 0.068973
0.307376 0.715626 0.070001
0.339341 0.716654 0.071029
0.371307 0.717682 0.072057
0.403272 0.718709 0.073084
0.435237 0.719737 0.074112
0.467203 0.720765 0.075140
0.499168 0.721793 0.076168
0.531133 0.722821 0.077196
0.563098 0.723849 0.078223
0.595064 0.724876 0.079251
0.627029 0.725904 0.080279
0.658994 0.726932 0.081307
0.690960 0.727960 0.082335
0.722925 0.728988 0.083363
0.754890 0.730015 0.084390
0.786856 0.731043 0.085418
0.818821 0.732071 0.086446
0.850786 0.733099 0.087474
0.882752 0.734127 0.088502
0.914717 0.735154 0.089529
0.946682 0.736182 0.090557
0.964118 0.736743 0.091118
0.964118 0.736743 0.091118
0.032803 0.739576 0.069992
0.033686 0.739478 0.068226
0.052004 0.739941 0.067020
0.084853 0.740870 0.066282
0.117565 0.741815 0.065815
0.149531 0.742843 0.066843
0.181496 0.743871 0.067871
0.213461 0.744899 0.068899
0.245426 0.745927 0.069926
0.277392 0.746954 0.070954
0.309357 0.747982 0.071982
0.341322 0.749010 0.073010
0.373288 0.750038 0.074038
0.405253 0.751066 0.075066
0.437218 0.752093 0.076093
0.469184 0.753121 0.077121
0.501149 0.754149 0.078149
0.533114 0.755177 0.079177
0.565080 0.756205 0.080205
0.597045 0.757232 0.081232
0.629010 0.758260 0.082260
0.660976 0.759288 0.083288
0.692941 0.760316 0.084316
0.724906 0.761344 0.085344
0.756872 0.762371 0.086372
0.788837 0.763399 0.087399
0.820802 0.764427 0.088427
0.852767 0.765455 0.089455
0.884733 0.766483 0.090483
0.916698 0.767511 0.091511
0.948663 0.768538 0.092538
0.966099 0.769099 0.093099
0.966099 0.769099 0.093099
0.036517 0.771740 0.068506
0.037400 0.771642 0.066740
0.055616 0.772116 0.065741
0.087581 0.773144 0.066769
0.119546 0.774171 0.067796
0.151512 0.775199 0.068824
0.183477 0.776227 0.069852
0.215442 0.777255 0.070880
0.247408 0.778283 0.071908
0.279373 0.779310 0.072935
0.311338 0.780338 0.073963
0.343304 0.781366 0.074991
0.375269 0.782394 0.076019
0.407234 0.783422 0.077047
0.439199 0.784449 0.078075
0.471165 0.785477 0.079102
0.503130 0.786505 0.080130
0.535095 0.787533 0.081158
0.567061 0.788561 0.082186
0.599026 0.789589 0.083214
0.630991 0.790616 0.084241
0.662957 0.791644 0.085269
0.694922 0.792672 0.086297
0.726887 0.793700 0.087325
0.758853 0.794728 0.088353
0.790818 0.795755 0.089380
0.822783 0.796783 0.090408
0.854749 0.797811 0.091436
0.886714 0.798839 0.092464
0.918679 0.799867 0.093492
0.950645 0.800894 0.094519
0.968080 0.801455 0.095080
0.968080 0.801455 0.095080
0.040161 0.803911 0.067161
0.040161 0.803911 0.067161
0.057597 0.804472 0.067722
0.089562 0.805500 0.068750
0.121527 0.806527 0.069777
0.153493 0.807555 0.070805
0.185458 0.808583 0.071833
0.217423 0.809611 0.072861
0.249389 0.810639 0.073889
0.281354 0.811667 0.074917
0.313319 0.812694 0.075944
0.345285 0.813722 0.076972
0.377250 0.814750 0.078000
0.409215 0.815778 0.079028
0.441181 0.816806 0.080056
0.473146 0.817833 0.081083
0.505111 0.818861 0.082111
0.537077 0.819889 0.083139
0.569042 0.820917 0.084167
0.601007 0.821945 0.085195
0.632972 0.822972 0.086222
0.664938 0.824000 0.087250
0.696903 0.825028 0.088278
0.728868 0.826056 0.089306
0.760834 0.827084 0.090334
0.792799 0.828112 0.091362
0.824764 0.829139 0.092389
