docs/luts/fresh-teal-horror-rec709.cube
TITLE "FreshLUTs??-????Rec709"
LUT_3D_SIZE 5
DOMAIN_MIN 0.0 0.0 0.0
DOMAIN_MAX 1.0 1.0 1.0
0.000000 0.045000 0.095000
0.122790 0.051092 0.093243
0.385157 0.063762 0.098065
0.647525 0.076432 0.102886
0.825314 0.082524 0.101129
0.000000 0.228870 0.093811
0.167827 0.234962 0.092055
0.430195 0.247632 0.096876
0.692562 0.260302 0.101697
0.870352 0.266395 0.099941
0.043469 0.471834 0.101017
0.221259 0.477926 0.099260
0.483627 0.490596 0.104081
0.741194 0.507194 0.117194
0.910350 0.520350 0.130350
0.096901 0.714798 0.108222
0.270208 0.724558 0.114208
0.523942 0.744292 0.133942
0.777676 0.764026 0.153676
0.946832 0.777182 0.166832
0.129140 0.909140 0.129140
0.298296 0.922296 0.142296
0.552030 0.942030 0.162030
0.805764 0.961764 0.181764
0.974920 0.974920 0.194920
0.000000 0.047448 0.254356
0.131223 0.053540 0.252599
0.393590 0.066210 0.257420
0.655958 0.078881 0.262242
0.833748 0.084973 0.260485
0.000000 0.231318 0.253167
0.176260 0.237410 0.251410
0.438628 0.250080 0.256232
0.700996 0.262751 0.261053
0.878785 0.268843 0.259296
0.051902 0.474282 0.260372
0.229692 0.480375 0.258616
0.492060 0.493045 0.263437
0.746335 0.512335 0.282235
0.915491 0.525491 0.295391
0.105334 0.717247 0.267578
0.275349 0.729699 0.279249
0.529083 0.749433 0.298983
0.782817 0.769167 0.318717
0.951973 0.782323 0.331873
0.134281 0.914281 0.294181
0.303437 0.927437 0.307337
0.557171 0.947171 0.327071
0.810905 0.966905 0.346805
0.980061 0.980061 0.359961
0.000000 0.052153 0.486169
0.141913 0.058246 0.484412
0.404281 0.070916 0.489233
0.666648 0.083586 0.494055
0.844438 0.089678 0.492298
0.009161 0.236024 0.484980
0.186951 0.242116 0.483223
0.449318 0.254786 0.488045
0.711686 0.267456 0.492866
0.886408 0.276058 0.496408
0.062593 0.478988 0.492185
0.240382 0.485080 0.490429
0.500000 0.500000 0.500000
0.753734 0.519734 0.519734
0.922890 0.532890 0.532890
0.113592 0.723942 0.503592
0.282748 0.737098 0.516748
0.536482 0.756832 0.536482
0.790216 0.776566 0.556216
0.959372 0.789722 0.569372
0.141680 0.921680 0.531680
0.310836 0.934836 0.544836
0.564570 0.954570 0.564570
0.818304 0.974304 0.584304
0.987460 0.987460 0.597460
0.000000 0.056859 0.717981
0.152603 0.062951 0.716225
0.414971 0.075621 0.721046
0.677339 0.088291 0.725867
0.855128 0.094383 0.724111
0.019851 0.240729 0.716793
0.197641 0.246821 0.715036
0.460009 0.259491 0.719857
0.722376 0.272161 0.724679
0.893807 0.283457 0.733907
0.073283 0.483693 0.723998
0.251073 0.489785 0.722241
0.507399 0.507399 0.737499
0.761133 0.527133 0.757233
0.930289 0.540289 0.770389
0.120991 0.731341 0.741091
0.290147 0.744497 0.754247
0.543881 0.764231 0.773981
0.797615 0.783965 0.793715
0.966771 0.797121 0.806871
0.149079 0.929079 0.769179
0.318235 0.942235 0.782335
0.571969 0.961969 0.802069
0.825703 0.981703 0.821803
0.994859 0.994859 0.834959
0.000000 0.059307 0.877337
0.161037 0.065399 0.875580
0.423404 0.078069 0.880402
0.685772 0.090739 0.885223
0.863561 0.096832 0.883466
0.028285 0.243177 0.876148
0.206074 0.249269 0.874392
0.468442 0.261939 0.879213
0.729792 0.275442 0.885792
0.898948 0.288598 0.898948
0.081716 0.486141 0.883354
0.258806 0.492806 0.882806
0.512540 0.512540 0.902540
0.766274 0.532274 0.922274
0.935430 0.545430 0.935430
0.126132 0.736482 0.906132
0.295288 0.749638 0.919288
0.549022 0.769372 0.939022
0.802756 0.789106 0.958756
0.971912 0.802262 0.971912
0.154220 0.934220 0.934220
0.323376 0.947376 0.947376
0.577110 0.967110 0.967110
0.830844 0.986844 0.986844
1.000000 1.000000 1.000000
