docs/luts/fresh-royals.cube
TITLE "FreshLUTs??-????"
LUT_3D_SIZE 33
DOMAIN_MIN 0.0 0.0 0.0
DOMAIN_MAX 1.0 1.0 1.0
0.000000 0.000000 0.000000
0.000000 0.000000 0.000000
0.018487 0.000112 0.000000
0.052380 0.000318 0.000000
0.086273 0.000523 0.000000
0.120166 0.000729 0.000000
0.154059 0.000934 0.000000
0.187952 0.001140 0.000000
0.221845 0.001345 0.000000
0.255739 0.001551 0.000000
0.289632 0.001757 0.000000
0.323525 0.001962 0.000000
0.357418 0.002168 0.000000
0.391311 0.002373 0.000000
0.425204 0.002579 0.000000
0.459097 0.002784 0.000000
0.492990 0.002990 0.000000
0.526883 0.003196 0.000000
0.560776 0.003401 0.000000
0.594669 0.003607 0.000000
0.628562 0.003812 0.000000
0.662455 0.004018 0.000000
0.696348 0.004223 0.000000
0.730241 0.004429 0.000000
0.764135 0.004635 0.000000
0.798028 0.004840 0.000000
0.831921 0.005046 0.000000
0.865814 0.005251 0.000000
0.899707 0.005457 0.000000
0.933600 0.005662 0.000000
0.967493 0.005868 0.000000
0.985980 0.005980 0.000000
0.985980 0.005980 0.000000
0.000037 0.003099 0.000000
0.000037 0.003099 0.000000
0.018524 0.003211 0.000000
0.052417 0.003417 0.000000
0.086310 0.003622 0.000000
0.120203 0.003828 0.000000
0.154096 0.004034 0.000000
0.187989 0.004239 0.000000
0.221882 0.004445 0.000000
0.255775 0.004650 0.000000
0.289668 0.004856 0.000000
0.323561 0.005061 0.000000
0.357454 0.005267 0.000000
0.391347 0.005472 0.000000
0.425241 0.005678 0.000000
0.459134 0.005884 0.000000
0.493027 0.006089 0.000000
0.526920 0.006295 0.000000
0.560813 0.006500 0.000000
0.594706 0.006706 0.000000
0.628599 0.006911 0.000000
0.662492 0.007117 0.000000
0.696385 0.007323 0.000000
0.730278 0.007528 0.000000
0.764171 0.007734 0.000000
0.798064 0.007939 0.000000
0.831957 0.008145 0.000000
0.865850 0.008350 0.000000
0.899743 0.008556 0.000000
0.933636 0.008761 0.000000
0.967530 0.008967 0.000000
0.986017 0.009079 0.000000
0.986017 0.009079 0.000000
0.000426 0.035951 0.000000
0.000426 0.035951 0.000000
0.018913 0.036063 0.000000
0.052806 0.036268 0.000000
0.086699 0.036474 0.000000
0.120592 0.036679 0.000000
0.154485 0.036885 0.000000
0.188378 0.037091 0.000000
0.222271 0.037296 0.000000
0.256164 0.037502 0.000000
0.290057 0.037707 0.000000
0.323950 0.037913 0.000000
0.357843 0.038118 0.000000
0.391736 0.038324 0.000000
0.425629 0.038529 0.000000
0.459523 0.038735 0.000000
0.493416 0.038941 0.000000
0.527309 0.039146 0.000000
0.561202 0.039352 0.000000
0.595095 0.039557 0.000000
0.628988 0.039763 0.000000
0.662881 0.039968 0.000000
0.696774 0.040174 0.000000
0.730667 0.040380 0.000000
0.764560 0.040585 0.000000
0.798453 0.040791 0.000000
0.832346 0.040996 0.000000
0.866239 0.041202 0.000000
0.900132 0.041407 0.000000
0.934025 0.041613 0.000000
0.967918 0.041818 0.000000
0.986406 0.041931 0.000000
0.986406 0.041931 0.000000
0.000814 0.068802 0.000000
0.000814 0.068802 0.000000
0.019302 0.068914 0.000000
0.053195 0.069120 0.000000
0.087088 0.069325 0.000000
0.120981 0.069531 0.000000
0.154874 0.069736 0.000000
0.188767 0.069942 0.000000
0.222660 0.070147 0.000000
0.256553 0.070353 0.000000
0.290446 0.070559 0.000000
0.324339 0.070764 0.000000
0.358232 0.070970 0.000000
0.392125 0.071175 0.000000
0.426018 0.071381 0.000000
0.459911 0.071586 0.000000
0.493804 0.071792 0.000000
0.527698 0.071998 0.000000
0.561591 0.072203 0.000000
0.595484 0.072409 0.000000
0.629377 0.072614 0.000000
0.663270 0.072820 0.000000
0.697163 0.073025 0.000000
0.731056 0.073231 0.000000
0.764949 0.073436 0.000000
0.798842 0.073642 0.000000
0.832735 0.073848 0.000000
0.866628 0.074053 0.000000
0.900521 0.074259 0.000000
0.934414 0.074464 0.000000
0.968307 0.074670 0.000000
0.986794 0.074782 0.000000
0.986794 0.074782 0.000000
0.001203 0.101653 0.000000
0.001203 0.101653 0.000000
0.019690 0.101765 0.000000
0.053584 0.101971 0.000000
0.087477 0.102177 0.000000
0.121370 0.102382 0.000000
0.155263 0.102588 0.000000
0.189156 0.102793 0.000000
0.223049 0.102999 0.000000
0.256942 0.103204 0.000000
0.290835 0.103410 0.000000
0.324728 0.103616 0.000000
0.358621 0.103821 0.000000
0.392514 0.104027 0.000000
0.426407 0.104232 0.000000
0.460300 0.104438 0.000000
0.494193 0.104643 0.000000
0.528086 0.104849 0.000000
0.561979 0.105054 0.000000
0.595873 0.105260 0.000000
0.629766 0.105466 0.000000
0.663659 0.105671 0.000000
0.697552 0.105877 0.000000
0.731445 0.106082 0.000000
0.765338 0.106288 0.000000
0.799231 0.106493 0.000000
0.833124 0.106699 0.000000
0.867017 0.106905 0.000000
0.900910 0.107110 0.000000
0.934803 0.107316 0.000000
0.968696 0.107521 0.000000
0.987183 0.107633 0.000000
0.987183 0.107633 0.000000
0.001592 0.134505 0.000000
0.001592 0.134505 0.000000
0.020079 0.134617 0.000000
0.053972 0.134822 0.000000
0.087865 0.135028 0.000000
0.121759 0.135234 0.000000
0.155652 0.135439 0.000000
0.189545 0.135645 0.000000
0.223438 0.135850 0.000000
0.257331 0.136056 0.000000
0.291224 0.136261 0.000000
0.325117 0.136467 0.000000
0.359010 0.136672 0.000000
0.392903 0.136878 0.000000
0.426796 0.137084 0.000000
0.460689 0.137289 0.000000
0.494582 0.137495 0.000000
0.528475 0.137700 0.000000
0.562368 0.137906 0.000000
0.596261 0.138111 0.000000
0.630154 0.138317 0.000000
0.664048 0.138523 0.000000
0.697941 0.138728 0.000000
0.731834 0.138934 0.000000
0.765727 0.139139 0.000000
0.799620 0.139345 0.000000
0.833513 0.139550 0.000000
0.867406 0.139756 0.000000
0.901299 0.139961 0.000000
0.935192 0.140167 0.000000
0.969085 0.140373 0.000000
0.987572 0.140485 0.000603
0.987572 0.140485 0.001290
0.001981 0.167356 0.000000
0.001981 0.167356 0.000000
0.020468 0.167468 0.000000
0.054361 0.167674 0.000000
0.088254 0.167879 0.000000
0.122147 0.168085 0.000000
0.156040 0.168290 0.000000
0.189934 0.168496 0.000000
0.223827 0.168702 0.000000
0.257720 0.168907 0.000000
0.291613 0.169113 0.000000
0.325506 0.169318 0.000000
0.359399 0.169524 0.000000
0.393292 0.169729 0.000000
0.427185 0.169935 0.000000
0.461078 0.170141 0.000000
0.494971 0.170346 0.000000
0.528864 0.170552 0.000000
0.562757 0.170757 0.000000
0.596650 0.170963 0.000000
0.630543 0.171168 0.000000
0.664436 0.171374 0.000000
0.698330 0.171579 0.000000
0.732223 0.171785 0.000000
0.766116 0.171991 0.000000
0.800009 0.172196 0.000000
0.833902 0.172402 0.000000
0.867795 0.172607 0.000000
0.901688 0.172813 0.000000
0.935581 0.173018 0.000649
0.969474 0.173224 0.001542
0.987961 0.173336 0.002340
0.987961 0.173336 0.003027
0.002370 0.200208 0.000000
0.002370 0.200208 0.000000
0.020857 0.200320 0.000000
0.054750 0.200525 0.000000
0.088643 0.200731 0.000000
0.122536 0.200936 0.000000
0.156429 0.201142 0.000000
0.190322 0.201347 0.000000
0.224216 0.201553 0.000000
0.258109 0.201759 0.000000
0.292002 0.201964 0.000000
0.325895 0.202170 0.000000
0.359788 0.202375 0.000000
0.393681 0.202581 0.000000
0.427574 0.202786 0.000000
0.461467 0.202992 0.000000
0.495360 0.203198 0.000000
0.529253 0.203403 0.000000
0.563146 0.203609 0.000000
0.597039 0.203814 0.000000
0.630932 0.204020 0.000000
0.664825 0.204225 0.000000
0.698718 0.204431 0.000000
0.732611 0.204636 0.000000
0.766505 0.204842 0.000000
0.800398 0.205048 0.000000
0.834291 0.205253 0.000000
0.868184 0.205459 0.000602
0.902077 0.205664 0.001494
0.935970 0.205870 0.002386
0.969863 0.206075 0.003279
0.988350 0.206188 0.004078
0.989116 0.206634 0.004764
0.002759 0.233059 0.000000
0.002759 0.233059 0.000000
0.021246 0.233171 0.000000
0.055139 0.233377 0.000000
0.089032 0.233582 0.000000
0.122925 0.233788 0.000000
0.156818 0.233993 0.000000
0.190711 0.234199 0.000000
0.224604 0.234404 0.000000
0.258497 0.234610 0.000000
0.292391 0.234816 0.000000
0.326284 0.235021 0.000000
0.360177 0.235227 0.000000
0.394070 0.235432 0.000000
0.427963 0.235638 0.000000
0.461856 0.235843 0.000000
0.495749 0.236049 0.000000
0.529642 0.236254 0.000000
0.563535 0.236460 0.000000
0.597428 0.236666 0.000000
0.631321 0.236871 0.000000
0.665214 0.237077 0.000000
0.699107 0.237282 0.000000
0.733000 0.237488 0.000000
0.766893 0.237693 0.000000
0.800786 0.237899 0.000554
0.834680 0.238105 0.001447
0.868573 0.238310 0.002339
0.902466 0.238516 0.003231
0.936359 0.238721 0.004124
0.970982 0.239353 0.005016
0.990436 0.240029 0.005815
0.991403 0.240593 0.006502
0.003148 0.265910 0.000000
0.003148 0.265910 0.000000
0.021635 0.266022 0.000000
0.055528 0.266228 0.000000
0.089421 0.266434 0.000000
0.123314 0.266639 0.000000
0.157207 0.266845 0.000000
0.191100 0.267050 0.000000
0.224993 0.267256 0.000000
0.258886 0.267461 0.000000
0.292779 0.267667 0.000000
0.326672 0.267872 0.000000
0.360566 0.268078 0.000000
0.394459 0.268284 0.000000
0.428352 0.268489 0.000000
0.462245 0.268695 0.000000
0.496138 0.268900 0.000000
0.530031 0.269106 0.000000
0.563924 0.269311 0.000000
0.597817 0.269517 0.000000
0.631710 0.269723 0.000000
0.665603 0.269928 0.000000
0.699496 0.270134 0.000000
0.733389 0.270339 0.000507
0.767282 0.270545 0.001399
0.801175 0.270750 0.002291
0.835068 0.270956 0.003184
0.868961 0.271161 0.004076
0.903550 0.271772 0.004968
0.938409 0.272542 0.005861
0.973269 0.273311 0.006753
0.992723 0.273987 0.007552
0.993689 0.274551 0.008239
0.003537 0.298762 0.000000
0.003537 0.298762 0.000000
0.022024 0.298874 0.000000
0.055917 0.299079 0.000000
0.089810 0.299285 0.000000
0.123703 0.299490 0.000000
0.157596 0.299696 0.000000
0.191489 0.299902 0.000000
0.225382 0.300107 0.000000
0.259275 0.300313 0.000000
0.293168 0.300518 0.000000
0.327061 0.300724 0.000000
0.360954 0.300929 0.000000
0.394847 0.301135 0.000000
0.428741 0.301341 0.000000
0.462634 0.301546 0.000000
0.496527 0.301752 0.000000
0.530420 0.301957 0.000000
0.564313 0.302163 0.000000
0.598206 0.302368 0.000000
0.632099 0.302574 0.000000
0.665992 0.302779 0.000459
0.699885 0.302985 0.001352
0.733778 0.303191 0.002244
0.767671 0.303396 0.003136
0.801564 0.303602 0.004029
0.836117 0.304192 0.004921
0.870976 0.304961 0.005813
0.905836 0.305731 0.006706
0.940696 0.306500 0.007598
0.975555 0.307270 0.008490
0.995009 0.307946 0.009289
0.995976 0.308509 0.009517
0.003926 0.331613 0.000000
0.003926 0.331613 0.000000
0.022413 0.331725 0.000000
0.056306 0.331931 0.000000
0.090199 0.332136 0.000000
0.124092 0.332342 0.000000
0.157985 0.332547 0.000000
0.191878 0.332753 0.000000
0.225771 0.332959 0.000000
0.259664 0.333164 0.000000
0.293557 0.333370 0.000000
0.327450 0.333575 0.000000
0.361343 0.333781 0.000000
0.395236 0.333986 0.000000
0.429129 0.334192 0.000000
0.463023 0.334397 0.000000
0.496916 0.334603 0.000000
0.530809 0.334809 0.000000
0.564702 0.335014 0.000000
0.598595 0.335220 0.000412
0.632488 0.335425 0.001304
0.666381 0.335631 0.002196
0.700274 0.335836 0.003089
0.734167 0.336042 0.003981
0.768684 0.336612 0.004873
0.803544 0.337381 0.005766
0.838403 0.338150 0.006658
0.873263 0.338920 0.007550
0.908123 0.339689 0.008443
0.942982 0.340459 0.009335
0.977842 0.341228 0.009793
0.997296 0.341904 0.009906
0.998262 0.342468 0.009906
0.004314 0.364464 0.000000
0.004314 0.364464 0.000000
0.022802 0.364577 0.000000
0.056695 0.364782 0.000000
0.090588 0.364988 0.000000
0.124481 0.365193 0.000000
0.158374 0.365399 0.000000
0.192267 0.365604 0.000000
0.226160 0.365810 0.000000
0.260053 0.366016 0.000000
0.293946 0.366221 0.000000
0.327839 0.366427 0.000000
0.361732 0.366632 0.000000
0.395625 0.366838 0.000000
0.429518 0.367043 0.000000
0.463411 0.367249 0.000000
0.497304 0.367454 0.000000
0.531198 0.367660 0.000364
0.565091 0.367866 0.001257
0.598984 0.368071 0.002149
0.632877 0.368277 0.003041
0.666770 0.368482 0.003934
0.701251 0.369031 0.004826
0.736111 0.369800 0.005718
0.770971 0.370570 0.006611
0.805830 0.371339 0.007503
0.840690 0.372109 0.008395
0.875549 0.372878 0.009287
0.910409 0.373647 0.009771
0.945269 0.374417 0.009977
0.980128 0.375186 0.010182
0.999582 0.375862 0.010294
1.000000 0.376426 0.010294
0.004703 0.397316 0.000000
0.004703 0.397316 0.000000
0.023190 0.397428 0.000000
0.057084 0.397634 0.000000
0.090977 0.397839 0.000000
0.124870 0.398045 0.000000
0.158763 0.398250 0.000000
0.192656 0.398456 0.000000
0.226549 0.398661 0.000000
0.260442 0.398867 0.000000
0.294335 0.399072 0.000000
0.328228 0.399278 0.000000
0.362121 0.399484 0.000000
0.396014 0.399689 0.000000
0.429907 0.399895 0.000000
0.463800 0.400100 0.000317
0.497693 0.400306 0.001209
0.531586 0.400511 0.002101
0.565479 0.400717 0.002994
0.599373 0.400923 0.003886
0.633818 0.401451 0.004778
0.668678 0.402220 0.005671
0.703538 0.402989 0.006563
0.738397 0.403759 0.007455
0.773257 0.404528 0.008348
0.808117 0.405298 0.009240
0.842976 0.406067 0.009749
0.877836 0.406836 0.009955
0.912696 0.407606 0.010160
0.947555 0.408375 0.010366
0.982415 0.409145 0.010571
1.000000 0.409821 0.010683
1.000000 0.410384 0.010683
0.005092 0.430167 0.000000
0.005092 0.430167 0.000000
0.023579 0.430279 0.000000
0.057472 0.430485 0.000000
0.091365 0.430690 0.000000
0.125259 0.430896 0.000000
0.159152 0.431102 0.000000
0.193045 0.431307 0.000000
0.226938 0.431513 0.000000
0.260831 0.431718 0.000000
0.294724 0.431924 0.000000
0.328617 0.432129 0.000000
0.362510 0.432335 0.000000
0.396403 0.432541 0.000269
0.430296 0.432746 0.001162
0.464189 0.432952 0.002054
0.498082 0.433157 0.002946
0.531975 0.433363 0.003839
0.566386 0.433870 0.004731
0.601245 0.434639 0.005623
0.636105 0.435409 0.006516
0.670965 0.436178 0.007408
0.705824 0.436948 0.008300
0.740684 0.437717 0.009192
0.775544 0.438487 0.009727
0.810403 0.439256 0.009932
0.845263 0.440025 0.010138
0.880123 0.440795 0.010343
0.914982 0.441564 0.010549
0.949842 0.442334 0.010755
0.984701 0.443103 0.010960
1.000000 0.443779 0.011072
1.000000 0.444343 0.011072
0.005481 0.463019 0.000000
0.005481 0.463019 0.000000
0.023968 0.463131 0.000000
0.057861 0.463336 0.000000
0.091754 0.463542 0.000000
0.125647 0.463747 0.000000
0.159540 0.463953 0.000000
0.193434 0.464159 0.000000
0.227327 0.464364 0.000000
0.261220 0.464570 0.000000
0.295113 0.464775 0.000000
0.329006 0.464981 0.000222
0.362899 0.465186 0.001114
0.396792 0.465392 0.002006
0.430685 0.465597 0.002899
0.464578 0.465803 0.003791
0.498953 0.466290 0.004683
0.533812 0.467059 0.005576
0.568672 0.467828 0.006468
0.603532 0.468598 0.007360
0.638391 0.469367 0.008253
0.673251 0.470137 0.009145
0.708111 0.470906 0.009704
0.742970 0.471675 0.009910
0.777830 0.472445 0.010116
0.812690 0.473214 0.010321
0.847549 0.473984 0.010527
0.882409 0.474753 0.010732
0.917269 0.475523 0.010938
0.952128 0.476292 0.011143
0.986988 0.477061 0.011349
1.000000 0.477737 0.011461
1.000000 0.478301 0.011461
0.005870 0.495870 0.000000
0.005870 0.495870 0.000000
0.024357 0.495982 0.000000
0.058250 0.496188 0.000000
0.092143 0.496393 0.000000
0.126036 0.496599 0.000000
0.159929 0.496804 0.000000
0.193822 0.497010 0.000000
0.227715 0.497216 0.000000
0.261609 0.497421 0.000174
0.295502 0.497627 0.001067
0.329395 0.497832 0.001959
0.363288 0.498038 0.002851
0.397181 0.498243 0.003744
0.431520 0.498709 0.004636
0.466380 0.499479 0.005528
0.501239 0.500248 0.006421
0.536099 0.501017 0.007313
0.570959 0.501787 0.008205
0.605818 0.502556 0.009097
0.640678 0.503326 0.009682
0.675538 0.504095 0.009888
0.710397 0.504864 0.010093
0.745257 0.505634 0.010299
0.780117 0.506403 0.010505
0.814976 0.507173 0.010710
0.849836 0.507942 0.010916
0.884696 0.508711 0.011121
0.919555 0.509481 0.011327
0.954415 0.510250 0.011532
0.989275 0.511020 0.011738
1.000000 0.511696 0.011850
1.000000 0.512259 0.011850
0.006259 0.528721 0.000000
0.006259 0.528721 0.000000
0.024746 0.528834 0.000000
0.058639 0.529039 0.000000
0.092532 0.529245 0.000000
0.126425 0.529450 0.000000
0.160318 0.529656 0.000000
0.194211 0.529861 0.000127
0.228104 0.530067 0.001019
0.261997 0.530272 0.001911
0.295891 0.530478 0.002804
0.329784 0.530684 0.003696
0.364087 0.531129 0.004588
0.398947 0.531898 0.005481
0.433807 0.532667 0.006373
0.468666 0.533437 0.007265
0.503526 0.534206 0.008158
0.538385 0.534976 0.009050
0.573245 0.535745 0.009660
0.608105 0.536514 0.009866
0.642964 0.537284 0.010071
0.677824 0.538053 0.010277
0.712684 0.538823 0.010482
0.747543 0.539592 0.010688
0.782403 0.540362 0.010893
0.817263 0.541131 0.011099
0.852122 0.541900 0.011305
0.886982 0.542670 0.011510
0.921842 0.543439 0.011716
0.956701 0.544209 0.011921
0.991561 0.544978 0.012127
1.000000 0.545654 0.012239
1.000000 0.546218 0.012239
0.006648 0.561573 0.000000
0.006648 0.561573 0.000000
0.025135 0.561685 0.000000
0.059028 0.561890 0.000000
0.092921 0.562096 0.000000
0.126814 0.562302 0.000079
0.160707 0.562507 0.000972
0.194600 0.562713 0.001864
0.228493 0.562918 0.002756
0.262386 0.563124 0.003649
0.296654 0.563548 0.004541
0.331514 0.564318 0.005433
0.366374 0.565087 0.006325
0.401233 0.565856 0.007218
0.436093 0.566626 0.008110
0.470953 0.567395 0.009002
0.505812 0.568165 0.009638
0.540672 0.568934 0.009843
0.575532 0.569703 0.010049
0.610391 0.570473 0.010254
0.645251 0.571242 0.010460
0.680111 0.572012 0.010666
0.714970 0.572781 0.010871
0.749830 0.573550 0.011077
0.784690 0.574320 0.011282
0.819549 0.575089 0.011488
0.854409 0.575859 0.011693
0.889269 0.576628 0.011899
0.924128 0.577398 0.012105
0.958988 0.578167 0.012310
0.993848 0.578936 0.012516
1.000000 0.579612 0.012628
1.000000 0.580176 0.012628
0.007037 0.594424 0.000000
0.007037 0.594424 0.000000
0.025524 0.594536 0.000000
0.059417 0.594742 0.000032
0.093310 0.594947 0.000924
0.127203 0.595153 0.001816
0.161096 0.595359 0.002709
0.194989 0.595564 0.003601
0.229222 0.595968 0.004493
0.264081 0.596737 0.005386
0.298941 0.597506 0.006278
0.333801 0.598276 0.007170
0.368660 0.599045 0.008063
0.403520 0.599815 0.008955
0.438380 0.600584 0.009616
0.473239 0.601354 0.009821
0.508099 0.602123 0.010027
0.542959 0.602892 0.010232
0.577818 0.603662 0.010438
0.612678 0.604431 0.010643
0.647537 0.605201 0.010849
0.682397 0.605970 0.011054
0.717257 0.606739 0.011260
0.752116 0.607509 0.011466
0.786976 0.608278 0.011671
0.821836 0.609048 0.011877
0.856695 0.609817 0.012082
0.891555 0.610586 0.012288
0.926415 0.611356 0.012493
0.961274 0.612125 0.012699
0.996134 0.612895 0.012905
1.000000 0.613571 0.013017
1.000000 0.614134 0.013017
0.007426 0.627276 0.000000
0.007426 0.627276 0.000078
0.025913 0.627388 0.000877
0.059806 0.627593 0.001769
0.093699 0.627799 0.002661
0.127592 0.628004 0.003554
0.161789 0.628387 0.004446
0.196648 0.629157 0.005338
0.231508 0.629926 0.006230
0.266368 0.630695 0.007123
0.301227 0.631465 0.008015
0.336087 0.632234 0.008907
0.370947 0.633004 0.009593
0.405806 0.633773 0.009799
0.440666 0.634542 0.010004
0.475526 0.635312 0.010210
0.510385 0.636081 0.010416
0.545245 0.636851 0.010621
0.580105 0.637620 0.010827
0.614964 0.638390 0.011032
0.649824 0.639159 0.011238
0.684684 0.639928 0.011443
0.719543 0.640698 0.011649
0.754403 0.641467 0.011854
0.789263 0.642237 0.012060
0.824122 0.643006 0.012266
0.858982 0.643775 0.012471
0.893842 0.644545 0.012677
0.928701 0.645314 0.012882
0.963561 0.646084 0.013088
0.998421 0.646853 0.013293
1.000000 0.647529 0.013406
1.000000 0.648093 0.013406
0.007814 0.660127 0.001128
0.007814 0.660127 0.001815
0.026302 0.660239 0.002614
0.060195 0.660445 0.003506
0.094356 0.660807 0.004398
0.129216 0.661576 0.005291
0.164075 0.662346 0.006183
0.198935 0.663115 0.007075
0.233795 0.663884 0.007968
0.268654 0.664654 0.008860
0.303514 0.665423 0.009571
0.338374 0.666193 0.009777
0.373233 0.666962 0.009982
0.408093 0.667731 0.010188
0.442953 0.668501 0.010393
0.477812 0.669270 0.010599
0.512672 0.670040 0.010804
0.547532 0.670809 0.011010
0.582391 0.671578 0.011216
0.617251 0.672348 0.011421
0.652111 0.673117 0.011627
0.686970 0.673887 0.011832
0.721830 0.674656 0.012038
0.756689 0.675425 0.012243
0.791549 0.676195 0.012449
0.826409 0.676964 0.012655
0.861268 0.677734 0.012860
0.896128 0.678503 0.013066
0.930988 0.679273 0.013271
0.965847 0.680042 0.013477
1.000000 0.680811 0.013682
1.000000 0.681487 0.013794
1.000000 0.682051 0.013794
0.008203 0.692978 0.002865
0.008203 0.692978 0.003552
0.026923 0.693226 0.004351
0.061783 0.693996 0.005243
0.096643 0.694765 0.006135
0.131502 0.695534 0.007028
0.166362 0.696304 0.007920
0.201221 0.697073 0.008812
0.236081 0.697843 0.009549
0.270941 0.698612 0.009754
0.305800 0.699382 0.009960
0.340660 0.700151 0.010166
0.375520 0.700920 0.010371
0.410379 0.701690 0.010577
0.445239 0.702459 0.010782
0.480099 0.703229 0.010988
0.514958 0.703998 0.011193
0.549818 0.704767 0.011399
0.584678 0.705537 0.011604
0.619537 0.706306 0.011810
0.654397 0.707076 0.012016
0.689257 0.707845 0.012221
0.724116 0.708614 0.012427
0.758976 0.709384 0.012632
0.793836 0.710153 0.012838
0.828695 0.710923 0.013043
0.863555 0.711692 0.013249
0.898415 0.712461 0.013455
0.933274 0.713231 0.013660
0.968134 0.714000 0.013866
1.000000 0.714770 0.014071
1.000000 0.715446 0.014183
1.000000 0.716010 0.014183
0.008789 0.725945 0.004602
0.009756 0.726509 0.005289
0.029210 0.727185 0.006088
0.064069 0.727954 0.006980
0.098929 0.728723 0.007873
0.133789 0.729493 0.008765
0.168648 0.730262 0.009527
0.203508 0.731032 0.009732
0.238368 0.731801 0.009938
0.273227 0.732570 0.010143
0.308087 0.733340 0.010349
0.342947 0.734109 0.010554
0.377806 0.734879 0.010760
0.412666 0.735648 0.010966
0.447526 0.736417 0.011171
0.482385 0.737187 0.011377
0.517245 0.737956 0.011582
0.552105 0.738726 0.011788
0.586964 0.739495 0.011993
0.621824 0.740265 0.012199
0.656684 0.741034 0.012404
0.691543 0.741803 0.012610
0.726403 0.742573 0.012816
0.761263 0.743342 0.013021
0.796122 0.744112 0.013227
0.830982 0.744881 0.013432
0.865842 0.745650 0.013638
0.900701 0.746420 0.013843
0.935561 0.747189 0.014049
0.970420 0.747959 0.014255
1.000000 0.748728 0.014460
1.000000 0.749404 0.014572
1.000000 0.749968 0.014572
0.011076 0.759903 0.006339
0.012043 0.760467 0.007026
0.031496 0.761143 0.007825
0.066356 0.761912 0.008717
0.101216 0.762682 0.009504
0.136075 0.763451 0.009710
0.170935 0.764221 0.009915
0.205795 0.764990 0.010121
0.240654 0.765759 0.010327
0.275514 0.766529 0.010532
0.310374 0.767298 0.010738
0.345233 0.768068 0.010943
0.380093 0.768837 0.011149
0.414952 0.769606 0.011354
0.449812 0.770376 0.011560
0.484672 0.771145 0.011766
0.519531 0.771915 0.011971
0.554391 0.772684 0.012177
0.589251 0.773453 0.012382
0.624110 0.774223 0.012588
0.658970 0.774992 0.012793
0.693830 0.775762 0.012999
0.728689 0.776531 0.013204
0.763549 0.777301 0.013410
0.798409 0.778070 0.013616
0.833268 0.778839 0.013821
0.868128 0.779609 0.014027
0.902988 0.780378 0.014232
0.937847 0.781148 0.014438
0.972707 0.781917 0.014643
1.000000 0.782686 0.014849
1.000000 0.783362 0.014961
1.000000 0.783926 0.014961
0.013362 0.793861 0.008077
0.014329 0.794425 0.008763
0.033783 0.795101 0.009482
0.068642 0.795871 0.009688
0.103502 0.796640 0.009893
0.138362 0.797409 0.010099
0.173221 0.798179 0.010304
0.208081 0.798948 0.010510
0.242941 0.799718 0.010715
0.277800 0.800487 0.010921
0.312660 0.801257 0.011127
0.347520 0.802026 0.011332
0.382379 0.802795 0.011538
0.417239 0.803565 0.011743
0.452099 0.804334 0.011949
0.486958 0.805104 0.012154
0.521818 0.805873 0.012360
0.556678 0.806642 0.012566
0.591537 0.807412 0.012771
0.626397 0.808181 0.012977
0.661257 0.808951 0.013182
0.696116 0.809720 0.013388
0.730976 0.810489 0.013593
0.765836 0.811259 0.013799
0.800695 0.812028 0.014004
0.835555 0.812798 0.014210
0.870415 0.813567 0.014416
0.905274 0.814336 0.014621
0.940134 0.815106 0.014827
0.974994 0.815875 0.015032
1.000000 0.816645 0.015238
1.000000 0.817321 0.015350
1.000000 0.817885 0.015350
0.015649 0.827820 0.009759
0.016616 0.828384 0.009759
0.036069 0.829060 0.009871
0.070929 0.829829 0.010077
0.105789 0.830598 0.010282
0.140648 0.831368 0.010488
0.175508 0.832137 0.010693
0.210368 0.832907 0.010899
0.245227 0.833676 0.011104
0.280087 0.834445 0.011310
0.314947 0.835215 0.011516
0.349806 0.835984 0.011721
0.384666 0.836754 0.011927
0.419526 0.837523 0.012132
0.454385 0.838292 0.012338
0.489245 0.839062 0.012543
0.524104 0.839831 0.012749
0.558964 0.840601 0.012954
0.593824 0.841370 0.013160
0.628683 0.842140 0.013366
0.663543 0.842909 0.013571
0.698403 0.843678 0.013777
0.733262 0.844448 0.013982
0.768122 0.845217 0.014188
0.802982 0.845987 0.014393
0.837841 0.846756 0.014599
0.872701 0.847525 0.014804
