docs/luts/fresh-filmlook-bmp4k.cube
TITLE "FreshLUTs??-BMP4K??"
LUT_3D_SIZE 9
DOMAIN_MIN 0.0 0.0 0.0
DOMAIN_MAX 1.0 1.0 1.0
0.000000 0.000000 0.030000
0.087009 0.000000 0.031054
0.210652 0.003252 0.033543
0.334296 0.008096 0.036032
0.457940 0.012940 0.038522
0.581584 0.017784 0.041011
0.705228 0.022628 0.043500
0.828871 0.027471 0.045989
0.915880 0.030880 0.047043
0.008013 0.103113 0.033390
0.095021 0.106521 0.034444
0.218665 0.111365 0.036933
0.342309 0.116209 0.039422
0.465953 0.121053 0.041911
0.589596 0.125896 0.044401
0.713240 0.130740 0.046890
0.836884 0.135584 0.049379
0.923893 0.138993 0.050433
0.017082 0.225482 0.037836
0.104090 0.228890 0.038890
0.227734 0.233734 0.041380
0.351378 0.238578 0.043869
0.475022 0.243422 0.046358
0.598666 0.248265 0.048847
0.722309 0.253109 0.051336
0.845953 0.257953 0.053825
0.934072 0.261362 0.054879
0.026151 0.347851 0.042283
0.113159 0.351259 0.043337
0.236803 0.356103 0.045826
0.360447 0.360947 0.048315
0.484091 0.365791 0.050804
0.607735 0.370635 0.053294
0.732429 0.375478 0.055783
0.857684 0.380322 0.058622
0.946303 0.383731 0.062031
0.035220 0.470220 0.046729
0.122229 0.473629 0.047783
0.245872 0.478472 0.050273
0.369516 0.483316 0.052762
0.494151 0.488160 0.055251
0.619406 0.493004 0.058004
0.744661 0.497848 0.062848
0.869916 0.502691 0.067691
0.958535 0.506100 0.071100
0.044289 0.592589 0.051176
0.131298 0.595998 0.052230
0.255874 0.600842 0.054719
0.381128 0.605685 0.057385
0.506383 0.610529 0.062229
0.631638 0.615373 0.067073
0.756893 0.620217 0.071917
0.882148 0.625061 0.076761
0.970767 0.628469 0.080169
0.054231 0.714958 0.055623
0.142851 0.718367 0.056767
0.268106 0.723211 0.061611
0.393360 0.728055 0.066454
0.518615 0.732898 0.071298
0.643870 0.737742 0.076142
0.769125 0.742586 0.080986
0.894379 0.747430 0.085830
0.982999 0.750838 0.089238
0.066463 0.837327 0.062427
0.155083 0.840736 0.065836
0.280337 0.845580 0.070680
0.405592 0.850424 0.075524
0.530847 0.855267 0.080367
0.656102 0.860111 0.085211
0.781357 0.864955 0.090055
0.906611 0.869799 0.094899
0.995231 0.873207 0.098307
0.077638 0.945440 0.070440
0.166258 0.948849 0.073849
0.291513 0.953692 0.078692
0.416767 0.958536 0.083536
0.542022 0.963380 0.088380
0.667277 0.968224 0.093224
0.792532 0.973068 0.098068
0.917787 0.977911 0.102911
1.000000 0.981320 0.106320
0.001453 0.000000 0.124056
0.088462 0.000000 0.125110
0.212106 0.004706 0.127599
0.335750 0.009550 0.130088
0.459394 0.014394 0.132577
0.583037 0.019237 0.135066
0.706681 0.024081 0.137556
0.830325 0.028925 0.140045
0.917334 0.032334 0.141099
0.009466 0.104566 0.127446
0.096475 0.107975 0.128500
0.220118 0.112818 0.130989
0.343762 0.117662 0.133478
0.467406 0.122506 0.135967
0.591050 0.127350 0.138456
0.714694 0.132194 0.140946
0.838337 0.137037 0.143435
0.925346 0.140446 0.144489
0.018535 0.226935 0.131892
0.105544 0.230344 0.132946
0.229188 0.235188 0.135435
0.352831 0.240031 0.137925
0.476475 0.244875 0.140414
0.600119 0.249719 0.142903
0.723763 0.254563 0.145392
0.847520 0.259407 0.147881
0.936139 0.262815 0.148935
0.027604 0.349304 0.136339
0.114613 0.352713 0.137393
0.238257 0.357557 0.139882
0.361901 0.362401 0.142371
0.485544 0.367244 0.144860
0.609242 0.372088 0.147349
0.734497 0.376932 0.149839
0.859752 0.381776 0.153576
0.948371 0.385184 0.156984
0.036673 0.471673 0.140785
0.123682 0.475082 0.141839
0.247326 0.479926 0.144328
0.370970 0.484770 0.146818
0.496219 0.489613 0.149307
0.621474 0.494457 0.152957
0.746729 0.499301 0.157801
0.871983 0.504145 0.162645
0.960603 0.507553 0.166053
0.045743 0.594043 0.145232
0.132751 0.597451 0.146286
0.257941 0.602295 0.148775
0.383196 0.607139 0.152339
0.508451 0.611983 0.157183
0.633706 0.616826 0.162026
0.758961 0.621670 0.166870
0.884215 0.626514 0.171714
0.972835 0.629923 0.175123
0.056299 0.716412 0.149678
0.144918 0.719820 0.151720
0.270173 0.724664 0.156564
0.395428 0.729508 0.161408
0.520683 0.734352 0.166252
0.645938 0.739196 0.171096
0.771192 0.744039 0.175939
0.896447 0.748883 0.180783
0.985067 0.752292 0.184192
0.068531 0.838781 0.157381
0.157150 0.842190 0.160790
0.282405 0.847033 0.165633
0.407660 0.851877 0.170477
0.532915 0.856721 0.175321
0.658169 0.861565 0.180165
0.783424 0.866409 0.185009
0.908679 0.871252 0.189852
0.997299 0.874661 0.193261
0.079706 0.946893 0.165393
0.168326 0.950302 0.168802
0.293580 0.955146 0.173646
0.418835 0.959990 0.178490
0.544090 0.964834 0.183333
0.669345 0.969677 0.188177
0.794600 0.974521 0.193021
0.919854 0.979365 0.197865
1.000000 0.982773 0.201273
0.003249 0.000000 0.240453
0.090258 0.001658 0.241507
0.213901 0.006501 0.243997
0.337545 0.011345 0.246486
0.461189 0.016189 0.248975
0.584833 0.021033 0.251464
0.708477 0.025877 0.253953
0.832120 0.030720 0.256443
0.919129 0.034129 0.257496
0.011262 0.106362 0.243843
0.098270 0.109770 0.244897
0.221914 0.114614 0.247387
0.345558 0.119458 0.249876
0.469202 0.124302 0.252365
0.592845 0.129145 0.254854
0.716489 0.133989 0.257343
0.840133 0.138833 0.259832
0.927142 0.142242 0.260886
0.020331 0.228731 0.248290
0.107339 0.232139 0.249344
0.230983 0.236983 0.251833
0.354627 0.241827 0.254322
0.478271 0.246671 0.256811
0.601915 0.251514 0.259301
0.725558 0.256358 0.261790
0.849929 0.261202 0.264279
0.938549 0.264611 0.265333
0.029400 0.351100 0.252736
0.116408 0.354508 0.253790
0.240052 0.359352 0.256280
0.363696 0.364196 0.258769
0.487340 0.369040 0.261258
0.611652 0.373884 0.263747
0.736907 0.378727 0.266236
0.862161 0.383571 0.270871
0.950781 0.386980 0.274280
0.038469 0.473469 0.257183
0.125478 0.476878 0.258237
0.249121 0.481721 0.260726
0.373374 0.486565 0.263215
0.498629 0.491409 0.265705
0.623884 0.496253 0.270253
0.749138 0.501097 0.275097
0.874393 0.505940 0.279940
0.963013 0.509349 0.283349
0.047538 0.595838 0.261630
0.135096 0.599247 0.262684
0.260351 0.604091 0.265173
0.385606 0.608934 0.269634
0.510861 0.613778 0.274478
0.636115 0.618622 0.279322
0.761370 0.623466 0.284166
0.886625 0.628310 0.289010
0.975245 0.631718 0.292418
0.058709 0.718207 0.266076
0.147328 0.721616 0.269016
0.272583 0.726460 0.273860
0.397838 0.731303 0.278703
0.523093 0.736147 0.283547
0.648347 0.740991 0.288391
0.773602 0.745835 0.293235
0.898857 0.750679 0.298079
0.987477 0.754087 0.301487
0.070940 0.840576 0.274676
0.159560 0.843985 0.278085
0.284815 0.848829 0.282929
0.410070 0.853673 0.287773
0.535324 0.858516 0.292616
0.660579 0.863360 0.297460
0.785834 0.868204 0.302304
0.911089 0.873048 0.307148
0.999708 0.876456 0.310556
0.082116 0.948689 0.282689
0.170735 0.952098 0.286098
0.295990 0.956941 0.290941
0.421245 0.961785 0.295785
0.546500 0.966629 0.300629
0.671754 0.971473 0.305473
0.797009 0.976317 0.310317
0.922264 0.981160 0.315160
1.000000 0.984569 0.318569
0.005045 0.000045 0.356851
0.092053 0.003453 0.357905
0.215697 0.008297 0.360394
0.339341 0.013141 0.362884
0.462985 0.017984 0.365373
0.586628 0.022828 0.367862
0.710272 0.027672 0.370351
0.833916 0.032516 0.372840
0.920925 0.035924 0.373894
0.013057 0.108157 0.360241
0.100066 0.111566 0.361295
0.223709 0.116409 0.363784
0.347353 0.121253 0.366274
0.470997 0.126097 0.368763
0.594641 0.130941 0.371252
0.718285 0.135785 0.373741
0.841928 0.140628 0.376230
0.928937 0.144037 0.377284
0.022126 0.230526 0.364688
0.109135 0.233935 0.365742
0.232779 0.238779 0.368231
0.356422 0.243622 0.370720
0.480066 0.248466 0.373209
0.603710 0.253310 0.375698
0.727354 0.258154 0.378188
0.852339 0.262998 0.380677
0.940959 0.266406 0.382506
0.031195 0.352895 0.369134
0.118204 0.356304 0.370188
0.241848 0.361148 0.372677
0.365492 0.365992 0.375167
0.489135 0.370835 0.377656
0.614061 0.375679 0.380145
0.739316 0.380523 0.383323
0.864571 0.385367 0.388167
0.953191 0.388775 0.391575
0.040264 0.475264 0.373581
0.127273 0.478673 0.374635
0.250917 0.483517 0.377124
0.375784 0.488361 0.379613
0.501039 0.493204 0.382705
0.626293 0.498048 0.387548
0.751548 0.502892 0.392392
0.876803 0.507736 0.397236
0.965423 0.511145 0.400645
0.049334 0.597634 0.378027
0.137506 0.601042 0.379081
0.262761 0.605886 0.382086
0.388016 0.610730 0.386930
0.513270 0.615574 0.391774
0.638525 0.620417 0.396617
0.763780 0.625261 0.401461
0.889035 0.630105 0.406305
0.977654 0.633514 0.409714
0.061118 0.720003 0.382903
0.149738 0.723411 0.386311
0.274993 0.728255 0.391155
0.400247 0.733099 0.395999
0.525502 0.737943 0.400843
0.650757 0.742787 0.405687
0.776012 0.747630 0.410530
0.901267 0.752474 0.415374
0.989886 0.755883 0.418783
0.073350 0.842372 0.391972
0.161970 0.845781 0.395381
0.287225 0.850624 0.400224
0.412479 0.855468 0.405068
0.537734 0.860312 0.409912
0.662989 0.865156 0.414756
0.788244 0.870000 0.419600
0.913499 0.874843 0.424443
1.000000 0.878252 0.427852
0.084525 0.950485 0.399985
0.173145 0.953893 0.403393
0.298400 0.958737 0.408237
0.423655 0.963581 0.413081
0.548909 0.968425 0.417924
0.674164 0.973268 0.422768
0.799419 0.978112 0.427612
0.924674 0.982956 0.432456
1.000000 0.986364 0.435864
0.006840 0.001840 0.473249
0.093849 0.005249 0.474303
0.217492 0.010092 0.476792
0.341136 0.014936 0.479281
0.464780 0.019780 0.481770
0.588424 0.024624 0.484260
0.712068 0.029468 0.486749
0.835711 0.034311 0.489238
0.922720 0.037720 0.490292
0.014853 0.109953 0.476639
0.101861 0.113361 0.477693
0.225505 0.118205 0.480182
0.349149 0.123049 0.482671
0.472793 0.127893 0.485160
0.596436 0.132736 0.487650
0.720080 0.137580 0.490139
0.843724 0.142424 0.492628
0.931137 0.145833 0.493682
0.023922 0.232322 0.481085
0.110930 0.235730 0.482139
0.234574 0.240574 0.484629
0.358218 0.245418 0.487118
0.481862 0.250262 0.489607
0.605506 0.255105 0.492096
0.729494 0.259949 0.494585
0.854749 0.264793 0.497074
0.943369 0.268202 0.499802
0.032991 0.354691 0.485532
0.119999 0.358099 0.486586
0.243643 0.362943 0.489075
0.367287 0.367787 0.491564
0.491216 0.372631 0.494053
0.616471 0.377475 0.496543
0.741726 0.382318 0.500618
0.866981 0.387162 0.505462
0.955600 0.390571 0.508871
0.042060 0.477060 0.489978
0.129069 0.480469 0.491032
0.252939 0.485312 0.493522
0.378193 0.490156 0.496011
0.503448 0.495000 0.500000
0.628703 0.499844 0.504844
0.753958 0.504688 0.509688
0.879213 0.509531 0.514531
0.967832 0.512940 0.517940
0.051296 0.599429 0.494425
0.139916 0.602838 0.495479
0.265171 0.607682 0.499382
0.390425 0.612525 0.504225
0.515680 0.617369 0.509069
0.640935 0.622213 0.513913
0.766190 0.627057 0.518757
0.891445 0.631901 0.523601
0.980064 0.635309 0.527009
0.063528 0.721798 0.500198
0.152148 0.725207 0.503607
0.277402 0.730051 0.508451
0.402657 0.734895 0.513294
0.527912 0.739738 0.518138
0.653167 0.744582 0.522982
0.778422 0.749426 0.527826
0.903676 0.754270 0.532670
0.992296 0.757678 0.536078
0.075760 0.844167 0.509267
0.164379 0.847576 0.512676
0.289634 0.852420 0.517520
0.414889 0.857264 0.522364
0.540144 0.862107 0.527207
0.665399 0.866951 0.532051
0.790653 0.871795 0.536895
0.915908 0.876639 0.541739
1.000000 0.880047 0.545147
0.086935 0.952280 0.517280
0.175555 0.955689 0.520689
0.300810 0.960532 0.525532
0.426064 0.965376 0.530376
0.551319 0.970220 0.535220
0.676574 0.975064 0.540064
0.801829 0.979908 0.544908
0.927084 0.984751 0.549751
1.000000 0.988160 0.553160
0.008636 0.003636 0.589647
0.095644 0.007044 0.590701
0.219288 0.011888 0.593190
0.342932 0.016732 0.595679
0.466576 0.021576 0.598168
0.590219 0.026419 0.600657
0.713863 0.031263 0.603147
0.837507 0.036107 0.605636
0.924516 0.039515 0.606690
0.016648 0.111748 0.593037
0.103657 0.115157 0.594091
0.227300 0.120000 0.596580
0.350944 0.124844 0.599069
0.474588 0.129688 0.601558
0.598232 0.134532 0.604047
0.721876 0.139376 0.606537
0.845519 0.144219 0.609026
0.933546 0.147628 0.610080
0.025717 0.234117 0.597483
0.112726 0.237526 0.598537
0.236370 0.242370 0.601026
0.360013 0.247213 0.603516
0.483657 0.252057 0.606005
0.607301 0.256901 0.608494
0.731904 0.261745 0.610983
0.857159 0.266589 0.613689
0.945778 0.269997 0.617097
0.034786 0.356486 0.601930
0.121795 0.359895 0.602984
0.245439 0.364739 0.605473
0.369083 0.369583 0.607962
0.493626 0.374426 0.610451
0.618881 0.379270 0.613070
0.744136 0.384114 0.617914
0.869391 0.388958 0.622758
0.958010 0.392366 0.626166
0.043855 0.478855 0.606376
0.130864 0.482264 0.607430
0.255348 0.487108 0.609919
0.380603 0.491952 0.612452
0.505858 0.496795 0.617295
0.631113 0.501639 0.622139
0.756368 0.506483 0.626983
0.881622 0.511327 0.631827
0.970242 0.514736 0.635235
0.053706 0.601225 0.610823
0.142325 0.604633 0.611877
0.267580 0.609477 0.616677
0.392835 0.614321 0.621521
0.518090 0.619165 0.626365
0.643345 0.624008 0.631208
0.768599 0.628852 0.636052
0.893854 0.633696 0.640896
0.982474 0.637105 0.644305
0.065938 0.723594 0.617494
0.154557 0.727002 0.620902
0.279812 0.731846 0.625746
0.405067 0.736690 0.630590
0.530322 0.741534 0.635434
0.655577 0.746378 0.640278
0.780831 0.751221 0.645121
0.906086 0.756065 0.649965
0.994706 0.759474 0.653374
0.078170 0.845963 0.626563
0.166789 0.849372 0.629972
0.292044 0.854215 0.634815
0.417299 0.859059 0.639659
0.542554 0.863903 0.644503
0.667808 0.868747 0.649347
0.793063 0.873591 0.654191
0.918318 0.878434 0.659034
1.000000 0.881843 0.662443
0.089345 0.954075 0.634575
0.177964 0.957484 0.637984
0.303219 0.962328 0.642828
0.428474 0.967172 0.647672
0.553729 0.972016 0.652516
0.678984 0.976859 0.657359
0.804238 0.981703 0.662203
0.929493 0.986547 0.667047
1.000000 0.989955 0.670455
0.010431 0.005431 0.706044
0.097440 0.008840 0.707098
0.221083 0.013683 0.709588
0.344727 0.018527 0.712077
0.468371 0.023371 0.714566
0.592015 0.028215 0.717055
0.715659 0.033059 0.719544
0.839302 0.037902 0.722034
0.926311 0.041311 0.723087
0.018444 0.113544 0.709434
0.105452 0.116952 0.710488
0.229096 0.121796 0.712978
0.352740 0.126640 0.715467
0.476384 0.131484 0.717956
0.600027 0.136327 0.720445
0.723671 0.141171 0.722934
0.847337 0.146015 0.725423
0.935956 0.149424 0.726477
0.027513 0.235913 0.713881
0.114521 0.239321 0.714935
0.238165 0.244165 0.717424
0.361809 0.249009 0.719913
0.485453 0.253853 0.722402
0.609097 0.258696 0.724892
0.734314 0.263540 0.727381
0.859568 0.268384 0.730984
0.948188 0.271793 0.734393
0.036582 0.358282 0.718327
0.123590 0.361690 0.719381
0.247234 0.366534 0.721871
0.370878 0.371378 0.724360
0.496036 0.376222 0.726849
0.621291 0.381066 0.730366
0.746545 0.385909 0.735209
0.871800 0.390753 0.740053
0.960420 0.394162 0.743462
0.045651 0.480651 0.722774
0.132660 0.484060 0.723828
0.257758 0.488903 0.726317
0.383013 0.493747 0.729747
0.508268 0.498591 0.734591
0.633523 0.503435 0.739435
0.758777 0.508279 0.744279
0.884032 0.513122 0.749122
0.972652 0.516531 0.752531
0.056116 0.603020 0.727221
0.144735 0.606429 0.729129
0.269990 0.611273 0.733973
0.395245 0.616116 0.738816
0.520500 0.620960 0.743660
0.645754 0.625804 0.748504
0.771009 0.630648 0.753348
0.896264 0.635492 0.758192
0.984884 0.638900 0.761600
0.068347 0.725389 0.734789
0.156967 0.728798 0.738198
0.282222 0.733642 0.743042
0.407477 0.738486 0.747885
0.532731 0.743329 0.752729
0.657986 0.748173 0.757573
0.783241 0.753017 0.762417
0.908496 0.757861 0.767261
0.997115 0.761269 0.770669
0.080579 0.847758 0.743858
0.169199 0.851167 0.747267
0.294454 0.856011 0.752111
0.419709 0.860855 0.756955
0.544963 0.865698 0.761798
0.670218 0.870542 0.766642
0.795473 0.875386 0.771486
0.920728 0.880230 0.776330
1.000000 0.883638 0.779738
0.091755 0.955871 0.751871
0.180374 0.959280 0.755280
0.305629 0.964123 0.760123
0.430884 0.968967 0.764967
0.556139 0.973811 0.769811
0.681393 0.978655 0.774655
0.806648 0.983499 0.779499
0.931903 0.988342 0.784342
1.000000 0.991751 0.787751
0.012227 0.007227 0.822442
0.099235 0.010635 0.823496
0.222879 0.015479 0.825985
0.346523 0.020323 0.828475
0.470166 0.025166 0.830964
0.593810 0.030010 0.833453
0.717454 0.034854 0.835942
0.841098 0.039698 0.838431
0.928106 0.043106 0.839485
0.020239 0.115339 0.825832
0.107248 0.118748 0.826886
0.230891 0.123591 0.829375
0.354535 0.128435 0.831864
0.478179 0.133279 0.834354
0.601823 0.138123 0.836843
0.725467 0.142967 0.839332
0.849746 0.147810 0.841821
0.938366 0.151219 0.842875
0.029308 0.237708 0.830279
0.116317 0.241117 0.831333
0.239961 0.245961 0.833822
0.363604 0.250804 0.836311
0.487248 0.255648 0.838800
0.611469 0.260492 0.841289
0.736723 0.265336 0.843779
0.861978 0.270180 0.848280
0.950598 0.273588 0.851688
0.038377 0.360077 0.834725
0.125386 0.363486 0.835779
0.249030 0.368330 0.838268
0.373191 0.373174 0.840758
0.498446 0.378017 0.843247
0.623700 0.382861 0.847661
0.748955 0.387705 0.852505
0.874210 0.392549 0.857349
0.962830 0.395957 0.860757
0.047447 0.482447 0.839172
0.134913 0.485855 0.840226
0.260168 0.490699 0.842715
0.385423 0.495543 0.847043
0.510677 0.500386 0.851886
0.635932 0.505230 0.856730
0.761187 0.510074 0.861574
0.886442 0.514918 0.866418
0.975061 0.518327 0.869827
0.058525 0.604816 0.843618
0.147145 0.608224 0.846424
0.272400 0.613068 0.851268
0.397655 0.617912 0.856112
0.522909 0.622756 0.860956
0.648164 0.627599 0.865799
0.773419 0.632443 0.870643
0.898674 0.637287 0.875487
0.987293 0.640696 0.878896
0.070757 0.727185 0.852085
0.159377 0.730593 0.855493
0.284632 0.735437 0.860337
0.409886 0.740281 0.865181
0.535141 0.745125 0.870025
0.660396 0.749969 0.874869
0.785651 0.754812 0.879712
0.910906 0.759656 0.884556
0.999525 0.763065 0.887965
0.082989 0.849554 0.861154
0.171609 0.852963 0.864563
0.296863 0.857806 0.869406
0.422118 0.862650 0.874250
0.547373 0.867494 0.879094
0.672628 0.872338 0.883938
0.797883 0.877182 0.888782
0.923137 0.882025 0.893625
1.000000 0.885434 0.897034
0.094164 0.957666 0.869167
0.182784 0.961075 0.872575
0.308039 0.965919 0.877419
0.433294 0.970763 0.882263
0.558548 0.975606 0.887107
0.683803 0.980450 0.891950
0.809058 0.985294 0.896794
0.934313 0.990138 0.901638
1.000000 0.993546 0.905047
0.013680 0.008680 0.916498
0.100689 0.012089 0.917552
0.224332 0.016932 0.920041
0.347976 0.021776 0.922530
0.471620 0.026620 0.925019
0.595264 0.031464 0.927509
0.718908 0.036308 0.929998
0.842551 0.041151 0.932487
0.929560 0.044560 0.933541
0.021693 0.116793 0.919888
0.108701 0.120201 0.920942
0.232345 0.125045 0.923431
0.355989 0.129889 0.925920
0.479633 0.134733 0.928409
0.603276 0.139576 0.930899
0.726920 0.144420 0.933388
0.851814 0.149264 0.935877
0.940434 0.152673 0.937573
0.030762 0.239162 0.924334
0.117770 0.242570 0.925388
0.241414 0.247414 0.927878
0.365058 0.252258 0.930367
0.488702 0.257102 0.932856
0.613536 0.261945 0.935345
0.738791 0.266789 0.938389
0.864046 0.271633 0.943233
0.952665 0.275042 0.946642
0.039831 0.361531 0.928781
0.126839 0.364939 0.929835
0.250483 0.369783 0.932324
0.375259 0.374627 0.934813
0.500513 0.379471 0.937771
0.625768 0.384315 0.942615
0.751023 0.389158 0.947458
0.876278 0.394002 0.952302
0.964897 0.397411 0.955711
0.048900 0.483900 0.933227
0.136981 0.487309 0.934281
0.262236 0.492152 0.937152
0.387490 0.496996 0.941996
0.512745 0.501840 0.946840
0.638000 0.506684 0.951684
0.763255 0.511528 0.956528
0.888510 0.516371 0.961371
0.977129 0.519780 0.964780
0.060593 0.606269 0.937969
0.149213 0.609678 0.941378
0.274467 0.614522 0.946222
0.399722 0.619365 0.951065
0.524977 0.624209 0.955909
0.650232 0.629053 0.960753
0.775487 0.633897 0.965597
0.900741 0.638741 0.970441
0.989361 0.642149 0.973849
0.072825 0.728638 0.947038
0.161445 0.732047 0.950447
0.286699 0.736891 0.955291
0.411954 0.741735 0.960135
0.537209 0.746578 0.964978
0.662464 0.751422 0.969822
0.787718 0.756266 0.974666
0.912973 0.761110 0.979510
1.000000 0.764518 0.982918
0.085057 0.851007 0.956107
0.173676 0.854416 0.959516
0.298931 0.859260 0.964360
0.424186 0.864104 0.969204
0.549441 0.868947 0.974047
0.674696 0.873791 0.978891
0.799950 0.878635 0.983735
0.925205 0.883479 0.988579
1.000000 0.886887 0.991987
0.096232 0.959120 0.964120
0.184852 0.962529 0.967529
0.310106 0.967372 0.972372
0.435361 0.972216 0.977216
0.560616 0.977060 0.982060
0.685871 0.981904 0.986904
0.811126 0.986748 0.991748
0.936380 0.991591 0.996591
1.000000 0.995000 1.000000
