docs/luts/fresh-sony-cinematic-light.cube
TITLE "FreshLUTs??-Sony???"
LUT_3D_SIZE 9
DOMAIN_MIN 0.0 0.0 0.0
DOMAIN_MAX 1.0 1.0 1.0
0.000000 0.006000 0.020000
0.110560 0.007360 0.019791
0.235700 0.008900 0.019761
0.360840 0.010440 0.019731
0.485980 0.011980 0.019701
0.611120 0.013520 0.019671
0.736260 0.015060 0.019641
0.861400 0.016600 0.019611
0.971960 0.017960 0.019402
0.002759 0.121559 0.019677
0.113319 0.122919 0.019468
0.238459 0.124459 0.019438
0.363599 0.125999 0.019408
0.488739 0.127539 0.019378
0.613879 0.129079 0.019348
0.739019 0.130619 0.019318
0.864158 0.132158 0.019288
0.974719 0.133519 0.019079
0.005753 0.246953 0.019589
0.116313 0.248313 0.019380
0.241453 0.249853 0.019350
0.366593 0.251393 0.019320
0.491733 0.252933 0.019290
0.616872 0.254472 0.019260
0.742012 0.256012 0.019230
0.867152 0.257552 0.019200
0.978512 0.258913 0.018991
0.008746 0.372346 0.019501
0.119307 0.373707 0.019292
0.244447 0.375247 0.019262
0.369586 0.376786 0.019232
0.494726 0.378326 0.019202
0.619866 0.379866 0.019172
0.745762 0.381406 0.019142
0.872062 0.382946 0.019346
0.983783 0.384306 0.020706
0.011740 0.497740 0.019413
0.122300 0.499100 0.019204
0.247440 0.500640 0.019174
0.372580 0.502180 0.019144
0.498434 0.503720 0.019114
0.624734 0.505260 0.019260
0.751033 0.506800 0.020800
0.877333 0.508340 0.022340
0.989053 0.509700 0.023700
0.014734 0.623134 0.019325
0.125294 0.624494 0.019116
0.251105 0.626034 0.019086
0.377405 0.627574 0.019174
0.503705 0.629114 0.020714
0.630004 0.630654 0.022254
0.756304 0.632193 0.023793
0.882604 0.633733 0.025333
0.994324 0.635094 0.026694
0.018356 0.748527 0.019237
0.130076 0.749888 0.019088
0.256376 0.751428 0.020628
0.382676 0.752968 0.022168
0.508976 0.754507 0.023707
0.635275 0.756047 0.025247
0.761575 0.757587 0.026787
0.887875 0.759127 0.028327
0.999595 0.760487 0.029687
0.023627 0.873921 0.020721
0.135347 0.875282 0.022082
0.261647 0.876821 0.023621
0.387947 0.878361 0.025161
0.514246 0.879901 0.026701
0.640546 0.881441 0.028241
0.766846 0.882981 0.029781
0.893146 0.884521 0.031321
1.000000 0.885881 0.032681
0.028663 0.989480 0.023480
0.140383 0.990840 0.024840
0.266683 0.992380 0.026380
0.392983 0.993920 0.027920
0.519282 0.995460 0.029460
0.645582 0.997000 0.031000
0.771882 0.998540 0.032540
0.898182 1.000000 0.034080
1.000000 1.000000 0.035440
0.000536 0.006536 0.132737
0.111096 0.007896 0.132528
0.236236 0.009436 0.132498
0.361376 0.010976 0.132468
0.486516 0.012516 0.132438
0.611656 0.014056 0.132408
0.736796 0.015596 0.132379
0.861935 0.017135 0.132349
0.972496 0.018496 0.132139
0.003295 0.122095 0.132414
0.113855 0.123455 0.132205
0.238995 0.124995 0.132175
0.364135 0.126535 0.132145
0.489275 0.128075 0.132115
0.614415 0.129615 0.132086
0.739554 0.131154 0.132056
0.864694 0.132694 0.132026
0.975255 0.134055 0.131816
0.006288 0.247488 0.132326
0.116849 0.248849 0.132117
0.241989 0.250389 0.132087
0.367129 0.251929 0.132057
0.492268 0.253468 0.132027
0.617408 0.255008 0.131998
0.742548 0.256548 0.131968
0.867769 0.258088 0.131938
0.979490 0.259448 0.131728
0.009282 0.372882 0.132238
0.119843 0.374243 0.132029
0.244982 0.375782 0.131999
0.370122 0.377322 0.131969
0.495262 0.378862 0.131939
0.620441 0.380402 0.131909
0.746741 0.381942 0.131880
0.873040 0.383482 0.132682
0.984761 0.384842 0.134042
0.012276 0.498276 0.132150
0.122836 0.499636 0.131941
0.247976 0.501176 0.131911
0.373116 0.502716 0.131881
0.499412 0.504256 0.131851
0.625712 0.505796 0.132596
0.752011 0.507336 0.134136
0.878311 0.508875 0.135675
0.990031 0.510236 0.137036
0.015269 0.623669 0.132062
0.125830 0.625030 0.131853
0.252083 0.626570 0.131823
0.378383 0.628110 0.132510
0.504683 0.629649 0.134049
0.630982 0.631189 0.135589
0.757282 0.632729 0.137129
0.883582 0.634269 0.138669
0.995302 0.635629 0.140029
0.019334 0.749063 0.131974
0.131054 0.750424 0.132424
0.257354 0.751964 0.133964
0.383654 0.753503 0.135503
0.509954 0.755043 0.137043
0.636253 0.756583 0.138583
0.762553 0.758123 0.140123
0.888853 0.759663 0.141663
1.000000 0.761023 0.143023
0.024605 0.874457 0.134057
0.136325 0.875817 0.135417
0.262625 0.877357 0.136957
0.388925 0.878897 0.138497
0.515224 0.880437 0.140037
0.641524 0.881977 0.141577
0.767824 0.883517 0.143117
0.894124 0.885056 0.144656
1.000000 0.886417 0.146017
0.029641 0.990016 0.136816
0.141361 0.991376 0.138176
0.267661 0.992916 0.139716
0.393961 0.994456 0.141256
0.520260 0.995996 0.142796
0.646560 0.997536 0.144336
0.772860 0.999076 0.145875
0.899160 1.000000 0.147415
1.000000 1.000000 0.148776
0.001117 0.007117 0.255120
0.111678 0.008478 0.254911
0.236817 0.010018 0.254881
0.361957 0.011557 0.254851
0.487097 0.013097 0.254821
0.612237 0.014637 0.254791
0.737377 0.016177 0.254761
0.862517 0.017717 0.254731
0.973077 0.019077 0.254522
0.003876 0.122676 0.254797
0.114437 0.124037 0.254588
0.239576 0.125576 0.254558
0.364716 0.127116 0.254528
0.489856 0.128656 0.254498
0.614996 0.130196 0.254468
0.740136 0.131736 0.254439
0.865276 0.133276 0.254409
0.975836 0.134636 0.254199
0.006870 0.248070 0.254709
0.117430 0.249430 0.254500
0.242570 0.250970 0.254470
0.367710 0.252510 0.254440
0.492850 0.254050 0.254410
0.617990 0.255590 0.254380
0.743129 0.257130 0.254350
0.868793 0.258669 0.254321
0.980513 0.260030 0.254111
0.009863 0.373464 0.254621
0.120424 0.374824 0.254412
0.245564 0.376364 0.254382
0.370704 0.377904 0.254352
0.495843 0.379443 0.254322
0.621464 0.380983 0.254292
0.747764 0.382523 0.254262
0.874064 0.384063 0.255663
0.985784 0.385424 0.257024
0.012857 0.498857 0.254533
0.123418 0.500218 0.254324
0.248557 0.501757 0.254294
0.374136 0.503297 0.254264
0.500435 0.504837 0.254234
0.626735 0.506377 0.255577
0.753035 0.507917 0.257117
0.879335 0.509457 0.258657
0.991055 0.510817 0.260017
0.015851 0.624251 0.254445
0.126807 0.625611 0.254236
0.253107 0.627151 0.254206
0.379407 0.628691 0.255491
0.505706 0.630231 0.257031
0.632006 0.631771 0.258571
0.758306 0.633311 0.260111
0.884606 0.634850 0.261650
0.996326 0.636211 0.263011
0.020358 0.749645 0.254357
0.132078 0.751005 0.255405
0.258378 0.752545 0.256945
0.384677 0.754085 0.258485
0.510977 0.755625 0.260025
0.637277 0.757164 0.261564
0.763577 0.758704 0.263104
0.889876 0.760244 0.264644
1.000000 0.761605 0.266005
0.025628 0.875038 0.257038
0.137349 0.876399 0.258399
0.263649 0.877939 0.259939
0.389948 0.879478 0.261478
0.516248 0.881018 0.263018
0.642548 0.882558 0.264558
0.768848 0.884098 0.266098
0.895147 0.885638 0.267638
1.000000 0.886998 0.268998
0.030664 0.990597 0.259797
0.142385 0.991958 0.261158
0.268685 0.993497 0.262698
0.394984 0.995037 0.264237
0.521284 0.996577 0.265777
0.647584 0.998117 0.267317
0.773884 0.999657 0.268857
0.900183 1.000000 0.270397
1.000000 1.000000 0.271757
0.001699 0.007699 0.377503
0.112259 0.009059 0.377294
0.237399 0.010599 0.377264
0.362539 0.012139 0.377234
0.487679 0.013679 0.377204
0.612818 0.015218 0.377174
0.737958 0.016758 0.377144
0.863098 0.018298 0.377114
0.973659 0.019659 0.376905
0.004458 0.123257 0.377180
0.115018 0.124618 0.376971
0.240158 0.126158 0.376941
0.365298 0.127698 0.376911
0.490437 0.129238 0.376881
0.615577 0.130777 0.376851
0.740717 0.132317 0.376821
0.865857 0.133857 0.376792
0.976417 0.135217 0.376582
0.007451 0.248651 0.377092
0.118012 0.250012 0.376883
0.243151 0.251551 0.376853
0.368291 0.253091 0.376823
0.493431 0.254631 0.376793
0.618571 0.256171 0.376763
0.743711 0.257711 0.376733
0.869817 0.259251 0.376704
0.981537 0.260611 0.377011
0.010445 0.374045 0.377004
0.121005 0.375405 0.376795
0.246145 0.376945 0.376765
0.371285 0.378485 0.376735
0.496425 0.380025 0.376705
0.622488 0.381565 0.376675
0.748788 0.383105 0.377105
0.875088 0.384644 0.378644
0.986808 0.386005 0.380005
0.013439 0.499439 0.376916
0.123999 0.500799 0.376707
0.249139 0.502339 0.376677
0.375159 0.503879 0.376647
0.501459 0.505419 0.377019
0.627759 0.506958 0.378558
0.754059 0.508498 0.380098
0.880358 0.510038 0.381638
0.992079 0.511399 0.382999
0.016432 0.624832 0.376828
0.127831 0.626193 0.376619
0.254130 0.627733 0.376933
0.380430 0.629272 0.378472
0.506730 0.630812 0.380012
0.633030 0.632352 0.381552
0.759329 0.633892 0.383092
0.885629 0.635432 0.384632
0.997350 0.636792 0.385992
0.021381 0.750226 0.377026
0.133102 0.751586 0.378386
0.259401 0.753126 0.379926
0.385701 0.754666 0.381466
0.512001 0.756206 0.383006
0.638301 0.757746 0.384546
0.764600 0.759286 0.386086
0.890900 0.760826 0.387626
1.000000 0.762186 0.388986
0.026652 0.875620 0.380020
0.138372 0.876980 0.381380
0.264672 0.878520 0.382920
0.390972 0.880060 0.384460
0.517272 0.881600 0.386000
0.643571 0.883140 0.387540
0.769871 0.884679 0.389079
0.896171 0.886219 0.390619
1.000000 0.887580 0.391980
0.031688 0.991179 0.382779
0.143408 0.992539 0.384139
0.269708 0.994079 0.385679
0.396008 0.995619 0.387219
0.522308 0.997159 0.388759
0.648608 0.998698 0.390298
0.774907 1.000000 0.391838
0.901207 1.000000 0.393378
1.000000 1.000000 0.394739
0.002280 0.008280 0.499886
0.112840 0.009640 0.499677
0.237980 0.011180 0.499647
0.363120 0.012720 0.499617
0.488260 0.014260 0.499587
0.613400 0.015800 0.499557
0.738540 0.017340 0.499527
0.863680 0.018880 0.499497
0.974240 0.020240 0.499288
0.005039 0.123839 0.499563
0.115599 0.125199 0.499354
0.240739 0.126739 0.499324
0.365879 0.128279 0.499294
0.491019 0.129819 0.499264
0.616159 0.131359 0.499234
0.741299 0.132899 0.499204
0.866438 0.134438 0.499174
0.977290 0.135799 0.498965
0.008033 0.249233 0.499475
0.118593 0.250593 0.499266
0.243733 0.252133 0.499236
0.368873 0.253673 0.499206
0.494013 0.255213 0.499176
0.619152 0.256752 0.499146
0.744541 0.258292 0.499116
0.870840 0.259832 0.499086
0.982561 0.261193 0.499993
0.011026 0.374626 0.499387
0.121587 0.375987 0.499178
0.246727 0.377527 0.499148
0.371866 0.379066 0.499118
0.497212 0.380606 0.499088
0.623512 0.382146 0.499058
0.749811 0.383686 0.500086
0.876111 0.385226 0.501626
0.987832 0.386586 0.502986
0.014020 0.500020 0.499299
0.124580 0.501380 0.499090
0.249883 0.502920 0.499060
0.376183 0.504460 0.499030
0.502483 0.506000 0.500000
0.628783 0.507540 0.501540
0.755082 0.509080 0.503080
0.881382 0.510620 0.504620
0.993102 0.511980 0.505980
0.017134 0.625414 0.499211
0.128854 0.626774 0.499002
0.255154 0.628314 0.499914
0.381454 0.629854 0.501454
0.507754 0.631394 0.502994
0.634053 0.632934 0.504534
0.760353 0.634473 0.506073
0.886653 0.636013 0.507613
0.998373 0.637374 0.508974
0.022405 0.750807 0.500007
0.134125 0.752168 0.501368
0.260425 0.753708 0.502908
0.386725 0.755248 0.504448
0.513024 0.756787 0.505987
0.639324 0.758327 0.507527
0.765624 0.759867 0.509067
0.891924 0.761407 0.510607
1.000000 0.762767 0.511967
0.027676 0.876201 0.503001
0.139396 0.877562 0.504362
0.265696 0.879101 0.505901
0.391996 0.880641 0.507441
0.518295 0.882181 0.508981
0.644595 0.883721 0.510521
0.770895 0.885261 0.512061
0.897195 0.886801 0.513601
1.000000 0.888161 0.514961
0.032712 0.991760 0.505760
0.144432 0.993120 0.507120
0.270732 0.994660 0.508660
0.397032 0.996200 0.510200
0.523331 0.997740 0.511740
0.649631 0.999280 0.513280
0.775931 1.000000 0.514820
0.902231 1.000000 0.516360
1.000000 1.000000 0.517720
0.002861 0.008861 0.622269
0.113422 0.010222 0.622060
0.238562 0.011762 0.622030
0.363702 0.013302 0.622000
0.488841 0.014841 0.621970
0.613981 0.016381 0.621940
0.739121 0.017921 0.621910
0.864261 0.019461 0.621880
0.974821 0.020821 0.621671
0.005620 0.124420 0.621946
0.116181 0.125781 0.621737
0.241321 0.127321 0.621707
0.366460 0.128860 0.621677
0.491600 0.130400 0.621647
0.616740 0.131940 0.621617
0.741880 0.133480 0.621587
0.867020 0.135020 0.621557
0.978313 0.136380 0.621348
0.008614 0.249814 0.621858
0.119174 0.251174 0.621649
0.244314 0.252714 0.621619
0.369454 0.254254 0.621589
0.494594 0.255794 0.621559
0.619734 0.257334 0.621529
0.745564 0.258874 0.621499
0.871864 0.260414 0.621614
0.983584 0.261774 0.622974
0.011608 0.375208 0.621770
0.122168 0.376568 0.621561
0.247308 0.378108 0.621531
0.372448 0.379648 0.621501
0.498236 0.381188 0.621471
0.624535 0.382728 0.621528
0.750835 0.384267 0.623067
0.877135 0.385807 0.624607
0.988855 0.387168 0.625968
0.014601 0.500601 0.621682
0.125162 0.501962 0.621473
0.250907 0.503502 0.621443
0.377207 0.505042 0.621442
0.503506 0.506581 0.622981
0.629806 0.508121 0.624521
0.756106 0.509661 0.626061
0.882406 0.511201 0.627601
0.994126 0.512561 0.628961
0.018158 0.625995 0.621594
0.129878 0.627356 0.621385
0.256178 0.628895 0.622895
0.382477 0.630435 0.624435
0.508777 0.631975 0.625975
0.635077 0.633515 0.627515
0.761377 0.635055 0.629055
0.887677 0.636595 0.630595
0.999397 0.637955 0.631955
0.023428 0.751389 0.622989
0.135149 0.752749 0.624349
0.261449 0.754289 0.625889
0.387748 0.755829 0.627429
0.514048 0.757369 0.628969
0.640348 0.758909 0.630509
0.766648 0.760448 0.632049
0.892947 0.761988 0.633588
1.000000 0.763349 0.634949
0.028699 0.876783 0.625982
0.140420 0.878143 0.627343
0.266719 0.879683 0.628883
0.393019 0.881223 0.630423
0.519319 0.882763 0.631962
0.645619 0.884302 0.633502
0.771918 0.885842 0.635042
0.898218 0.887382 0.636582
1.000000 0.888743 0.637942
0.033735 0.992341 0.628741
0.145456 0.993702 0.630102
0.271755 0.995242 0.631642
0.398055 0.996782 0.633182
0.524355 0.998321 0.634721
0.650655 0.999861 0.636261
0.776955 1.000000 0.637801
0.903254 1.000000 0.639341
1.000000 1.000000 0.640701
0.003443 0.009443 0.744652
0.114003 0.010803 0.744443
0.239143 0.012343 0.744413
0.364283 0.013883 0.744383
0.489423 0.015423 0.744353
0.614563 0.016963 0.744323
0.739703 0.018503 0.744293
0.864842 0.020042 0.744263
0.975403 0.021403 0.744054
0.006202 0.125002 0.744329
0.116762 0.126362 0.744120
0.241902 0.127902 0.744090
0.367042 0.129442 0.744060
0.492182 0.130982 0.744030
0.617322 0.132522 0.744000
0.742461 0.134061 0.743970
0.867617 0.135601 0.743940
0.979337 0.136962 0.743731
0.009195 0.250395 0.744241
0.119756 0.251756 0.744032
0.244896 0.253296 0.744002
0.370036 0.254836 0.743972
0.495175 0.256375 0.743942
0.620315 0.257915 0.743912
0.746588 0.259455 0.743882
0.872888 0.260995 0.744595
0.984608 0.262355 0.745955
0.012189 0.375789 0.744153
0.122750 0.377150 0.743944
0.247889 0.378689 0.743914
0.373029 0.380229 0.743884
0.499259 0.381769 0.743854
0.625559 0.383309 0.744509
0.751859 0.384849 0.746049
0.878158 0.386389 0.747589
0.989879 0.387749 0.748949
0.015183 0.501183 0.744065
0.125743 0.502543 0.743856
0.251931 0.504083 0.743826
0.378230 0.505623 0.744423
0.504530 0.507163 0.745963
0.630830 0.508703 0.747503
0.757130 0.510243 0.749043
0.883429 0.511782 0.750582
0.995150 0.513143 0.751943
0.019181 0.626576 0.743977
0.130902 0.627937 0.744337
0.257201 0.629477 0.745877
0.383501 0.631017 0.747417
0.509801 0.632556 0.748957
0.636101 0.634096 0.750496
0.762400 0.635636 0.752036
0.888700 0.637176 0.753576
1.000000 0.638536 0.754937
0.024452 0.751970 0.745970
0.136172 0.753331 0.747331
0.262472 0.754870 0.748870
0.388772 0.756410 0.750410
0.515072 0.757950 0.751950
0.641372 0.759490 0.753490
0.767671 0.761030 0.755030
0.893971 0.762570 0.756570
1.000000 0.763930 0.757930
0.029723 0.877364 0.748964
0.141443 0.878724 0.750324
0.267743 0.880264 0.751864
0.394043 0.881804 0.753404
0.520343 0.883344 0.754944
0.646642 0.884884 0.756484
0.772942 0.886424 0.758024
0.899242 0.887963 0.759563
1.000000 0.889324 0.760924
0.034759 0.992923 0.751723
0.146479 0.994283 0.753083
0.272779 0.995823 0.754623
0.399079 0.997363 0.756163
0.525379 0.998903 0.757703
0.651678 1.000000 0.759243
0.777978 1.000000 0.760783
0.904278 1.000000 0.762322
1.000000 1.000000 0.763683
0.004024 0.010024 0.867035
0.114585 0.011385 0.866825
0.239725 0.012925 0.866796
0.364864 0.014464 0.866766
0.490004 0.016004 0.866736
0.615144 0.017544 0.866706
0.740284 0.019084 0.866676
0.865424 0.020624 0.866646
0.975984 0.021984 0.866437
0.006783 0.125583 0.866712
0.117344 0.126944 0.866503
0.242483 0.128483 0.866473
0.367623 0.130023 0.866443
0.492763 0.131563 0.866413
0.617903 0.133103 0.866383
0.743043 0.134643 0.866353
0.868640 0.136183 0.866323
0.980361 0.137543 0.866114
0.009777 0.250977 0.866624
0.120337 0.252337 0.866415
0.245477 0.253877 0.866385
0.370617 0.255417 0.866355
0.495757 0.256957 0.866325
0.621312 0.258497 0.866295
0.747611 0.260037 0.866265
0.873911 0.261576 0.867576
0.985632 0.262937 0.868937
0.012771 0.376370 0.866536
0.123331 0.377731 0.866326
0.248471 0.379271 0.866297
0.373983 0.380811 0.866267
0.500283 0.382351 0.866237
0.626583 0.383890 0.867490
0.752882 0.385430 0.869030
0.879182 0.386970 0.870570
0.990902 0.388331 0.871931
0.015764 0.501764 0.866448
0.126654 0.503125 0.866238
0.252954 0.504664 0.866209
0.379254 0.506204 0.867404
0.505554 0.507744 0.868944
0.631853 0.509284 0.870484
0.758153 0.510824 0.872024
0.884453 0.512364 0.873564
0.996173 0.513724 0.874924
0.020205 0.627158 0.866360
0.131925 0.628518 0.867318
0.258225 0.630058 0.868858
0.384525 0.631598 0.870398
0.510825 0.633138 0.871938
0.637124 0.634678 0.873478
0.763424 0.636218 0.875018
0.889724 0.637757 0.876557
1.000000 0.639118 0.877918
0.025476 0.752552 0.868952
0.137196 0.753912 0.870312
0.263496 0.755452 0.871852
0.389796 0.756992 0.873392
0.516095 0.758532 0.874932
0.642395 0.760071 0.876471
0.768695 0.761611 0.878011
0.894995 0.763151 0.879551
1.000000 0.764512 0.880912
0.030747 0.877945 0.871945
0.142467 0.879306 0.873306
0.268767 0.880846 0.874846
0.395066 0.882385 0.876385
0.521366 0.883925 0.877925
0.647666 0.885465 0.879465
0.773966 0.887005 0.881005
0.900266 0.888545 0.882545
1.000000 0.889905 0.883905
0.035783 0.993504 0.874704
0.147503 0.994865 0.876065
0.273803 0.996405 0.877605
0.400103 0.997944 0.879144
0.526402 0.999484 0.880684
0.652702 1.000000 0.882224
0.779002 1.000000 0.883764
0.905302 1.000000 0.885304
1.000000 1.000000 0.886664
0.004560 0.010560 0.979772
0.115120 0.011920 0.979563
0.240260 0.013460 0.979533
0.365400 0.015000 0.979503
0.490540 0.016540 0.979473
0.615680 0.018080 0.979443
0.740820 0.019620 0.979413
0.865960 0.021160 0.979383
0.976520 0.022520 0.979174
0.007319 0.126119 0.979449
0.117879 0.127479 0.979240
0.243019 0.129019 0.979210
0.368159 0.130559 0.979180
0.493299 0.132099 0.979150
0.618439 0.133639 0.979120
0.743579 0.135179 0.979090
0.869618 0.136718 0.979060
0.981339 0.138079 0.979279
0.010313 0.251513 0.979361
0.120873 0.252873 0.979152
0.246013 0.254413 0.979122
0.371153 0.255953 0.979092
0.496293 0.257493 0.979062
0.622290 0.259032 0.979032
0.748590 0.260572 0.979372
0.874889 0.262112 0.980912
0.986610 0.263473 0.982273
0.013306 0.376906 0.979273
0.123867 0.378267 0.979064
0.249007 0.379807 0.979034
0.374961 0.381346 0.979004
0.501261 0.382886 0.979286
0.627561 0.384426 0.980826
0.753860 0.385966 0.982366
0.880160 0.387506 0.983906
0.991881 0.388866 0.985266
0.016300 0.502300 0.979185
0.127632 0.503660 0.978976
0.253932 0.505200 0.979200
0.380232 0.506740 0.980740
0.506532 0.508280 0.982280
0.632831 0.509820 0.983820
0.759131 0.511360 0.985360
0.885431 0.512900 0.986900
0.997151 0.514260 0.988260
0.021183 0.627694 0.979294
0.132903 0.629054 0.980654
0.259203 0.630594 0.982194
0.385503 0.632134 0.983734
0.511803 0.633674 0.985274
0.638102 0.635214 0.986814
0.764402 0.636753 0.988353
0.890702 0.638293 0.989893
1.000000 0.639654 0.991254
0.026454 0.753087 0.982287
0.138174 0.754448 0.983648
0.264474 0.755988 0.985188
0.390774 0.757528 0.986728
0.517073 0.759067 0.988267
0.643373 0.760607 0.989807
0.769673 0.762147 0.991347
0.895973 0.763687 0.992887
1.000000 0.765047 0.994247
0.031725 0.878481 0.985281
0.143445 0.879842 0.986642
0.269745 0.881381 0.988181
0.396045 0.882921 0.989721
0.522344 0.884461 0.991261
0.648644 0.886001 0.992801
0.774944 0.887541 0.994341
0.901244 0.889081 0.995881
1.000000 0.890441 0.997241
0.036761 0.994040 0.988040
0.148481 0.995400 0.989400
0.274781 0.996940 0.990940
0.401081 0.998480 0.992480
0.527380 1.000000 0.994020
0.653680 1.000000 0.995560
0.779980 1.000000 0.997100
0.906280 1.000000 0.998640
1.000000 1.000000 1.000000
