docs/luts/fresh-teal-horror-rec709.cube
TITLE "FreshLUTs??-????Rec709"
LUT_3D_SIZE 33
DOMAIN_MIN 0.0 0.0 0.0
DOMAIN_MAX 1.0 1.0 1.0
0.000000 0.045000 0.095000
0.000000 0.044117 0.093136
0.000000 0.043234 0.091272
0.000000 0.043173 0.090230
0.000000 0.044757 0.090833
0.024402 0.046341 0.091435
0.057198 0.047925 0.092038
0.089994 0.049508 0.092641
0.122790 0.051092 0.093243
0.155586 0.052676 0.093846
0.188382 0.054260 0.094449
0.221177 0.055843 0.095051
0.253973 0.057427 0.095654
0.286769 0.059011 0.096257
0.319565 0.060595 0.096859
0.352361 0.062178 0.097462
0.385157 0.063762 0.098065
0.417953 0.065346 0.098667
0.450749 0.066930 0.099270
0.483545 0.068514 0.099873
0.516341 0.070097 0.100475
0.549137 0.071681 0.101078
0.581933 0.073265 0.101681
0.614729 0.074849 0.102283
0.647525 0.076432 0.102886
0.680321 0.078016 0.103489
0.713117 0.079600 0.104091
0.745913 0.081184 0.104694
0.778709 0.082767 0.105297
0.811505 0.084351 0.105899
0.823156 0.084290 0.104858
0.824235 0.083407 0.102994
0.825314 0.082524 0.101129
0.000000 0.043267 0.091340
0.000000 0.042384 0.089476
0.000000 0.041501 0.087612
0.000000 0.041440 0.086570
0.000000 0.043024 0.087173
0.026520 0.044607 0.087776
0.059316 0.046191 0.088378
0.092112 0.047775 0.088981
0.124908 0.049359 0.089584
0.157704 0.050942 0.090186
0.190500 0.052526 0.090789
0.223296 0.054110 0.091392
0.256092 0.055694 0.091994
0.288888 0.057277 0.092597
0.321684 0.058861 0.093200
0.354480 0.060445 0.093802
0.387276 0.062029 0.094405
0.420072 0.063613 0.095008
0.452868 0.065196 0.095611
0.485664 0.066780 0.096213
0.518460 0.068364 0.096816
0.551256 0.069948 0.097419
0.584052 0.071531 0.098021
0.616848 0.073115 0.098624
0.649644 0.074699 0.099227
0.682440 0.076283 0.099829
0.715235 0.077866 0.100432
0.748031 0.079450 0.101035
0.780827 0.081034 0.101637
0.813623 0.082618 0.102240
0.825275 0.082557 0.101198
0.826354 0.081674 0.099334
0.827433 0.080791 0.097470
0.000000 0.046647 0.088407
0.000000 0.045764 0.086543
0.000000 0.044881 0.084679
0.000000 0.044820 0.083637
0.000000 0.046404 0.084240
0.029366 0.047988 0.084843
0.062162 0.049572 0.085445
0.094957 0.051155 0.086048
0.127753 0.052739 0.086651
0.160549 0.054323 0.087253
0.193345 0.055907 0.087856
0.226141 0.057490 0.088459
0.258937 0.059074 0.089061
0.291733 0.060658 0.089664
0.324529 0.062242 0.090267
0.357325 0.063825 0.090869
0.390121 0.065409 0.091472
0.422917 0.066993 0.092075
0.455713 0.068577 0.092677
0.488509 0.070160 0.093280
0.521305 0.071744 0.093883
0.554101 0.073328 0.094485
0.586897 0.074912 0.095088
0.619693 0.076496 0.095691
0.652489 0.078079 0.096293
0.685285 0.079663 0.096896
0.718081 0.081247 0.097499
0.750877 0.082831 0.098101
0.783673 0.084414 0.098704
0.816468 0.085998 0.099307
0.828120 0.085937 0.098265
0.829199 0.085054 0.096401
0.830278 0.084171 0.094537
0.000000 0.077017 0.089308
0.000000 0.076134 0.087444
0.000000 0.075251 0.085580
0.000000 0.075191 0.084538
0.003249 0.076775 0.085141
0.036045 0.078358 0.085743
0.068840 0.079942 0.086346
0.101636 0.081526 0.086949
0.134432 0.083110 0.087551
0.167228 0.084693 0.088154
0.200024 0.086277 0.088757
0.232820 0.087861 0.089359
0.265616 0.089445 0.089962
0.298412 0.091028 0.090565
0.331208 0.092612 0.091167
0.364004 0.094196 0.091770
0.396800 0.095780 0.092373
0.429596 0.097363 0.092975
0.462392 0.098947 0.093578
0.495188 0.100531 0.094181
0.527984 0.102115 0.094783
0.560780 0.103699 0.095386
0.593576 0.105282 0.095989
0.626372 0.106866 0.096591
0.659168 0.108450 0.097194
0.691964 0.110034 0.097797
0.724760 0.111617 0.098399
0.757556 0.113201 0.099002
0.790351 0.114785 0.099605
0.823147 0.116369 0.100207
0.834799 0.116308 0.099166
0.835878 0.115425 0.097302
0.836957 0.114542 0.095437
0.000000 0.107388 0.090209
0.000000 0.106505 0.088345
0.000000 0.105622 0.086480
0.000000 0.105561 0.085439
0.009928 0.107145 0.086041
0.042724 0.108729 0.086644
0.075519 0.110313 0.087247
0.108315 0.111896 0.087849
0.141111 0.113480 0.088452
0.173907 0.115064 0.089055
0.206703 0.116648 0.089657
0.239499 0.118231 0.090260
0.272295 0.119815 0.090863
0.305091 0.121399 0.091465
0.337887 0.122983 0.092068
0.370683 0.124566 0.092671
0.403479 0.126150 0.093273
0.436275 0.127734 0.093876
0.469071 0.129318 0.094479
0.501867 0.130902 0.095081
0.534663 0.132485 0.095684
0.567459 0.134069 0.096287
0.600255 0.135653 0.096889
0.633051 0.137237 0.097492
0.665847 0.138820 0.098095
0.698643 0.140404 0.098697
0.731439 0.141988 0.099300
0.764234 0.143572 0.099903
0.797030 0.145155 0.100505
0.829826 0.146739 0.101108
0.841478 0.146678 0.100066
0.842557 0.145795 0.098202
0.843636 0.144912 0.096338
0.000000 0.137759 0.091109
0.000000 0.136876 0.089245
0.000000 0.135993 0.087381
0.000000 0.135932 0.086339
0.016607 0.137516 0.086942
0.049402 0.139099 0.087545
0.082198 0.140683 0.088147
0.114994 0.142267 0.088750
0.147790 0.143851 0.089353
0.180586 0.145434 0.089955
0.213382 0.147018 0.090558
0.246178 0.148602 0.091161
0.278974 0.150186 0.091763
0.311770 0.151769 0.092366
0.344566 0.153353 0.092969
0.377362 0.154937 0.093571
0.410158 0.156521 0.094174
0.442954 0.158105 0.094777
0.475750 0.159688 0.095379
0.508546 0.161272 0.095982
0.541342 0.162856 0.096585
0.574138 0.164440 0.097187
0.606934 0.166023 0.097790
0.639730 0.167607 0.098393
0.672526 0.169191 0.098995
0.705322 0.170775 0.099598
0.738117 0.172358 0.100201
0.770913 0.173942 0.100803
0.803709 0.175526 0.101406
0.836505 0.177110 0.102009
0.848157 0.177049 0.100967
0.849236 0.176166 0.099103
0.850315 0.175283 0.097239
0.000000 0.168129 0.092010
0.000000 0.167246 0.090146
0.000000 0.166363 0.088282
0.000000 0.166302 0.087240
0.023285 0.167886 0.087843
0.056081 0.169470 0.088445
0.088877 0.171054 0.089048
0.121673 0.172637 0.089651
0.154469 0.174221 0.090253
0.187265 0.175805 0.090856
0.220061 0.177389 0.091459
0.252857 0.178972 0.092061
0.285653 0.180556 0.092664
0.318449 0.182140 0.093267
0.351245 0.183724 0.093869
0.384041 0.185308 0.094472
0.416837 0.186891 0.095075
0.449633 0.188475 0.095677
0.482429 0.190059 0.096280
0.515225 0.191643 0.096883
0.548021 0.193226 0.097485
0.580817 0.194810 0.098088
0.613613 0.196394 0.098691
0.646409 0.197978 0.099293
0.679205 0.199561 0.099896
0.712000 0.201145 0.100499
0.744796 0.202729 0.101101
0.777592 0.204313 0.101704
0.810388 0.205896 0.102307
0.843184 0.207480 0.102909
0.854836 0.207420 0.101868
0.855915 0.206537 0.100004
0.856994 0.205654 0.098139
0.000000 0.198500 0.092911
0.000000 0.197617 0.091047
0.000000 0.196734 0.089182
0.000000 0.196673 0.088141
0.029964 0.198257 0.088743
0.062760 0.199840 0.089346
0.095556 0.201424 0.089949
0.128352 0.203008 0.090551
0.161148 0.204592 0.091154
0.193944 0.206175 0.091757
0.226740 0.207759 0.092359
0.259536 0.209343 0.092962
0.292332 0.210927 0.093565
0.325128 0.212511 0.094167
0.357924 0.214094 0.094770
0.390720 0.215678 0.095373
0.423516 0.217262 0.095975
0.456312 0.218846 0.096578
0.489108 0.220429 0.097181
0.521904 0.222013 0.097783
0.554700 0.223597 0.098386
0.587496 0.225181 0.098989
0.620292 0.226764 0.099591
0.653088 0.228348 0.100194
0.685883 0.229932 0.100797
0.718679 0.231516 0.101399
0.751475 0.233099 0.102002
0.784271 0.234683 0.102605
0.817067 0.236267 0.103207
0.849863 0.237851 0.103810
0.861515 0.237790 0.102768
0.862594 0.236907 0.100904
0.863673 0.236024 0.099040
0.000000 0.228870 0.093811
0.000000 0.227987 0.091947
0.000000 0.227104 0.090083
0.003847 0.227043 0.089041
0.036643 0.228627 0.089644
0.069439 0.230211 0.090247
0.102235 0.231795 0.090849
0.135031 0.233378 0.091452
0.167827 0.234962 0.092055
0.200623 0.236546 0.092657
0.233419 0.238130 0.093260
0.266215 0.239713 0.093863
0.299011 0.241297 0.094465
0.331807 0.242881 0.095068
0.364603 0.244465 0.095671
0.397399 0.246049 0.096273
0.430195 0.247632 0.096876
0.462991 0.249216 0.097479
0.495787 0.250800 0.098081
0.528583 0.252384 0.098684
0.561379 0.253967 0.099287
0.594175 0.255551 0.099889
0.626971 0.257135 0.100492
0.659766 0.258719 0.101095
0.692562 0.260302 0.101697
0.725358 0.261886 0.102300
0.758154 0.263470 0.102903
0.790950 0.265054 0.103505
0.823746 0.266638 0.104108
0.856542 0.268221 0.104711
0.868194 0.268161 0.103669
0.869273 0.267278 0.101805
0.870352 0.266395 0.099941
0.000000 0.259241 0.094712
0.000000 0.258358 0.092848
0.000000 0.257475 0.090984
0.010526 0.257414 0.089942
0.043322 0.258998 0.090545
0.076118 0.260581 0.091147
0.108914 0.262165 0.091750
0.141710 0.263749 0.092353
0.174506 0.265333 0.092955
0.207302 0.266916 0.093558
0.240098 0.268500 0.094161
0.272894 0.270084 0.094763
0.305690 0.271668 0.095366
0.338486 0.273252 0.095969
0.371282 0.274835 0.096571
0.404078 0.276419 0.097174
0.436874 0.278003 0.097777
0.469670 0.279587 0.098379
0.502466 0.281170 0.098982
0.535262 0.282754 0.099585
0.568058 0.284338 0.100187
0.600854 0.285922 0.100790
0.633650 0.287505 0.101393
0.666445 0.289089 0.101995
0.699241 0.290673 0.102598
0.732037 0.292257 0.103201
0.764833 0.293841 0.103803
0.797629 0.295424 0.104406
0.830425 0.297008 0.105009
0.863221 0.298592 0.105611
0.874873 0.298531 0.104570
0.875952 0.297648 0.102706
0.877031 0.296765 0.100842
0.003395 0.289611 0.095613
0.004475 0.288728 0.093749
0.005554 0.287845 0.091885
0.017205 0.287784 0.090843
0.050001 0.289368 0.091445
0.082797 0.290952 0.092048
0.115593 0.292536 0.092651
0.148389 0.294119 0.093253
0.181185 0.295703 0.093856
0.213981 0.297287 0.094459
0.246777 0.298871 0.095061
0.279573 0.300455 0.095664
0.312369 0.302038 0.096267
0.345165 0.303622 0.096869
0.377961 0.305206 0.097472
0.410757 0.306790 0.098075
0.443553 0.308373 0.098677
0.476349 0.309957 0.099280
0.509145 0.311541 0.099883
0.541941 0.313125 0.100485
0.574737 0.314708 0.101088
0.607533 0.316292 0.101691
0.640328 0.317876 0.102293
0.673124 0.319460 0.102896
0.705920 0.321043 0.103499
0.738716 0.322627 0.104101
0.771512 0.324211 0.104704
0.804308 0.325795 0.105307
0.837104 0.327379 0.105909
0.869900 0.328962 0.106512
0.881552 0.328902 0.105470
0.882631 0.328019 0.103606
0.882988 0.327726 0.102988
0.010074 0.319982 0.096513
0.011154 0.319099 0.094649
0.012233 0.318216 0.092785
0.023884 0.318155 0.091743
0.056680 0.319739 0.092346
0.089476 0.321322 0.092949
0.122272 0.322906 0.093551
0.155068 0.324490 0.094154
0.187864 0.326074 0.094757
0.220660 0.327658 0.095359
0.253456 0.329241 0.095962
0.286252 0.330825 0.096565
0.319048 0.332409 0.097167
0.351844 0.333993 0.097770
0.384640 0.335576 0.098373
0.417436 0.337160 0.098975
0.450232 0.338744 0.099578
0.483028 0.340328 0.100181
0.515824 0.341911 0.100783
0.548620 0.343495 0.101386
0.581416 0.345079 0.101989
0.614211 0.346663 0.102591
0.647007 0.348246 0.103194
0.679803 0.349830 0.103797
0.712599 0.351414 0.104399
0.745395 0.352998 0.105002
0.778191 0.354582 0.105605
0.810987 0.356165 0.106207
0.843783 0.357749 0.106810
0.876579 0.359333 0.107413
0.887549 0.359830 0.107549
0.887549 0.359830 0.107549
0.887549 0.359830 0.107549
0.016753 0.350352 0.097414
0.017833 0.349469 0.095550
0.018912 0.348586 0.093686
0.030563 0.348525 0.092644
0.063359 0.350109 0.093247
0.096155 0.351693 0.093849
0.128951 0.353277 0.094452
0.161747 0.354861 0.095055
0.194543 0.356444 0.095657
0.227339 0.358028 0.096260
0.260135 0.359612 0.096863
0.292931 0.361196 0.097465
0.325727 0.362779 0.098068
0.358523 0.364363 0.098671
0.391319 0.365947 0.099273
0.424115 0.367531 0.099876
0.456911 0.369114 0.100479
0.489707 0.370698 0.101081
0.522503 0.372282 0.101684
0.555299 0.373866 0.102287
0.588094 0.375449 0.102889
0.620890 0.377033 0.103492
0.653686 0.378617 0.104095
0.686482 0.380201 0.104697
0.719278 0.381785 0.105300
0.752074 0.383368 0.105903
0.784870 0.384952 0.106506
0.817666 0.386536 0.107108
0.849820 0.388645 0.108820
0.881537 0.391112 0.111287
0.892109 0.391934 0.112109
0.892109 0.391934 0.112109
0.892109 0.391934 0.112109
0.023432 0.380723 0.098315
0.024512 0.379840 0.096451
0.025591 0.378957 0.094587
0.037242 0.378896 0.093545
0.070038 0.380480 0.094147
0.102834 0.382064 0.094750
0.135630 0.383647 0.095353
0.168426 0.385231 0.095955
0.201222 0.386815 0.096558
0.234018 0.388399 0.097161
0.266814 0.389982 0.097763
0.299610 0.391566 0.098366
0.332406 0.393150 0.098969
0.365202 0.394734 0.099571
0.397998 0.396317 0.100174
0.430794 0.397901 0.100777
0.463590 0.399485 0.101379
0.496386 0.401069 0.101982
0.529182 0.402652 0.102585
0.561977 0.404236 0.103187
0.594773 0.405820 0.103790
0.627569 0.407404 0.104393
0.660365 0.408988 0.104995
0.693161 0.410571 0.105598
0.725957 0.412155 0.106201
0.758753 0.413739 0.106804
0.790947 0.415815 0.108447
0.822663 0.418282 0.110913
0.854380 0.420749 0.113380
0.886097 0.423216 0.115847
0.896669 0.424038 0.116669
0.896669 0.424038 0.116669
0.896669 0.424038 0.116669
0.030111 0.411093 0.099215
0.031191 0.410210 0.097351
0.032270 0.409327 0.095487
0.043921 0.409267 0.094445
0.076717 0.410850 0.095048
0.109513 0.412434 0.095651
0.142309 0.414018 0.096253
0.175105 0.415602 0.096856
0.207901 0.417185 0.097459
0.240697 0.418769 0.098061
0.273493 0.420353 0.098664
0.306289 0.421937 0.099267
0.339085 0.423520 0.099869
0.371881 0.425104 0.100472
0.404677 0.426688 0.101075
0.437473 0.428272 0.101677
0.470269 0.429855 0.102280
0.503065 0.431439 0.102883
0.535860 0.433023 0.103485
0.568656 0.434607 0.104088
0.601452 0.436191 0.104691
0.634248 0.437774 0.105294
0.667044 0.439358 0.105896
0.699840 0.440942 0.106499
0.732073 0.442986 0.108073
0.763790 0.445453 0.110540
0.795507 0.447919 0.113007
0.827224 0.450386 0.115474
0.858940 0.452853 0.117940
0.890657 0.455320 0.120407
0.901229 0.456142 0.121229
0.901229 0.456142 0.121229
0.901229 0.456142 0.121229
0.036790 0.441464 0.100116
0.037869 0.440581 0.098252
0.038949 0.439698 0.096388
0.050600 0.439637 0.095346
0.083396 0.441221 0.095949
0.116192 0.442805 0.096551
0.148988 0.444388 0.097154
0.181784 0.445972 0.097757
0.214580 0.447556 0.098359
0.247376 0.449140 0.098962
0.280172 0.450723 0.099565
0.312968 0.452307 0.100167
0.345764 0.453891 0.100770
0.378560 0.455475 0.101373
0.411356 0.457058 0.101975
0.444152 0.458642 0.102578
0.476948 0.460226 0.103181
0.509743 0.461810 0.103783
0.542539 0.463394 0.104386
0.575335 0.464977 0.104989
0.608131 0.466561 0.105592
0.640927 0.468145 0.106194
0.673200 0.470156 0.107700
0.704917 0.472623 0.110167
0.736634 0.475090 0.112634
0.768350 0.477557 0.115100
0.800067 0.480023 0.117567
0.831784 0.482490 0.120034
0.863501 0.484957 0.122501
0.895217 0.487424 0.124967
0.905790 0.488246 0.125790
0.905790 0.488246 0.125790
0.905790 0.488246 0.125790
0.043469 0.471834 0.101017
0.044548 0.470951 0.099153
0.045628 0.470068 0.097289
0.057279 0.470008 0.096247
0.090075 0.471591 0.096849
0.122871 0.473175 0.097452
0.155667 0.474759 0.098055
0.188463 0.476343 0.098657
0.221259 0.477926 0.099260
0.254055 0.479510 0.099863
0.286851 0.481094 0.100465
0.319647 0.482678 0.101068
0.352443 0.484261 0.101671
0.385239 0.485845 0.102273
0.418035 0.487429 0.102876
0.450831 0.489013 0.103479
0.483627 0.490596 0.104081
0.516422 0.492180 0.104684
0.549218 0.493764 0.105287
0.582014 0.495348 0.105890
0.614327 0.497327 0.107327
0.646044 0.499794 0.109794
0.677760 0.502260 0.112260
0.709477 0.504727 0.114727
0.741194 0.507194 0.117194
0.772911 0.509661 0.119661
0.804628 0.512127 0.122127
0.836344 0.514594 0.124594
0.868061 0.517061 0.127061
0.899778 0.519528 0.129528
0.910350 0.520350 0.130350
0.910350 0.520350 0.130350
0.910350 0.520350 0.130350
0.050148 0.502205 0.101917
0.051227 0.501322 0.100053
0.052307 0.500439 0.098189
0.063958 0.500378 0.097147
0.096754 0.501962 0.097750
0.129550 0.503546 0.098353
0.162346 0.505129 0.098955
0.195142 0.506713 0.099558
0.227938 0.508297 0.100161
0.260734 0.509881 0.100763
0.293530 0.511464 0.101366
0.326326 0.513048 0.101969
0.359122 0.514632 0.102571
0.391918 0.516216 0.103174
0.424714 0.517799 0.103777
0.457510 0.519383 0.104380
0.490305 0.520967 0.104982
0.523101 0.522551 0.105585
0.555454 0.524498 0.106954
0.587171 0.526964 0.109421
0.618887 0.529431 0.111887
0.650604 0.531898 0.114354
0.682321 0.534365 0.116821
0.714038 0.536831 0.119288
0.745754 0.539298 0.121754
0.777471 0.541765 0.124221
0.809188 0.544232 0.126688
0.840905 0.546698 0.129155
0.872621 0.549165 0.131621
0.904338 0.551632 0.134088
0.914910 0.552454 0.134910
0.914910 0.552454 0.134910
0.914910 0.552454 0.134910
0.056827 0.532575 0.102818
0.057906 0.531692 0.100954
0.058986 0.530809 0.099090
0.070637 0.530749 0.098048
0.103433 0.532332 0.098651
0.136229 0.533916 0.099253
0.169025 0.535500 0.099856
0.201821 0.537084 0.100459
0.234617 0.538667 0.101061
0.267413 0.540251 0.101664
0.300209 0.541835 0.102267
0.333005 0.543419 0.102869
0.365801 0.545002 0.103472
0.398597 0.546586 0.104075
0.431393 0.548170 0.104678
0.464188 0.549754 0.105280
0.496581 0.551668 0.106581
0.528297 0.554135 0.109047
0.560014 0.556602 0.111514
0.591731 0.559068 0.113981
0.623448 0.561535 0.116448
0.655164 0.564002 0.118914
0.686881 0.566469 0.121381
0.718598 0.568935 0.123848
0.750315 0.571402 0.126315
0.782031 0.573869 0.128781
0.813748 0.576336 0.131248
0.845465 0.578802 0.133715
0.877182 0.581269 0.136182
0.908898 0.583736 0.138648
0.919471 0.584558 0.139471
0.919471 0.584558 0.139471
0.919471 0.584558 0.139471
0.063506 0.562946 0.103719
0.064585 0.562063 0.101855
0.065665 0.561180 0.099991
0.077316 0.561119 0.098949
0.110112 0.562703 0.099551
0.142908 0.564287 0.100154
0.175704 0.565870 0.100757
0.208500 0.567454 0.101359
0.241296 0.569038 0.101962
0.274092 0.570622 0.102565
0.306888 0.572205 0.103168
0.339684 0.573789 0.103770
0.372480 0.575373 0.104373
0.405276 0.576957 0.104976
0.437707 0.578839 0.106207
0.469424 0.581305 0.108674
0.501141 0.583772 0.111141
0.532858 0.586239 0.113608
0.564574 0.588706 0.116074
0.596291 0.591172 0.118541
0.628008 0.593639 0.121008
0.659725 0.596106 0.123475
0.691441 0.598573 0.125941
0.723158 0.601039 0.128408
0.754875 0.603506 0.130875
0.786592 0.605973 0.133342
0.818308 0.608440 0.135808
0.850025 0.610906 0.138275
0.881742 0.613373 0.140742
0.913459 0.615840 0.143209
0.924031 0.616662 0.144031
0.924031 0.616662 0.144031
0.924031 0.616662 0.144031
0.070185 0.593316 0.104619
0.071264 0.592433 0.102755
0.072343 0.591550 0.100891
0.083995 0.591490 0.099849
0.116791 0.593073 0.100452
0.149587 0.594657 0.101055
0.182383 0.596241 0.101657
0.215179 0.597825 0.102260
0.247975 0.599408 0.102863
0.280771 0.600992 0.103466
0.313567 0.602576 0.104068
0.346363 0.604160 0.104671
0.378834 0.606009 0.105834
0.410551 0.608476 0.108301
0.442268 0.610943 0.110768
0.473984 0.613409 0.113234
0.505701 0.615876 0.115701
0.537418 0.618343 0.118168
0.569135 0.620810 0.120635
0.600851 0.623276 0.123101
0.632568 0.625743 0.125568
0.664285 0.628210 0.128035
0.696002 0.630677 0.130502
0.727718 0.633143 0.132968
0.759435 0.635610 0.135435
0.791152 0.638077 0.137902
0.822869 0.640544 0.140369
0.854585 0.643010 0.142835
0.886302 0.645477 0.145302
0.918019 0.647944 0.147769
0.928591 0.648766 0.148591
0.928591 0.648766 0.148591
0.928591 0.648766 0.148591
0.076864 0.623687 0.105520
0.077943 0.622804 0.103656
0.079022 0.621921 0.101792
0.090674 0.621860 0.100750
0.123470 0.623444 0.101353
0.156266 0.625028 0.101955
0.189062 0.626611 0.102558
0.221858 0.628195 0.103161
0.254654 0.629779 0.103764
0.287450 0.631363 0.104366
0.319961 0.633180 0.105461
0.351678 0.635646 0.107928
0.383394 0.638113 0.110394
0.415111 0.640580 0.112861
0.446828 0.643047 0.115328
0.478545 0.645513 0.117795
0.510261 0.647980 0.120261
0.541978 0.650447 0.122728
0.573695 0.652914 0.125195
0.605412 0.655380 0.127662
0.637128 0.657847 0.130128
0.668845 0.660314 0.132595
0.700562 0.662781 0.135062
0.732279 0.665247 0.137529
0.763995 0.667714 0.139995
0.795712 0.670181 0.142462
0.827429 0.672648 0.144929
0.859146 0.675114 0.147396
0.890862 0.677581 0.149862
0.922579 0.680048 0.152329
0.933151 0.680870 0.153151
0.933151 0.680870 0.153151
0.933151 0.680870 0.153151
0.083543 0.654057 0.106421
0.084622 0.653174 0.104557
0.085701 0.652291 0.102693
0.097353 0.652231 0.101651
0.130149 0.653814 0.102254
0.162945 0.655398 0.102856
0.195741 0.656982 0.103459
0.228537 0.658566 0.104062
0.261088 0.660350 0.105088
0.292804 0.662817 0.107554
0.324521 0.665284 0.110021
0.356238 0.667750 0.112488
0.387955 0.670217 0.114955
0.419671 0.672684 0.117421
0.451388 0.675151 0.119888
0.483105 0.677617 0.122355
0.514822 0.680084 0.124822
0.546538 0.682551 0.127288
0.578255 0.685018 0.129755
0.609972 0.687484 0.132222
0.641689 0.689951 0.134689
0.673405 0.692418 0.137155
0.705122 0.694885 0.139622
0.736839 0.697351 0.142089
0.768556 0.699818 0.144556
0.800272 0.702285 0.147022
0.831989 0.704752 0.149489
0.863706 0.707218 0.151956
0.895423 0.709685 0.154423
0.927139 0.712152 0.156889
0.937712 0.712974 0.157712
0.937712 0.712974 0.157712
0.937712 0.712974 0.157712
0.090222 0.684428 0.107321
0.091301 0.683545 0.105457
0.092380 0.682662 0.103593
0.104032 0.682601 0.102552
0.136828 0.684185 0.103154
0.169624 0.685769 0.103757
0.202214 0.687521 0.104714
0.233931 0.689987 0.107181
0.265648 0.692454 0.109648
0.297365 0.694921 0.112115
0.329081 0.697388 0.114581
0.360798 0.699854 0.117048
0.392515 0.702321 0.119515
0.424232 0.704788 0.121982
0.455948 0.707255 0.124448
0.487665 0.709721 0.126915
0.519382 0.712188 0.129382
0.551099 0.714655 0.131849
0.582815 0.717122 0.134315
0.614532 0.719588 0.136782
0.646249 0.722055 0.139249
0.677966 0.724522 0.141716
0.709682 0.726989 0.144182
0.741399 0.729455 0.146649
0.773116 0.731922 0.149116
0.804833 0.734389 0.151583
0.836549 0.736856 0.154049
0.868266 0.739322 0.156516
0.899983 0.741789 0.158983
0.931700 0.744256 0.161450
0.942272 0.745078 0.162272
0.942272 0.745078 0.162272
0.942272 0.745078 0.162272
0.096901 0.714798 0.108222
0.097980 0.713915 0.106358
0.099059 0.713032 0.104494
0.110711 0.712972 0.103452
0.143341 0.714691 0.104341
0.175058 0.717158 0.106808
0.206775 0.719625 0.109275
0.238491 0.722091 0.111741
0.270208 0.724558 0.114208
0.301925 0.727025 0.116675
0.333642 0.729492 0.119142
0.365358 0.731958 0.121608
0.397075 0.734425 0.124075
0.428792 0.736892 0.126542
0.460509 0.739359 0.129009
0.492225 0.741825 0.131475
0.523942 0.744292 0.133942
0.555659 0.746759 0.136409
0.587376 0.749226 0.138876
0.619092 0.751692 0.141342
0.650809 0.754159 0.143809
0.682526 0.756626 0.146276
0.714243 0.759093 0.148743
0.745959 0.761559 0.151209
0.777676 0.764026 0.153676
0.809393 0.766493 0.156143
0.841110 0.768960 0.158610
0.872826 0.771426 0.161076
0.904543 0.773893 0.163543
0.936260 0.776360 0.166010
0.946832 0.777182 0.166832
0.946832 0.777182 0.166832
0.946832 0.777182 0.166832
0.103580 0.745169 0.109123
0.104659 0.744286 0.107259
0.105612 0.743506 0.105612
0.116185 0.744328 0.106435
0.147901 0.746795 0.108901
0.179618 0.749262 0.111368
0.211335 0.751729 0.113835
0.243052 0.754195 0.116302
0.274768 0.756662 0.118768
0.306485 0.759129 0.121235
0.338202 0.761596 0.123702
0.369919 0.764062 0.126169
0.401635 0.766529 0.128635
0.433352 0.768996 0.131102
0.465069 0.771463 0.133569
0.496786 0.773929 0.136036
0.528502 0.776396 0.138502
0.560219 0.778863 0.140969
0.591936 0.781330 0.143436
0.623653 0.783796 0.145903
0.655369 0.786263 0.148369
0.687086 0.788730 0.150836
0.718803 0.791197 0.153303
0.750520 0.793663 0.155770
0.782236 0.796130 0.158236
0.813953 0.798597 0.160703
0.845670 0.801064 0.163170
0.877387 0.803530 0.165637
0.909103 0.805997 0.168103
0.940820 0.808464 0.170570
0.951392 0.809286 0.171392
0.951392 0.809286 0.171392
0.951392 0.809286 0.171392
0.110173 0.775610 0.110173
0.110173 0.775610 0.110173
0.110173 0.775610 0.110173
0.120745 0.776432 0.110995
0.152462 0.778899 0.113462
0.184178 0.781366 0.115928
0.215895 0.783833 0.118395
0.247612 0.786299 0.120862
0.279329 0.788766 0.123329
0.311045 0.791233 0.125795
0.342762 0.793700 0.128262
0.374479 0.796166 0.130729
0.406196 0.798633 0.133196
0.437912 0.801100 0.135662
0.469629 0.803567 0.138129
0.501346 0.806033 0.140596
0.533063 0.808500 0.143063
0.564779 0.810967 0.145529
0.596496 0.813434 0.147996
0.628213 0.815900 0.150463
0.659930 0.818367 0.152930
0.691646 0.820834 0.155396
0.723363 0.823301 0.157863
0.755080 0.825767 0.160330
0.786797 0.828234 0.162797
0.818513 0.830701 0.165263
0.850230 0.833168 0.167730
