docs/luts/fresh-kodak-2383.cube
TITLE "FreshLUTs??-Kodak2383"
LUT_3D_SIZE 5
DOMAIN_MIN 0.0 0.0 0.0
DOMAIN_MAX 1.0 1.0 1.0
0.000000 0.000000 0.000000
0.224627 0.000000 0.000000
0.510515 0.000000 0.000000
0.796403 0.000000 0.000000
1.000000 0.000000 0.000000
0.000000 0.232850 0.000000
0.220576 0.230876 0.000000
0.506465 0.228365 0.000000
0.792353 0.225853 0.000000
1.000000 0.224679 0.000000
0.000000 0.506195 0.000000
0.215822 0.504222 0.000000
0.503494 0.502424 0.000000
0.795182 0.502232 0.000000
1.000000 0.502578 0.000000
0.001571 0.780169 0.000000
0.218438 0.780515 0.000000
0.510126 0.780323 0.000000
0.801814 0.780132 0.000000
1.000000 0.780478 0.000000
0.012957 1.000000 0.000000
0.225773 1.000000 0.000000
0.517461 1.000000 0.000000
0.809149 1.000000 0.000000
1.000000 1.000000 0.000000
0.000000 0.000000 0.213474
0.223806 0.000000 0.216995
0.509694 0.000000 0.219977
0.795583 0.000000 0.222960
1.000000 0.000000 0.226480
0.000000 0.232029 0.220210
0.219755 0.230055 0.223730
0.505644 0.227544 0.226713
0.791532 0.225032 0.229696
1.000000 0.224743 0.233216
0.000000 0.505374 0.226241
0.215001 0.503401 0.229762
0.504885 0.502487 0.232744
0.796573 0.502296 0.230578
1.000000 0.502642 0.228604
0.003782 0.780232 0.232273
0.219828 0.780579 0.230846
0.511516 0.780387 0.228334
0.803204 0.780195 0.225823
1.000000 0.780542 0.223849
0.015168 1.000000 0.228769
0.227163 1.000000 0.226796
0.518851 1.000000 0.224284
0.810539 1.000000 0.221773
1.000000 1.000000 0.219799
0.000000 0.000000 0.482480
0.222917 0.000000 0.486000
0.508805 0.000000 0.488983
0.794693 0.000000 0.491965
1.000000 0.000000 0.495486
0.000000 0.231140 0.489215
0.218866 0.229166 0.492736
0.504755 0.226655 0.495719
0.791264 0.224391 0.498701
1.000000 0.224738 0.500270
0.000000 0.504485 0.495247
0.214519 0.502675 0.498767
0.506207 0.502483 0.500000
0.797895 0.502291 0.497488
1.000000 0.502637 0.495515
0.005994 0.780228 0.499730
0.221150 0.780574 0.497757
0.512838 0.780382 0.495245
0.804526 0.780191 0.492734
1.000000 0.780537 0.490760
0.017379 1.000000 0.495680
0.228485 1.000000 0.493707
0.520173 1.000000 0.491195
0.811861 1.000000 0.488683
1.000000 1.000000 0.486710
0.000000 0.000000 0.751485
0.222027 0.000000 0.755006
0.507916 0.000000 0.757988
0.793804 0.000000 0.760971
1.000000 0.000000 0.764492
0.000000 0.230250 0.758221
0.217977 0.228277 0.761742
0.503865 0.225765 0.764724
0.792586 0.224387 0.767707
1.000000 0.224733 0.767181
0.000000 0.503596 0.764252
0.215841 0.502670 0.767773
0.507529 0.502478 0.766911
0.799217 0.502286 0.764399
1.000000 0.502633 0.762426
0.008205 0.780223 0.766641
0.222472 0.780569 0.764668
0.514160 0.780378 0.762156
0.805848 0.780186 0.759645
1.000000 0.780532 0.757671
0.019591 1.000000 0.762591
0.229807 1.000000 0.760617
0.521495 1.000000 0.758106
0.813183 1.000000 0.755594
1.000000 1.000000 0.753621
0.000000 0.000000 0.973379
0.221207 0.000000 0.978873
0.507095 0.000000 0.984367
0.792983 0.000000 0.989861
1.000000 0.000000 0.995355
0.000000 0.229430 0.984165
0.217156 0.227456 0.989659
0.503045 0.224945 0.995153
0.793976 0.224450 1.000000
1.000000 0.224797 1.000000
0.000000 0.502775 0.994951
0.217231 0.502733 1.000000
0.508919 0.502542 1.000000
0.800607 0.502350 1.000000
1.000000 0.502696 1.000000
0.010416 0.780287 1.000000
0.223862 0.780633 1.000000
0.515550 0.780441 1.000000
0.807238 0.780250 1.000000
1.000000 0.780596 1.000000
0.021802 1.000000 1.000000
0.231198 1.000000 1.000000
0.522886 1.000000 1.000000
0.814574 1.000000 1.000000
1.000000 1.000000 1.000000
