docs/luts/fresh-cinematic-core.cube
TITLE "FreshLUTs??-????"
LUT_3D_SIZE 33
DOMAIN_MIN 0.0 0.0 0.0
DOMAIN_MAX 1.0 1.0 1.0
0.000000 0.000000 0.040000
0.000000 0.000000 0.039215
0.001268 0.000000 0.038430
0.037392 0.000000 0.037645
0.073516 0.000000 0.036860
0.109641 0.000000 0.036076
0.145765 0.000000 0.035291
0.181890 0.000000 0.034506
0.218014 0.000000 0.033721
0.254139 0.000000 0.032936
0.290263 0.000000 0.032151
0.326388 0.000000 0.031366
0.362512 0.000000 0.030582
0.398637 0.000000 0.029797
0.434761 0.000000 0.029012
0.470886 0.000000 0.028227
0.507010 0.000000 0.027442
0.543134 0.000000 0.026657
0.579259 0.000000 0.025872
0.615383 0.000000 0.025087
0.651508 0.000000 0.024303
0.687632 0.000000 0.023518
0.723757 0.000000 0.022733
0.759881 0.000000 0.021948
0.796006 0.000000 0.021163
0.832130 0.000000 0.020378
0.868255 0.000000 0.019593
0.904379 0.000000 0.018808
0.940504 0.000000 0.018024
0.976628 0.000000 0.017239
1.000000 0.000000 0.016454
1.000000 0.000000 0.015669
1.000000 0.000000 0.014884
0.000000 0.000000 0.038459
0.000000 0.000000 0.037674
0.001268 0.000000 0.036889
0.037392 0.000000 0.036105
0.073516 0.000000 0.035320
0.109641 0.000000 0.034535
0.145765 0.000000 0.033750
0.181890 0.000000 0.032965
0.218014 0.000000 0.032180
0.254139 0.000000 0.031395
0.290263 0.000000 0.030610
0.326388 0.000000 0.029825
0.362512 0.000000 0.029041
0.398637 0.000000 0.028256
0.434761 0.000000 0.027471
0.470886 0.000000 0.026686
0.507010 0.000000 0.025901
0.543134 0.000000 0.025116
0.579259 0.000000 0.024331
0.615383 0.000000 0.023546
0.651508 0.000000 0.022762
0.687632 0.000000 0.021977
0.723757 0.000000 0.021192
0.759881 0.000000 0.020407
0.796006 0.000000 0.019622
0.832130 0.000000 0.018837
0.868255 0.000000 0.018052
0.904379 0.000000 0.017268
0.940504 0.000000 0.016483
0.976628 0.000000 0.015698
1.000000 0.000000 0.014913
1.000000 0.000000 0.014128
1.000000 0.000000 0.013343
0.000000 0.007829 0.036918
0.000000 0.008065 0.036133
0.001047 0.008293 0.035348
0.037172 0.008315 0.034564
0.073296 0.008338 0.033779
0.109421 0.008360 0.032994
0.145545 0.008383 0.032209
0.181670 0.008405 0.031424
0.217794 0.008427 0.030639
0.253919 0.008450 0.029854
0.290043 0.008472 0.029070
0.326168 0.008495 0.028285
0.362292 0.008517 0.027500
0.398416 0.008540 0.026715
0.434541 0.008562 0.025930
0.470665 0.008584 0.025145
0.506790 0.008607 0.024360
0.542914 0.008629 0.023575
0.579039 0.008652 0.022791
0.615163 0.008674 0.022006
0.651288 0.008696 0.021221
0.687412 0.008719 0.020436
0.723537 0.008741 0.019651
0.759661 0.008764 0.018866
0.795786 0.008786 0.018081
0.831910 0.008809 0.017296
0.868035 0.008831 0.016511
0.904159 0.008853 0.015727
0.940283 0.008876 0.014942
0.976408 0.008898 0.014157
1.000000 0.008921 0.013372
1.000000 0.009149 0.012587
1.000000 0.009384 0.011802
0.000000 0.042951 0.035377
0.000000 0.043186 0.034592
0.000644 0.043414 0.033808
0.036768 0.043436 0.033023
0.072893 0.043459 0.032238
0.109017 0.043481 0.031453
0.145142 0.043504 0.030668
0.181266 0.043526 0.029883
0.217391 0.043549 0.029098
0.253515 0.043571 0.028314
0.289640 0.043593 0.027529
0.325764 0.043616 0.026744
0.361888 0.043638 0.025959
0.398013 0.043661 0.025174
0.434137 0.043683 0.024389
0.470262 0.043706 0.023604
0.506386 0.043728 0.022819
0.542511 0.043750 0.022035
0.578635 0.043773 0.021250
0.614760 0.043795 0.020465
0.650884 0.043818 0.019680
0.687009 0.043840 0.018895
0.723133 0.043863 0.018110
0.759258 0.043885 0.017325
0.795382 0.043907 0.016540
0.831506 0.043930 0.015756
0.867631 0.043952 0.014971
0.903755 0.043975 0.014186
0.939880 0.043997 0.013401
0.976004 0.044020 0.012616
1.000000 0.044042 0.011831
1.000000 0.044270 0.011046
1.000000 0.044505 0.010261
0.000000 0.078072 0.033837
0.000000 0.078307 0.033052
0.000240 0.078535 0.032267
0.036365 0.078558 0.031482
0.072489 0.078580 0.030697
0.108614 0.078603 0.029912
0.144738 0.078625 0.029127
0.180863 0.078647 0.028342
0.216987 0.078670 0.027557
0.253112 0.078692 0.026773
0.289236 0.078715 0.025988
0.325360 0.078737 0.025203
0.361485 0.078759 0.024418
0.397609 0.078782 0.023633
0.433734 0.078804 0.022848
0.469858 0.078827 0.022063
0.505983 0.078849 0.021279
0.542107 0.078872 0.020494
0.578232 0.078894 0.019709
0.614356 0.078916 0.018924
0.650481 0.078939 0.018139
0.686605 0.078961 0.017354
0.722730 0.078984 0.016569
0.758854 0.079006 0.015784
0.794978 0.079029 0.014999
0.831103 0.079051 0.014215
0.867227 0.079073 0.013430
0.903352 0.079096 0.012645
0.939476 0.079118 0.011860
0.975601 0.079141 0.011075
1.000000 0.079163 0.010290
1.000000 0.079391 0.009505
1.000000 0.079627 0.008720
0.000000 0.113193 0.032296
0.000000 0.113428 0.031511
0.000000 0.113656 0.030726
0.035961 0.113679 0.029941
0.072086 0.113701 0.029156
0.108210 0.113724 0.028371
0.144335 0.113746 0.027586
0.180459 0.113769 0.026802
0.216583 0.113791 0.026017
0.252708 0.113813 0.025232
0.288832 0.113836 0.024447
0.324957 0.113858 0.023662
0.361081 0.113881 0.022877
0.397206 0.113903 0.022092
0.433330 0.113926 0.021307
0.469455 0.113948 0.020522
0.505579 0.113970 0.019738
0.541704 0.113993 0.018953
0.577828 0.114015 0.018168
0.613953 0.114038 0.017383
0.650077 0.114060 0.016598
0.686201 0.114083 0.015813
0.722326 0.114105 0.015028
0.758450 0.114127 0.014244
0.794575 0.114150 0.013459
0.830699 0.114172 0.012674
0.866824 0.114195 0.011889
0.902948 0.114217 0.011104
0.939073 0.114239 0.010319
0.975197 0.114262 0.009534
1.000000 0.114284 0.008749
1.000000 0.114512 0.007964
1.000000 0.114748 0.007180
0.000000 0.148314 0.030755
0.000000 0.148550 0.029970
0.000000 0.148778 0.029185
0.035558 0.148800 0.028400
0.071682 0.148822 0.027615
0.107807 0.148845 0.026830
0.143931 0.148867 0.026045
0.180055 0.148890 0.025261
0.216180 0.148912 0.024476
0.252304 0.148935 0.023691
0.288429 0.148957 0.022906
0.324553 0.148979 0.022121
0.360678 0.149002 0.021336
0.396802 0.149024 0.020551
0.432927 0.149047 0.019766
0.469051 0.149069 0.018982
0.505176 0.149092 0.018197
0.541300 0.149114 0.017412
0.577425 0.149136 0.016627
0.613549 0.149159 0.015842
0.649673 0.149181 0.015057
0.685798 0.149204 0.014272
0.721922 0.149226 0.013487
0.758047 0.149249 0.012703
0.794171 0.149271 0.011918
0.830296 0.149293 0.011133
0.866420 0.149316 0.010348
0.902545 0.149338 0.009563
0.938669 0.149361 0.008778
0.974794 0.149383 0.007993
1.000000 0.149406 0.007208
1.000000 0.149634 0.006424
1.000000 0.149869 0.005639
0.000000 0.183435 0.029214
0.000000 0.183671 0.028429
0.000000 0.183899 0.027644
0.035154 0.183921 0.026859
0.071279 0.183944 0.026074
0.107403 0.183966 0.025289
0.143527 0.183989 0.024505
0.179652 0.184011 0.023720
0.215776 0.184033 0.022935
0.251901 0.184056 0.022150
0.288025 0.184078 0.021365
0.324150 0.184101 0.020580
0.360274 0.184123 0.019795
0.396399 0.184146 0.019010
0.432523 0.184168 0.018226
0.468648 0.184190 0.017441
0.504772 0.184213 0.016656
0.540897 0.184235 0.015871
0.577021 0.184258 0.015086
0.613145 0.184280 0.014301
0.649270 0.184302 0.013516
0.685394 0.184325 0.012731
0.721519 0.184347 0.011947
0.757643 0.184370 0.011162
0.793768 0.184392 0.010377
0.829892 0.184415 0.009592
0.866017 0.184437 0.008807
0.902141 0.184459 0.008022
0.938266 0.184482 0.007237
0.974390 0.184504 0.006452
1.000000 0.184527 0.005668
1.000000 0.184755 0.004883
1.000000 0.184990 0.004098
0.000000 0.218557 0.027673
0.000000 0.218792 0.026888
0.000000 0.219020 0.026103
0.034750 0.219042 0.025318
0.070875 0.219065 0.024534
0.106999 0.219087 0.023749
0.143124 0.219110 0.022964
0.179248 0.219132 0.022179
0.215373 0.219155 0.021394
0.251497 0.219177 0.020609
0.287622 0.219199 0.019824
0.323746 0.219222 0.019039
0.359871 0.219244 0.018254
0.395995 0.219267 0.017470
0.432120 0.219289 0.016685
0.468244 0.219312 0.015900
0.504368 0.219334 0.015115
0.540493 0.219356 0.014330
0.576617 0.219379 0.013545
0.612742 0.219401 0.012760
0.648866 0.219424 0.011976
0.684991 0.219446 0.011191
0.721115 0.219469 0.010406
0.757240 0.219491 0.009621
0.793364 0.219513 0.008836
0.829489 0.219536 0.008051
0.865613 0.219558 0.007266
0.901738 0.219581 0.006481
0.937862 0.219603 0.005696
0.973987 0.219626 0.004912
1.000000 0.219648 0.004127
1.000000 0.219876 0.003342
1.000000 0.220111 0.002557
0.000000 0.253678 0.026132
0.000000 0.253913 0.025347
0.000000 0.254141 0.024562
0.034347 0.254164 0.023778
0.070471 0.254186 0.022993
0.106596 0.254209 0.022208
0.142720 0.254231 0.021423
0.178845 0.254253 0.020638
0.214969 0.254276 0.019853
0.251094 0.254298 0.019068
0.287218 0.254321 0.018283
0.323343 0.254343 0.017499
0.359467 0.254365 0.016714
0.395592 0.254388 0.015929
0.431716 0.254410 0.015144
0.467840 0.254433 0.014359
0.503965 0.254455 0.013574
0.540089 0.254478 0.012789
0.576214 0.254500 0.012004
0.612338 0.254522 0.011220
0.648463 0.254545 0.010435
0.684587 0.254567 0.009650
0.720712 0.254590 0.008865
0.756836 0.254612 0.008080
0.792961 0.254635 0.007295
0.829085 0.254657 0.006510
0.865210 0.254679 0.005725
0.901334 0.254702 0.004941
0.937783 0.254724 0.004156
0.974358 0.254747 0.003371
1.000000 0.254769 0.002586
1.000000 0.254997 0.001801
1.000000 0.255233 0.001016
0.000000 0.288799 0.024591
0.000000 0.289034 0.023806
0.000000 0.289262 0.023022
0.033943 0.289285 0.022237
0.070068 0.289307 0.021452
0.106192 0.289330 0.020667
0.142317 0.289352 0.019882
0.178441 0.289375 0.019097
0.214566 0.289397 0.018312
0.250690 0.289419 0.017527
0.286815 0.289442 0.016743
0.322939 0.289464 0.015958
0.359064 0.289487 0.015173
0.395188 0.289509 0.014388
0.431312 0.289532 0.013603
0.467437 0.289554 0.012818
0.503561 0.289576 0.012033
0.539686 0.289599 0.011248
0.575810 0.289621 0.010464
0.611935 0.289644 0.009679
0.648059 0.289666 0.008894
0.684184 0.289689 0.008109
0.720308 0.289711 0.007324
0.756433 0.289733 0.006539
0.792557 0.289756 0.005754
0.828682 0.289778 0.004969
0.865114 0.289801 0.004185
0.901689 0.289823 0.003400
0.938265 0.289845 0.002615
0.974840 0.289868 0.001830
1.000000 0.289890 0.001045
1.000000 0.290118 0.000260
1.000000 0.290196 0.000000
0.000000 0.323920 0.023050
0.000000 0.324156 0.022265
0.000000 0.324384 0.021481
0.033540 0.324406 0.020696
0.069664 0.324428 0.019911
0.105789 0.324451 0.019126
0.141913 0.324473 0.018341
0.178038 0.324496 0.017556
0.214162 0.324518 0.016771
0.250287 0.324541 0.015987
0.286411 0.324563 0.015202
0.322536 0.324585 0.014417
0.358660 0.324608 0.013632
0.394784 0.324630 0.012847
0.430909 0.324653 0.012062
0.467033 0.324675 0.011277
0.503158 0.324698 0.010492
0.539282 0.324720 0.009708
0.575407 0.324742 0.008923
0.611531 0.324765 0.008138
0.647656 0.324787 0.007353
0.683780 0.324810 0.006568
0.719905 0.324832 0.005783
0.756029 0.324855 0.004998
0.792445 0.324877 0.004213
0.829020 0.324899 0.003429
0.865596 0.324922 0.002644
0.902171 0.324944 0.001859
0.938747 0.324967 0.001074
0.975322 0.324989 0.000289
1.000000 0.324863 0.000000
1.000000 0.324855 0.000000
1.000000 0.324855 0.000000
0.000000 0.359041 0.021510
0.000000 0.359277 0.020725
0.000000 0.359505 0.019940
0.033136 0.359527 0.019155
0.069261 0.359550 0.018370
0.105385 0.359572 0.017585
0.141510 0.359595 0.016800
0.177634 0.359617 0.016015
0.213759 0.359639 0.015231
0.249883 0.359662 0.014446
0.286007 0.359684 0.013661
0.322132 0.359707 0.012876
0.358256 0.359729 0.012091
0.394381 0.359752 0.011306
0.430505 0.359774 0.010521
0.466630 0.359796 0.009736
0.502754 0.359819 0.008952
0.538879 0.359841 0.008167
0.575003 0.359864 0.007382
0.611128 0.359886 0.006597
0.647252 0.359908 0.005812
0.683377 0.359931 0.005027
0.719776 0.359953 0.004242
0.756351 0.359976 0.003457
0.792927 0.359998 0.002673
0.829502 0.360021 0.001888
0.866078 0.360043 0.001103
0.902653 0.360065 0.000318
0.939229 0.359948 0.000000
0.975804 0.359735 0.000000
1.000000 0.359522 0.000000
1.000000 0.359514 0.000000
1.000000 0.359514 0.000000
0.000000 0.394163 0.019969
0.000000 0.394398 0.019184
0.000000 0.394626 0.018399
0.032733 0.394648 0.017614
0.068857 0.394671 0.016829
0.104982 0.394693 0.016044
0.141106 0.394716 0.015259
0.177231 0.394738 0.014474
0.213355 0.394761 0.013690
0.249479 0.394783 0.012905
0.285604 0.394805 0.012120
0.321728 0.394828 0.011335
0.357853 0.394850 0.010550
0.393977 0.394873 0.009765
0.430102 0.394895 0.008980
0.466226 0.394918 0.008195
0.502351 0.394940 0.007411
0.538475 0.394962 0.006626
0.574600 0.394985 0.005841
0.610724 0.395007 0.005056
0.647107 0.395030 0.004271
0.683682 0.395052 0.003486
0.720258 0.395075 0.002701
0.756833 0.395097 0.001917
0.793409 0.395119 0.001132
0.829984 0.395142 0.000347
0.866560 0.395033 0.000000
0.903135 0.394820 0.000000
0.939711 0.394607 0.000000
0.976286 0.394394 0.000000
1.000000 0.394181 0.000000
1.000000 0.394173 0.000000
1.000000 0.394173 0.000000
0.000000 0.429284 0.018428
0.000000 0.429519 0.017643
0.000000 0.429747 0.016858
0.032329 0.429770 0.016073
0.068454 0.429792 0.015288
0.104578 0.429815 0.014503
0.140703 0.429837 0.013718
0.176827 0.429859 0.012934
0.212951 0.429882 0.012149
0.249076 0.429904 0.011364
0.285200 0.429927 0.010579
0.321325 0.429949 0.009794
0.357449 0.429972 0.009009
0.393574 0.429994 0.008224
0.429698 0.430016 0.007439
0.465823 0.430039 0.006655
0.501947 0.430061 0.005870
0.538072 0.430084 0.005085
0.574437 0.430106 0.004300
0.611013 0.430128 0.003515
0.647589 0.430151 0.002730
0.684164 0.430173 0.001945
0.720740 0.430196 0.001160
0.757315 0.430218 0.000376
0.793891 0.430118 0.000000
0.830466 0.429905 0.000000
0.867042 0.429692 0.000000
0.903617 0.429479 0.000000
0.940193 0.429266 0.000000
0.976768 0.429053 0.000000
1.000000 0.428840 0.000000
1.000000 0.428832 0.000000
1.000000 0.428832 0.000000
0.000000 0.464405 0.016887
0.000000 0.464640 0.016102
0.000000 0.464868 0.015317
0.031926 0.464891 0.014532
0.068050 0.464913 0.013747
0.104174 0.464936 0.012963
0.140299 0.464958 0.012178
0.176423 0.464981 0.011393
0.212548 0.465003 0.010608
0.248672 0.465025 0.009823
0.284797 0.465048 0.009038
0.320921 0.465070 0.008253
0.357046 0.465093 0.007468
0.393170 0.465115 0.006683
0.429295 0.465138 0.005899
0.465419 0.465160 0.005114
0.501768 0.465182 0.004329
0.538344 0.465205 0.003544
0.574919 0.465227 0.002759
0.611495 0.465250 0.001974
0.648071 0.465272 0.001189
0.684646 0.465295 0.000404
0.721222 0.465203 0.000000
0.757797 0.464990 0.000000
0.794373 0.464777 0.000000
0.830948 0.464564 0.000000
0.867524 0.464351 0.000000
0.904099 0.464138 0.000000
0.940675 0.463925 0.000000
0.977250 0.463712 0.000000
1.000000 0.463499 0.000000
1.000000 0.463491 0.000000
1.000000 0.463491 0.000000
0.000000 0.499526 0.015346
0.000000 0.499762 0.014561
0.000000 0.499990 0.013776
0.031522 0.500012 0.012991
0.067646 0.500034 0.012207
0.103771 0.500057 0.011422
0.139895 0.500079 0.010637
0.176020 0.500102 0.009852
0.212144 0.500124 0.009067
0.248269 0.500147 0.008282
0.284393 0.500169 0.007497
0.320518 0.500191 0.006712
0.356642 0.500214 0.005927
0.392767 0.500236 0.005143
0.429099 0.500259 0.004358
0.465675 0.500281 0.003573
0.502250 0.500304 0.002788
0.538826 0.500326 0.002003
0.575401 0.500348 0.001218
0.611977 0.500371 0.000433
0.648553 0.500288 0.000000
0.685128 0.500075 0.000000
0.721704 0.499862 0.000000
0.758279 0.499649 0.000000
0.794855 0.499436 0.000000
0.831430 0.499223 0.000000
0.868006 0.499010 0.000000
0.904581 0.498797 0.000000
0.941157 0.498584 0.000000
0.977732 0.498371 0.000000
1.000000 0.498157 0.000000
1.000000 0.498150 0.000000
1.000000 0.498150 0.000000
0.000000 0.534647 0.013805
0.000000 0.534883 0.013020
0.000000 0.535111 0.012235
0.031118 0.535133 0.011450
0.067243 0.535156 0.010666
0.103367 0.535178 0.009881
0.139492 0.535201 0.009096
0.175616 0.535223 0.008311
0.211741 0.535245 0.007526
0.247865 0.535268 0.006741
0.283990 0.535290 0.005956
0.320114 0.535313 0.005171
0.356430 0.535335 0.004387
0.393006 0.535358 0.003602
0.429581 0.535380 0.002817
0.466157 0.535402 0.002032
0.502732 0.535425 0.001247
0.539308 0.535447 0.000462
0.575883 0.535373 0.000000
0.612459 0.535160 0.000000
0.649035 0.534947 0.000000
0.685610 0.534734 0.000000
0.722186 0.534521 0.000000
0.758761 0.534308 0.000000
0.795337 0.534095 0.000000
0.831912 0.533882 0.000000
0.868488 0.533669 0.000000
0.905063 0.533456 0.000000
0.941639 0.533242 0.000000
0.978214 0.533029 0.000000
1.000000 0.532816 0.000000
1.000000 0.532809 0.000000
1.000000 0.532809 0.000000
0.000000 0.569769 0.012264
0.000000 0.570004 0.011479
0.000000 0.570232 0.010694
0.030715 0.570254 0.009910
0.066839 0.570277 0.009125
0.102964 0.570299 0.008340
0.139088 0.570322 0.007555
0.175213 0.570344 0.006770
0.211337 0.570367 0.005985
0.247462 0.570389 0.005200
0.283761 0.570411 0.004415
0.320337 0.570434 0.003631
0.356912 0.570456 0.002846
0.393488 0.570479 0.002061
0.430063 0.570501 0.001276
0.466639 0.570524 0.000491
0.503214 0.570458 0.000000
0.539790 0.570245 0.000000
0.576365 0.570032 0.000000
0.612941 0.569819 0.000000
0.649517 0.569606 0.000000
0.686092 0.569393 0.000000
0.722668 0.569180 0.000000
0.759243 0.568967 0.000000
0.795819 0.568754 0.000000
0.832394 0.568541 0.000000
0.868970 0.568327 0.000000
0.905545 0.568114 0.000000
0.942121 0.567901 0.000000
0.978696 0.567688 0.000000
1.000000 0.567475 0.000000
1.000000 0.567468 0.000000
1.000000 0.567468 0.000000
0.000000 0.604890 0.010723
0.000000 0.605125 0.009939
0.000000 0.605353 0.009154
0.030311 0.605376 0.008369
0.066436 0.605398 0.007584
0.102560 0.605421 0.006799
0.138685 0.605443 0.006014
0.174809 0.605465 0.005229
0.211092 0.605488 0.004444
0.247668 0.605510 0.003660
0.284243 0.605533 0.002875
0.320819 0.605555 0.002090
0.357394 0.605577 0.001305
0.393970 0.605600 0.000520
0.430545 0.605543 0.000000
0.467121 0.605330 0.000000
0.503696 0.605117 0.000000
0.540272 0.604904 0.000000
0.576847 0.604691 0.000000
0.613423 0.604478 0.000000
0.649998 0.604265 0.000000
0.686574 0.604052 0.000000
0.723150 0.603839 0.000000
0.759725 0.603626 0.000000
0.796301 0.603413 0.000000
0.832876 0.603199 0.000000
0.869452 0.602986 0.000000
0.906027 0.602773 0.000000
0.942603 0.602560 0.000000
0.979178 0.602347 0.000000
1.000000 0.602134 0.000000
1.000000 0.602127 0.000000
1.000000 0.602127 0.000000
0.000000 0.640011 0.009183
0.000000 0.640246 0.008398
0.000000 0.640474 0.007613
0.029908 0.640497 0.006828
0.066032 0.640519 0.006043
0.102157 0.640542 0.005258
0.138423 0.640564 0.004473
0.174998 0.640587 0.003688
0.211574 0.640609 0.002904
0.248150 0.640631 0.002119
0.284725 0.640654 0.001334
0.321301 0.640676 0.000549
0.357876 0.640628 0.000000
0.394452 0.640415 0.000000
0.431027 0.640202 0.000000
0.467603 0.639989 0.000000
0.504178 0.639776 0.000000
0.540754 0.639563 0.000000
0.577329 0.639350 0.000000
0.613905 0.639137 0.000000
0.650480 0.638924 0.000000
0.687056 0.638711 0.000000
0.723632 0.638498 0.000000
0.760207 0.638284 0.000000
0.796783 0.638071 0.000000
0.833358 0.637858 0.000000
0.869934 0.637645 0.000000
0.906509 0.637432 0.000000
0.943085 0.637219 0.000000
0.979660 0.637006 0.000000
1.000000 0.636793 0.000000
1.000000 0.636786 0.000000
1.000000 0.636786 0.000000
0.000000 0.675132 0.007642
0.000000 0.675368 0.006857
0.000000 0.675596 0.006072
0.029504 0.675618 0.005287
0.065754 0.675640 0.004502
0.102329 0.675663 0.003717
0.138905 0.675685 0.002932
0.175480 0.675708 0.002148
0.212056 0.675730 0.001363
0.248632 0.675753 0.000578
0.285207 0.675713 0.000000
0.321783 0.675500 0.000000
0.358358 0.675287 0.000000
0.394934 0.675074 0.000000
0.431509 0.674861 0.000000
0.468085 0.674648 0.000000
0.504660 0.674435 0.000000
0.541236 0.674222 0.000000
0.577811 0.674009 0.000000
0.614387 0.673796 0.000000
0.650962 0.673583 0.000000
0.687538 0.673369 0.000000
0.724114 0.673156 0.000000
0.760689 0.672943 0.000000
0.797265 0.672730 0.000000
0.833840 0.672517 0.000000
0.870416 0.672304 0.000000
0.906991 0.672091 0.000000
0.943567 0.671878 0.000000
0.980142 0.671665 0.000000
1.000000 0.671452 0.000000
1.000000 0.671445 0.000000
1.000000 0.671445 0.000000
0.000000 0.710253 0.006101
0.000000 0.710489 0.005316
0.000109 0.710717 0.004531
0.029660 0.710739 0.003746
0.066236 0.710762 0.002961
0.102811 0.710784 0.002176
0.139387 0.710807 0.001391
0.175962 0.710829 0.000607
0.212538 0.710798 0.000000
0.249114 0.710585 0.000000
0.285689 0.710372 0.000000
0.322265 0.710159 0.000000
0.358840 0.709946 0.000000
0.395416 0.709733 0.000000
0.431991 0.709520 0.000000
0.468567 0.709307 0.000000
0.505142 0.709094 0.000000
0.541718 0.708881 0.000000
0.578293 0.708668 0.000000
0.614869 0.708455 0.000000
0.651444 0.708241 0.000000
0.688020 0.708028 0.000000
0.724596 0.707815 0.000000
0.761171 0.707602 0.000000
0.797747 0.707389 0.000000
0.834322 0.707176 0.000000
0.870898 0.706963 0.000000
0.907473 0.706750 0.000000
0.944049 0.706537 0.000000
0.980624 0.706324 0.000000
1.000000 0.706111 0.000000
1.000000 0.706104 0.000000
1.000000 0.706104 0.000000
0.000092 0.745375 0.004560
0.000543 0.745610 0.003775
0.000994 0.745838 0.002990
0.030142 0.745860 0.002205
0.066718 0.745883 0.001420
0.103293 0.745905 0.000636
0.139869 0.745883 0.000000
0.176444 0.745670 0.000000
0.213020 0.745457 0.000000
0.249596 0.745244 0.000000
0.286171 0.745031 0.000000
0.322747 0.744818 0.000000
0.359322 0.744605 0.000000
0.395898 0.744392 0.000000
0.432473 0.744179 0.000000
0.469049 0.743966 0.000000
0.505624 0.743753 0.000000
0.542200 0.743540 0.000000
0.578775 0.743326 0.000000
0.615351 0.743113 0.000000
0.651926 0.742900 0.000000
0.688502 0.742687 0.000000
0.725078 0.742474 0.000000
0.761653 0.742261 0.000000
0.798229 0.742048 0.000000
0.834804 0.741835 0.000000
0.871380 0.741622 0.000000
0.907955 0.741409 0.000000
0.944531 0.741196 0.000000
0.981106 0.740983 0.000000
1.000000 0.740770 0.000000
1.000000 0.740763 0.000000
1.000000 0.740763 0.000000
0.000978 0.780496 0.003019
0.001429 0.780731 0.002234
0.001880 0.780959 0.001449
0.030624 0.780982 0.000664
0.067200 0.780968 0.000000
0.103775 0.780755 0.000000
0.140351 0.780542 0.000000
0.176926 0.780329 0.000000
0.213502 0.780116 0.000000
0.250078 0.779903 0.000000
0.286653 0.779690 0.000000
0.323229 0.779477 0.000000
0.359804 0.779264 0.000000
0.396380 0.779051 0.000000
0.432955 0.778838 0.000000
0.469531 0.778625 0.000000
0.506106 0.778412 0.000000
0.542682 0.778198 0.000000
0.579257 0.777985 0.000000
0.615833 0.777772 0.000000
0.652408 0.777559 0.000000
0.688984 0.777346 0.000000
0.725560 0.777133 0.000000
0.762135 0.776920 0.000000
0.798711 0.776707 0.000000
0.835286 0.776494 0.000000
0.871862 0.776281 0.000000
0.908437 0.776068 0.000000
0.945013 0.775855 0.000000
0.981588 0.775642 0.000000
1.000000 0.775429 0.000000
1.000000 0.775421 0.000000
1.000000 0.775421 0.000000
0.001863 0.815617 0.001478
0.002314 0.815852 0.000693
0.002765 0.816053 0.000000
0.031106 0.815840 0.000000
0.067682 0.815627 0.000000
0.104257 0.815414 0.000000
0.140833 0.815201 0.000000
0.177408 0.814988 0.000000
0.213984 0.814775 0.000000
0.250560 0.814562 0.000000
0.287135 0.814349 0.000000
0.323711 0.814136 0.000000
0.360286 0.813923 0.000000
0.396862 0.813710 0.000000
0.433437 0.813497 0.000000
0.470013 0.813283 0.000000
0.506588 0.813070 0.000000
0.543164 0.812857 0.000000
0.579739 0.812644 0.000000
0.616315 0.812431 0.000000
0.652890 0.812218 0.000000
0.689466 0.812005 0.000000
0.726042 0.811792 0.000000
0.762617 0.811579 0.000000
0.799193 0.811366 0.000000
0.835768 0.811153 0.000000
0.872344 0.810940 0.000000
0.908919 0.810727 0.000000
0.945495 0.810514 0.000000
0.982070 0.810301 0.000000
1.000000 0.810088 0.000000
1.000000 0.810080 0.000000
1.000000 0.810080 0.000000
0.002749 0.850719 0.000000
0.003200 0.850719 0.000000
0.003651 0.850712 0.000000
0.031588 0.850499 0.000000
0.068164 0.850286 0.000000
0.104739 0.850073 0.000000
0.141315 0.849860 0.000000
0.177890 0.849647 0.000000
0.214466 0.849434 0.000000
0.251042 0.849221 0.000000
0.287617 0.849008 0.000000
0.324193 0.848795 0.000000
0.360768 0.848582 0.000000
0.397344 0.848368 0.000000
0.433919 0.848155 0.000000
0.470495 0.847942 0.000000
0.507070 0.847729 0.000000
0.543646 0.847516 0.000000
0.580221 0.847303 0.000000
0.616797 0.847090 0.000000
0.653372 0.846877 0.000000
0.689948 0.846664 0.000000
0.726524 0.846451 0.000000
0.763099 0.846238 0.000000
0.799675 0.846025 0.000000
0.836250 0.845812 0.000000
0.872826 0.845599 0.000000
