docs/luts/fresh-cold-simplicity.cube
TITLE "FreshLUTs??-????"
LUT_3D_SIZE 5
DOMAIN_MIN 0.0 0.0 0.0
DOMAIN_MAX 1.0 1.0 1.0
0.000000 0.006600 0.071500
0.183441 0.015705 0.071343
0.423418 0.025646 0.072023
0.663396 0.035588 0.072703
0.885337 0.044693 0.072547
0.000000 0.230874 0.071192
0.213950 0.239979 0.071035
0.453928 0.249920 0.071715
0.693905 0.259862 0.072395
0.915846 0.268967 0.072238
0.024162 0.473992 0.072527
0.246103 0.483096 0.072370
0.486081 0.493038 0.073051
0.723004 0.503504 0.079404
0.939450 0.513550 0.089450
0.056315 0.717110 0.073863
0.275403 0.726703 0.079003
0.509887 0.737587 0.089887
0.744370 0.748470 0.100770
0.960817 0.758517 0.110817
0.078680 0.942780 0.088680
0.295126 0.952826 0.098726
0.529610 0.963710 0.109610
0.764094 0.974594 0.120494
0.980540 0.984640 0.130540
0.000000 0.009832 0.264701
0.189126 0.018936 0.264544
0.429104 0.028878 0.265224
0.669082 0.038820 0.265904
0.891022 0.047925 0.265747
0.000000 0.234106 0.264393
0.219636 0.243211 0.264236
0.459613 0.253152 0.264916
0.699591 0.263094 0.265596
0.921532 0.272199 0.265439
0.029848 0.477224 0.265728
0.251789 0.486328 0.265571
0.491766 0.496270 0.266251
0.726595 0.507095 0.276495
0.943041 0.517141 0.286541
0.062001 0.720342 0.267063
0.278994 0.730294 0.276094
0.513478 0.741178 0.286978
0.747961 0.752061 0.297861
0.964408 0.762108 0.307908
0.082271 0.946371 0.285771
0.298717 0.956417 0.295817
0.533201 0.967301 0.306701
0.767685 0.978185 0.317585
0.984131 0.988231 0.327631
0.000000 0.013862 0.501699
0.195610 0.022966 0.501543
0.435588 0.032908 0.502223
0.675565 0.042850 0.502903
0.897506 0.051954 0.502746
0.004179 0.238136 0.501391
0.226119 0.247241 0.501234
0.466097 0.257182 0.501915
0.706075 0.267124 0.502595
0.926063 0.276563 0.506063
0.036332 0.481254 0.502727
0.258272 0.490358 0.502570
0.496500 0.500600 0.506500
0.730984 0.511484 0.517384
0.947430 0.521530 0.527430
0.066937 0.724637 0.506937
0.283383 0.734683 0.516983
0.517867 0.745567 0.527867
0.752350 0.756450 0.538750
0.968797 0.766497 0.548797
0.086660 0.950760 0.526660
0.303106 0.960806 0.536706
0.537590 0.971690 0.547590
0.772074 0.982574 0.558474
0.988520 0.992620 0.568520
0.000000 0.017892 0.738698
0.202094 0.026996 0.738541
0.442072 0.036938 0.739222
0.682049 0.046880 0.739902
0.903990 0.055984 0.739745
0.010663 0.242166 0.738390
0.232603 0.251270 0.738233
0.472581 0.261212 0.738913
0.712559 0.271154 0.739594
0.930452 0.280952 0.746952
0.042816 0.485284 0.739726
0.264756 0.494388 0.739569
0.500889 0.504989 0.747389
0.735373 0.515873 0.758273
0.951819 0.525919 0.768319
0.071326 0.729026 0.747826
0.287772 0.739072 0.757872
0.522256 0.749956 0.768756
0.756739 0.760839 0.779639
0.973186 0.770886 0.789686
0.091049 0.955149 0.767549
0.307495 0.965195 0.777595
0.541979 0.976079 0.788479
0.776463 0.986963 0.799363
0.992909 0.997009 0.809409
0.000000 0.021124 0.931899
0.207780 0.030228 0.931742
0.447757 0.040170 0.932422
0.687735 0.050112 0.933102
0.909675 0.059216 0.932945
0.016348 0.245398 0.931591
0.238289 0.254502 0.931434
0.478267 0.264444 0.932114
0.717597 0.274497 0.933997
0.934043 0.284543 0.944043
0.048501 0.488515 0.932926
0.269996 0.497696 0.933596
0.504480 0.508580 0.944480
0.738964 0.519464 0.955364
0.955410 0.529510 0.965410
0.074917 0.732617 0.944917
0.291363 0.742663 0.954963
0.525847 0.753547 0.965847
0.760330 0.764430 0.976730
0.976777 0.774477 0.986777
0.094640 0.958740 0.964640
0.311086 0.968786 0.974686
0.545570 0.979670 0.985570
0.780054 0.990554 0.996454
0.996500 1.000000 1.000000
