docs/luts/fresh-teal-horror-rec709.cube
TITLE "FreshLUTs??-????Rec709"
LUT_3D_SIZE 9
DOMAIN_MIN 0.0 0.0 0.0
DOMAIN_MAX 1.0 1.0 1.0
0.000000 0.045000 0.095000
0.000000 0.044757 0.090833
0.122790 0.051092 0.093243
0.253973 0.057427 0.095654
0.385157 0.063762 0.098065
0.516341 0.070097 0.100475
0.647525 0.076432 0.102886
0.778709 0.082767 0.105297
0.825314 0.082524 0.101129
0.000000 0.107388 0.090209
0.009928 0.107145 0.086041
0.141111 0.113480 0.088452
0.272295 0.119815 0.090863
0.403479 0.126150 0.093273
0.534663 0.132485 0.095684
0.665847 0.138820 0.098095
0.797030 0.145155 0.100505
0.843636 0.144912 0.096338
0.000000 0.228870 0.093811
0.036643 0.228627 0.089644
0.167827 0.234962 0.092055
0.299011 0.241297 0.094465
0.430195 0.247632 0.096876
0.561379 0.253967 0.099287
0.692562 0.260302 0.101697
0.823746 0.266638 0.104108
0.870352 0.266395 0.099941
0.016753 0.350352 0.097414
0.063359 0.350109 0.093247
0.194543 0.356444 0.095657
0.325727 0.362779 0.098068
0.456911 0.369114 0.100479
0.588094 0.375449 0.102889
0.719278 0.381785 0.105300
0.849820 0.388645 0.108820
0.892109 0.391934 0.112109
0.043469 0.471834 0.101017
0.090075 0.471591 0.096849
0.221259 0.477926 0.099260
0.352443 0.484261 0.101671
0.483627 0.490596 0.104081
0.614327 0.497327 0.107327
0.741194 0.507194 0.117194
0.868061 0.517061 0.127061
0.910350 0.520350 0.130350
0.070185 0.593316 0.104619
0.116791 0.593073 0.100452
0.247975 0.599408 0.102863
0.378834 0.606009 0.105834
0.505701 0.615876 0.115701
0.632568 0.625743 0.125568
0.759435 0.635610 0.135435
0.886302 0.645477 0.145302
0.928591 0.648766 0.148591
0.096901 0.714798 0.108222
0.143341 0.714691 0.104341
0.270208 0.724558 0.114208
0.397075 0.734425 0.124075
0.523942 0.744292 0.133942
0.650809 0.754159 0.143809
0.777676 0.764026 0.153676
0.904543 0.773893 0.163543
0.946832 0.777182 0.166832
0.119293 0.839818 0.119293
0.161582 0.843107 0.122582
0.288449 0.852974 0.132449
0.415316 0.862841 0.142316
0.542183 0.872708 0.152183
0.669050 0.882575 0.162050
0.795917 0.892442 0.171917
0.922784 0.902309 0.181784
0.965073 0.905598 0.185073
0.129140 0.909140 0.129140
0.171429 0.912429 0.132429
0.298296 0.922296 0.142296
0.425163 0.932163 0.152163
0.552030 0.942030 0.162030
0.678897 0.951897 0.171897
0.805764 0.961764 0.181764
0.932631 0.971631 0.191631
0.974920 0.974920 0.194920
0.000000 0.045095 0.138449
0.000000 0.044853 0.134282
0.125878 0.051188 0.136693
0.257061 0.057523 0.139103
0.388245 0.063858 0.141514
0.519429 0.070193 0.143925
0.650613 0.076528 0.146335
0.781797 0.082863 0.148746
0.828402 0.082620 0.144579
0.000000 0.107483 0.133658
0.013016 0.107241 0.129491
0.144199 0.113576 0.131901
0.275383 0.119911 0.134312
0.406567 0.126246 0.136723
0.537751 0.132581 0.139133
0.668935 0.138916 0.141544
0.800118 0.145251 0.143955
0.846724 0.145008 0.139787
0.000000 0.228966 0.137261
0.039731 0.228723 0.133093
0.170915 0.235058 0.135504
0.302099 0.241393 0.137915
0.433283 0.247728 0.140325
0.564467 0.254063 0.142736
0.695650 0.260398 0.145147
0.826834 0.266733 0.147557
0.873440 0.266490 0.143390
0.019841 0.350448 0.140863
0.066447 0.350205 0.136696
0.197631 0.356540 0.139107
0.328815 0.362875 0.141517
0.459999 0.369210 0.143928
0.591182 0.375545 0.146339
0.722366 0.381880 0.148749
0.851262 0.390087 0.155112
0.893551 0.393376 0.158401
0.046557 0.471930 0.144466
0.093163 0.471687 0.140299
0.224347 0.478022 0.142709
0.355531 0.484357 0.145120
0.486714 0.490692 0.147531
0.615769 0.498769 0.153619
0.742636 0.508636 0.163486
0.869503 0.518503 0.173353
0.911792 0.521792 0.176642
0.073273 0.593412 0.148069
0.119879 0.593169 0.143901
0.251063 0.599504 0.146312
0.380276 0.607451 0.152126
0.507143 0.617318 0.161993
0.634010 0.627185 0.171860
0.760877 0.637052 0.181727
0.887744 0.646919 0.191594
0.930033 0.650208 0.194883
0.099989 0.714894 0.151671
0.144783 0.716133 0.150633
0.271650 0.726000 0.160500
0.398517 0.735867 0.170367
0.525384 0.745734 0.180234
0.652251 0.755601 0.190101
0.779118 0.765468 0.199968
0.905985 0.775335 0.209835
0.948274 0.778624 0.213124
0.120735 0.841260 0.165585
0.163024 0.844549 0.168874
0.289891 0.854416 0.178741
0.416758 0.864283 0.188608
0.543625 0.874150 0.198475
0.670492 0.884017 0.208342
0.797359 0.893884 0.218209
0.924226 0.903751 0.228076
0.966515 0.907040 0.231365
0.130582 0.910582 0.175432
0.172871 0.913871 0.178721
0.299738 0.923738 0.188588
0.426605 0.933605 0.198455
0.553472 0.943472 0.208322
0.680339 0.953339 0.218189
0.807206 0.963206 0.228056
0.934073 0.973073 0.237923
0.976362 0.976362 0.241212
0.000000 0.047448 0.254356
0.000039 0.047205 0.250188
0.131223 0.053540 0.252599
0.262407 0.059875 0.255010
0.393590 0.066210 0.257420
0.524774 0.072545 0.259831
0.655958 0.078881 0.262242
0.787142 0.085216 0.264652
0.833748 0.084973 0.260485
0.000000 0.109836 0.249564
0.018361 0.109593 0.245397
0.149545 0.115928 0.247808
0.280728 0.122263 0.250218
0.411912 0.128598 0.252629
0.543096 0.134933 0.255040
0.674280 0.141269 0.257450
0.805464 0.147604 0.259861
0.852069 0.147361 0.255694
0.000000 0.231318 0.253167
0.045077 0.231075 0.249000
0.176260 0.237410 0.251410
0.307444 0.243745 0.253821
0.438628 0.250080 0.256232
0.569812 0.256416 0.258642
0.700996 0.262751 0.261053
0.832179 0.269086 0.263464
0.878785 0.268843 0.259296
0.025187 0.352800 0.256770
0.071792 0.352557 0.252602
0.202976 0.358892 0.255013
0.334160 0.365228 0.257424
0.465344 0.371563 0.259834
0.596528 0.377898 0.262245
0.727711 0.384233 0.264656
0.854961 0.393786 0.273861
0.897250 0.397075 0.277150
0.051902 0.474282 0.260372
0.098508 0.474039 0.256205
0.229692 0.480375 0.258616
0.360876 0.486710 0.261026
0.492060 0.493045 0.263437
0.619468 0.502468 0.272368
0.746335 0.512335 0.282235
0.873202 0.522202 0.292102
0.915491 0.525491 0.295391
0.078618 0.595764 0.263975
0.125224 0.595522 0.259808
0.256408 0.601857 0.262218
0.383975 0.611150 0.270875
0.510842 0.621017 0.280742
0.637709 0.630884 0.290609
0.764576 0.640751 0.300476
0.891443 0.650618 0.310343
0.933732 0.653907 0.313632
0.105334 0.717247 0.267578
0.148482 0.719832 0.269382
0.275349 0.729699 0.279249
0.402216 0.739566 0.289116
0.529083 0.749433 0.298983
0.655950 0.759300 0.308850
0.782817 0.769167 0.318717
0.909684 0.779034 0.328584
0.951973 0.782323 0.331873
0.124434 0.844959 0.284334
0.166723 0.848248 0.287623
0.293590 0.858115 0.297490
0.420457 0.867982 0.307357
0.547324 0.877849 0.317224
0.674191 0.887716 0.327091
0.801058 0.897583 0.336958
0.927925 0.907450 0.346825
0.970214 0.910739 0.350114
0.134281 0.914281 0.294181
0.176570 0.917570 0.297470
0.303437 0.927437 0.307337
0.430304 0.937304 0.317204
0.557171 0.947171 0.327071
0.684038 0.957038 0.336938
0.810905 0.966905 0.346805
0.937772 0.976772 0.356672
0.980061 0.980061 0.359961
0.000000 0.049801 0.370262
0.005384 0.049558 0.366095
0.136568 0.055893 0.368505
0.267752 0.062228 0.370916
0.398936 0.068563 0.373327
0.530119 0.074898 0.375738
0.661303 0.081233 0.378148
0.792487 0.087568 0.380559
0.839093 0.087325 0.376392
0.000000 0.112189 0.365471
0.023706 0.111946 0.361303
0.154890 0.118281 0.363714
0.286074 0.124616 0.366125
0.417257 0.130951 0.368535
0.548441 0.137286 0.370946
0.679625 0.143621 0.373357
0.810809 0.149956 0.375768
0.857415 0.149713 0.371600
0.003816 0.233671 0.369073
0.050422 0.233428 0.364906
0.181606 0.239763 0.367317
0.312789 0.246098 0.369727
0.443973 0.252433 0.372138
0.575157 0.258768 0.374549
0.706341 0.265103 0.376960
0.837525 0.271438 0.379370
0.882709 0.272359 0.377659
0.030532 0.355153 0.372676
0.077138 0.354910 0.368509
0.208321 0.361245 0.370919
0.339505 0.367580 0.373330
0.470689 0.373915 0.375741
0.601873 0.380250 0.378152
0.731794 0.387619 0.382744
0.858661 0.397486 0.392611
0.900950 0.400775 0.395900
0.057248 0.476635 0.376279
0.103853 0.476392 0.372112
0.235037 0.482727 0.374522
0.366221 0.489062 0.376933
0.496301 0.496301 0.381251
0.623168 0.506168 0.391118
0.750035 0.516035 0.400985
0.876902 0.525902 0.410852
0.919191 0.529191 0.414141
0.083963 0.598117 0.379882
0.130569 0.597874 0.375714
0.260808 0.604983 0.379758
0.387675 0.614850 0.389625
0.514542 0.624717 0.399492
0.641409 0.634584 0.409359
0.768276 0.644451 0.419226
0.895143 0.654318 0.429093
0.937432 0.657607 0.432382
0.109893 0.720243 0.384843
0.152182 0.723532 0.388132
0.279049 0.733399 0.397999
0.405916 0.743266 0.407866
0.532783 0.753133 0.417733
0.659650 0.763000 0.427600
0.786517 0.772867 0.437467
0.913384 0.782734 0.447334
0.955673 0.786023 0.450623
0.128134 0.848659 0.403084
0.170423 0.851948 0.406373
0.297290 0.861815 0.416240
0.424157 0.871682 0.426107
0.551024 0.881549 0.435974
0.677891 0.891416 0.445841
0.804758 0.901283 0.455708
0.931625 0.911150 0.465575
0.973914 0.914439 0.468864
0.137981 0.917981 0.412931
0.180270 0.921270 0.416220
0.307137 0.931137 0.426087
0.434004 0.941004 0.435954
0.560871 0.950871 0.445821
0.687738 0.960738 0.455688
0.814605 0.970605 0.465555
0.941472 0.980472 0.475422
0.983761 0.983761 0.478711
0.000000 0.052153 0.486169
0.010729 0.051911 0.482001
0.141913 0.058246 0.484412
0.273097 0.064581 0.486823
0.404281 0.070916 0.489233
0.535465 0.077251 0.491644
0.666648 0.083586 0.494055
0.797832 0.089921 0.496465
0.844438 0.089678 0.492298
0.000000 0.114541 0.481377
0.029051 0.114299 0.477210
0.160235 0.120634 0.479620
0.291419 0.126969 0.482031
0.422602 0.133304 0.484442
0.553786 0.139639 0.486853
0.684970 0.145974 0.489263
0.816154 0.152309 0.491674
0.862760 0.152066 0.487507
0.009161 0.236024 0.484980
0.055767 0.235781 0.480813
0.186951 0.242116 0.483223
0.318135 0.248451 0.485634
0.449318 0.254786 0.488045
0.580502 0.261121 0.490455
0.711686 0.267456 0.492866
0.842870 0.273791 0.495277
0.886408 0.276058 0.496408
0.035877 0.357506 0.488583
0.082483 0.357263 0.484415
0.213667 0.363598 0.486826
0.344850 0.369933 0.489237
0.476034 0.376268 0.491647
0.607218 0.382603 0.494058
0.735493 0.391318 0.501493
0.862360 0.401185 0.511360
0.904649 0.404474 0.514649
0.062593 0.478988 0.492185
0.109199 0.478745 0.488018
0.240382 0.485080 0.490429
0.371566 0.491415 0.492839
0.500000 0.500000 0.500000
0.626867 0.509867 0.509867
0.753734 0.519734 0.519734
0.880601 0.529601 0.529601
0.922890 0.532890 0.532890
0.089309 0.600470 0.495788
0.135914 0.600227 0.491621
0.264507 0.608682 0.498507
0.391374 0.618549 0.508374
0.518241 0.628416 0.518241
0.645108 0.638283 0.528108
0.771975 0.648150 0.537975
0.898842 0.658017 0.547842
0.941131 0.661306 0.551131
0.113592 0.723942 0.503592
0.155881 0.727231 0.506881
0.282748 0.737098 0.516748
0.409615 0.746965 0.526615
0.536482 0.756832 0.536482
0.663349 0.766699 0.546349
0.790216 0.776566 0.556216
0.917083 0.786433 0.566083
0.959372 0.789722 0.569372
0.131833 0.852358 0.521833
0.174122 0.855647 0.525122
0.300989 0.865514 0.534989
0.427856 0.875381 0.544856
0.554723 0.885248 0.554723
0.681590 0.895115 0.564590
0.808457 0.904982 0.574457
0.935324 0.914849 0.584324
0.977613 0.918138 0.587613
0.141680 0.921680 0.531680
0.183969 0.924969 0.534969
0.310836 0.934836 0.544836
0.437703 0.944703 0.554703
0.564570 0.954570 0.564570
0.691437 0.964437 0.574437
0.818304 0.974304 0.584304
0.945171 0.984171 0.594171
0.987460 0.987460 0.597460
0.000000 0.054506 0.602075
0.016074 0.054263 0.597908
0.147258 0.060598 0.600318
0.278442 0.066933 0.602729
0.409626 0.073268 0.605140
0.540810 0.079603 0.607550
0.671994 0.085939 0.609961
0.803177 0.092274 0.612372
0.849783 0.092031 0.608204
0.000000 0.116894 0.597284
0.034396 0.116651 0.593116
0.165580 0.122986 0.595527
0.296764 0.129321 0.597938
0.427948 0.135656 0.600348
0.559131 0.141991 0.602759
0.690315 0.148327 0.605170
0.821499 0.154662 0.607580
0.868105 0.154419 0.603413
0.014506 0.238376 0.600886
0.061112 0.238133 0.596719
0.192296 0.244468 0.599130
0.323480 0.250803 0.601540
0.454664 0.257139 0.603951
0.585847 0.263474 0.606362
0.717031 0.269809 0.608772
0.847818 0.276468 0.611868
0.890107 0.279757 0.615157
0.041222 0.359858 0.604489
0.087828 0.359615 0.600322
0.219012 0.365950 0.602732
0.350196 0.372286 0.605143
0.481379 0.378621 0.607554
0.612325 0.385150 0.610375
0.739192 0.395017 0.620242
0.866059 0.404884 0.630109
0.908348 0.408173 0.633398
0.067938 0.481340 0.608092
0.114544 0.481097 0.603924
0.245728 0.487433 0.606335
0.376832 0.493832 0.608882
0.503699 0.503699 0.618749
0.630566 0.513566 0.628616
0.757433 0.523433 0.638483
0.884300 0.533300 0.648350
0.926589 0.536589 0.651639
0.094654 0.602823 0.611694
0.141260 0.602580 0.607527
0.268206 0.612381 0.617256
0.395073 0.622248 0.627123
0.521940 0.632115 0.636990
0.648807 0.641982 0.646857
0.775674 0.651849 0.656724
0.902541 0.661716 0.666591
0.944830 0.665005 0.669880
0.117291 0.727641 0.622341
0.159580 0.730930 0.625630
0.286447 0.740797 0.635497
0.413314 0.750664 0.645364
0.540181 0.760531 0.655231
0.667048 0.770398 0.665098
0.793915 0.780265 0.674965
0.920782 0.790132 0.684832
0.963071 0.793421 0.688121
0.135532 0.856057 0.640582
0.177821 0.859346 0.643871
0.304688 0.869213 0.653738
0.431555 0.879080 0.663605
0.558422 0.888947 0.673472
0.685289 0.898814 0.683339
0.812156 0.908681 0.693206
0.939023 0.918548 0.703073
0.981312 0.921837 0.706362
0.145379 0.925379 0.650429
0.187668 0.928668 0.653718
0.314535 0.938535 0.663585
0.441402 0.948402 0.673452
0.568269 0.958269 0.683319
0.695136 0.968136 0.693186
0.822003 0.978003 0.703053
0.948870 0.987870 0.712920
0.991159 0.991159 0.716209
0.000000 0.056859 0.717981
0.021420 0.056616 0.713814
0.152603 0.062951 0.716225
0.283787 0.069286 0.718635
0.414971 0.075621 0.721046
0.546155 0.081956 0.723457
0.677339 0.088291 0.725867
0.808523 0.094626 0.728278
0.855128 0.094383 0.724111
0.000000 0.119247 0.713190
0.039741 0.119004 0.709023
0.170925 0.125339 0.711433
0.302109 0.131674 0.713844
0.433293 0.138009 0.716255
0.564477 0.144344 0.718665
0.695660 0.150679 0.721076
0.826844 0.157014 0.723487
0.873450 0.156771 0.719319
0.019851 0.240729 0.716793
0.066457 0.240486 0.712625
0.197641 0.246821 0.715036
0.328825 0.253156 0.717447
0.460009 0.259491 0.719857
0.591192 0.265826 0.722268
0.722376 0.272161 0.724679
0.851518 0.280168 0.730618
0.893807 0.283457 0.733907
0.046567 0.362211 0.720395
0.093173 0.361968 0.716228
0.224357 0.368303 0.718639
0.355541 0.374638 0.721049
0.486725 0.380973 0.723460
0.616025 0.388850 0.729125
0.742892 0.398717 0.738992
0.869759 0.408584 0.748859
0.912048 0.411873 0.752148
0.073283 0.483693 0.723998
0.119889 0.483450 0.719831
0.251073 0.489785 0.722241
0.380532 0.497532 0.727632
0.507399 0.507399 0.737499
0.634266 0.517266 0.747366
0.761133 0.527133 0.757233
0.888000 0.537000 0.767100
0.930289 0.540289 0.770389
0.099999 0.605175 0.727601
0.145039 0.606214 0.726139
0.271906 0.616081 0.736006
0.398773 0.625948 0.745873
0.525640 0.635815 0.755740
0.652507 0.645682 0.765607
0.779374 0.655549 0.775474
0.906241 0.665416 0.785341
0.948530 0.668705 0.788630
0.120991 0.731341 0.741091
0.163280 0.734630 0.744380
0.290147 0.744497 0.754247
0.417014 0.754364 0.764114
0.543881 0.764231 0.773981
0.670748 0.774098 0.783848
0.797615 0.783965 0.793715
0.924482 0.793832 0.803582
0.966771 0.797121 0.806871
0.139232 0.859757 0.759332
0.181521 0.863046 0.762621
0.308388 0.872913 0.772488
0.435255 0.882780 0.782355
0.562122 0.892647 0.792222
0.688989 0.902514 0.802089
0.815856 0.912381 0.811956
0.942723 0.922248 0.821823
0.985012 0.925537 0.825112
0.149079 0.929079 0.769179
0.191368 0.932368 0.772468
0.318235 0.942235 0.782335
0.445102 0.952102 0.792202
0.571969 0.961969 0.802069
0.698836 0.971836 0.811936
0.825703 0.981703 0.821803
0.952570 0.991570 0.831670
0.994859 0.994859 0.834959
0.000000 0.059212 0.833888
0.026765 0.058969 0.829720
0.157949 0.065304 0.832131
0.289132 0.071639 0.834542
0.420316 0.077974 0.836953
0.551500 0.084309 0.839363
0.682684 0.090644 0.841774
0.813868 0.096979 0.844185
0.860474 0.096736 0.840017
0.000000 0.121600 0.829096
0.045087 0.121357 0.824929
0.176270 0.127692 0.827340
0.307454 0.134027 0.829750
0.438638 0.140362 0.832161
0.569822 0.146697 0.834572
0.701006 0.153032 0.836983
0.832189 0.159367 0.839393
0.878795 0.159124 0.835226
0.025197 0.243082 0.832699
0.071802 0.242839 0.828532
0.202986 0.249174 0.830942
0.334170 0.255509 0.833353
0.465354 0.261844 0.835764
0.596538 0.268179 0.838175
0.727721 0.274514 0.840585
0.855217 0.283867 0.849367
0.897506 0.287156 0.852656
0.051912 0.364564 0.836302
0.098518 0.364321 0.832134
0.229702 0.370656 0.834545
0.360886 0.376991 0.836956
0.492070 0.383326 0.839367
0.619724 0.392549 0.847874
0.746591 0.402416 0.857741
0.873458 0.412283 0.867608
0.915747 0.415572 0.870897
0.078628 0.486046 0.839905
0.125234 0.485803 0.835737
0.256418 0.492138 0.838148
0.384231 0.501231 0.846381
0.511098 0.511098 0.856248
0.637965 0.520965 0.866115
0.764832 0.530832 0.875982
0.891699 0.540699 0.885849
0.933988 0.543988 0.889138
0.105344 0.607528 0.843507
0.148738 0.609913 0.844888
0.275605 0.619780 0.854755
0.402472 0.629647 0.864622
0.529339 0.639514 0.874489
0.656206 0.649381 0.884356
0.783073 0.659248 0.894223
0.909940 0.669115 0.904090
0.952229 0.672404 0.907379
0.124690 0.735040 0.859840
0.166979 0.738329 0.863129
0.293846 0.748196 0.872996
0.420713 0.758063 0.882863
0.547580 0.767930 0.892730
0.674447 0.777797 0.902597
0.801314 0.787664 0.912464
0.928181 0.797531 0.922331
0.970470 0.800820 0.925620
0.142931 0.863456 0.878081
0.185220 0.866745 0.881370
0.312087 0.876612 0.891237
0.438954 0.886479 0.901104
0.565821 0.896346 0.910971
0.692688 0.906213 0.920838
0.819555 0.916080 0.930705
0.946422 0.925947 0.940572
0.988711 0.929236 0.943861
0.152778 0.932778 0.887928
0.195067 0.936067 0.891217
0.321934 0.945934 0.901084
0.448801 0.955801 0.910951
0.575668 0.965668 0.920818
0.702535 0.975535 0.930685
0.829402 0.985402 0.940552
0.956269 0.995269 0.950419
0.998558 0.998558 0.953708
0.000000 0.059307 0.877337
0.029853 0.059064 0.873170
0.161037 0.065399 0.875580
0.292220 0.071734 0.877991
0.423404 0.078069 0.880402
0.554588 0.084404 0.882812
0.685772 0.090739 0.885223
0.816956 0.097074 0.887634
0.863561 0.096832 0.883466
0.001569 0.121695 0.872546
0.048175 0.121452 0.868378
0.179358 0.127787 0.870789
0.310542 0.134122 0.873200
0.441726 0.140457 0.875610
0.572910 0.146792 0.878021
0.704094 0.153127 0.880432
0.835277 0.159462 0.882842
0.880707 0.160182 0.880707
0.028285 0.243177 0.876148
0.074890 0.242934 0.871981
0.206074 0.249269 0.874392
0.337258 0.255604 0.876802
0.468442 0.261939 0.879213
0.599626 0.268274 0.881624
0.729792 0.275442 0.885792
0.856659 0.285309 0.895659
0.898948 0.288598 0.898948
0.055000 0.364659 0.879751
0.101606 0.364416 0.875584
0.232790 0.370751 0.877994
0.363974 0.377086 0.880405
0.494299 0.384124 0.884299
0.621166 0.393991 0.894166
0.748033 0.403858 0.904033
0.874900 0.413725 0.913900
0.917189 0.417014 0.917189
0.081716 0.486141 0.883354
0.128322 0.485898 0.879186
0.258806 0.492806 0.882806
0.385673 0.502673 0.892673
0.512540 0.512540 0.902540
0.639407 0.522407 0.912407
0.766274 0.532274 0.922274
0.893141 0.542141 0.932141
0.935430 0.545430 0.935430
0.107891 0.608066 0.887891
0.150180 0.611355 0.891180
0.277047 0.621222 0.901047
0.403914 0.631089 0.910914
0.530781 0.640956 0.920781
0.657648 0.650823 0.930648
0.784515 0.660690 0.940515
0.911382 0.670557 0.950382
0.953671 0.673846 0.953671
0.126132 0.736482 0.906132
0.168421 0.739771 0.909421
0.295288 0.749638 0.919288
0.422155 0.759505 0.929155
0.549022 0.769372 0.939022
0.675889 0.779239 0.948889
0.802756 0.789106 0.958756
0.929623 0.798973 0.968623
0.971912 0.802262 0.971912
0.144373 0.864898 0.924373
0.186662 0.868187 0.927662
0.313529 0.878054 0.937529
0.440396 0.887921 0.947396
0.567263 0.897788 0.957263
0.694130 0.907655 0.967130
0.820997 0.917522 0.976997
0.947864 0.927389 0.986864
0.990153 0.930678 0.990153
0.154220 0.934220 0.934220
0.196509 0.937509 0.937509
0.323376 0.947376 0.947376
0.450243 0.957243 0.957243
0.577110 0.967110 0.967110
0.703977 0.976977 0.976977
0.830844 0.986844 0.986844
0.957711 0.996711 0.996711
1.000000 1.000000 1.000000
