docs/luts/fresh-cold-simplicity.cube
TITLE "FreshLUTs??-????"
LUT_3D_SIZE 9
DOMAIN_MIN 0.0 0.0 0.0
DOMAIN_MAX 1.0 1.0 1.0
0.000000 0.006600 0.071500
0.063452 0.010734 0.071003
0.183441 0.015705 0.071343
0.303429 0.020675 0.071683
0.423418 0.025646 0.072023
0.543407 0.030617 0.072363
0.663396 0.035588 0.072703
0.783385 0.040559 0.073044
0.885337 0.044693 0.072547
0.000000 0.109315 0.070524
0.077885 0.113449 0.070027
0.197873 0.118420 0.070367
0.317862 0.123391 0.070707
0.437851 0.128362 0.071047
0.557840 0.133332 0.071387
0.677829 0.138303 0.071728
0.797818 0.143274 0.072068
0.899769 0.147408 0.071571
0.000000 0.230874 0.071192
0.093961 0.235008 0.070695
0.213950 0.239979 0.071035
0.333939 0.244950 0.071375
0.453928 0.249920 0.071715
0.573916 0.254891 0.072055
0.693905 0.259862 0.072395
0.813894 0.264833 0.072735
0.915846 0.268967 0.072238
0.008086 0.352433 0.071860
0.110037 0.356567 0.071362
0.230026 0.361538 0.071703
0.350015 0.366508 0.072043
0.470004 0.371479 0.072383
0.589993 0.376450 0.072723
0.709982 0.381421 0.073063
0.829562 0.386462 0.074162
0.928767 0.391067 0.078767
0.024162 0.473992 0.072527
0.126114 0.478126 0.072030
0.246103 0.483096 0.072370
0.366092 0.488067 0.072710
0.486081 0.493038 0.073051
0.605762 0.498062 0.073962
0.723004 0.503504 0.079404
0.840245 0.508945 0.084845
0.939450 0.513550 0.089450
0.040239 0.595551 0.073195
0.142190 0.599684 0.072698
0.262179 0.604655 0.073038
0.381962 0.609662 0.073762
0.499203 0.615103 0.079203
0.616445 0.620545 0.084645
0.733687 0.625987 0.090087
0.850929 0.631429 0.095529
0.950133 0.636033 0.100133
0.056315 0.717110 0.073863
0.158161 0.721261 0.073561
0.275403 0.726703 0.079003
0.392645 0.732145 0.084445
0.509887 0.737587 0.089887
0.627129 0.743029 0.095329
0.744370 0.748470 0.100770
0.861612 0.753912 0.106212
0.960817 0.758517 0.110817
0.069640 0.839140 0.079640
0.168845 0.843745 0.084245
0.286087 0.849187 0.089687
0.403328 0.854628 0.095128
0.520570 0.860070 0.100570
0.637812 0.865512 0.106012
0.755054 0.870954 0.111454
0.872296 0.876396 0.116896
0.971500 0.881000 0.121500
0.078680 0.942780 0.088680
0.177885 0.947385 0.093285
0.295126 0.952826 0.098726
0.412368 0.958268 0.104168
0.529610 0.963710 0.109610
0.646852 0.969152 0.115052
0.764094 0.974594 0.120494
0.881335 0.980035 0.125935
0.980540 0.984640 0.130540
0.000000 0.007817 0.146201
0.065896 0.011951 0.145704
0.185884 0.016922 0.146044
0.305873 0.021892 0.146385
0.425862 0.026863 0.146725
0.545851 0.031834 0.147065
0.665840 0.036805 0.147405
0.785829 0.041776 0.147745
0.887780 0.045910 0.147248
0.000000 0.110532 0.145225
0.080328 0.114666 0.144728
0.200317 0.119637 0.145069
0.320306 0.124608 0.145409
0.440295 0.129579 0.145749
0.560284 0.134549 0.146089
0.680273 0.139520 0.146429
0.800262 0.144491 0.146769
0.902213 0.148625 0.146272
0.000000 0.232091 0.145893
0.096405 0.236225 0.145396
0.216394 0.241196 0.145736
0.336383 0.246167 0.146076
0.456371 0.251137 0.146416
0.576360 0.256108 0.146757
0.696349 0.261079 0.147097
0.816338 0.266050 0.147437
0.918290 0.270184 0.146940
0.010530 0.353650 0.146561
0.112481 0.357784 0.146064
0.232470 0.362755 0.146404
0.352459 0.367725 0.146744
0.472448 0.372696 0.147084
0.592437 0.377667 0.147424
0.712426 0.382638 0.147764
0.830959 0.387858 0.150809
0.930163 0.392463 0.155413
0.026606 0.475209 0.147229
0.128558 0.479343 0.146732
0.248547 0.484313 0.147072
0.368536 0.489284 0.147412
0.488524 0.494255 0.147752
0.607158 0.499458 0.150608
0.724400 0.504900 0.156050
0.841642 0.510342 0.161492
0.940847 0.514947 0.166097
0.042683 0.596768 0.147896
0.144634 0.600901 0.147399
0.264623 0.605872 0.147739
0.383358 0.611058 0.150408
0.500600 0.616500 0.155850
0.617842 0.621942 0.161292
0.735084 0.627383 0.166733
0.852325 0.632825 0.172175
0.951530 0.637430 0.176780
0.058759 0.718327 0.148564
0.159558 0.722658 0.150208
0.276800 0.728100 0.155650
0.394041 0.733542 0.161091
0.511283 0.738983 0.166533
0.628525 0.744425 0.171975
0.745767 0.749867 0.177417
0.863009 0.755309 0.182859
0.962213 0.759913 0.187463
0.071037 0.840537 0.156287
0.170241 0.845141 0.160891
0.287483 0.850583 0.166333
0.404725 0.856025 0.171775
0.521967 0.861467 0.177217
0.639209 0.866908 0.182659
0.756450 0.872350 0.188100
0.873692 0.877792 0.193542
0.972897 0.882397 0.198147
0.080076 0.944177 0.165327
0.179281 0.948781 0.169931
0.296523 0.954223 0.175373
0.413765 0.959665 0.180815
0.531007 0.965106 0.186256
0.648248 0.970548 0.191698
0.765490 0.975990 0.197140
0.882732 0.981432 0.202582
0.981936 0.986036 0.207186
0.000000 0.009832 0.264701
0.069137 0.013966 0.264204
0.189126 0.018936 0.264544
0.309115 0.023907 0.264884
0.429104 0.028878 0.265224
0.549093 0.033849 0.265564
0.669082 0.038820 0.265904
0.789071 0.043791 0.266244
0.891022 0.047925 0.265747
0.000000 0.112547 0.263725
0.083570 0.116681 0.263228
0.203559 0.121652 0.263568
0.323548 0.126623 0.263908
0.443537 0.131593 0.264248
0.563526 0.136564 0.264588
0.683515 0.141535 0.264928
0.803503 0.146506 0.265268
0.905455 0.150640 0.264771
0.000000 0.234106 0.264393
0.099647 0.238240 0.263895
0.219636 0.243211 0.264236
0.339624 0.248181 0.264576
0.459613 0.253152 0.264916
0.579602 0.258123 0.265256
0.699591 0.263094 0.265596
0.819580 0.268065 0.265936
0.921532 0.272199 0.265439
0.013772 0.355665 0.265060
0.115723 0.359799 0.264563
0.235712 0.364769 0.264903
0.355701 0.369740 0.265243
0.475690 0.374711 0.265584
0.595679 0.379682 0.265924
0.715668 0.384653 0.266264
0.833153 0.390053 0.271253
0.932358 0.394658 0.275858
0.029848 0.477224 0.265728
0.131800 0.481357 0.265231
0.251789 0.486328 0.265571
0.371777 0.491299 0.265911
0.491766 0.496270 0.266251
0.609353 0.501653 0.271053
0.726595 0.507095 0.276495
0.843836 0.512536 0.281936
0.943041 0.517141 0.286541
0.045924 0.598783 0.266396
0.147876 0.602916 0.265899
0.267865 0.607887 0.266239
0.385553 0.613253 0.270853
0.502794 0.618694 0.276294
0.620036 0.624136 0.281736
0.737278 0.629578 0.287178
0.854520 0.635020 0.292620
0.953724 0.639624 0.297224
0.062001 0.720342 0.267063
0.161752 0.724852 0.270652
0.278994 0.730294 0.276094
0.396236 0.735736 0.281536
0.513478 0.741178 0.286978
0.630720 0.746620 0.292420
0.747961 0.752061 0.297861
0.865203 0.757503 0.303303
0.964408 0.762108 0.307908
0.073231 0.842731 0.276731
0.172436 0.847336 0.281336
0.289678 0.852778 0.286778
0.406919 0.858219 0.292219
0.524161 0.863661 0.297661
0.641403 0.869103 0.303103
0.758645 0.874545 0.308545
0.875887 0.879987 0.313987
0.975091 0.884591 0.318591
0.082271 0.946371 0.285771
0.181476 0.950976 0.290376
0.298717 0.956417 0.295817
0.415959 0.961859 0.301259
0.533201 0.967301 0.306701
0.650443 0.972743 0.312143
0.767685 0.978185 0.317585
0.884926 0.983626 0.323026
0.984131 0.988231 0.327631
0.000000 0.011847 0.383200
0.072379 0.015981 0.382703
0.192368 0.020951 0.383043
0.312357 0.025922 0.383383
0.432346 0.030893 0.383723
0.552335 0.035864 0.384063
0.672324 0.040835 0.384404
0.792312 0.045806 0.384744
0.894264 0.049939 0.384247
0.000000 0.114562 0.382224
0.086812 0.118696 0.381727
0.206801 0.123667 0.382067
0.326790 0.128638 0.382407
0.446779 0.133608 0.382747
0.566768 0.138579 0.383088
0.686756 0.143550 0.383428
0.806745 0.148521 0.383768
0.908697 0.152655 0.383271
0.000937 0.236121 0.382892
0.102889 0.240255 0.382395
0.222877 0.245226 0.382735
0.342866 0.250196 0.383075
0.462855 0.255167 0.383415
0.582844 0.260138 0.383755
0.702833 0.265109 0.384095
0.822822 0.270080 0.384436
0.923869 0.274369 0.385619
0.017013 0.357680 0.383560
0.118965 0.361814 0.383063
0.238954 0.366784 0.383403
0.358943 0.371755 0.383743
0.478932 0.376726 0.384083
0.598921 0.381697 0.384423
0.718106 0.386806 0.386256
0.835348 0.392248 0.391697
0.934552 0.396852 0.396302
0.033090 0.479239 0.384227
0.135042 0.483372 0.383730
0.255030 0.488343 0.384070
0.375019 0.493314 0.384411
0.494306 0.498406 0.386055
0.611547 0.503847 0.391497
0.728789 0.509289 0.396939
0.846031 0.514731 0.402381
0.945236 0.519336 0.406986
0.049166 0.600798 0.384895
0.151118 0.604931 0.384398
0.270505 0.610005 0.385855
0.387747 0.615447 0.391297
0.504989 0.620889 0.396739
0.622231 0.626331 0.402181
0.739473 0.631773 0.407622
0.856714 0.637214 0.413064
0.955919 0.641819 0.417669
0.064742 0.722442 0.386492
0.163947 0.727047 0.391097
0.281189 0.732489 0.396539
0.398430 0.737931 0.401981
0.515672 0.743372 0.407422
0.632914 0.748814 0.412864
0.750156 0.754256 0.418306
0.867398 0.759698 0.423748
0.966602 0.764302 0.428352
0.075426 0.844926 0.397176
0.174630 0.849530 0.401780
0.291872 0.854972 0.407222
0.409114 0.860414 0.412664
0.526356 0.865856 0.418106
0.643598 0.871298 0.423547
0.760839 0.876739 0.428989
0.878081 0.882181 0.434431
0.977286 0.886786 0.439036
0.084466 0.948566 0.406216
0.183670 0.953170 0.410820
0.300912 0.958612 0.416262
0.418154 0.964054 0.421704
0.535396 0.969496 0.427146
0.652637 0.974937 0.432587
0.769879 0.980379 0.438029
0.887121 0.985821 0.443471
0.986326 0.990426 0.448076
0.000000 0.013862 0.501699
0.075621 0.017995 0.501202
0.195610 0.022966 0.501543
0.315599 0.027937 0.501883
0.435588 0.032908 0.502223
0.555577 0.037879 0.502563
0.675565 0.042850 0.502903
0.795554 0.047821 0.503243
0.897506 0.051954 0.502746
0.000000 0.116577 0.500724
0.090054 0.120711 0.500227
0.210043 0.125682 0.500567
0.330032 0.130653 0.500907
0.450021 0.135623 0.501247
0.570009 0.140594 0.501587
0.689998 0.145565 0.501927
0.809987 0.150536 0.502267
0.911939 0.154670 0.501770
0.004179 0.238136 0.501391
0.106130 0.242270 0.500894
0.226119 0.247241 0.501234
0.346108 0.252211 0.501574
0.466097 0.257182 0.501915
0.586086 0.262153 0.502255
0.706075 0.267124 0.502595
0.826064 0.272095 0.502935
0.926063 0.276563 0.506063
0.020255 0.359695 0.502059
0.122207 0.363828 0.501562
0.242196 0.368799 0.501902
0.362185 0.373770 0.502242
0.482174 0.378741 0.502582
0.602162 0.383712 0.502922
0.720300 0.389000 0.506700
0.837542 0.394442 0.512142
0.936747 0.399047 0.516747
0.036332 0.481254 0.502727
0.138283 0.485387 0.502230
0.258272 0.490358 0.502570
0.378261 0.495329 0.502910
0.496500 0.500600 0.506500
0.613742 0.506042 0.511942
0.730984 0.511484 0.517384
0.848225 0.516925 0.522825
0.947430 0.521530 0.527430
0.052408 0.602813 0.503394
0.154360 0.606946 0.502897
0.272700 0.612200 0.506300
0.389942 0.617642 0.511742
0.507183 0.623083 0.517183
0.624425 0.628525 0.522625
0.741667 0.633967 0.528067
0.858909 0.639409 0.533509
0.958113 0.644013 0.538113
0.066937 0.724637 0.506937
0.166141 0.729241 0.511541
0.283383 0.734683 0.516983
0.400625 0.740125 0.522425
0.517867 0.745567 0.527867
0.635109 0.751009 0.533309
0.752350 0.756450 0.538750
0.869592 0.761892 0.544192
0.968797 0.766497 0.548797
0.077620 0.847120 0.517620
0.176825 0.851725 0.522225
0.294067 0.857167 0.527667
0.411308 0.862608 0.533108
0.528550 0.868050 0.538550
0.645792 0.873492 0.543992
0.763034 0.878934 0.549434
0.880276 0.884376 0.554876
0.979480 0.888980 0.559480
0.086660 0.950760 0.526660
0.185865 0.955365 0.531265
0.303106 0.960806 0.536706
0.420348 0.966248 0.542148
0.537590 0.971690 0.547590
0.654832 0.977132 0.553032
0.772074 0.982574 0.558474
0.889315 0.988015 0.563915
0.988520 0.992620 0.568520
0.000000 0.015877 0.620199
0.078863 0.020010 0.619702
0.198852 0.024981 0.620042
0.318841 0.029952 0.620382
0.438830 0.034923 0.620722
0.558818 0.039894 0.621062
0.678807 0.044865 0.621402
0.798796 0.049836 0.621742
0.900748 0.053969 0.621245
0.000000 0.118592 0.619223
0.093296 0.122726 0.618726
0.213285 0.127697 0.619066
0.333274 0.132667 0.619406
0.453262 0.137638 0.619746
0.573251 0.142609 0.620086
0.693240 0.147580 0.620426
0.813229 0.152551 0.620767
0.915181 0.156685 0.620269
0.007421 0.240151 0.619891
0.109372 0.244285 0.619394
0.229361 0.249255 0.619734
0.349350 0.254226 0.620074
0.469339 0.259197 0.620414
0.589328 0.264168 0.620754
0.709317 0.269139 0.621094
0.829053 0.274153 0.621903
0.928258 0.278758 0.626508
0.023497 0.361710 0.620558
0.125449 0.365843 0.620061
0.245438 0.370814 0.620401
0.365427 0.375785 0.620742
0.485415 0.380756 0.621082
0.605253 0.385753 0.621703
0.722495 0.391195 0.627145
0.839736 0.396637 0.632586
0.938941 0.401241 0.637191
0.039574 0.483269 0.621226
0.141525 0.487402 0.620729
0.261514 0.492373 0.621069
0.381453 0.497353 0.621503
0.498694 0.502795 0.626944
0.615936 0.508236 0.632386
0.733178 0.513678 0.637828
0.850420 0.519120 0.643270
0.949624 0.523725 0.647874
0.055650 0.604828 0.621894
0.157602 0.608961 0.621397
0.274894 0.614394 0.626744
0.392136 0.619836 0.632186
0.509378 0.625278 0.637628
0.626620 0.630720 0.643070
0.743862 0.636162 0.648511
0.861103 0.641603 0.653953
0.960308 0.646208 0.658558
0.069131 0.726831 0.627381
0.168336 0.731436 0.631986
0.285578 0.736878 0.637428
0.402819 0.742320 0.642869
0.520061 0.747761 0.648311
0.637303 0.753203 0.653753
0.754545 0.758645 0.659195
0.871787 0.764087 0.664637
0.970991 0.768691 0.669241
0.079815 0.849315 0.638065
0.179019 0.853919 0.642669
0.296261 0.859361 0.648111
0.413503 0.864803 0.653553
0.530745 0.870245 0.658995
0.647987 0.875687 0.664436
0.765228 0.881128 0.669878
0.882470 0.886570 0.675320
0.981675 0.891175 0.679925
0.088855 0.952955 0.647104
0.188059 0.957559 0.651709
0.305301 0.963001 0.657151
0.422543 0.968443 0.662593
0.539785 0.973885 0.668034
0.657026 0.979326 0.673476
0.774268 0.984768 0.678918
0.891510 0.990210 0.684360
0.990715 0.994815 0.688964
0.000000 0.017892 0.738698
0.082105 0.022025 0.738201
0.202094 0.026996 0.738541
0.322083 0.031967 0.738881
0.442072 0.036938 0.739222
0.562060 0.041909 0.739562
0.682049 0.046880 0.739902
0.802038 0.051851 0.740242
0.903990 0.055984 0.739745
0.000000 0.120607 0.737722
0.096538 0.124741 0.737225
0.216527 0.129712 0.737565
0.336515 0.134682 0.737906
0.456504 0.139653 0.738246
0.576493 0.144624 0.738586
0.696482 0.149595 0.738926
0.816471 0.154566 0.739266
0.918423 0.158700 0.738769
0.010663 0.242166 0.738390
0.112614 0.246300 0.737893
0.232603 0.251270 0.738233
0.352592 0.256241 0.738573
0.472581 0.261212 0.738913
0.592570 0.266183 0.739253
0.712559 0.271154 0.739594
0.831248 0.276348 0.742348
0.930452 0.280952 0.746952
0.026739 0.363725 0.739058
0.128691 0.367858 0.738561
0.248680 0.372829 0.738901
0.368668 0.377800 0.739241
0.488657 0.382771 0.739581
0.607447 0.387947 0.742147
0.724689 0.393389 0.747589
0.841931 0.398831 0.753031
0.941136 0.403436 0.757636
0.042816 0.485284 0.739726
0.144767 0.489417 0.739228
0.264756 0.494388 0.739569
0.383647 0.499547 0.741947
0.500889 0.504989 0.747389
0.618131 0.510431 0.752831
0.735373 0.515873 0.758273
0.852614 0.521314 0.763714
0.951819 0.525919 0.768319
0.058892 0.606842 0.740393
0.159847 0.611147 0.741747
0.277089 0.616589 0.747189
0.394331 0.622031 0.752631
0.511572 0.627472 0.758072
0.628814 0.632914 0.763514
0.746056 0.638356 0.768956
0.863298 0.643798 0.774398
0.962502 0.648402 0.779002
0.071326 0.729026 0.747826
0.170530 0.733630 0.752430
0.287772 0.739072 0.757872
0.405014 0.744514 0.763314
0.522256 0.749956 0.768756
0.639498 0.755398 0.774198
0.756739 0.760839 0.779639
0.873981 0.766281 0.785081
0.973186 0.770886 0.789686
0.082009 0.851509 0.758509
0.181214 0.856114 0.763114
0.298456 0.861556 0.768556
0.415697 0.866997 0.773997
0.532939 0.872439 0.779439
0.650181 0.877881 0.784881
0.767423 0.883323 0.790323
0.884665 0.888765 0.795765
0.983869 0.893369 0.800369
0.091049 0.955149 0.767549
0.190254 0.959754 0.772154
0.307495 0.965195 0.777595
0.424737 0.970637 0.783037
0.541979 0.976079 0.788479
0.659221 0.981521 0.793921
0.776463 0.986963 0.799363
0.893704 0.992404 0.804804
0.992909 0.997009 0.809409
0.000000 0.019907 0.857198
0.085347 0.024040 0.856701
0.205336 0.029011 0.857041
0.325325 0.033982 0.857381
0.445313 0.038953 0.857721
0.565302 0.043924 0.858061
0.685291 0.048895 0.858401
0.805280 0.053866 0.858741
0.907232 0.057999 0.858244
0.000000 0.122622 0.856222
0.099780 0.126756 0.855725
0.219769 0.131726 0.856065
0.339757 0.136697 0.856405
0.459746 0.141668 0.856745
0.579735 0.146639 0.857085
0.699724 0.151610 0.857425
0.819713 0.156581 0.857765
0.921664 0.160715 0.857268
0.013904 0.244181 0.856889
0.115856 0.248314 0.856392
0.235845 0.253285 0.856732
0.355834 0.258256 0.857073
0.475823 0.263227 0.857413
0.595812 0.268198 0.857753
0.715800 0.273169 0.858093
0.833442 0.278542 0.862792
0.932647 0.283147 0.867397
0.029981 0.365740 0.857557
0.131933 0.369873 0.857060
0.251921 0.374844 0.857400
0.371910 0.379815 0.857740
0.491899 0.384786 0.858080
0.609642 0.390142 0.862592
0.726884 0.395584 0.868034
0.844126 0.401025 0.873476
0.943330 0.405630 0.878080
0.046057 0.487299 0.858225
0.148009 0.491432 0.857728
0.267998 0.496403 0.858068
0.385842 0.501742 0.862392
0.503084 0.507184 0.867834
0.620325 0.512625 0.873275
0.737567 0.518067 0.878717
0.854809 0.523509 0.884159
0.954014 0.528114 0.888764
0.062134 0.608857 0.858893
0.162042 0.613342 0.862191
0.279283 0.618783 0.867633
0.396525 0.624225 0.873075
0.513767 0.629667 0.878517
0.631009 0.635109 0.883959
0.748251 0.640551 0.889401
0.865492 0.645992 0.894842
0.964697 0.650597 0.899447
0.073520 0.731220 0.868270
0.172725 0.735825 0.872875
0.289967 0.741267 0.878317
0.407208 0.746709 0.883759
0.524450 0.752150 0.889200
0.641692 0.757592 0.894642
0.758934 0.763034 0.900084
0.876176 0.768476 0.905526
0.975380 0.773080 0.910130
0.084204 0.853704 0.878954
0.183408 0.858308 0.883558
0.300650 0.863750 0.889000
0.417892 0.869192 0.894442
0.535134 0.874634 0.899884
0.652376 0.880076 0.905326
0.769617 0.885517 0.910767
0.886859 0.890959 0.916209
0.986064 0.895564 0.920814
0.093243 0.957344 0.887993
0.192448 0.961948 0.892598
0.309690 0.967390 0.898040
0.426932 0.972832 0.903482
0.544173 0.978274 0.908923
0.661415 0.983715 0.914365
0.778657 0.989157 0.919807
0.895899 0.994599 0.925249
0.995104 0.999204 0.929853
0.000000 0.021124 0.931899
0.087791 0.025257 0.931402
0.207780 0.030228 0.931742
0.327768 0.035199 0.932082
0.447757 0.040170 0.932422
0.567746 0.045141 0.932762
0.687735 0.050112 0.933102
0.807724 0.055083 0.933443
0.909675 0.059216 0.932945
0.000272 0.123839 0.930923
0.102224 0.127973 0.930426
0.222212 0.132943 0.930766
0.342201 0.137914 0.931106
0.462190 0.142885 0.931446
0.582179 0.147856 0.931786
0.702168 0.152827 0.932127
0.822157 0.157798 0.932467
0.923360 0.162060 0.933360
0.016348 0.245398 0.931591
0.118300 0.249531 0.931094
0.238289 0.254502 0.931434
0.358278 0.259473 0.931774
0.478267 0.264444 0.932114
0.598255 0.269415 0.932454
0.717597 0.274497 0.933997
0.834839 0.279939 0.939439
0.934043 0.284543 0.944043
0.032425 0.366957 0.932259
0.134376 0.371090 0.931761
0.254365 0.376061 0.932102
0.374354 0.381032 0.932442
0.493797 0.386097 0.933797
0.611038 0.391538 0.939238
0.728280 0.396980 0.944680
0.845522 0.402422 0.950122
0.944727 0.407027 0.954727
0.048501 0.488515 0.932926
0.150453 0.492649 0.932429
0.269996 0.497696 0.933596
0.387238 0.503138 0.939038
0.504480 0.508580 0.944480
0.621722 0.514022 0.949922
0.738964 0.519464 0.955364
0.856205 0.524905 0.960805
0.955410 0.529510 0.965410
0.064233 0.610133 0.934233
0.163438 0.614738 0.938838
0.280680 0.620180 0.944280
0.397922 0.625622 0.949722
0.515163 0.631063 0.955163
0.632405 0.636505 0.960605
0.749647 0.641947 0.966047
0.866889 0.647389 0.971489
0.966093 0.651993 0.976093
0.074917 0.732617 0.944917
0.174121 0.737221 0.949521
0.291363 0.742663 0.954963
0.408605 0.748105 0.960405
0.525847 0.753547 0.965847
0.643089 0.758989 0.971289
0.760330 0.764430 0.976730
0.877572 0.769872 0.982172
0.976777 0.774477 0.986777
0.085600 0.855100 0.955600
0.184805 0.859705 0.960205
0.302047 0.865147 0.965647
0.419288 0.870588 0.971088
0.536530 0.876030 0.976530
0.653772 0.881472 0.981972
0.771014 0.886914 0.987414
0.888256 0.892356 0.992856
0.987460 0.896960 0.997460
0.094640 0.958740 0.964640
0.193845 0.963345 0.969245
0.311086 0.968786 0.974686
0.428328 0.974228 0.980128
0.545570 0.979670 0.985570
0.662812 0.985112 0.991012
0.780054 0.990554 0.996454
0.897295 0.995995 1.000000
0.996500 1.000000 1.000000
