docs/luts/fresh-filmlook-bmp4k.cube
TITLE "FreshLUTs??-BMP4K??"
LUT_3D_SIZE 33
DOMAIN_MIN 0.0 0.0 0.0
DOMAIN_MAX 1.0 1.0 1.0
0.000000 0.000000 0.030000
0.000000 0.000000 0.029411
0.025187 0.000000 0.029809
0.056098 0.000000 0.030432
0.087009 0.000000 0.031054
0.117920 0.000000 0.031676
0.148830 0.000830 0.032299
0.179741 0.002041 0.032921
0.210652 0.003252 0.033543
0.241563 0.004463 0.034165
0.272474 0.005674 0.034788
0.303385 0.006885 0.035410
0.334296 0.008096 0.036032
0.365207 0.009307 0.036655
0.396118 0.010518 0.037277
0.427029 0.011729 0.037899
0.457940 0.012940 0.038522
0.488851 0.014151 0.039144
0.519762 0.015362 0.039766
0.550673 0.016573 0.040388
0.581584 0.017784 0.041011
0.612495 0.018995 0.041633
0.643406 0.020206 0.042255
0.674317 0.021417 0.042878
0.705228 0.022628 0.043500
0.736139 0.023839 0.044122
0.767049 0.025050 0.044744
0.797960 0.026260 0.045367
0.828871 0.027471 0.045989
0.859782 0.028682 0.046611
0.890693 0.029893 0.047234
0.915880 0.030880 0.047632
0.915880 0.030880 0.047043
0.001211 0.011336 0.030055
0.001211 0.011336 0.029466
0.026397 0.012322 0.029864
0.057308 0.013533 0.030487
0.088219 0.014744 0.031109
0.119130 0.015955 0.031731
0.150041 0.017166 0.032354
0.180952 0.018377 0.032976
0.211863 0.019588 0.033598
0.242774 0.020799 0.034220
0.273685 0.022010 0.034843
0.304596 0.023221 0.035465
0.335507 0.024432 0.036087
0.366418 0.025643 0.036710
0.397329 0.026854 0.037332
0.428240 0.028065 0.037954
0.459151 0.029276 0.038577
0.490062 0.030487 0.039199
0.520973 0.031698 0.039821
0.551884 0.032909 0.040443
0.582794 0.034119 0.041066
0.613705 0.035330 0.041688
0.644616 0.036541 0.042310
0.675527 0.037752 0.042933
0.706438 0.038963 0.043555
0.737349 0.040174 0.044177
0.768260 0.041385 0.044799
0.799171 0.042596 0.045422
0.830082 0.043807 0.046044
0.860993 0.045018 0.046666
0.891904 0.046229 0.047289
0.917091 0.047216 0.047687
0.917091 0.047216 0.047098
0.003478 0.041928 0.031167
0.003478 0.041928 0.030578
0.028665 0.042915 0.030976
0.059576 0.044126 0.031598
0.090487 0.045337 0.032221
0.121398 0.046548 0.032843
0.152308 0.047758 0.033465
0.183219 0.048969 0.034088
0.214130 0.050180 0.034710
0.245041 0.051391 0.035332
0.275952 0.052602 0.035954
0.306863 0.053813 0.036577
0.337774 0.055024 0.037199
0.368685 0.056235 0.037821
0.399596 0.057446 0.038444
0.430507 0.058657 0.039066
0.461418 0.059868 0.039688
0.492329 0.061079 0.040310
0.523240 0.062290 0.040933
0.554151 0.063501 0.041555
0.585062 0.064712 0.042177
0.615973 0.065923 0.042800
0.646884 0.067134 0.043422
0.677795 0.068345 0.044044
0.708706 0.069556 0.044667
0.739617 0.070767 0.045289
0.770527 0.071977 0.045911
0.801438 0.073188 0.046533
0.832349 0.074399 0.047156
0.863260 0.075610 0.047778
0.894171 0.076821 0.048400
0.919358 0.077808 0.048798
0.919358 0.077808 0.048210
0.005745 0.072520 0.032278
0.005745 0.072520 0.031690
0.030932 0.073507 0.032088
0.061843 0.074718 0.032710
0.092754 0.075929 0.033332
0.123665 0.077140 0.033955
0.154576 0.078351 0.034577
0.185487 0.079562 0.035199
0.216398 0.080773 0.035821
0.247309 0.081984 0.036444
0.278220 0.083195 0.037066
0.309131 0.084406 0.037688
0.340041 0.085616 0.038311
0.370952 0.086827 0.038933
0.401863 0.088038 0.039555
0.432774 0.089249 0.040178
0.463685 0.090460 0.040800
0.494596 0.091671 0.041422
0.525507 0.092882 0.042044
0.556418 0.094093 0.042667
0.587329 0.095304 0.043289
0.618240 0.096515 0.043911
0.649151 0.097726 0.044534
0.680062 0.098937 0.045156
0.710973 0.100148 0.045778
0.741884 0.101359 0.046400
0.772795 0.102570 0.047023
0.803706 0.103781 0.047645
0.834617 0.104992 0.048267
0.865528 0.106203 0.048890
0.896439 0.107414 0.049512
0.921625 0.108400 0.049910
0.921625 0.108400 0.049321
0.008013 0.103113 0.033390
0.008013 0.103113 0.032801
0.033199 0.104099 0.033199
0.064110 0.105310 0.033822
0.095021 0.106521 0.034444
0.125932 0.107732 0.035066
0.156843 0.108943 0.035688
0.187754 0.110154 0.036311
0.218665 0.111365 0.036933
0.249576 0.112576 0.037555
0.280487 0.113787 0.038178
0.311398 0.114998 0.038800
0.342309 0.116209 0.039422
0.373220 0.117420 0.040045
0.404131 0.118631 0.040667
0.435042 0.119842 0.041289
0.465953 0.121053 0.041911
0.496863 0.122264 0.042534
0.527774 0.123474 0.043156
0.558685 0.124685 0.043778
0.589596 0.125896 0.044401
0.620507 0.127107 0.045023
0.651418 0.128318 0.045645
0.682329 0.129529 0.046267
0.713240 0.130740 0.046890
0.744151 0.131951 0.047512
0.775062 0.133162 0.048134
0.805973 0.134373 0.048757
0.836884 0.135584 0.049379
0.867795 0.136795 0.050001
0.898706 0.138006 0.050624
0.923893 0.138993 0.051022
0.923893 0.138993 0.050433
0.010280 0.133705 0.034502
0.010280 0.133705 0.033913
0.035467 0.134692 0.034311
0.066377 0.135902 0.034933
0.097288 0.137113 0.035556
0.128199 0.138324 0.036178
0.159110 0.139535 0.036800
0.190021 0.140746 0.037422
0.220932 0.141957 0.038045
0.251843 0.143168 0.038667
0.282754 0.144379 0.039289
0.313665 0.145590 0.039912
0.344576 0.146801 0.040534
0.375487 0.148012 0.041156
0.406398 0.149223 0.041778
0.437309 0.150434 0.042401
0.468220 0.151645 0.043023
0.499131 0.152856 0.043645
0.530042 0.154067 0.044268
0.560953 0.155278 0.044890
0.591864 0.156489 0.045512
0.622775 0.157700 0.046135
0.653686 0.158911 0.046757
0.684596 0.160121 0.047379
0.715507 0.161332 0.048001
0.746418 0.162543 0.048624
0.777329 0.163754 0.049246
0.808240 0.164965 0.049868
0.839151 0.166176 0.050491
0.870062 0.167387 0.051113
0.900973 0.168598 0.051735
0.926160 0.169585 0.052133
0.926160 0.169585 0.051545
0.012547 0.164297 0.035613
0.012547 0.164297 0.035025
0.037734 0.165284 0.035423
0.068645 0.166495 0.036045
0.099556 0.167706 0.036667
0.130467 0.168917 0.037289
0.161378 0.170128 0.037912
0.192289 0.171339 0.038534
0.223200 0.172550 0.039156
0.254110 0.173760 0.039779
0.285021 0.174971 0.040401
0.315932 0.176182 0.041023
0.346843 0.177393 0.041646
0.377754 0.178604 0.042268
0.408665 0.179815 0.042890
0.439576 0.181026 0.043512
0.470487 0.182237 0.044135
0.501398 0.183448 0.044757
0.532309 0.184659 0.045379
0.563220 0.185870 0.046002
0.594131 0.187081 0.046624
0.625042 0.188292 0.047246
0.655953 0.189503 0.047868
0.686864 0.190714 0.048491
0.717775 0.191925 0.049113
0.748686 0.193136 0.049735
0.779597 0.194347 0.050358
0.810508 0.195558 0.050980
0.841419 0.196769 0.051602
0.872329 0.197979 0.052225
0.903240 0.199190 0.052847
0.928427 0.200177 0.053245
0.928427 0.200177 0.052656
0.014814 0.194889 0.036725
0.014814 0.194889 0.036136
0.040001 0.195876 0.036534
0.070912 0.197087 0.037156
0.101823 0.198298 0.037779
0.132734 0.199509 0.038401
0.163645 0.200720 0.039023
0.194556 0.201931 0.039646
0.225467 0.203142 0.040268
0.256378 0.204353 0.040890
0.287289 0.205564 0.041513
0.318200 0.206775 0.042135
0.349111 0.207986 0.042757
0.380022 0.209197 0.043379
0.410933 0.210408 0.044002
0.441843 0.211618 0.044624
0.472754 0.212829 0.045246
0.503665 0.214040 0.045869
0.534576 0.215251 0.046491
0.565487 0.216462 0.047113
0.596398 0.217673 0.047735
0.627309 0.218884 0.048358
0.658220 0.220095 0.048980
0.689131 0.221306 0.049602
0.720042 0.222517 0.050225
0.750953 0.223728 0.050847
0.781864 0.224939 0.051469
0.812775 0.226150 0.052092
0.843686 0.227361 0.052714
0.874597 0.228572 0.053336
0.905508 0.229783 0.053958
0.930694 0.230769 0.054356
0.931014 0.230769 0.053768
0.017082 0.225482 0.037836
0.017082 0.225482 0.037248
0.042268 0.226468 0.037646
0.073179 0.227679 0.038268
0.104090 0.228890 0.038890
0.135001 0.230101 0.039513
0.165912 0.231312 0.040135
0.196823 0.232523 0.040757
0.227734 0.233734 0.041380
0.258645 0.234945 0.042002
0.289556 0.236156 0.042624
0.320467 0.237367 0.043246
0.351378 0.238578 0.043869
0.382289 0.239789 0.044491
0.413200 0.241000 0.045113
0.444111 0.242211 0.045736
0.475022 0.243422 0.046358
0.505933 0.244633 0.046980
0.536844 0.245844 0.047603
0.567755 0.247055 0.048225
0.598666 0.248265 0.048847
0.629576 0.249476 0.049469
0.660487 0.250687 0.050092
0.691398 0.251898 0.050714
0.722309 0.253109 0.051336
0.753220 0.254320 0.051959
0.784131 0.255531 0.052581
0.815042 0.256742 0.053203
0.845953 0.257953 0.053825
0.876864 0.259164 0.054448
0.908079 0.260375 0.055070
0.933669 0.261362 0.055468
0.934072 0.261362 0.054879
0.019349 0.256074 0.038948
0.019349 0.256074 0.038359
0.044536 0.257061 0.038757
0.075447 0.258272 0.039380
0.106358 0.259483 0.040002
0.137269 0.260694 0.040624
0.168179 0.261904 0.041247
0.199090 0.263115 0.041869
0.230001 0.264326 0.042491
0.260912 0.265537 0.043114
0.291823 0.266748 0.043736
0.322734 0.267959 0.044358
0.353645 0.269170 0.044980
0.384556 0.270381 0.045603
0.415467 0.271592 0.046225
0.446378 0.272803 0.046847
0.477289 0.274014 0.047470
0.508200 0.275225 0.048092
0.539111 0.276436 0.048714
0.570022 0.277647 0.049336
0.600933 0.278858 0.049959
0.631844 0.280069 0.050581
0.662755 0.281280 0.051203
0.693666 0.282491 0.051826
0.724577 0.283702 0.052448
0.755488 0.284913 0.053070
0.786398 0.286123 0.053693
0.817309 0.287334 0.054315
0.848510 0.288545 0.054937
0.879824 0.289756 0.055559
0.911137 0.290967 0.056182
0.936727 0.291954 0.056580
0.937130 0.291954 0.055991
0.021616 0.286666 0.040060
0.021616 0.286666 0.039471
0.046803 0.287653 0.039869
0.077714 0.288864 0.040491
0.108625 0.290075 0.041114
0.139536 0.291286 0.041736
0.170447 0.292497 0.042358
0.201358 0.293708 0.042981
0.232269 0.294919 0.043603
0.263180 0.296130 0.044225
0.294091 0.297341 0.044847
0.325002 0.298552 0.045470
0.355912 0.299762 0.046092
0.386823 0.300973 0.046714
0.417734 0.302184 0.047337
0.448645 0.303395 0.047959
0.479556 0.304606 0.048581
0.510467 0.305817 0.049204
0.541378 0.307028 0.049826
0.572289 0.308239 0.050448
0.603200 0.309450 0.051070
0.634111 0.310661 0.051693
0.665022 0.311872 0.052315
0.695933 0.313083 0.052937
0.726844 0.314294 0.053560
0.757755 0.315505 0.054182
0.788941 0.316716 0.054804
0.820254 0.317927 0.055426
0.851568 0.319138 0.056049
0.882882 0.320349 0.056671
0.914195 0.321560 0.057293
0.939785 0.322546 0.057691
0.940188 0.322546 0.057496
0.023884 0.317259 0.041171
0.023884 0.317259 0.040583
0.049070 0.318245 0.040981
0.079981 0.319456 0.041603
0.110892 0.320667 0.042225
0.141803 0.321878 0.042848
0.172714 0.323089 0.043470
0.203625 0.324300 0.044092
0.234536 0.325511 0.044714
0.265447 0.326722 0.045337
0.296358 0.327933 0.045959
0.327269 0.329144 0.046581
0.358180 0.330355 0.047204
0.389091 0.331566 0.047826
0.420002 0.332777 0.048448
0.450913 0.333988 0.049071
0.481824 0.335199 0.049693
0.512735 0.336410 0.050315
0.543645 0.337620 0.050937
0.574556 0.338831 0.051560
0.605467 0.340042 0.052182
0.636378 0.341253 0.052804
0.667289 0.342464 0.053427
0.698200 0.343675 0.054049
0.729371 0.344886 0.054671
0.760685 0.346097 0.055293
0.791999 0.347308 0.055916
0.823312 0.348519 0.056538
0.854626 0.349730 0.057160
0.885940 0.350941 0.057783
0.917253 0.352152 0.058777
0.942843 0.353139 0.059764
0.943246 0.353139 0.059764
0.026151 0.347851 0.042283
0.026151 0.347851 0.041694
0.051338 0.348838 0.042092
0.082248 0.350048 0.042715
0.113159 0.351259 0.043337
0.144070 0.352470 0.043959
0.174981 0.353681 0.044582
0.205892 0.354892 0.045204
0.236803 0.356103 0.045826
0.267714 0.357314 0.046448
0.298625 0.358525 0.047071
0.329536 0.359736 0.047693
0.360447 0.360947 0.048315
0.391358 0.362158 0.048938
0.422269 0.363369 0.049560
0.453180 0.364580 0.050182
0.484091 0.365791 0.050804
0.515002 0.367002 0.051427
0.545913 0.368213 0.052049
0.576824 0.369424 0.052671
0.607735 0.370635 0.053294
0.638646 0.371846 0.053916
0.669802 0.373057 0.054538
0.701115 0.374267 0.055161
0.732429 0.375478 0.055783
0.763743 0.376689 0.056405
0.795056 0.377900 0.057027
0.826370 0.379111 0.057650
0.857684 0.380322 0.058622
0.888998 0.381533 0.059833
0.920311 0.382744 0.061044
0.945901 0.383731 0.062031
0.946303 0.383731 0.062031
0.028418 0.378443 0.043395
0.028418 0.378443 0.042806
0.053605 0.379430 0.043204
0.084516 0.380641 0.043826
0.115427 0.381852 0.044449
0.146338 0.383063 0.045071
0.177249 0.384274 0.045693
0.208160 0.385485 0.046315
0.239071 0.386696 0.046938
0.269981 0.387906 0.047560
0.300892 0.389117 0.048182
0.331803 0.390328 0.048805
0.362714 0.391539 0.049427
0.393625 0.392750 0.050049
0.424536 0.393961 0.050672
0.455447 0.395172 0.051294
0.486358 0.396383 0.051916
0.517269 0.397594 0.052538
0.548180 0.398805 0.053161
0.579091 0.400016 0.053783
0.610232 0.401227 0.054405
0.641546 0.402438 0.055028
0.672860 0.403649 0.055650
0.704173 0.404860 0.056272
0.735487 0.406071 0.056894
0.766801 0.407282 0.057517
0.798114 0.408493 0.058468
0.829428 0.409704 0.059679
0.860742 0.410915 0.060890
0.892056 0.412125 0.062100
0.923369 0.413336 0.063311
0.948959 0.414323 0.064298
0.949361 0.414323 0.064298
0.030685 0.409035 0.044506
0.030685 0.409035 0.043918
0.055872 0.410022 0.044316
0.086783 0.411233 0.044938
0.117694 0.412444 0.045560
0.148605 0.413655 0.046183
0.179516 0.414866 0.046805
0.210427 0.416077 0.047427
0.241338 0.417288 0.048049
0.272249 0.418499 0.048672
0.303160 0.419710 0.049294
0.334071 0.420921 0.049916
0.364982 0.422132 0.050539
0.395893 0.423343 0.051161
0.426804 0.424554 0.051783
0.457714 0.425764 0.052405
0.488625 0.426975 0.053028
0.519536 0.428186 0.053650
0.550663 0.429397 0.054272
0.581977 0.430608 0.054895
0.613290 0.431819 0.055517
0.644604 0.433030 0.056139
0.675918 0.434241 0.056761
0.707231 0.435452 0.057384
0.738545 0.436663 0.058313
0.769859 0.437874 0.059524
0.801172 0.439085 0.060735
0.832486 0.440296 0.061946
0.863800 0.441507 0.063157
0.895114 0.442718 0.064368
0.926427 0.443929 0.065579
0.952017 0.444915 0.066565
0.952419 0.444915 0.066565
0.032953 0.439628 0.045618
0.032953 0.439628 0.045029
0.058139 0.440614 0.045427
0.089050 0.441825 0.046050
0.119961 0.443036 0.046672
0.150872 0.444247 0.047294
0.181783 0.445458 0.047916
0.212694 0.446669 0.048539
0.243605 0.447880 0.049161
0.274516 0.449091 0.049783
0.305427 0.450302 0.050406
0.336338 0.451513 0.051028
0.367249 0.452724 0.051650
0.398160 0.453935 0.052272
0.429071 0.455146 0.052895
0.459982 0.456357 0.053517
0.491093 0.457568 0.054139
0.522407 0.458779 0.054762
0.553721 0.459990 0.055384
0.585035 0.461201 0.056006
0.616348 0.462412 0.056629
0.647662 0.463622 0.057251
0.678976 0.464833 0.058158
0.710289 0.466044 0.059369
0.741603 0.467255 0.060580
0.772917 0.468466 0.061791
0.804230 0.469677 0.063002
0.835544 0.470888 0.064213
0.866858 0.472099 0.065424
0.898171 0.473310 0.066635
0.929485 0.474521 0.067846
0.955075 0.475508 0.068833
0.955477 0.475508 0.068833
0.035220 0.470220 0.046729
0.035220 0.470220 0.046141
0.060407 0.471207 0.046539
0.091318 0.472418 0.047161
0.122229 0.473629 0.047783
0.153140 0.474840 0.048406
0.184050 0.476050 0.049028
0.214961 0.477261 0.049650
0.245872 0.478472 0.050273
0.276783 0.479683 0.050895
0.307694 0.480894 0.051517
0.338605 0.482105 0.052140
0.369516 0.483316 0.052762
0.400427 0.484527 0.053384
0.431524 0.485738 0.054006
0.462838 0.486949 0.054629
0.494151 0.488160 0.055251
0.525465 0.489371 0.055873
0.556779 0.490582 0.056496
0.588092 0.491793 0.057118
0.619406 0.493004 0.058004
0.650720 0.494215 0.059215
0.682034 0.495426 0.060426
0.713347 0.496637 0.061637
0.744661 0.497848 0.062848
0.775975 0.499059 0.064059
0.807288 0.500270 0.065269
0.838602 0.501480 0.066480
0.869916 0.502691 0.067691
0.901229 0.503902 0.068902
0.932543 0.505113 0.070113
0.958133 0.506100 0.071100
0.958535 0.506100 0.071100
0.037487 0.500812 0.047841
0.037487 0.500812 0.047252
0.062674 0.501799 0.047651
0.093585 0.503010 0.048273
0.124496 0.504221 0.048895
0.155407 0.505432 0.049517
0.186318 0.506643 0.050140
0.217229 0.507854 0.050762
0.248140 0.509065 0.051384
0.279051 0.510276 0.052007
0.309962 0.511487 0.052629
0.340873 0.512698 0.053251
0.371955 0.513908 0.053873
0.403268 0.515119 0.054496
0.434582 0.516330 0.055118
0.465896 0.517541 0.055740
0.497209 0.518752 0.056363
0.528523 0.519963 0.056985
0.559837 0.521174 0.057849
0.591150 0.522385 0.059060
0.622464 0.523596 0.060271
0.653778 0.524807 0.061482
0.685092 0.526018 0.062693
0.716405 0.527229 0.063904
0.747719 0.528440 0.065115
0.779033 0.529651 0.066326
0.810346 0.530862 0.067537
0.841660 0.532073 0.068748
0.872974 0.533284 0.069959
0.904287 0.534495 0.071170
0.935601 0.535706 0.072381
0.961191 0.536692 0.073367
0.961593 0.536692 0.073367
0.039755 0.531405 0.048953
0.039755 0.531405 0.048364
0.064941 0.532391 0.048762
0.095852 0.533602 0.049384
0.126763 0.534813 0.050007
0.157674 0.536024 0.050629
0.188585 0.537235 0.051251
0.219496 0.538446 0.051874
0.250407 0.539657 0.052496
0.281318 0.540868 0.053118
0.312385 0.542079 0.053740
0.343699 0.543290 0.054363
0.375013 0.544501 0.054985
0.406326 0.545712 0.055607
0.437640 0.546923 0.056230
0.468954 0.548134 0.056852
0.500267 0.549345 0.057695
0.531581 0.550556 0.058906
0.562895 0.551766 0.060116
0.594208 0.552977 0.061327
0.625522 0.554188 0.062538
0.656836 0.555399 0.063749
0.688149 0.556610 0.064960
0.719463 0.557821 0.066171
0.750777 0.559032 0.067382
0.782091 0.560243 0.068593
0.813404 0.561454 0.069804
0.844718 0.562665 0.071015
0.876032 0.563876 0.072226
0.907345 0.565087 0.073437
0.938659 0.566298 0.074648
0.964249 0.567285 0.075635
0.964651 0.567285 0.075635
0.042022 0.561997 0.050064
0.042022 0.561997 0.049476
0.067209 0.562984 0.049874
0.098120 0.564195 0.050496
0.129030 0.565405 0.051118
0.159941 0.566616 0.051741
0.190852 0.567827 0.052363
0.221763 0.569038 0.052985
0.252816 0.570249 0.053608
0.284129 0.571460 0.054230
0.315443 0.572671 0.054852
0.346757 0.573882 0.055474
0.378070 0.575093 0.056097
0.409384 0.576304 0.056719
0.440698 0.577515 0.057540
0.472012 0.578726 0.058751
0.503325 0.579937 0.059962
0.534639 0.581148 0.061173
0.565953 0.582359 0.062384
0.597266 0.583570 0.063595
0.628580 0.584781 0.064806
0.659894 0.585992 0.066017
0.691207 0.587203 0.067228
0.722521 0.588414 0.068439
0.753835 0.589624 0.069649
0.785149 0.590835 0.070860
0.816462 0.592046 0.072071
0.847776 0.593257 0.073282
0.879090 0.594468 0.074493
0.910403 0.595679 0.075704
0.941717 0.596890 0.076915
0.967306 0.597877 0.077902
0.967709 0.597877 0.077902
0.044289 0.592589 0.051176
0.044289 0.592589 0.050587
0.069476 0.593576 0.050985
0.100387 0.594787 0.051608
0.131298 0.595998 0.052230
0.162209 0.597209 0.052852
0.193246 0.598420 0.053475
0.224560 0.599631 0.054097
0.255874 0.600842 0.054719
0.287187 0.602052 0.055341
0.318501 0.603263 0.055964
0.349815 0.604474 0.056586
0.381128 0.605685 0.057385
0.412442 0.606896 0.058596
0.443756 0.608107 0.059807
0.475070 0.609318 0.061018
0.506383 0.610529 0.062229
0.537697 0.611740 0.063440
0.569011 0.612951 0.064651
0.600324 0.614162 0.065862
0.631638 0.615373 0.067073
0.662952 0.616584 0.068284
0.694265 0.617795 0.069495
0.725579 0.619006 0.070706
0.756893 0.620217 0.071917
0.788207 0.621428 0.073128
0.819520 0.622639 0.074339
0.850834 0.623850 0.075550
0.882148 0.625061 0.076761
0.913461 0.626271 0.077971
0.944775 0.627482 0.079182
0.970364 0.628469 0.080169
0.970767 0.628469 0.080169
0.046556 0.623181 0.052288
0.046556 0.623181 0.051699
0.071743 0.624168 0.052097
0.102654 0.625379 0.052719
0.133677 0.626590 0.053342
0.164991 0.627801 0.053964
0.196304 0.629012 0.054586
0.227618 0.630223 0.055209
0.258932 0.631434 0.055831
0.290245 0.632645 0.056453
0.321559 0.633856 0.057231
0.352873 0.635067 0.058442
0.384186 0.636278 0.059653
0.415500 0.637489 0.060864
0.446814 0.638700 0.062075
0.478128 0.639910 0.063285
0.509441 0.641121 0.064496
0.540755 0.642332 0.065707
0.572069 0.643543 0.066918
0.603382 0.644754 0.068129
0.634696 0.645965 0.069340
0.666010 0.647176 0.070551
0.697323 0.648387 0.071762
0.728637 0.649598 0.072973
0.759951 0.650809 0.074184
0.791264 0.652020 0.075395
0.822578 0.653231 0.076606
0.853892 0.654442 0.077817
0.885206 0.655653 0.079028
0.916519 0.656864 0.080239
0.947833 0.658075 0.081450
0.973422 0.659061 0.082436
0.973825 0.659061 0.082436
0.048824 0.653774 0.053399
0.048824 0.653774 0.052811
0.074107 0.654760 0.053209
0.105421 0.655971 0.053831
0.136735 0.657182 0.054453
0.168049 0.658393 0.055076
0.199362 0.659604 0.055698
0.230676 0.660815 0.056320
0.261990 0.662026 0.057076
0.293303 0.663237 0.058287
0.324617 0.664448 0.059498
0.355931 0.665659 0.060709
0.387244 0.666870 0.061920
0.418558 0.668081 0.063131
0.449872 0.669292 0.064342
0.481185 0.670503 0.065553
0.512499 0.671714 0.066764
0.543813 0.672925 0.067975
0.575127 0.674136 0.069186
0.606440 0.675347 0.070397
0.637754 0.676558 0.071608
0.669068 0.677768 0.072818
0.700381 0.678979 0.074029
0.731695 0.680190 0.075240
0.763009 0.681401 0.076451
0.794322 0.682612 0.077662
0.825636 0.683823 0.078873
0.856950 0.685034 0.080084
0.888264 0.686245 0.081295
0.919577 0.687456 0.082506
0.950891 0.688667 0.083717
0.976480 0.689654 0.084704
0.976883 0.689654 0.084704
0.051173 0.684366 0.054511
0.051576 0.684366 0.053922
0.077165 0.685353 0.054320
0.108479 0.686564 0.054943
0.139793 0.687775 0.055565
0.171106 0.688986 0.056187
0.202420 0.690197 0.056922
0.233734 0.691407 0.058132
0.265048 0.692618 0.059343
0.296361 0.693829 0.060554
0.327675 0.695040 0.061765
0.358989 0.696251 0.062976
0.390302 0.697462 0.064187
0.421616 0.698673 0.065398
0.452930 0.699884 0.066609
0.484243 0.701095 0.067820
0.515557 0.702306 0.069031
0.546871 0.703517 0.070242
0.578185 0.704728 0.071453
0.609498 0.705939 0.072664
0.640812 0.707150 0.073875
0.672126 0.708361 0.075086
0.703439 0.709572 0.076297
0.734753 0.710783 0.077508
0.766067 0.711994 0.078719
0.797380 0.713205 0.079930
0.828694 0.714416 0.081141
0.860008 0.715626 0.082351
0.891322 0.716837 0.083562
0.922635 0.718048 0.084773
0.953949 0.719259 0.085984
0.979538 0.720246 0.086971
0.979941 0.720246 0.086971
0.054231 0.714958 0.055623
0.054634 0.714958 0.055034
0.080223 0.715945 0.055432
0.111537 0.717156 0.056054
0.142851 0.718367 0.056767
0.174164 0.719578 0.057978
0.205478 0.720789 0.059189
0.236792 0.722000 0.060400
0.268106 0.723211 0.061611
0.299419 0.724422 0.062822
0.330733 0.725633 0.064033
0.362047 0.726844 0.065244
0.393360 0.728055 0.066454
0.424674 0.729265 0.067665
0.455988 0.730476 0.068876
0.487301 0.731687 0.070087
0.518615 0.732898 0.071298
0.549929 0.734109 0.072509
0.581243 0.735320 0.073720
0.612556 0.736531 0.074931
0.643870 0.737742 0.076142
0.675184 0.738953 0.077353
0.706497 0.740164 0.078564
0.737811 0.741375 0.079775
0.769125 0.742586 0.080986
0.800438 0.743797 0.082197
0.831752 0.745008 0.083408
0.863066 0.746219 0.084619
0.894379 0.747430 0.085830
0.925693 0.748641 0.087041
0.957007 0.749852 0.088252
0.982596 0.750838 0.089238
0.982999 0.750838 0.089238
0.057289 0.745551 0.056734
0.057692 0.745551 0.056146
0.083281 0.746537 0.056612
0.114595 0.747748 0.057823
0.145909 0.748959 0.059034
0.177222 0.750170 0.060245
0.208536 0.751381 0.061456
0.239850 0.752592 0.062667
0.271163 0.753803 0.063878
0.302477 0.755014 0.065089
0.333791 0.756225 0.066300
0.365105 0.757436 0.067511
0.396418 0.758647 0.068722
0.427732 0.759858 0.069933
0.459046 0.761069 0.071144
0.490359 0.762280 0.072355
0.521673 0.763491 0.073566
0.552987 0.764702 0.074777
0.584300 0.765912 0.075987
0.615614 0.767123 0.077198
0.646928 0.768334 0.078409
0.678242 0.769545 0.079620
0.709555 0.770756 0.080831
0.740869 0.771967 0.082042
0.772183 0.773178 0.083253
0.803496 0.774389 0.084464
0.834810 0.775600 0.085675
0.866124 0.776811 0.086886
0.897437 0.778022 0.088097
0.928751 0.779233 0.089308
0.960065 0.780444 0.090519
0.985654 0.781431 0.091506
0.986057 0.781431 0.091506
0.060347 0.776143 0.057893
0.060750 0.776143 0.057893
0.086339 0.777130 0.058880
0.117653 0.778341 0.060091
0.148967 0.779551 0.061301
0.180280 0.780762 0.062512
0.211594 0.781973 0.063723
0.242908 0.783184 0.064934
0.274221 0.784395 0.066145
0.305535 0.785606 0.067356
0.336849 0.786817 0.068567
0.368163 0.788028 0.069778
0.399476 0.789239 0.070989
0.430790 0.790450 0.072200
0.462104 0.791661 0.073411
0.493417 0.792872 0.074622
0.524731 0.794083 0.075833
0.556045 0.795294 0.077044
0.587358 0.796505 0.078255
0.618672 0.797716 0.079466
0.649986 0.798927 0.080677
0.681300 0.800138 0.081888
0.712613 0.801349 0.083099
0.743927 0.802560 0.084310
0.775241 0.803770 0.085520
0.806554 0.804981 0.086731
0.837868 0.806192 0.087942
