docs/luts/fresh-hong-kong-1.cube
TITLE "FreshLUTs??-??1"
LUT_3D_SIZE 9
DOMAIN_MIN 0.0 0.0 0.0
DOMAIN_MAX 1.0 1.0 1.0
0.000000 0.000000 0.036000
0.090094 0.000000 0.033174
0.247760 0.000000 0.030349
0.405425 0.000000 0.027523
0.563090 0.000000 0.024698
0.720755 0.000000 0.021872
0.878420 0.000000 0.019047
1.000000 0.000000 0.016221
1.000000 0.000000 0.013396
0.000000 0.094062 0.030453
0.080057 0.089757 0.027627
0.237722 0.082222 0.024802
0.395387 0.074687 0.021976
0.553052 0.067152 0.019151
0.710718 0.059617 0.016325
0.868383 0.052083 0.013500
1.000000 0.044548 0.010674
1.000000 0.040242 0.007848
0.000000 0.239098 0.024906
0.065793 0.234793 0.022080
0.223458 0.227258 0.019255
0.381123 0.219723 0.016429
0.538788 0.212188 0.013603
0.696453 0.204653 0.010778
0.854119 0.197119 0.007952
1.000000 0.189584 0.005127
1.000000 0.185278 0.002301
0.000000 0.384134 0.019359
0.051528 0.379829 0.016533
0.209194 0.372294 0.013707
0.366859 0.364759 0.010882
0.524524 0.357224 0.008056
0.682189 0.349689 0.005231
0.842040 0.342155 0.002405
1.000000 0.334620 0.000000
1.000000 0.330314 0.000000
0.000000 0.529170 0.013811
0.037264 0.524864 0.010986
0.194930 0.517330 0.008160
0.352595 0.509795 0.005335
0.512322 0.502260 0.002509
0.673338 0.494725 0.000000
0.834354 0.487190 0.000000
0.995370 0.479656 0.000000
1.000000 0.475350 0.000000
0.000000 0.674206 0.008264
0.023000 0.669900 0.005439
0.182604 0.662365 0.002613
0.343620 0.654831 0.000000
0.504636 0.647296 0.000000
0.665652 0.639761 0.000000
0.826669 0.632226 0.000000
0.987685 0.624691 0.000000
1.000000 0.620386 0.000000
0.001816 0.819242 0.002717
0.013903 0.814936 0.000000
0.174919 0.807401 0.000000
0.335935 0.799867 0.000000
0.496951 0.792332 0.000000
0.657967 0.784797 0.000000
0.818983 0.777262 0.000000
0.979999 0.769727 0.000000
1.000000 0.765422 0.000000
0.008394 0.964278 0.000000
0.011745 0.959972 0.000000
0.167233 0.952437 0.000000
0.328249 0.944902 0.000000
0.489265 0.937368 0.000000
0.650281 0.929833 0.000000
0.811297 0.922298 0.000000
0.972313 0.914763 0.000000
1.000000 0.910458 0.000000
0.014972 0.992000 0.000000
0.018323 0.992000 0.000000
0.163774 0.992000 0.000000
0.324790 0.992000 0.000000
0.485806 0.992000 0.000000
0.646822 0.992000 0.000000
0.807838 0.992000 0.000000
0.968854 0.992000 0.000000
1.000000 0.992000 0.000000
0.000000 0.000000 0.136377
0.088299 0.000000 0.129246
0.245964 0.000000 0.118886
0.403629 0.000000 0.108525
0.561295 0.000000 0.098165
0.718960 0.000000 0.087805
0.876625 0.000000 0.077444
1.000000 0.000000 0.067084
1.000000 0.000000 0.059953
0.000000 0.092267 0.120792
0.078261 0.087961 0.113661
0.235926 0.080426 0.103301
0.393592 0.072892 0.092940
0.551257 0.065357 0.082580
0.708922 0.057822 0.072220
0.866587 0.050287 0.061859
1.000000 0.042752 0.051499
1.000000 0.038447 0.044368
0.000000 0.237303 0.100981
0.063997 0.232997 0.093850
0.221662 0.225462 0.083490
0.379327 0.217927 0.073129
0.536993 0.210393 0.062769
0.694658 0.202858 0.052409
0.852323 0.195323 0.042048
1.000000 0.187788 0.031688
1.000000 0.183483 0.024557
0.000000 0.382339 0.081170
0.049733 0.378033 0.074039
0.207398 0.370498 0.063678
0.365063 0.362963 0.053318
0.522729 0.355429 0.042958
0.680506 0.347894 0.032597
0.841522 0.340359 0.022237
1.000000 0.332824 0.013374
1.000000 0.328519 0.009069
0.000000 0.527374 0.061359
0.035469 0.523069 0.054227
0.193134 0.515534 0.043867
0.350799 0.507999 0.033507
0.511804 0.500464 0.023146
0.672820 0.492930 0.014180
0.833836 0.485395 0.006645
0.994852 0.477860 0.000000
1.000000 0.473554 0.000000
0.000000 0.672410 0.041547
0.021205 0.668105 0.034416
0.182086 0.660570 0.024056
0.343102 0.653035 0.014985
0.504119 0.645500 0.007450
0.665135 0.637966 0.000000
0.826151 0.630431 0.000000
0.987167 0.622896 0.000000
1.000000 0.618590 0.000000
0.003093 0.817446 0.021736
0.013385 0.813141 0.015791
0.174401 0.805606 0.008256
0.335417 0.798071 0.000721
0.496433 0.790536 0.000000
0.657449 0.783002 0.000000
0.818465 0.775467 0.000000
0.979481 0.767932 0.000000
1.000000 0.763626 0.000000
0.009672 0.962482 0.005832
0.013022 0.958177 0.001527
0.166715 0.950642 0.000000
0.327731 0.943107 0.000000
0.488747 0.935572 0.000000
0.649763 0.928037 0.000000
0.810779 0.920503 0.000000
0.971795 0.912968 0.000000
1.000000 0.908662 0.000000
0.016250 0.992000 0.000000
0.019601 0.992000 0.000000
0.163256 0.992000 0.000000
0.324272 0.992000 0.000000
0.485288 0.992000 0.000000
0.646304 0.992000 0.000000
0.807320 0.992000 0.000000
0.968336 0.992000 0.000000
1.000000 0.992000 0.000000
0.000000 0.000000 0.294728
0.085477 0.000000 0.287597
0.243143 0.000000 0.277237
0.400808 0.000000 0.266877
0.558473 0.000000 0.256516
0.716138 0.000000 0.246156
0.873803 0.000000 0.235795
1.000000 0.000000 0.225435
1.000000 0.000000 0.218304
0.000000 0.089445 0.279144
0.075440 0.085140 0.272012
0.233105 0.077605 0.261652
0.390770 0.070070 0.251292
0.548435 0.062535 0.240931
0.706101 0.055000 0.230571
0.863766 0.047466 0.220211
1.000000 0.039931 0.209850
1.000000 0.035625 0.202719
0.000000 0.234481 0.259332
0.061176 0.230176 0.252201
0.218841 0.222641 0.241841
0.376506 0.215106 0.231480
0.534171 0.207571 0.221120
0.691836 0.200036 0.210760
0.849502 0.192502 0.200399
1.000000 0.184967 0.190039
1.000000 0.180661 0.182908
0.000000 0.379517 0.239521
0.046911 0.375211 0.232390
0.204577 0.367677 0.222030
0.362242 0.360142 0.211669
0.519907 0.352607 0.201309
0.678962 0.345072 0.190948
0.839978 0.337537 0.180588
1.000000 0.330003 0.172803
1.000000 0.325697 0.168497
0.000000 0.524553 0.219710
0.032647 0.520247 0.212579
0.190313 0.512713 0.202218
0.349244 0.505178 0.191858
0.510260 0.497643 0.181498
0.671276 0.490108 0.173608
0.832292 0.482573 0.166073
0.993308 0.475039 0.158539
1.000000 0.470733 0.154233
0.000000 0.669589 0.199899
0.019526 0.665283 0.192767
0.180542 0.657748 0.182407
0.341559 0.650214 0.174414
0.502575 0.642679 0.166879
0.663591 0.635144 0.159344
0.824607 0.627609 0.151809
0.985623 0.620074 0.144274
1.000000 0.615769 0.139969
0.004371 0.814625 0.180087
0.011841 0.810319 0.175219
0.172857 0.802784 0.167684
0.333873 0.795250 0.160150
0.494889 0.787715 0.152615
0.655905 0.780180 0.145080
0.816921 0.772645 0.137545
0.977937 0.765110 0.130010
1.000000 0.760805 0.125705
0.010949 0.959661 0.165261
0.014300 0.955355 0.160955
0.165171 0.947820 0.153420
0.326187 0.940285 0.145886
0.487203 0.932751 0.138351
0.648219 0.925216 0.130816
0.809235 0.917681 0.123281
0.970251 0.910146 0.115746
1.000000 0.905841 0.111441
0.017528 0.992000 0.155223
0.020878 0.992000 0.150917
0.161712 0.992000 0.143383
0.322728 0.992000 0.135848
0.483744 0.992000 0.128313
0.644760 0.992000 0.120778
0.805776 0.992000 0.113243
0.966792 0.992000 0.105709
1.000000 0.992000 0.101403
0.000000 0.000000 0.453080
0.082656 0.000000 0.445948
0.240321 0.000000 0.435588
0.397986 0.000000 0.425228
0.555651 0.000000 0.414867
0.713317 0.000000 0.404507
0.870982 0.000000 0.394147
1.000000 0.000000 0.383786
1.000000 0.000000 0.376655
0.000000 0.086624 0.437495
0.072618 0.082318 0.430364
0.230283 0.074783 0.420003
0.387949 0.067249 0.409643
0.545614 0.059714 0.399283
0.703279 0.052179 0.388922
0.860944 0.044644 0.378562
1.000000 0.037109 0.368202
1.000000 0.032804 0.361070
0.000000 0.231660 0.417683
0.058354 0.227354 0.410552
0.216019 0.219819 0.400192
0.373684 0.212284 0.389832
0.531350 0.204750 0.379471
0.689015 0.197215 0.369111
0.846680 0.189680 0.358751
1.000000 0.182145 0.348390
1.000000 0.177840 0.342190
0.000000 0.376696 0.397872
0.044090 0.372390 0.390741
0.201755 0.364855 0.380381
0.359420 0.357320 0.370020
0.517086 0.349786 0.359660
0.677418 0.342251 0.349300
0.838434 0.334716 0.339766
0.999450 0.327181 0.332231
1.000000 0.322876 0.327926
0.000000 0.521732 0.378061
0.029826 0.517426 0.370930
0.187491 0.509891 0.360569
0.347700 0.502356 0.350209
0.508716 0.494822 0.340572
0.669732 0.487287 0.333037
0.830748 0.479752 0.325502
0.991765 0.472217 0.317967
1.000000 0.467911 0.313661
0.000000 0.666767 0.358250
0.017982 0.662462 0.351119
0.178999 0.654927 0.341377
0.340015 0.647392 0.333842
0.501031 0.639857 0.326307
0.662047 0.632323 0.318773
0.823063 0.624788 0.311238
0.984079 0.617253 0.303703
1.000000 0.612947 0.299397
0.005648 0.811803 0.338953
0.010297 0.807498 0.334648
0.171313 0.799963 0.327113
0.332329 0.792428 0.319578
0.493345 0.784893 0.312043
0.654361 0.777359 0.304509
0.815377 0.769824 0.296974
0.976393 0.762289 0.289439
1.000000 0.757983 0.285133
0.012227 0.956839 0.324689
0.015578 0.952534 0.320384
0.163627 0.944999 0.312849
0.324643 0.937464 0.305314
0.485659 0.929929 0.297779
0.646675 0.922394 0.290244
0.807691 0.914860 0.282710
0.968708 0.907325 0.275175
1.000000 0.903019 0.270869
0.018805 0.992000 0.314651
0.022156 0.992000 0.310346
0.160168 0.992000 0.302811
0.321184 0.992000 0.295276
0.482200 0.992000 0.287742
0.643216 0.992000 0.280207
0.804232 0.992000 0.272672
0.965248 0.992000 0.265137
1.000000 0.992000 0.260832
0.000000 0.000000 0.611431
0.079834 0.000000 0.604300
0.237500 0.000000 0.593939
0.395165 0.000000 0.583579
0.552830 0.000000 0.573219
0.710495 0.000000 0.562858
0.868160 0.000000 0.552498
1.000000 0.000000 0.542138
1.000000 0.000000 0.535006
0.000000 0.083802 0.595846
0.069797 0.079497 0.588715
0.227462 0.071962 0.578354
0.385127 0.064427 0.567994
0.542792 0.056892 0.557634
0.700457 0.049357 0.547273
0.858123 0.041823 0.536913
1.000000 0.034288 0.526553
1.000000 0.029982 0.519422
0.000000 0.228838 0.576035
0.055533 0.224533 0.568904
0.213198 0.216998 0.558543
0.370863 0.209463 0.548183
0.528528 0.201928 0.537822
0.686193 0.194393 0.527462
0.844576 0.186859 0.517102
1.000000 0.179324 0.506741
1.000000 0.175018 0.501618
0.000000 0.373874 0.556223
0.041268 0.369568 0.549092
0.198934 0.362034 0.538732
0.356599 0.354499 0.528372
0.514858 0.346964 0.518011
0.675874 0.339429 0.507651
0.836890 0.331894 0.499194
0.997906 0.324360 0.491660
1.000000 0.320054 0.487354
0.000000 0.518910 0.536412
0.027004 0.514604 0.529281
0.185140 0.507070 0.518921
0.346156 0.499535 0.508560
0.507172 0.492000 0.500000
0.668188 0.484465 0.492465
0.829205 0.476930 0.484930
0.990221 0.469396 0.477396
1.000000 0.465090 0.473090
0.000347 0.663946 0.516601
0.016439 0.659640 0.509470
0.177455 0.652106 0.500806
0.338471 0.644571 0.493271
0.499487 0.637036 0.485736
0.660503 0.629501 0.478201
0.821519 0.621966 0.470666
0.982535 0.614432 0.463132
1.000000 0.610126 0.458826
0.006926 0.808982 0.498382
0.010277 0.804676 0.494076
0.169769 0.797141 0.486541
0.330785 0.789607 0.479007
0.491801 0.782072 0.471472
0.652817 0.774537 0.463937
0.813833 0.767002 0.456402
0.974849 0.759467 0.448867
1.000000 0.755162 0.444562
0.013504 0.954018 0.484118
0.016855 0.949712 0.479812
0.162083 0.942177 0.472277
0.323099 0.934643 0.464743
0.484115 0.927108 0.457208
0.645132 0.919573 0.449673
0.806148 0.912038 0.442138
0.967164 0.904503 0.434603
1.000000 0.900198 0.430298
0.020083 0.992000 0.474080
0.023434 0.992000 0.469774
0.158624 0.992000 0.462240
0.319640 0.992000 0.454705
0.480656 0.992000 0.447170
0.641672 0.992000 0.439635
0.802688 0.992000 0.432100
0.963704 0.992000 0.424566
1.000000 0.992000 0.420260
0.000000 0.000000 0.769782
0.077013 0.000000 0.762651
0.234678 0.000000 0.752290
0.392343 0.000000 0.741930
0.550008 0.000000 0.731570
0.707674 0.000000 0.721209
0.865339 0.000000 0.710849
1.000000 0.000000 0.700489
1.000000 0.000000 0.693358
0.000000 0.080981 0.754197
0.066975 0.076675 0.747066
0.224640 0.069140 0.736706
0.382306 0.061606 0.726345
0.539971 0.054071 0.715985
0.697636 0.046536 0.705625
0.855301 0.039001 0.695264
1.000000 0.031466 0.684904
1.000000 0.027161 0.677773
0.000000 0.226017 0.734386
0.052711 0.221711 0.727255
0.210376 0.214176 0.716894
0.368041 0.206641 0.706534
0.525707 0.199107 0.696174
0.683372 0.191572 0.685813
0.843032 0.184037 0.675453
1.000000 0.176502 0.665352
1.000000 0.172197 0.661047
0.000000 0.371053 0.714575
0.038447 0.366747 0.707443
0.196112 0.359212 0.697083
0.353777 0.351677 0.686723
0.513314 0.344143 0.676362
0.674330 0.336608 0.666158
0.835346 0.329073 0.658623
0.996362 0.321538 0.651088
1.000000 0.317233 0.646783
0.000000 0.516088 0.694763
0.024183 0.511783 0.687632
0.183596 0.504248 0.677272
0.344612 0.496713 0.666963
0.505629 0.489179 0.659428
0.666645 0.481644 0.651894
0.827661 0.474109 0.644359
0.988677 0.466574 0.636824
1.000000 0.462268 0.632518
0.001625 0.661124 0.674952
0.014895 0.656819 0.667821
0.175911 0.649284 0.660234
0.336927 0.641749 0.652699
0.497943 0.634214 0.645164
0.658959 0.626680 0.637630
0.819975 0.619145 0.630095
0.980991 0.611610 0.622560
1.000000 0.607304 0.618254
0.008203 0.806160 0.657810
0.011554 0.801855 0.653505
0.168225 0.794320 0.645970
0.329241 0.786785 0.638435
0.490257 0.779250 0.630900
0.651273 0.771715 0.623365
0.812289 0.764181 0.615831
0.973305 0.756646 0.608296
1.000000 0.752340 0.603990
0.014782 0.951196 0.643546
0.018133 0.946891 0.639241
0.160539 0.939356 0.631706
0.321555 0.931821 0.624171
0.482572 0.924286 0.616636
0.643588 0.916751 0.609101
0.804604 0.909217 0.601567
0.965620 0.901682 0.594032
1.000000 0.897376 0.589726
0.021360 0.992000 0.633508
0.024711 0.992000 0.629203
0.157080 0.992000 0.621668
0.318096 0.992000 0.614133
0.479112 0.992000 0.606598
0.640128 0.992000 0.599064
0.801144 0.992000 0.591529
0.962160 0.992000 0.583994
1.000000 0.992000 0.579689
0.000000 0.000000 0.928133
0.074191 0.000000 0.921002
0.231857 0.000000 0.910642
0.389522 0.000000 0.900281
0.547187 0.000000 0.889921
0.704852 0.000000 0.879561
0.862517 0.000000 0.869200
1.000000 0.000000 0.858840
1.000000 0.000000 0.851709
0.000000 0.078159 0.912548
0.064154 0.073854 0.905417
0.221819 0.066319 0.895057
0.379484 0.058784 0.884696
0.537149 0.051249 0.874336
0.694815 0.043714 0.863976
0.852480 0.036180 0.853615
1.000000 0.028645 0.843255
1.000000 0.024339 0.836124
0.000000 0.223195 0.892737
0.049890 0.218890 0.885606
0.207555 0.211355 0.875246
0.365220 0.203820 0.864885
0.522885 0.196285 0.854525
0.680550 0.188750 0.844165
0.841488 0.181216 0.833804
1.000000 0.173681 0.824781
1.000000 0.169375 0.820475
0.000000 0.368231 0.872926
0.035625 0.363926 0.865795
0.193291 0.356391 0.855434
0.350956 0.348856 0.845074
0.511770 0.341321 0.834714
0.672786 0.333786 0.825586
0.833802 0.326252 0.818051
0.994818 0.318717 0.810517
1.000000 0.314411 0.806211
0.000000 0.513267 0.853115
0.021361 0.508961 0.845983
0.182052 0.501427 0.835623
0.343069 0.493892 0.826392
0.504085 0.486357 0.818857
0.665101 0.478822 0.811322
0.826117 0.471287 0.803787
0.987133 0.463753 0.796253
1.000000 0.459447 0.791947
0.002903 0.658303 0.833303
0.013351 0.653997 0.827197
0.174367 0.646462 0.819662
0.335383 0.638928 0.812128
0.496399 0.631393 0.804593
0.657415 0.623858 0.797058
0.818431 0.616323 0.789523
0.979447 0.608788 0.781988
1.000000 0.604483 0.777683
0.009481 0.803339 0.817239
0.012832 0.799033 0.812933
0.166681 0.791498 0.805398
0.327697 0.783964 0.797864
0.488713 0.776429 0.790329
0.649729 0.768894 0.782794
0.810745 0.761359 0.775259
0.971761 0.753824 0.767724
1.000000 0.749519 0.763419
0.016059 0.948375 0.802975
0.019410 0.944069 0.798669
0.158996 0.936534 0.791134
0.320012 0.928999 0.783600
0.481028 0.921465 0.776065
0.642044 0.913930 0.768530
0.803060 0.906395 0.760995
0.964076 0.898860 0.753460
1.000000 0.894555 0.749155
0.022638 0.992000 0.792937
0.025989 0.992000 0.788631
0.155536 0.992000 0.781097
0.316552 0.992000 0.773562
0.477568 0.992000 0.766027
0.638584 0.992000 0.758492
0.799601 0.992000 0.750957
0.960617 0.992000 0.743423
1.000000 0.992000 0.739117
0.000000 0.000000 1.000000
0.071370 0.000000 1.000000
0.229035 0.000000 1.000000
0.386700 0.000000 1.000000
0.544366 0.000000 1.000000
0.702031 0.000000 1.000000
0.859696 0.000000 1.000000
1.000000 0.000000 1.000000
1.000000 0.000000 1.000000
0.000000 0.075338 1.000000
0.061332 0.071032 1.000000
0.218997 0.063497 1.000000
0.376663 0.055963 1.000000
0.534328 0.048428 1.000000
0.691993 0.040893 1.000000
0.849658 0.033358 1.000000
1.000000 0.025823 1.000000
1.000000 0.021518 0.994475
0.000000 0.220374 1.000000
0.047068 0.216068 1.000000
0.204733 0.208533 1.000000
0.362398 0.200998 1.000000
0.520064 0.193464 1.000000
0.678928 0.185929 1.000000
0.839944 0.178394 0.992155
1.000000 0.170859 0.984209
1.000000 0.166554 0.979904
0.000000 0.365410 1.000000
0.032804 0.361104 1.000000
0.190469 0.353569 1.000000
0.349210 0.346034 1.000000
0.510226 0.338500 0.993065
0.671242 0.330965 0.985015
0.832258 0.323430 0.977480
0.993275 0.315895 0.969945
1.000000 0.311590 0.965640
0.000000 0.510445 1.000000
0.019492 0.506140 1.000000
0.180509 0.498605 0.993974
0.341525 0.491070 0.985820
0.502541 0.483536 0.978286
0.663557 0.476001 0.970751
0.824573 0.468466 0.963216
0.985589 0.460931 0.955681
1.000000 0.456626 0.951376
0.004180 0.655481 0.991655
0.011807 0.651176 0.986626
0.172823 0.643641 0.979091
0.333839 0.636106 0.971556
0.494855 0.628571 0.964021
0.655871 0.621037 0.956487
0.816887 0.613502 0.948952
0.977903 0.605967 0.941417
1.000000 0.601661 0.937111
0.010759 0.800517 0.976667
0.014109 0.796212 0.972362
0.165137 0.788677 0.964827
0.326153 0.781142 0.957292
0.487169 0.773607 0.949757
0.648185 0.766073 0.942223
0.809201 0.758538 0.934688
0.970218 0.751003 0.927153
1.000000 0.746697 0.922847
0.017337 0.945553 0.962403
0.020688 0.941248 0.958098
0.157452 0.933713 0.950563
0.318468 0.926178 0.943028
0.479484 0.918643 0.935493
0.640500 0.911108 0.927958
0.801516 0.903574 0.920424
0.962532 0.896039 0.912889
1.000000 0.891733 0.908583
0.023916 0.992000 0.952366
0.027266 0.992000 0.948060
0.153992 0.992000 0.940525
0.315008 0.992000 0.932990
0.476024 0.992000 0.925456
0.637041 0.992000 0.917921
0.798057 0.992000 0.910386
0.959073 0.992000 0.902851
1.000000 0.992000 0.898546
0.000000 0.000000 1.000000
0.069574 0.000000 1.000000
0.227240 0.000000 1.000000
0.384905 0.000000 1.000000
0.542570 0.000000 1.000000
0.700235 0.000000 1.000000
0.857900 0.000000 1.000000
1.000000 0.000000 1.000000
1.000000 0.000000 1.000000
0.000000 0.073542 1.000000
0.059537 0.069237 1.000000
0.217202 0.061702 1.000000
0.374867 0.054167 1.000000
0.532532 0.046632 1.000000
0.690198 0.039098 1.000000
0.847863 0.031563 1.000000
1.000000 0.024028 1.000000
1.000000 0.019722 1.000000
0.000000 0.218578 1.000000
0.045273 0.214273 1.000000
0.202938 0.206738 1.000000
0.360603 0.199203 1.000000
0.518268 0.191668 1.000000
0.678410 0.184133 1.000000
0.839426 0.176599 1.000000
1.000000 0.169064 1.000000
1.000000 0.164758 1.000000
0.000000 0.363614 1.000000
0.031008 0.359308 1.000000
0.188674 0.351774 1.000000
0.348692 0.344239 1.000000
0.509708 0.336704 1.000000
0.670724 0.329169 1.000000
0.831741 0.321635 1.000000
0.992757 0.314100 1.000000
1.000000 0.309794 1.000000
0.000000 0.508650 1.000000
0.018975 0.504344 1.000000
0.179991 0.496810 1.000000
0.341007 0.489275 1.000000
0.502023 0.481740 1.000000
0.663039 0.474205 1.000000
0.824055 0.466670 1.000000
0.985071 0.459136 1.000000
1.000000 0.454830 1.000000
0.005458 0.653686 1.000000
0.011289 0.649380 1.000000
0.172305 0.641845 1.000000
0.333321 0.634311 1.000000
0.494337 0.626776 1.000000
0.655353 0.619241 1.000000
0.816369 0.611706 1.000000
0.977385 0.604172 1.000000
1.000000 0.599866 1.000000
0.012036 0.798722 1.000000
0.015387 0.794416 1.000000
0.164619 0.786881 1.000000
0.325635 0.779347 1.000000
0.486651 0.771812 1.000000
0.647668 0.764277 1.000000
0.808684 0.756742 1.000000
0.969700 0.749207 1.000000
1.000000 0.744902 1.000000
0.018615 0.943758 1.000000
0.021966 0.939452 1.000000
0.156934 0.931917 1.000000
0.317950 0.924382 1.000000
0.478966 0.916848 1.000000
0.639982 0.909313 1.000000
0.800998 0.901778 1.000000
0.962014 0.894243 1.000000
1.000000 0.889938 1.000000
0.025193 0.992000 1.000000
0.028544 0.992000 1.000000
0.153474 0.992000 1.000000
0.314490 0.992000 1.000000
0.475507 0.992000 1.000000
0.636523 0.992000 1.000000
0.797539 0.992000 1.000000
0.958555 0.992000 1.000000
1.000000 0.992000 1.000000
