docs/luts/fresh-wooden-gold.cube
TITLE "FreshLUTs??-????"
LUT_3D_SIZE 5
DOMAIN_MIN 0.0 0.0 0.0
DOMAIN_MAX 1.0 1.0 1.0
0.021296 0.010246 0.000000
0.244846 0.012996 0.000000
0.507276 0.016226 0.000000
0.769705 0.019455 0.000866
0.993256 0.022206 0.008954
0.026931 0.246281 0.000000
0.250482 0.249032 0.000000
0.512911 0.252261 0.008413
0.775340 0.255490 0.016979
1.000000 0.259750 0.025067
0.033036 0.501986 0.008342
0.256586 0.504736 0.016429
0.521375 0.509314 0.024996
0.791473 0.516925 0.030595
1.000000 0.524058 0.033346
0.041218 0.758877 0.024924
0.272437 0.766010 0.030241
0.542534 0.773621 0.033470
0.812632 0.781232 0.036700
1.000000 0.788365 0.039450
0.061907 1.000000 0.033126
0.293127 1.000000 0.035876
0.563224 1.000000 0.039106
0.833322 1.000000 0.042335
1.000000 1.000000 0.045086
0.022413 0.011363 0.213998
0.245964 0.014114 0.222086
0.508393 0.017343 0.230652
0.770822 0.020572 0.239218
0.994373 0.023323 0.247306
0.028048 0.247398 0.230111
0.251599 0.250149 0.238199
0.514028 0.253378 0.246765
0.776457 0.256607 0.255332
1.000000 0.262538 0.263419
0.034153 0.503103 0.246694
0.257704 0.505854 0.254782
0.525416 0.512102 0.263348
0.795514 0.519713 0.266912
1.000000 0.526846 0.269663
0.045259 0.761665 0.263276
0.276478 0.768798 0.266558
0.546575 0.776409 0.269788
0.816673 0.784020 0.273017
1.000000 0.791153 0.275768
0.065948 1.000000 0.269443
0.297168 1.000000 0.272194
0.567265 1.000000 0.275423
0.837363 1.000000 0.278652
1.000000 1.000000 0.281403
0.023530 0.012480 0.452350
0.247081 0.015231 0.460438
0.509510 0.018460 0.469004
0.771939 0.021689 0.477570
0.995490 0.024440 0.485658
0.029165 0.248515 0.468463
0.252716 0.251266 0.476551
0.515145 0.254495 0.485117
0.778395 0.258193 0.493684
1.000000 0.265326 0.499875
0.035270 0.504220 0.485046
0.259359 0.507279 0.493134
0.529457 0.514890 0.500000
0.799554 0.522501 0.503229
1.000000 0.529633 0.505980
0.049300 0.764453 0.500125
0.280519 0.771586 0.502876
0.550616 0.779197 0.506105
0.820714 0.786808 0.509334
1.000000 0.793941 0.512085
0.069989 1.000000 0.505760
0.301208 1.000000 0.508511
0.571306 1.000000 0.511740
0.841403 1.000000 0.514969
1.000000 1.000000 0.517720
0.024647 0.013597 0.690702
0.248198 0.016348 0.698790
0.510627 0.019577 0.707356
0.773056 0.022806 0.715923
0.996607 0.025557 0.724011
0.030282 0.249632 0.706815
0.253833 0.252383 0.714903
0.516262 0.255612 0.723469
0.782436 0.260981 0.732036
1.000000 0.268114 0.736192
0.036387 0.505337 0.723398
0.263400 0.510066 0.731486
0.533498 0.517678 0.736317
0.803595 0.525289 0.739546
1.000000 0.532421 0.742297
0.053340 0.767241 0.736442
0.284560 0.774374 0.739193
0.554657 0.781985 0.742422
0.824755 0.789596 0.745651
1.000000 0.796729 0.748402
0.074030 1.000000 0.742077
0.305249 1.000000 0.744828
0.575347 1.000000 0.748057
0.845444 1.000000 0.751286
1.000000 1.000000 0.754037
0.025764 0.014714 0.929054
0.249315 0.017465 0.937142
0.511744 0.020694 0.945708
0.774174 0.023924 0.954275
0.997724 0.026674 0.962363
0.031400 0.250750 0.945167
0.254950 0.253500 0.953255
0.517380 0.256730 0.961821
0.786477 0.263769 0.969759
1.000000 0.270902 0.972510
0.037504 0.506454 0.961750
0.267441 0.512854 0.969405
0.537539 0.520465 0.972634
0.807636 0.528077 0.975864
1.000000 0.535209 0.978614
0.057381 0.770029 0.972759
0.288601 0.777162 0.975510
0.558698 0.784773 0.978739
0.828796 0.792384 0.981968
1.000000 0.799517 0.984719
0.078071 1.000000 0.978394
0.309290 1.000000 0.981145
0.579388 1.000000 0.984374
0.849485 1.000000 0.987604
1.000000 1.000000 0.990354
