docs/luts/fresh-warm-correction.cube
TITLE "FreshLUTs??-????"
LUT_3D_SIZE 33
DOMAIN_MIN 0.0 0.0 0.0
DOMAIN_MAX 1.0 1.0 1.0
0.022761 0.011711 0.000000
0.039708 0.011814 0.000000
0.071444 0.012007 0.000000
0.103180 0.012199 0.000000
0.134917 0.012392 0.000000
0.166653 0.012584 0.000000
0.198389 0.012777 0.000000
0.230125 0.012969 0.000000
0.261862 0.013162 0.000000
0.293598 0.013354 0.000000
0.325334 0.013547 0.000000
0.357070 0.013739 0.000000
0.388806 0.013931 0.000000
0.420543 0.014124 0.000000
0.452279 0.014316 0.000000
0.484015 0.014509 0.000000
0.515751 0.014701 0.000000
0.547488 0.014894 0.000000
0.579224 0.015086 0.000000
0.610960 0.015279 0.000000
0.642696 0.015471 0.000000
0.674433 0.015664 0.000000
0.706169 0.015856 0.000000
0.737905 0.016049 0.000000
0.769641 0.016241 0.000000
0.801377 0.016434 0.000000
0.833114 0.016626 0.000000
0.864850 0.016819 0.000000
0.896586 0.017011 0.000000
0.928322 0.017204 0.000000
0.960059 0.017396 0.000000
0.991795 0.017589 0.000000
1.000000 0.017691 0.000000
0.023018 0.033406 0.000000
0.039965 0.033508 0.000000
0.071701 0.033701 0.000000
0.103437 0.033893 0.000000
0.135173 0.034086 0.000000
0.166910 0.034278 0.000000
0.198646 0.034471 0.000000
0.230382 0.034663 0.000000
0.262118 0.034856 0.000000
0.293855 0.035048 0.000000
0.325591 0.035241 0.000000
0.357327 0.035433 0.000000
0.389063 0.035626 0.000000
0.420800 0.035818 0.000000
0.452536 0.036011 0.000000
0.484272 0.036203 0.000000
0.516008 0.036396 0.000000
0.547744 0.036588 0.000000
0.579481 0.036781 0.000000
0.611217 0.036973 0.000000
0.642953 0.037166 0.000000
0.674689 0.037358 0.000000
0.706426 0.037551 0.000000
0.738162 0.037743 0.000000
0.769898 0.037936 0.000000
0.801634 0.038128 0.000000
0.833371 0.038321 0.000000
0.865107 0.038513 0.000000
0.896843 0.038705 0.000000
0.928579 0.038898 0.000000
0.960315 0.039090 0.000000
0.992052 0.039283 0.000000
1.000000 0.039386 0.000000
0.023392 0.065017 0.000000
0.040339 0.065120 0.000000
0.072075 0.065313 0.000000
0.103811 0.065505 0.000000
0.135548 0.065698 0.000000
0.167284 0.065890 0.000000
0.199020 0.066083 0.000000
0.230756 0.066275 0.000000
0.262493 0.066468 0.000000
0.294229 0.066660 0.000000
0.325965 0.066853 0.000000
0.357701 0.067045 0.000000
0.389437 0.067237 0.000000
0.421174 0.067430 0.000000
0.452910 0.067622 0.000000
0.484646 0.067815 0.000000
0.516382 0.068007 0.000000
0.548119 0.068200 0.000000
0.579855 0.068392 0.000000
0.611591 0.068585 0.000000
0.643327 0.068777 0.000000
0.675064 0.068970 0.000000
0.706800 0.069162 0.000000
0.738536 0.069355 0.000000
0.770272 0.069547 0.000000
0.802009 0.069740 0.000000
0.833745 0.069932 0.000000
0.865481 0.070125 0.000000
0.897217 0.070317 0.000000
0.928953 0.070510 0.000000
0.960690 0.070702 0.000000
0.992426 0.070895 0.000000
1.000000 0.070997 0.000000
0.023767 0.096629 0.000000
0.040713 0.096732 0.000000
0.072449 0.096924 0.000000
0.104186 0.097117 0.000000
0.135922 0.097309 0.000000
0.167658 0.097502 0.000000
0.199394 0.097694 0.000000
0.231131 0.097887 0.000000
0.262867 0.098079 0.000000
0.294603 0.098272 0.000000
0.326339 0.098464 0.000000
0.358075 0.098657 0.000000
0.389812 0.098849 0.000000
0.421548 0.099042 0.000000
0.453284 0.099234 0.000000
0.485020 0.099427 0.000000
0.516757 0.099619 0.000000
0.548493 0.099812 0.000000
0.580229 0.100004 0.000000
0.611965 0.100197 0.000000
0.643702 0.100389 0.000000
0.675438 0.100582 0.000000
0.707174 0.100774 0.000000
0.738910 0.100967 0.000000
0.770646 0.101159 0.000000
0.802383 0.101351 0.000000
0.834119 0.101544 0.000000
0.865855 0.101736 0.000000
0.897591 0.101929 0.000000
0.929328 0.102121 0.000000
0.961064 0.102314 0.000000
0.992800 0.102506 0.000094
1.000000 0.102609 0.000197
0.024141 0.128241 0.000000
0.041087 0.128344 0.000000
0.072824 0.128536 0.000000
0.104560 0.128729 0.000000
0.136296 0.128921 0.000000
0.168032 0.129114 0.000000
0.199769 0.129306 0.000000
0.231505 0.129499 0.000000
0.263241 0.129691 0.000000
0.294977 0.129883 0.000000
0.326713 0.130076 0.000000
0.358450 0.130268 0.000000
0.390186 0.130461 0.000000
0.421922 0.130653 0.000000
0.453658 0.130846 0.000000
0.485395 0.131038 0.000000
0.517131 0.131231 0.000000
0.548867 0.131423 0.000000
0.580603 0.131616 0.000000
0.612340 0.131808 0.000000
0.644076 0.132001 0.000000
0.675812 0.132193 0.000000
0.707548 0.132386 0.000000
0.739284 0.132578 0.000000
0.771021 0.132771 0.000000
0.802757 0.132963 0.000000
0.834493 0.133156 0.000000
0.866229 0.133348 0.000000
0.897966 0.133541 0.000000
0.929702 0.133733 0.000083
0.961438 0.133926 0.000276
0.993174 0.134118 0.000468
1.000000 0.134221 0.000571
0.024515 0.159853 0.000000
0.041462 0.159955 0.000000
0.073198 0.160148 0.000000
0.104934 0.160340 0.000000
0.136670 0.160533 0.000000
0.168407 0.160725 0.000000
0.200143 0.160918 0.000000
0.231879 0.161110 0.000000
0.263615 0.161303 0.000000
0.295351 0.161495 0.000000
0.327088 0.161688 0.000000
0.358824 0.161880 0.000000
0.390560 0.162073 0.000000
0.422296 0.162265 0.000000
0.454033 0.162458 0.000000
0.485769 0.162650 0.000000
0.517505 0.162843 0.000000
0.549241 0.163035 0.000000
0.580978 0.163228 0.000000
0.612714 0.163420 0.000000
0.644450 0.163612 0.000000
0.676186 0.163805 0.000000
0.707922 0.163997 0.000000
0.739659 0.164190 0.000000
0.771395 0.164382 0.000000
0.803131 0.164575 0.000000
0.834867 0.164767 0.000000
0.866604 0.164960 0.000072
0.898340 0.165152 0.000265
0.930076 0.165345 0.000457
0.961812 0.165537 0.000650
0.993549 0.165730 0.000842
1.000000 0.165833 0.000945
0.024889 0.191464 0.000000
0.041836 0.191567 0.000000
0.073572 0.191760 0.000000
0.105308 0.191952 0.000000
0.137045 0.192144 0.000000
0.168781 0.192337 0.000000
0.200517 0.192529 0.000000
0.232253 0.192722 0.000000
0.263989 0.192914 0.000000
0.295726 0.193107 0.000000
0.327462 0.193299 0.000000
0.359198 0.193492 0.000000
0.390934 0.193684 0.000000
0.422671 0.193877 0.000000
0.454407 0.194069 0.000000
0.486143 0.194262 0.000000
0.517879 0.194454 0.000000
0.549616 0.194647 0.000000
0.581352 0.194839 0.000000
0.613088 0.195032 0.000000
0.644824 0.195224 0.000000
0.676560 0.195417 0.000000
0.708297 0.195609 0.000000
0.740033 0.195802 0.000000
0.771769 0.195994 0.000000
0.803505 0.196187 0.000062
0.835242 0.196379 0.000254
0.866978 0.196572 0.000447
0.898714 0.196764 0.000639
0.930450 0.196957 0.000832
0.962187 0.197149 0.001024
0.993923 0.197341 0.001216
1.000000 0.197444 0.001319
0.025263 0.223076 0.000000
0.042210 0.223179 0.000000
0.073946 0.223371 0.000000
0.105682 0.223564 0.000000
0.137419 0.223756 0.000000
0.169155 0.223949 0.000000
0.200891 0.224141 0.000000
0.232627 0.224334 0.000000
0.264364 0.224526 0.000000
0.296100 0.224719 0.000000
0.327836 0.224911 0.000000
0.359572 0.225104 0.000000
0.391309 0.225296 0.000000
0.423045 0.225489 0.000000
0.454781 0.225681 0.000000
0.486517 0.225874 0.000000
0.518253 0.226066 0.000000
0.549990 0.226258 0.000000
0.581726 0.226451 0.000000
0.613462 0.226643 0.000000
0.645198 0.226836 0.000000
0.676935 0.227028 0.000000
0.708671 0.227221 0.000000
0.740407 0.227413 0.000051
0.772143 0.227606 0.000243
0.803880 0.227798 0.000436
0.835616 0.227991 0.000628
0.867352 0.228183 0.000821
0.899088 0.228376 0.001013
0.930824 0.228568 0.001206
0.962561 0.228761 0.001398
0.994297 0.228953 0.001591
1.000000 0.229056 0.001693
0.025638 0.254688 0.000000
0.042584 0.254790 0.000000
0.074320 0.254983 0.000000
0.106057 0.255175 0.000000
0.137793 0.255368 0.000000
0.169529 0.255560 0.000000
0.201265 0.255753 0.000000
0.233002 0.255945 0.000000
0.264738 0.256138 0.000000
0.296474 0.256330 0.000000
0.328210 0.256523 0.000000
0.359947 0.256715 0.000000
0.391683 0.256908 0.000000
0.423419 0.257100 0.000000
0.455155 0.257293 0.000000
0.486891 0.257485 0.000000
0.518628 0.257678 0.000000
0.550364 0.257870 0.000000
0.582100 0.258063 0.000000
0.613836 0.258255 0.000000
0.645573 0.258448 0.000000
0.677309 0.258640 0.000040
0.709045 0.258833 0.000233
0.740781 0.259025 0.000425
0.772518 0.259218 0.000618
0.804254 0.259410 0.000810
0.835990 0.259603 0.001003
0.867726 0.259795 0.001195
0.899462 0.259987 0.001387
0.931199 0.260180 0.001580
0.962935 0.260372 0.001772
0.994671 0.260565 0.001965
1.000000 0.260668 0.002068
0.026012 0.286299 0.000000
0.042958 0.286402 0.000000
0.074695 0.286595 0.000000
0.106431 0.286787 0.000000
0.138167 0.286980 0.000000
0.169903 0.287172 0.000000
0.201640 0.287365 0.000000
0.233376 0.287557 0.000000
0.265112 0.287750 0.000000
0.296848 0.287942 0.000000
0.328585 0.288135 0.000000
0.360321 0.288327 0.000000
0.392057 0.288519 0.000000
0.423793 0.288712 0.000000
0.455529 0.288904 0.000000
0.487266 0.289097 0.000000
0.519002 0.289289 0.000000
0.550738 0.289482 0.000000
0.582474 0.289674 0.000000
0.614211 0.289867 0.000029
0.645947 0.290059 0.000222
0.677683 0.290252 0.000414
0.709419 0.290444 0.000607
0.741156 0.290637 0.000799
0.772892 0.290829 0.000992
0.804628 0.291022 0.001184
0.836364 0.291214 0.001377
0.868100 0.291407 0.001569
0.899837 0.291599 0.001762
0.931573 0.291792 0.001954
0.963309 0.291984 0.002147
0.995045 0.292177 0.002339
1.000000 0.292279 0.002442
0.026386 0.317911 0.000000
0.043333 0.318014 0.000000
0.075069 0.318206 0.000000
0.106805 0.318399 0.000000
0.138541 0.318591 0.000000
0.170278 0.318784 0.000000
0.202014 0.318976 0.000000
0.233750 0.319169 0.000000
0.265486 0.319361 0.000000
0.297223 0.319554 0.000000
0.328959 0.319746 0.000000
0.360695 0.319939 0.000000
0.392431 0.320131 0.000000
0.424167 0.320324 0.000000
0.455904 0.320516 0.000000
0.487640 0.320709 0.000000
0.519376 0.320901 0.000000
0.551112 0.321094 0.000019
0.582849 0.321286 0.000211
0.614585 0.321479 0.000404
0.646321 0.321671 0.000596
0.678057 0.321864 0.000789
0.709794 0.322056 0.000981
0.741530 0.322248 0.001173
0.773266 0.322441 0.001366
0.805002 0.322633 0.001558
0.836738 0.322826 0.001751
0.868475 0.323018 0.001943
0.900211 0.323211 0.002136
0.931947 0.323403 0.002328
0.963683 0.323596 0.002521
0.995420 0.323788 0.002713
1.000000 0.323891 0.002816
0.026760 0.349523 0.000000
0.043707 0.349626 0.000000
0.075443 0.349818 0.000000
0.107179 0.350011 0.000000
0.138916 0.350203 0.000000
0.170652 0.350396 0.000000
0.202388 0.350588 0.000000
0.234124 0.350781 0.000000
0.265860 0.350973 0.000000
0.297597 0.351165 0.000000
0.329333 0.351358 0.000000
0.361069 0.351550 0.000000
0.392805 0.351743 0.000000
0.424542 0.351935 0.000000
0.456278 0.352128 0.000000
0.488014 0.352320 0.000008
0.519750 0.352513 0.000200
0.551487 0.352705 0.000393
0.583223 0.352898 0.000585
0.614959 0.353090 0.000778
0.646695 0.353283 0.000970
0.678431 0.353475 0.001163
0.710168 0.353668 0.001355
0.741904 0.353860 0.001548
0.773640 0.354053 0.001740
0.805376 0.354245 0.001933
0.837113 0.354438 0.002125
0.868849 0.354630 0.002318
0.900585 0.354823 0.002510
0.932321 0.355015 0.002703
0.964058 0.355208 0.002895
0.995794 0.355400 0.003088
1.000000 0.355503 0.003190
0.027135 0.381135 0.000000
0.044081 0.381237 0.000000
0.075817 0.381430 0.000000
0.107554 0.381622 0.000000
0.139290 0.381815 0.000000
0.171026 0.382007 0.000000
0.202762 0.382200 0.000000
0.234498 0.382392 0.000000
0.266235 0.382585 0.000000
0.297971 0.382777 0.000000
0.329707 0.382970 0.000000
0.361443 0.383162 0.000000
0.393180 0.383355 0.000000
0.424916 0.383547 0.000000
0.456652 0.383740 0.000190
0.488388 0.383932 0.000382
0.520125 0.384125 0.000575
0.551861 0.384317 0.000767
0.583597 0.384510 0.000960
0.615333 0.384702 0.001152
0.647069 0.384894 0.001344
0.678806 0.385087 0.001537
0.710542 0.385279 0.001729
0.742278 0.385472 0.001922
0.774014 0.385664 0.002114
0.805751 0.385857 0.002307
0.837487 0.386049 0.002499
0.869223 0.386242 0.002692
0.900959 0.386434 0.002884
0.932696 0.386627 0.003077
0.964432 0.386819 0.003269
0.996168 0.387012 0.003462
1.000000 0.387115 0.003565
0.027509 0.412746 0.000000
0.044455 0.412849 0.000000
0.076192 0.413042 0.000000
0.107928 0.413234 0.000000
0.139664 0.413426 0.000000
0.171400 0.413619 0.000000
0.203136 0.413811 0.000000
0.234873 0.414004 0.000000
0.266609 0.414196 0.000000
0.298345 0.414389 0.000000
0.330081 0.414581 0.000000
0.361818 0.414774 0.000000
0.393554 0.414966 0.000179
0.425290 0.415159 0.000371
0.457026 0.415351 0.000564
0.488763 0.415544 0.000756
0.520499 0.415736 0.000949
0.552235 0.415929 0.001141
0.583971 0.416121 0.001334
0.615707 0.416314 0.001526
0.647444 0.416506 0.001719
0.679180 0.416699 0.001911
0.710916 0.416891 0.002104
0.742652 0.417084 0.002296
0.774389 0.417276 0.002489
0.806125 0.417469 0.002681
0.837861 0.417661 0.002874
0.869597 0.417854 0.003066
0.901334 0.418046 0.003259
0.933070 0.418239 0.003451
0.964806 0.418431 0.003644
0.996542 0.418623 0.003836
1.000000 0.418726 0.003939
0.027883 0.444358 0.000000
0.044830 0.444461 0.000000
0.076566 0.444653 0.000000
0.108302 0.444846 0.000000
0.140038 0.445038 0.000000
0.171774 0.445231 0.000000
0.203511 0.445423 0.000000
0.235247 0.445616 0.000000
0.266983 0.445808 0.000000
0.298719 0.446001 0.000000
0.330456 0.446193 0.000168
0.362192 0.446386 0.000361
0.393928 0.446578 0.000553
0.425664 0.446771 0.000746
0.457401 0.446963 0.000938
0.489137 0.447155 0.001130
0.520873 0.447348 0.001323
0.552609 0.447540 0.001515
0.584345 0.447733 0.001708
0.616082 0.447925 0.001900
0.647818 0.448118 0.002093
0.679554 0.448310 0.002285
0.711290 0.448503 0.002478
0.743027 0.448695 0.002670
0.774763 0.448888 0.002863
0.806499 0.449080 0.003055
0.838235 0.449273 0.003248
0.869972 0.449465 0.003440
0.901708 0.449658 0.003633
0.933444 0.449850 0.003825
0.965180 0.450043 0.004018
0.996916 0.450235 0.004210
1.000000 0.450338 0.004313
0.028257 0.475970 0.000000
0.045204 0.476072 0.000000
0.076940 0.476265 0.000000
0.108676 0.476457 0.000000
0.140412 0.476650 0.000000
0.172149 0.476842 0.000000
0.203885 0.477035 0.000000
0.235621 0.477227 0.000000
0.267357 0.477420 0.000157
0.299094 0.477612 0.000350
0.330830 0.477805 0.000542
0.362566 0.477997 0.000735
0.394302 0.478190 0.000927
0.426038 0.478382 0.001120
0.457775 0.478575 0.001312
0.489511 0.478767 0.001505
0.521247 0.478960 0.001697
0.552983 0.479152 0.001890
0.584720 0.479345 0.002082
0.616456 0.479537 0.002275
0.648192 0.479730 0.002467
0.679928 0.479922 0.002660
0.711665 0.480115 0.002852
0.743401 0.480307 0.003045
0.775137 0.480500 0.003237
0.806873 0.480692 0.003430
0.838610 0.480884 0.003622
0.870346 0.481077 0.003814
0.902082 0.481269 0.004007
0.933818 0.481462 0.004199
0.965554 0.481654 0.004392
0.997291 0.481847 0.004584
1.000000 0.481950 0.004687
0.028631 0.507581 0.000000
0.045578 0.507684 0.000000
0.077314 0.507877 0.000000
0.109050 0.508069 0.000000
0.140787 0.508262 0.000000
0.172523 0.508454 0.000000
0.204259 0.508647 0.000147
0.235995 0.508839 0.000339
0.267732 0.509032 0.000532
0.299468 0.509224 0.000724
0.331204 0.509417 0.000917
0.362940 0.509609 0.001109
0.394676 0.509801 0.001301
0.426413 0.509994 0.001494
0.458149 0.510186 0.001686
0.489885 0.510379 0.001879
0.521621 0.510571 0.002071
0.553358 0.510764 0.002264
0.585094 0.510956 0.002456
0.616830 0.511149 0.002649
0.648566 0.511341 0.002841
0.680303 0.511534 0.003034
0.712039 0.511726 0.003226
0.743775 0.511919 0.003419
0.775511 0.512111 0.003611
0.807247 0.512304 0.003804
0.838984 0.512496 0.003996
0.870720 0.512689 0.004189
0.902456 0.512881 0.004381
0.934192 0.513074 0.004574
0.965929 0.513266 0.004766
0.997665 0.513459 0.004959
1.000000 0.513561 0.005061
0.029006 0.539193 0.000000
0.045952 0.539296 0.000000
0.077688 0.539488 0.000000
0.109425 0.539681 0.000000
0.141161 0.539873 0.000136
0.172897 0.540066 0.000328
0.204633 0.540258 0.000521
0.236370 0.540451 0.000713
0.268106 0.540643 0.000906
0.299842 0.540836 0.001098
0.331578 0.541028 0.001291
0.363314 0.541221 0.001483
0.395051 0.541413 0.001676
0.426787 0.541606 0.001868
0.458523 0.541798 0.002061
0.490259 0.541991 0.002253
0.521996 0.542183 0.002446
0.553732 0.542376 0.002638
0.585468 0.542568 0.002831
0.617204 0.542761 0.003023
0.648941 0.542953 0.003216
0.680677 0.543146 0.003408
0.712413 0.543338 0.003601
0.744149 0.543530 0.003793
0.775885 0.543723 0.003985
0.807622 0.543915 0.004178
0.839358 0.544108 0.004370
0.871094 0.544300 0.004563
0.902830 0.544493 0.004755
0.934567 0.544685 0.004948
0.966303 0.544878 0.005140
0.998039 0.545070 0.005333
1.000000 0.545173 0.005436
0.029380 0.570805 0.000000
0.046326 0.570908 0.000000
0.078063 0.571100 0.000125
0.109799 0.571293 0.000318
0.141535 0.571485 0.000510
0.173271 0.571678 0.000703
0.205008 0.571870 0.000895
0.236744 0.572062 0.001087
0.268480 0.572255 0.001280
0.300216 0.572447 0.001472
0.331952 0.572640 0.001665
0.363689 0.572832 0.001857
0.395425 0.573025 0.002050
0.427161 0.573217 0.002242
0.458897 0.573410 0.002435
0.490634 0.573602 0.002627
0.522370 0.573795 0.002820
0.554106 0.573987 0.003012
0.585842 0.574180 0.003205
0.617579 0.574372 0.003397
0.649315 0.574565 0.003590
0.681051 0.574757 0.003782
0.712787 0.574950 0.003975
0.744523 0.575142 0.004167
0.776260 0.575335 0.004360
0.807996 0.575527 0.004552
0.839732 0.575720 0.004745
0.871468 0.575912 0.004937
0.903205 0.576105 0.005130
0.934941 0.576297 0.005322
0.966677 0.576490 0.005515
0.998413 0.576682 0.005707
1.000000 0.576785 0.005810
0.029754 0.602417 0.000204
0.046701 0.602519 0.000307
0.078437 0.602712 0.000499
0.110173 0.602904 0.000692
0.141909 0.603097 0.000884
0.173645 0.603289 0.001077
0.205382 0.603482 0.001269
0.237118 0.603674 0.001462
0.268854 0.603867 0.001654
0.300590 0.604059 0.001847
0.332327 0.604252 0.002039
0.364063 0.604444 0.002232
0.395799 0.604637 0.002424
0.427535 0.604829 0.002617
0.459272 0.605022 0.002809
0.491008 0.605214 0.003002
0.522744 0.605407 0.003194
0.554480 0.605599 0.003387
0.586217 0.605792 0.003579
0.617953 0.605984 0.003771
0.649689 0.606176 0.003964
0.681425 0.606369 0.004156
0.713161 0.606561 0.004349
0.744898 0.606754 0.004541
0.776634 0.606946 0.004734
0.808370 0.607139 0.004926
0.840106 0.607331 0.005119
0.871843 0.607524 0.005311
0.903579 0.607716 0.005504
0.935315 0.607909 0.005696
0.967051 0.608101 0.005889
0.998788 0.608294 0.006081
1.000000 0.608397 0.006184
0.030128 0.634028 0.000578
0.047075 0.634131 0.000681
0.078811 0.634324 0.000874
0.110547 0.634516 0.001066
0.142283 0.634708 0.001258
0.174020 0.634901 0.001451
0.205756 0.635093 0.001643
0.237492 0.635286 0.001836
0.269228 0.635478 0.002028
0.300965 0.635671 0.002221
0.332701 0.635863 0.002413
0.364437 0.636056 0.002606
0.396173 0.636248 0.002798
0.427910 0.636441 0.002991
0.459646 0.636633 0.003183
0.491382 0.636826 0.003376
0.523118 0.637018 0.003568
0.554854 0.637211 0.003761
0.586591 0.637403 0.003953
0.618327 0.637596 0.004146
0.650063 0.637788 0.004338
0.681799 0.637981 0.004531
0.713536 0.638173 0.004723
0.745272 0.638366 0.004916
0.777008 0.638558 0.005108
0.808744 0.638751 0.005301
0.840481 0.638943 0.005493
0.872217 0.639136 0.005686
0.903953 0.639328 0.005878
0.935689 0.639521 0.006071
0.967425 0.639713 0.006263
0.999162 0.639905 0.006455
1.000000 0.640008 0.006558
0.030502 0.665640 0.000952
0.047449 0.665743 0.001055
0.079185 0.665935 0.001248
0.110921 0.666128 0.001440
0.142658 0.666320 0.001633
0.174394 0.666513 0.001825
0.206130 0.666705 0.002018
0.237866 0.666898 0.002210
0.269603 0.667090 0.002403
0.301339 0.667283 0.002595
0.333075 0.667475 0.002788
0.364811 0.667668 0.002980
0.396548 0.667860 0.003173
0.428284 0.668053 0.003365
0.460020 0.668245 0.003558
0.491756 0.668437 0.003750
0.523492 0.668630 0.003942
0.555229 0.668822 0.004135
0.586965 0.669015 0.004327
0.618701 0.669207 0.004520
0.650437 0.669400 0.004712
0.682174 0.669592 0.004905
0.713910 0.669785 0.005097
0.745646 0.669977 0.005290
0.777382 0.670170 0.005482
0.809119 0.670362 0.005675
0.840855 0.670555 0.005867
0.872591 0.670747 0.006060
0.904327 0.670940 0.006252
0.936063 0.671132 0.006445
0.967800 0.671325 0.006637
0.999536 0.671517 0.006830
1.000000 0.671620 0.006932
0.030877 0.697252 0.001327
0.047823 0.697354 0.001429
0.079559 0.697547 0.001622
0.111296 0.697739 0.001814
0.143032 0.697932 0.002007
0.174768 0.698124 0.002199
0.206504 0.698317 0.002392
0.238241 0.698509 0.002584
0.269977 0.698702 0.002777
0.301713 0.698894 0.002969
0.333449 0.699087 0.003162
0.365186 0.699279 0.003354
0.396922 0.699472 0.003547
0.428658 0.699664 0.003739
0.460394 0.699857 0.003932
0.492130 0.700049 0.004124
0.523867 0.700242 0.004317
0.555603 0.700434 0.004509
0.587339 0.700627 0.004702
0.619075 0.700819 0.004894
0.650812 0.701012 0.005087
0.682548 0.701204 0.005279
0.714284 0.701397 0.005472
0.746020 0.701589 0.005664
0.777757 0.701782 0.005857
0.809493 0.701974 0.006049
0.841229 0.702166 0.006241
0.872965 0.702359 0.006434
0.904701 0.702551 0.006626
0.936438 0.702744 0.006819
0.968174 0.702936 0.007011
0.999910 0.703129 0.007204
1.000000 0.703232 0.007307
0.031251 0.728863 0.001701
0.048197 0.728966 0.001804
0.079934 0.729159 0.001996
0.111670 0.729351 0.002189
0.143406 0.729544 0.002381
0.175142 0.729736 0.002574
0.206879 0.729929 0.002766
0.238615 0.730121 0.002959
0.270351 0.730314 0.003151
0.302087 0.730506 0.003344
0.333823 0.730699 0.003536
0.365560 0.730891 0.003728
0.397296 0.731083 0.003921
0.429032 0.731276 0.004113
0.460768 0.731468 0.004306
0.492505 0.731661 0.004498
0.524241 0.731853 0.004691
0.555977 0.732046 0.004883
0.587713 0.732238 0.005076
0.619450 0.732431 0.005268
0.651186 0.732623 0.005461
0.682922 0.732816 0.005653
0.714658 0.733008 0.005846
0.746395 0.733201 0.006038
0.778131 0.733393 0.006231
0.809867 0.733586 0.006423
0.841603 0.733778 0.006616
0.873339 0.733971 0.006808
0.905076 0.734163 0.007001
0.936812 0.734356 0.007193
0.968548 0.734548 0.007386
1.000000 0.734741 0.007578
1.000000 0.734843 0.007681
0.031625 0.760475 0.002075
0.048572 0.760578 0.002178
0.080308 0.760770 0.002370
0.112044 0.760963 0.002563
0.143780 0.761155 0.002755
0.175517 0.761348 0.002948
0.207253 0.761540 0.003140
0.238989 0.761733 0.003333
0.270725 0.761925 0.003525
0.302461 0.762118 0.003718
0.334198 0.762310 0.003910
0.365934 0.762503 0.004103
0.397670 0.762695 0.004295
0.429406 0.762888 0.004488
0.461143 0.763080 0.004680
0.492879 0.763273 0.004873
0.524615 0.763465 0.005065
0.556351 0.763658 0.005258
0.588088 0.763850 0.005450
0.619824 0.764043 0.005643
0.651560 0.764235 0.005835
0.683296 0.764428 0.006028
0.715032 0.764620 0.006220
0.746769 0.764812 0.006412
0.778505 0.765005 0.006605
0.810241 0.765197 0.006797
0.841977 0.765390 0.006990
0.873714 0.765582 0.007182
0.905450 0.765775 0.007375
0.937186 0.765967 0.007567
0.968922 0.766160 0.007760
1.000000 0.766352 0.007952
1.000000 0.766455 0.008055
0.031999 0.792087 0.002449
0.048946 0.792190 0.002552
0.080682 0.792382 0.002745
0.112418 0.792575 0.002937
0.144155 0.792767 0.003130
0.175891 0.792960 0.003322
0.207627 0.793152 0.003515
0.239363 0.793344 0.003707
0.271099 0.793537 0.003899
0.302836 0.793729 0.004092
0.334572 0.793922 0.004284
0.366308 0.794114 0.004477
0.398044 0.794307 0.004669
0.429781 0.794499 0.004862
0.461517 0.794692 0.005054
0.493253 0.794884 0.005247
0.524989 0.795077 0.005439
0.556726 0.795269 0.005632
0.588462 0.795462 0.005824
0.620198 0.795654 0.006017
0.651934 0.795847 0.006209
0.683670 0.796039 0.006402
0.715407 0.796232 0.006594
0.747143 0.796424 0.006787
0.778879 0.796617 0.006979
0.810615 0.796809 0.007172
0.842352 0.797002 0.007364
0.874088 0.797194 0.007557
0.905824 0.797387 0.007749
0.937560 0.797579 0.007942
0.969297 0.797772 0.008134
1.000000 0.797964 0.008327
1.000000 0.798067 0.008429
0.032374 0.823699 0.002824
0.049320 0.823801 0.002926
0.081056 0.823994 0.003119
0.112793 0.824186 0.003311
0.144529 0.824379 0.003504
0.176265 0.824571 0.003696
0.208001 0.824764 0.003889
0.239737 0.824956 0.004081
0.271474 0.825149 0.004274
0.303210 0.825341 0.004466
0.334946 0.825534 0.004659
0.366682 0.825726 0.004851
0.398419 0.825919 0.005044
0.430155 0.826111 0.005236
0.461891 0.826304 0.005429
0.493627 0.826496 0.005621
0.525364 0.826689 0.005814
0.557100 0.826881 0.006006
0.588836 0.827073 0.006198
0.620572 0.827266 0.006391
0.652308 0.827458 0.006583
0.684045 0.827651 0.006776
0.715781 0.827843 0.006968
0.747517 0.828036 0.007161
0.779253 0.828228 0.007353
0.810990 0.828421 0.007546
0.842726 0.828613 0.007738
