docs/luts/fresh-slog3-rec709.cube
TITLE "FreshLUTs??-SLog3Rec709"
LUT_3D_SIZE 5
DOMAIN_MIN 0.0 0.0 0.0
DOMAIN_MAX 1.0 1.0 1.0
0.000000 0.005000 0.018000
0.230000 0.005000 0.015174
0.500000 0.005000 0.012349
0.770000 0.005000 0.009523
1.000000 0.005000 0.006698
0.000000 0.237500 0.012453
0.230000 0.237500 0.009627
0.500000 0.237500 0.006802
0.770000 0.237500 0.003976
1.000000 0.237500 0.001151
0.000000 0.505000 0.006906
0.230000 0.505000 0.004080
0.500476 0.505000 0.001255
0.772022 0.505000 0.000000
1.000000 0.505000 0.000000
0.000419 0.772500 0.001359
0.231966 0.772500 0.000000
0.503512 0.772500 0.000000
0.775059 0.772500 0.000000
1.000000 0.772500 0.000000
0.003455 1.000000 0.000000
0.235002 1.000000 0.000000
0.506548 1.000000 0.000000
0.778095 1.000000 0.000000
1.000000 1.000000 0.000000
0.000000 0.005000 0.246923
0.230000 0.005000 0.244097
0.500000 0.005000 0.241272
0.770000 0.005000 0.238446
1.000000 0.005000 0.235620
0.000000 0.237500 0.241376
0.230000 0.237500 0.238550
0.500000 0.237500 0.235724
0.770000 0.237500 0.232899
1.000000 0.237500 0.230073
0.000000 0.505000 0.235828
0.230000 0.505000 0.233003
0.501066 0.505000 0.230177
0.772612 0.505000 0.230000
1.000000 0.505000 0.230000
0.001009 0.772500 0.230281
0.232555 0.772500 0.230000
0.504102 0.772500 0.230000
0.775648 0.772500 0.230000
1.000000 0.772500 0.230000
0.004045 1.000000 0.230000
0.235591 1.000000 0.230000
0.507138 1.000000 0.230000
0.778684 1.000000 0.230000
1.000000 1.000000 0.230000
0.000000 0.005000 0.515845
0.230000 0.005000 0.513020
0.500000 0.005000 0.510194
0.770000 0.005000 0.507369
1.000000 0.005000 0.504543
0.000000 0.237500 0.510298
0.230000 0.237500 0.507473
0.500000 0.237500 0.504647
0.770166 0.237500 0.501822
1.000000 0.237500 0.500000
0.000000 0.505000 0.504751
0.230109 0.505000 0.501926
0.501655 0.505000 0.500000
0.773202 0.505000 0.500000
1.000000 0.505000 0.500000
0.001598 0.772500 0.500000
0.233145 0.772500 0.500000
0.504691 0.772500 0.500000
0.776238 0.772500 0.500000
1.000000 0.772500 0.500000
0.004634 1.000000 0.500000
0.236181 1.000000 0.500000
0.507728 1.000000 0.500000
0.779274 1.000000 0.500000
1.000000 1.000000 0.500000
0.000000 0.005000 0.784768
0.230000 0.005000 0.781943
0.500000 0.005000 0.779117
0.770000 0.005000 0.776291
1.000000 0.005000 0.773466
0.000000 0.237500 0.779221
0.230000 0.237500 0.776395
0.500000 0.237500 0.773570
0.770755 0.237500 0.770744
1.000000 0.237500 0.770000
0.000000 0.505000 0.773674
0.230698 0.505000 0.770848
0.502245 0.505000 0.770000
0.773791 0.505000 0.770000
1.000000 0.505000 0.770000
0.002188 0.772500 0.770000
0.233734 0.772500 0.770000
0.505281 0.772500 0.770000
0.776828 0.772500 0.770000
1.000000 0.772500 0.770000
0.005224 1.000000 0.770000
0.236771 1.000000 0.770000
0.508317 1.000000 0.770000
0.779864 1.000000 0.770000
1.000000 1.000000 0.770000
0.000000 0.005000 1.000000
0.230000 0.005000 1.000000
0.500000 0.005000 1.000000
0.770000 0.005000 1.000000
1.000000 0.005000 1.000000
0.000000 0.237500 1.000000
0.230000 0.237500 1.000000
0.500000 0.237500 1.000000
0.771345 0.237500 1.000000
1.000000 0.237500 1.000000
0.000000 0.505000 1.000000
0.231288 0.505000 1.000000
0.502834 0.505000 1.000000
0.774381 0.505000 1.000000
1.000000 0.505000 1.000000
0.002778 0.772500 1.000000
0.234324 0.772500 1.000000
0.505871 0.772500 1.000000
0.777417 0.772500 1.000000
1.000000 0.772500 1.000000
0.005814 1.000000 1.000000
0.237360 1.000000 1.000000
0.508907 1.000000 1.000000
0.780453 1.000000 1.000000
1.000000 1.000000 1.000000
