docs/luts/fresh-natural-warm.cube
TITLE "FreshLUTs??-????"
LUT_3D_SIZE 5
DOMAIN_MIN 0.0 0.0 0.0
DOMAIN_MAX 1.0 1.0 1.0
0.016250 0.007800 0.000427
0.264662 0.007800 0.000000
0.523237 0.007800 0.000000
0.781812 0.007800 0.000000
1.000000 0.007800 0.000000
0.016250 0.257322 0.000000
0.261756 0.255856 0.000000
0.520332 0.254332 0.000000
0.778907 0.252807 0.000000
1.000000 0.251342 0.000000
0.016250 0.511907 0.000000
0.258792 0.510442 0.000000
0.517367 0.508917 0.000000
0.775942 0.507392 0.000000
1.000000 0.505927 0.000000
0.016250 0.766493 0.000000
0.255828 0.765028 0.000000
0.514403 0.763503 0.000000
0.772978 0.761978 0.000000
1.000000 0.760513 0.000000
0.016250 1.000000 0.000000
0.252922 1.000000 0.000000
0.511497 1.000000 0.000000
0.770072 1.000000 0.000000
1.000000 1.000000 0.000000
0.016250 0.007800 0.249769
0.264103 0.007800 0.248304
0.522679 0.007800 0.246779
0.781254 0.007800 0.245254
1.000000 0.007800 0.243789
0.016250 0.256763 0.246863
0.261198 0.255298 0.245398
0.519773 0.253773 0.243873
0.778348 0.252248 0.242348
1.000000 0.250783 0.240883
0.016250 0.511349 0.243899
0.258234 0.509884 0.242433
0.516809 0.508359 0.240909
0.775384 0.506834 0.239384
1.000000 0.505369 0.237919
0.016250 0.765934 0.240934
0.255269 0.764469 0.239469
0.513844 0.762944 0.237944
0.772419 0.761419 0.236419
1.000000 0.759954 0.234954
0.016250 1.000000 0.238029
0.252363 1.000000 0.236564
0.510939 1.000000 0.235039
0.769514 1.000000 0.233514
1.000000 1.000000 0.232049
0.016250 0.007800 0.499110
0.263545 0.007800 0.497645
0.522120 0.007800 0.496120
0.780695 0.007800 0.494595
1.000000 0.007800 0.493130
0.016250 0.256204 0.496204
0.260639 0.254739 0.494739
0.519214 0.253214 0.493214
0.777789 0.251689 0.491689
1.000000 0.250224 0.490224
0.016250 0.510790 0.493240
0.257675 0.509325 0.491775
0.516250 0.507800 0.490250
0.774825 0.506275 0.488725
1.000000 0.504810 0.487260
0.016250 0.765376 0.490276
0.254711 0.763911 0.488811
0.513286 0.762386 0.487286
0.771861 0.760861 0.485761
1.000000 0.759396 0.484296
0.016250 1.000000 0.487370
0.251805 1.000000 0.485905
0.510380 1.000000 0.484380
0.768955 1.000000 0.482855
1.000000 1.000000 0.481390
0.016250 0.007800 0.748451
0.262986 0.007800 0.746986
0.521561 0.007800 0.745461
0.780137 0.007800 0.743936
1.000000 0.007800 0.742471
0.016250 0.255646 0.745546
0.260081 0.254181 0.744081
0.518656 0.252656 0.742556
0.777231 0.251131 0.741031
1.000000 0.249666 0.739566
0.016250 0.510231 0.742581
0.257116 0.508766 0.741116
0.515691 0.507241 0.739591
0.774266 0.505717 0.738066
1.000000 0.504251 0.736601
0.016250 0.764817 0.739617
0.254152 0.763352 0.738152
0.512727 0.761827 0.736627
0.771302 0.760302 0.735102
1.000000 0.758837 0.733637
0.016250 1.000000 0.736711
0.251246 1.000000 0.735246
0.509821 1.000000 0.733721
0.768397 1.000000 0.732196
1.000000 1.000000 0.730731
0.016250 0.007800 0.990250
0.262428 0.007800 0.990250
0.521003 0.007800 0.990250
0.779578 0.007800 0.990250
1.000000 0.007800 0.990250
0.016250 0.255087 0.990250
0.259522 0.253622 0.990250
0.518097 0.252097 0.990250
0.776672 0.250572 0.990250
1.000000 0.249107 0.988907
0.016250 0.509673 0.990250
0.256558 0.508208 0.990250
0.515133 0.506683 0.988933
0.773708 0.505158 0.987408
1.000000 0.503693 0.985943
0.016250 0.764258 0.988958
0.253593 0.762793 0.987493
0.512168 0.761268 0.985968
0.770744 0.759744 0.984444
1.000000 0.758278 0.982978
0.016250 1.000000 0.986053
0.250688 1.000000 0.984588
0.509263 1.000000 0.983063
0.767838 1.000000 0.981538
1.000000 1.000000 0.980073
