docs/luts/fresh-cinematic-flog.cube
TITLE "FreshLUTs??-FLog??"
LUT_3D_SIZE 5
DOMAIN_MIN 0.0 0.0 0.0
DOMAIN_MAX 1.0 1.0 1.0
0.017777 0.020017 0.040497
0.251621 0.022894 0.037095
0.495009 0.025889 0.033811
0.738398 0.028884 0.030527
0.972242 0.031762 0.027126
0.023577 0.262937 0.033970
0.257420 0.265814 0.030568
0.500809 0.268809 0.027284
0.744197 0.271804 0.024000
0.978840 0.274681 0.020598
0.029376 0.505856 0.027442
0.263220 0.508734 0.024041
0.507322 0.511729 0.020757
0.753031 0.514723 0.020963
0.989194 0.517601 0.023841
0.035804 0.748776 0.020915
0.271968 0.751653 0.020773
0.517676 0.754648 0.023768
0.763385 0.757643 0.026763
0.999548 0.760520 0.029640
0.046158 0.991695 0.023695
0.282322 0.994573 0.026573
0.528030 0.997568 0.029568
0.773738 1.000000 0.032563
1.000000 1.000000 0.035440
0.018871 0.021111 0.269597
0.252715 0.023989 0.266196
0.496104 0.026984 0.262912
0.739492 0.029979 0.259628
0.973336 0.032856 0.256226
0.024671 0.264031 0.263070
0.258515 0.266908 0.259668
0.501903 0.269903 0.256384
0.745292 0.272898 0.253100
0.980819 0.275776 0.249699
0.030471 0.506951 0.256543
0.264314 0.509828 0.253141
0.509301 0.512823 0.249857
0.755010 0.515818 0.252458
0.991173 0.518695 0.255335
0.037783 0.749870 0.250015
0.273947 0.752748 0.252268
0.519655 0.755742 0.255262
0.765363 0.758737 0.258257
1.000000 0.761615 0.261135
0.048137 0.992790 0.255190
0.284301 0.995667 0.258067
0.530009 0.998662 0.261062
0.775717 1.000000 0.264057
1.000000 1.000000 0.266934
0.020057 0.022297 0.517989
0.253901 0.025174 0.514587
0.497289 0.028169 0.511303
0.740678 0.031164 0.508019
0.974522 0.034042 0.504618
0.025857 0.265217 0.511462
0.259700 0.268094 0.508060
0.503089 0.271089 0.504776
0.746726 0.274084 0.501492
0.982889 0.276961 0.500321
0.031656 0.508136 0.504934
0.265663 0.511014 0.501533
0.511371 0.514009 0.500249
0.757080 0.517003 0.503243
0.993243 0.519881 0.506121
0.039853 0.751056 0.500176
0.276017 0.753933 0.503053
0.521725 0.756928 0.506048
0.767433 0.759923 0.509043
1.000000 0.762800 0.511920
0.050207 0.993975 0.505975
0.286371 0.996853 0.508853
0.532079 0.999848 0.511848
0.777787 1.000000 0.514843
1.000000 1.000000 0.517720
0.021243 0.023483 0.766381
0.255086 0.026360 0.762979
0.498475 0.029355 0.759695
0.741864 0.032350 0.756411
0.975707 0.035227 0.753009
0.027042 0.266402 0.759853
0.260886 0.269280 0.756452
0.504275 0.272275 0.753168
0.748796 0.275269 0.749883
0.984960 0.278147 0.751107
0.032842 0.509322 0.753326
0.267733 0.512199 0.749924
0.513441 0.515194 0.751034
0.759150 0.518189 0.754029
0.995313 0.521066 0.756906
0.041923 0.752241 0.750961
0.278087 0.755119 0.753839
0.523795 0.758114 0.756834
0.769504 0.761109 0.759829
1.000000 0.763986 0.762706
0.052277 0.995161 0.756761
0.288441 0.998038 0.759638
0.534149 1.000000 0.762633
0.779857 1.000000 0.765628
1.000000 1.000000 0.768506
0.022337 0.024577 0.995481
0.256181 0.027454 0.992079
0.499569 0.030449 0.988795
0.742958 0.033444 0.985511
0.976802 0.036322 0.982110
0.028137 0.267497 0.988954
0.261980 0.270374 0.985552
0.505369 0.273369 0.982268
0.750775 0.276364 0.979724
0.986938 0.279241 0.982601
0.033936 0.510416 0.982426
0.269712 0.513294 0.979534
0.515420 0.516289 0.982529
0.761129 0.519283 0.985523
0.997292 0.522161 0.988401
0.043902 0.753336 0.982456
0.280066 0.756213 0.985333
0.525774 0.759208 0.988328
0.771482 0.762203 0.991323
1.000000 0.765080 0.994200
0.054256 0.996255 0.988255
0.290420 0.999133 0.991133
0.536128 1.000000 0.994128
0.781836 1.000000 0.997123
1.000000 1.000000 1.000000
