docs/luts/fresh-hypnosis.cube
TITLE "FreshLUTs??-??"
LUT_3D_SIZE 5
DOMAIN_MIN 0.0 0.0 0.0
DOMAIN_MAX 1.0 1.0 1.0
0.000000 0.000000 0.055000
0.225073 0.000000 0.046366
0.577110 0.000000 0.037733
0.929147 0.000000 0.029099
1.000000 0.000000 0.020466
0.000000 0.226146 0.038050
0.197954 0.211824 0.029417
0.549991 0.190266 0.020783
0.902028 0.168708 0.012149
1.000000 0.154386 0.003516
0.000000 0.539560 0.021101
0.160503 0.525238 0.012467
0.514324 0.503680 0.003834
0.872161 0.482122 0.000000
1.000000 0.467800 0.000000
0.001571 0.852974 0.004151
0.130423 0.838652 0.000000
0.488260 0.817094 0.000000
0.846096 0.795536 0.000000
1.000000 0.781214 0.000000
0.012957 0.988260 0.000000
0.114689 0.986765 0.000000
0.472526 0.985270 0.000000
0.830363 0.983775 0.000000
1.000000 0.982280 0.000000
0.000000 0.000000 0.284718
0.220182 0.000000 0.263257
0.572219 0.000000 0.234560
0.924256 0.000000 0.205864
1.000000 0.000000 0.184403
0.000000 0.220685 0.240649
0.193063 0.206363 0.219188
0.545100 0.184805 0.190491
0.897137 0.163247 0.161795
1.000000 0.148925 0.140334
0.000000 0.534099 0.186248
0.155612 0.519777 0.164788
0.511645 0.498219 0.136091
0.869482 0.476662 0.115487
1.000000 0.462339 0.102659
0.003782 0.847514 0.131848
0.127744 0.833192 0.118162
0.485580 0.811634 0.098099
0.843417 0.790076 0.078036
1.000000 0.775754 0.065209
0.015168 0.987690 0.103869
0.112010 0.986195 0.091042
0.469847 0.984700 0.070979
0.827683 0.983205 0.050916
1.000000 0.981710 0.038089
0.000000 0.000000 0.645876
0.212533 0.000000 0.624416
0.564570 0.000000 0.595719
0.916607 0.000000 0.567023
1.000000 0.000000 0.545562
0.000000 0.212466 0.601807
0.185414 0.198144 0.580347
0.537451 0.176586 0.551650
0.890108 0.155028 0.522954
1.000000 0.140706 0.504561
0.000000 0.525880 0.547407
0.148370 0.511558 0.525947
0.506207 0.490000 0.500000
0.864044 0.468442 0.479937
1.000000 0.454120 0.467110
0.005994 0.839294 0.495439
0.122305 0.824972 0.482612
0.480142 0.803414 0.462549
0.837979 0.781856 0.442487
1.000000 0.767534 0.429659
0.017379 0.987120 0.468320
0.106572 0.985625 0.455493
0.464408 0.984130 0.435430
0.822245 0.982635 0.415367
1.000000 0.981140 0.402540
0.000000 0.000000 1.000000
0.204883 0.000000 0.985575
0.556921 0.000000 0.956878
0.908958 0.000000 0.928182
1.000000 0.000000 0.906721
0.000000 0.204246 0.962966
0.177764 0.189924 0.941506
0.529801 0.168366 0.912809
0.884670 0.146808 0.884113
1.000000 0.132486 0.869011
0.000000 0.517661 0.908566
0.142932 0.503338 0.887105
0.500769 0.481781 0.864451
0.858605 0.460223 0.844388
1.000000 0.445901 0.831561
0.008205 0.831075 0.859890
0.116867 0.816753 0.847063
0.474704 0.795195 0.827000
0.832541 0.773637 0.806937
1.000000 0.759315 0.794110
0.019591 0.986550 0.832771
0.101134 0.985055 0.819943
0.458970 0.983560 0.799881
0.816807 0.982065 0.779818
1.000000 0.980570 0.766991
0.000000 0.000000 1.000000
0.199993 0.000000 1.000000
0.552030 0.000000 1.000000
0.904067 0.000000 1.000000
1.000000 0.000000 1.000000
0.000000 0.198786 1.000000
0.172874 0.184464 1.000000
0.524911 0.162906 1.000000
0.881991 0.141348 1.000000
1.000000 0.127026 1.000000
0.000000 0.512200 1.000000
0.140253 0.497878 1.000000
0.498089 0.476320 1.000000
0.855926 0.454762 1.000000
1.000000 0.440440 1.000000
0.010416 0.825614 1.000000
0.114188 0.811292 1.000000
0.472024 0.789734 1.000000
0.829861 0.768177 1.000000
1.000000 0.753854 1.000000
0.021802 0.985980 1.000000
0.098454 0.984485 1.000000
0.456291 0.982990 1.000000
0.814128 0.981495 1.000000
1.000000 0.980000 1.000000
