docs/luts/fresh-drone-real-estate-punch.cube
TITLE "FreshLUTs??-??????"
LUT_3D_SIZE 5
DOMAIN_MIN 0.0 0.0 0.0
DOMAIN_MAX 1.0 1.0 1.0
0.005500 0.009900 0.015400
0.240922 0.009900 0.015400
0.540550 0.009900 0.015400
0.840178 0.009900 0.015400
1.000000 0.009900 0.015400
0.005500 0.238986 0.015400
0.228008 0.232408 0.015400
0.527636 0.224036 0.015400
0.827264 0.215664 0.015400
1.000000 0.209086 0.015400
0.005500 0.530550 0.015400
0.211572 0.523972 0.015400
0.511200 0.515600 0.015400
0.810828 0.507228 0.015400
1.000000 0.500650 0.015400
0.005500 0.822114 0.015400
0.195136 0.815536 0.015400
0.494764 0.807164 0.015400
0.794392 0.798792 0.015400
1.000000 0.792214 0.015400
0.005500 1.000000 0.015400
0.182222 1.000000 0.015400
0.481850 1.000000 0.015400
0.781478 1.000000 0.015400
1.000000 1.000000 0.015400
0.005500 0.009900 0.252171
0.238443 0.009900 0.245593
0.538071 0.009900 0.237221
0.837699 0.009900 0.228849
1.000000 0.009900 0.222271
0.005500 0.236506 0.239257
0.225528 0.229928 0.232679
0.525156 0.221556 0.224307
0.824785 0.213184 0.215935
1.000000 0.206606 0.209357
0.005500 0.528070 0.222821
0.209092 0.521493 0.216243
0.508720 0.513120 0.207870
0.808349 0.504749 0.199498
1.000000 0.498171 0.192920
0.005500 0.819635 0.206384
0.192656 0.813057 0.199806
0.492284 0.804685 0.191434
0.791913 0.796313 0.183062
1.000000 0.789735 0.176484
0.005500 1.000000 0.193471
0.179742 1.000000 0.186893
0.479370 1.000000 0.178520
0.778999 1.000000 0.170148
1.000000 1.000000 0.163570
0.005500 0.009900 0.559700
0.235222 0.009900 0.553122
0.534850 0.009900 0.544750
0.834478 0.009900 0.536378
1.000000 0.009900 0.529800
0.005500 0.233286 0.546786
0.222308 0.226708 0.540208
0.521936 0.218336 0.531836
0.821564 0.209964 0.523464
1.000000 0.203386 0.516886
0.005500 0.524850 0.530350
0.205872 0.518272 0.523772
0.505500 0.509900 0.515400
0.805128 0.501528 0.507028
1.000000 0.494950 0.500450
0.005500 0.816414 0.513914
0.189436 0.809836 0.507336
0.489064 0.801464 0.498964
0.788692 0.793092 0.490592
1.000000 0.786514 0.484014
0.005500 1.000000 0.501000
0.176522 1.000000 0.494422
0.476150 1.000000 0.486050
0.775778 1.000000 0.477678
1.000000 1.000000 0.471100
0.005500 0.009900 0.867229
0.232001 0.009900 0.860652
0.531629 0.009900 0.852279
0.831258 0.009900 0.843907
1.000000 0.009900 0.837329
0.005500 0.230065 0.854316
0.219087 0.223487 0.847738
0.518715 0.215115 0.839365
0.818344 0.206743 0.830994
1.000000 0.200165 0.824415
0.005500 0.521629 0.837879
0.202651 0.515051 0.831302
0.502279 0.506679 0.822929
0.801907 0.498308 0.814557
1.000000 0.491730 0.807979
0.005500 0.813194 0.821443
0.186215 0.806616 0.814865
0.485843 0.798244 0.806493
0.785471 0.789872 0.798121
1.000000 0.783294 0.791543
0.005500 1.000000 0.808530
0.173301 1.000000 0.801951
0.472930 1.000000 0.793579
0.772558 1.000000 0.785207
1.000000 1.000000 0.778629
0.005500 0.009900 1.000000
0.229522 0.009900 1.000000
0.529150 0.009900 1.000000
0.828778 0.009900 1.000000
1.000000 0.009900 1.000000
0.005500 0.227586 1.000000
0.216608 0.221008 1.000000
0.516236 0.212636 1.000000
0.815864 0.204264 1.000000
1.000000 0.197686 1.000000
0.005500 0.519150 1.000000
0.200172 0.512572 1.000000
0.499800 0.504200 1.000000
0.799428 0.495828 1.000000
1.000000 0.489250 1.000000
0.005500 0.810714 1.000000
0.183736 0.804136 1.000000
0.483364 0.795764 1.000000
0.782992 0.787392 1.000000
1.000000 0.780814 1.000000
0.005500 1.000000 1.000000
0.170822 1.000000 1.000000
0.470450 1.000000 1.000000
0.770078 1.000000 1.000000
1.000000 1.000000 1.000000
