docs/luts/fresh-thriller.cube
TITLE "FreshLUTs??-??"
LUT_3D_SIZE 9
DOMAIN_MIN 0.0 0.0 0.0
DOMAIN_MAX 1.0 1.0 1.0
0.000000 0.015000 0.070000
0.013365 0.015617 0.066300
0.137287 0.028791 0.075158
0.261210 0.041966 0.084016
0.385133 0.055141 0.092874
0.509055 0.068315 0.101731
0.632978 0.081490 0.110589
0.756900 0.094665 0.119447
0.770265 0.095282 0.115747
0.005356 0.063064 0.069340
0.018721 0.063681 0.065640
0.142644 0.076856 0.074497
0.266566 0.090030 0.083355
0.390489 0.103205 0.092213
0.514412 0.116380 0.101071
0.638334 0.129555 0.109929
0.762257 0.142729 0.118787
0.775621 0.143346 0.115087
0.026562 0.189978 0.084528
0.039926 0.190595 0.080828
0.163849 0.203769 0.089686
0.287772 0.216944 0.098544
0.411694 0.230119 0.107402
0.535617 0.243293 0.116260
0.659540 0.256468 0.125118
0.783462 0.269643 0.133975
0.796827 0.270259 0.130275
0.047767 0.316891 0.099717
0.061132 0.317508 0.096017
0.185054 0.330683 0.104875
0.308977 0.343857 0.113733
0.432900 0.357032 0.122590
0.556822 0.370207 0.131448
0.680745 0.383381 0.140306
0.804667 0.396731 0.149981
0.818032 0.398525 0.151775
0.068973 0.443805 0.114906
0.082337 0.444421 0.111205
0.206260 0.457596 0.120063
0.330182 0.470771 0.128921
0.454105 0.483945 0.137779
0.578028 0.497252 0.147252
0.701950 0.511604 0.161604
0.825873 0.525956 0.175956
0.839238 0.527750 0.177750
0.090178 0.570718 0.130094
0.103542 0.571335 0.126394
0.227465 0.584510 0.135252
0.351388 0.597773 0.144523
0.475310 0.612125 0.158875
0.599233 0.626477 0.173227
0.723156 0.640829 0.187579
0.847078 0.655181 0.201931
0.860443 0.656975 0.203725
0.111383 0.697632 0.145283
0.124748 0.698293 0.141794
0.248670 0.712645 0.156145
0.372593 0.726997 0.170498
0.496516 0.741349 0.184849
0.620438 0.755701 0.199202
0.744361 0.770053 0.213554
0.868284 0.784405 0.227905
0.881648 0.786199 0.229700
0.132589 0.825724 0.165974
0.145953 0.827518 0.167768
0.269876 0.841870 0.182120
0.393798 0.856222 0.196472
0.517721 0.870574 0.210824
0.641644 0.884926 0.225176
0.765566 0.899278 0.239528
0.889489 0.913630 0.253880
0.902854 0.915424 0.255674
0.137945 0.876100 0.176100
0.151310 0.877894 0.177894
0.275232 0.892246 0.192246
0.399155 0.906598 0.206598
0.523077 0.920950 0.220950
0.647000 0.935302 0.235302
0.770923 0.949654 0.249654
0.894845 0.964006 0.264006
0.908210 0.965800 0.265800
0.001297 0.016774 0.115628
0.014661 0.017391 0.111928
0.138584 0.030566 0.120786
0.262507 0.043740 0.129644
0.386429 0.056915 0.138502
0.510352 0.070090 0.147360
0.634275 0.083264 0.156218
0.758197 0.096439 0.165075
0.771562 0.097056 0.161375
0.006653 0.064839 0.114968
0.020018 0.065455 0.111268
0.143940 0.078630 0.120126
0.267863 0.091805 0.128984
0.391786 0.104979 0.137841
0.515708 0.118154 0.146699
0.639631 0.131329 0.155557
0.763553 0.144503 0.164415
0.776918 0.145120 0.160715
0.027859 0.191752 0.130157
0.041223 0.192369 0.126456
0.165146 0.205543 0.135314
0.289068 0.218718 0.144172
0.412991 0.231893 0.153030
0.536914 0.245067 0.161888
0.660836 0.258242 0.170746
0.784759 0.271417 0.179604
0.798123 0.272034 0.175904
0.049064 0.318665 0.145345
0.062429 0.319282 0.141645
0.186351 0.332457 0.150503
0.310274 0.345632 0.159361
0.434196 0.358806 0.168219
0.558119 0.371981 0.177077
0.682042 0.385156 0.185934
0.805964 0.398954 0.197704
0.819329 0.400748 0.199498
0.070269 0.445579 0.160534
0.083634 0.446196 0.156834
0.207556 0.459370 0.165692
0.331479 0.472545 0.174549
0.455402 0.485720 0.183407
0.579324 0.499475 0.194975
0.703247 0.513827 0.209327
0.827170 0.528179 0.223679
0.840534 0.529973 0.225473
0.091475 0.572492 0.175722
0.104839 0.573109 0.172022
0.228762 0.586284 0.180880
0.352685 0.599996 0.192246
0.476607 0.614348 0.206598
0.600530 0.628700 0.220950
0.724452 0.643052 0.235302
0.848375 0.657404 0.249654
0.861740 0.659198 0.251448
0.112680 0.699406 0.190911
0.126045 0.700516 0.189517
0.249967 0.714868 0.203869
0.373890 0.729220 0.218221
0.497813 0.743572 0.232573
0.621735 0.757924 0.246925
0.745658 0.772276 0.261277
0.869580 0.786628 0.275629
0.882945 0.788422 0.277423
0.133885 0.827947 0.213697
0.147250 0.829741 0.215491
0.271173 0.844093 0.229843
0.395095 0.858445 0.244195
0.519018 0.872797 0.258547
0.642941 0.887149 0.272899
0.766863 0.901501 0.287251
0.890786 0.915853 0.301603
0.904150 0.917647 0.303397
0.139242 0.878323 0.223823
0.152606 0.880117 0.225617
0.276529 0.894469 0.239969
0.400452 0.908821 0.254321
0.524374 0.923173 0.268673
0.648297 0.937525 0.283025
0.772220 0.951877 0.297377
0.896142 0.966229 0.311729
0.909507 0.968023 0.313523
0.005330 0.021284 0.219992
0.018694 0.021901 0.216292
0.142617 0.035076 0.225150
0.266539 0.048250 0.234008
0.390462 0.061425 0.242866
0.514385 0.074600 0.251724
0.638307 0.087774 0.260582
0.762230 0.100949 0.269440
0.775594 0.101566 0.265740
0.010686 0.069349 0.219332
0.024051 0.069965 0.215632
0.147973 0.083140 0.224490
0.271896 0.096315 0.233348
0.395818 0.109489 0.242206
0.519741 0.122664 0.251063
0.643664 0.135839 0.259921
0.767586 0.149014 0.268779
0.780951 0.149630 0.265079
0.031891 0.196262 0.234521
0.045256 0.196879 0.230821
0.169179 0.210054 0.239679
0.293101 0.223228 0.248536
0.417024 0.236403 0.257394
0.540946 0.249578 0.266252
0.664869 0.262752 0.275110
0.788792 0.275927 0.283968
0.802156 0.276544 0.280268
0.053097 0.323176 0.249709
0.066461 0.323792 0.246009
0.190384 0.336967 0.254867
0.314306 0.350142 0.263725
0.438229 0.363316 0.272583
0.562152 0.376491 0.281441
0.686074 0.389666 0.290299
0.809997 0.403913 0.304163
0.823362 0.405707 0.305957
0.074302 0.450089 0.264898
0.087667 0.450706 0.261198
0.211589 0.463880 0.270056
0.335512 0.477055 0.278914
0.459435 0.490230 0.287772
0.583357 0.504434 0.301434
0.707280 0.518786 0.315786
0.831202 0.533138 0.330138
0.844567 0.534932 0.331932
0.095507 0.577002 0.280087
0.108872 0.577619 0.276387
0.232795 0.590794 0.285244
0.356717 0.604955 0.298705
0.480640 0.619307 0.313057
0.604563 0.633659 0.327409
0.728485 0.648011 0.341761
0.852408 0.662363 0.356113
0.865772 0.664157 0.357907
0.116713 0.703916 0.295275
0.130077 0.705475 0.295976
0.254000 0.719827 0.310327
0.377923 0.734179 0.324680
0.501845 0.748531 0.339031
0.625768 0.762883 0.353384
0.749691 0.777235 0.367735
0.873613 0.791587 0.382088
0.886978 0.793381 0.383881
0.137918 0.832906 0.320156
0.151283 0.834700 0.321950
0.275205 0.849052 0.336302
0.399128 0.863404 0.350654
0.523051 0.877756 0.365006
0.646973 0.892108 0.379358
0.770896 0.906460 0.393710
0.894818 0.920812 0.408062
0.908183 0.922606 0.409856
0.143274 0.883282 0.330282
0.156639 0.885076 0.332076
0.280562 0.899428 0.346428
0.404484 0.913780 0.360780
0.528407 0.928132 0.375132
0.652330 0.942484 0.389484
0.776252 0.956836 0.403836
0.900175 0.971188 0.418188
0.913540 0.972982 0.419982
0.009362 0.025794 0.324357
0.022727 0.026411 0.320657
0.146649 0.039586 0.329514
0.270572 0.052760 0.338372
0.394495 0.065935 0.347230
0.518417 0.079110 0.356088
0.642340 0.092285 0.364946
0.766263 0.105459 0.373804
0.779627 0.106076 0.370104
0.014719 0.073859 0.323696
0.028083 0.074476 0.319996
0.152006 0.087650 0.328854
0.275928 0.100825 0.337712
0.399851 0.114000 0.346570
0.523774 0.127174 0.355428
0.647696 0.140349 0.364286
0.771619 0.153524 0.373143
0.784984 0.154140 0.369443
0.035924 0.200772 0.338885
0.049289 0.201389 0.335185
0.173211 0.214564 0.344043
0.297134 0.227738 0.352901
0.421056 0.240913 0.361758
0.544979 0.254088 0.370616
0.668902 0.267262 0.379474
0.792824 0.280437 0.388332
0.806189 0.281442 0.386441
0.057129 0.327686 0.354074
0.070494 0.328302 0.350374
0.194417 0.341477 0.359231
0.318339 0.354652 0.368089
0.442262 0.367826 0.376947
0.566185 0.381001 0.385805
0.690107 0.394520 0.396270
0.814030 0.408872 0.410622
0.827394 0.410666 0.412416
0.078335 0.454599 0.369262
0.091699 0.455216 0.365562
0.215622 0.468390 0.374420
0.339545 0.481565 0.383278
0.463467 0.495041 0.393541
0.587390 0.509393 0.407893
0.711313 0.523745 0.422245
0.835235 0.538097 0.436597
0.848600 0.539891 0.438391
0.099540 0.581513 0.384451
0.112905 0.582129 0.380751
0.236827 0.595562 0.390812
0.360750 0.609914 0.405164
0.484673 0.624266 0.419516
0.608595 0.638618 0.433868
0.732518 0.652970 0.448220
0.856440 0.667322 0.462572
0.869805 0.669116 0.464366
0.120746 0.708640 0.400640
0.134110 0.710434 0.402434
0.258033 0.724787 0.416787
0.381955 0.739138 0.431138
0.505878 0.753490 0.445491
0.629801 0.767842 0.459842
0.753723 0.782194 0.474195
0.877646 0.796546 0.488546
0.891010 0.798340 0.490341
0.141951 0.837865 0.426615
0.155316 0.839659 0.428409
0.279238 0.854011 0.442761
0.403161 0.868363 0.457113
0.527083 0.882715 0.471465
0.651006 0.897067 0.485817
0.774929 0.911419 0.500169
0.898851 0.925771 0.514521
0.912216 0.927565 0.516315
0.147307 0.888241 0.436741
0.160672 0.890035 0.438535
0.284594 0.904387 0.452887
0.408517 0.918739 0.467239
0.532440 0.933091 0.481591
0.656362 0.947443 0.495943
0.780285 0.961795 0.510295
0.904208 0.976147 0.524647
0.917572 0.977941 0.526441
0.013395 0.030305 0.428721
0.026760 0.030921 0.425021
0.150682 0.044096 0.433879
0.274605 0.057271 0.442737
0.398527 0.070445 0.451594
0.522450 0.083620 0.460452
0.646373 0.096795 0.469310
0.770295 0.109969 0.478168
0.783660 0.110586 0.474468
0.018751 0.078369 0.428061
0.032116 0.078986 0.424360
0.156039 0.092160 0.433218
0.279961 0.105335 0.442076
0.403884 0.118510 0.450934
0.527806 0.131684 0.459792
0.651729 0.144859 0.468650
0.775652 0.158034 0.477508
0.789016 0.158650 0.473808
0.039957 0.205282 0.443249
0.053321 0.205899 0.439549
0.177244 0.219074 0.448407
0.301167 0.232248 0.457265
0.425089 0.245423 0.466123
0.549012 0.258598 0.474981
0.672935 0.271773 0.483839
0.796857 0.284947 0.492696
0.810222 0.286401 0.492901
0.061162 0.332196 0.458438
0.074527 0.332813 0.454738
0.198449 0.345987 0.463596
0.322372 0.359162 0.472453
0.446295 0.372337 0.481311
0.570217 0.385511 0.490169
0.694140 0.399479 0.502729
0.818063 0.413831 0.517081
0.831427 0.415625 0.518875
0.082368 0.459109 0.473627
0.095732 0.459726 0.469926
0.219655 0.472901 0.478784
0.343577 0.486075 0.487642
0.467500 0.500000 0.500000
0.591423 0.514352 0.514352
0.715345 0.528704 0.528704
0.839268 0.543056 0.543056
0.852633 0.544850 0.544850
0.103573 0.586023 0.488815
0.116937 0.586639 0.485115
0.240860 0.600521 0.497271
0.364783 0.614873 0.511623
0.488705 0.629225 0.525975
0.612628 0.643577 0.540327
0.736551 0.657929 0.554679
0.860473 0.672281 0.569031
0.873838 0.674075 0.570825
0.124778 0.713599 0.507100
0.138143 0.715393 0.508893
0.262066 0.729745 0.523246
0.385988 0.744097 0.537597
0.509911 0.758449 0.551949
0.633833 0.772801 0.566302
0.757756 0.787153 0.580654
0.881679 0.801505 0.595006
0.895043 0.803299 0.596800
0.145984 0.842824 0.533074
0.159348 0.844618 0.534868
0.283271 0.858970 0.549220
0.407193 0.873322 0.563572
0.531116 0.887674 0.577924
0.655039 0.902026 0.592276
0.778961 0.916378 0.606628
0.902884 0.930730 0.620980
0.916249 0.932524 0.622774
0.151340 0.893200 0.543200
0.164705 0.894994 0.544994
0.288627 0.909346 0.559346
0.412550 0.923698 0.573698
0.536472 0.938050 0.588050
0.660395 0.952402 0.602402
0.784318 0.966754 0.616754
0.908240 0.981106 0.631106
0.921605 0.982900 0.632900
0.017428 0.034815 0.533085
0.030792 0.035431 0.529385
0.154715 0.048606 0.538243
0.278638 0.061781 0.547101
0.402560 0.074955 0.555959
0.526483 0.088130 0.564817
0.650405 0.101305 0.573674
0.774328 0.114479 0.582532
0.787693 0.115096 0.578832
0.022784 0.082879 0.532425
0.036149 0.083496 0.528725
0.160071 0.096670 0.537583
0.283994 0.109845 0.546440
0.407917 0.123020 0.555298
0.531839 0.136194 0.564156
0.655762 0.149369 0.573014
0.779685 0.162544 0.581872
0.793049 0.163161 0.578172
0.043990 0.209793 0.547613
0.057354 0.210409 0.543913
0.181277 0.223584 0.552771
0.305199 0.236759 0.561629
0.429122 0.249933 0.570487
0.553045 0.263108 0.579345
0.676967 0.276283 0.588203
0.800890 0.289566 0.597565
0.814254 0.291359 0.599360
0.065195 0.336706 0.562802
0.078560 0.337323 0.559102
0.202482 0.350497 0.567960
0.326405 0.363672 0.576818
0.450327 0.376847 0.585676
0.574250 0.390086 0.594836
0.698173 0.404438 0.609188
0.822095 0.418790 0.623540
0.835460 0.420584 0.625334
0.086400 0.463619 0.577991
0.099765 0.464236 0.574291
0.223688 0.477411 0.583149
0.347610 0.490607 0.592107
0.471533 0.504959 0.606459
0.595455 0.519311 0.620811
0.719378 0.533663 0.635163
0.843301 0.548015 0.649515
0.856665 0.549809 0.651309
0.107606 0.590533 0.593179
0.120970 0.591149 0.589479
0.244893 0.605480 0.603730
0.368815 0.619832 0.618082
0.492738 0.634184 0.632434
0.616661 0.648536 0.646786
0.740583 0.662888 0.661138
0.864506 0.677240 0.675490
0.877871 0.679034 0.677284
0.128811 0.718558 0.613559
0.142176 0.720352 0.615352
0.266098 0.734704 0.629705
0.390021 0.749056 0.644057
0.513943 0.763408 0.658408
0.637866 0.777760 0.672760
0.761789 0.792112 0.687113
0.885711 0.806464 0.701464
0.899076 0.808258 0.703259
0.150016 0.847783 0.639533
0.163381 0.849577 0.641327
0.287304 0.863929 0.655679
0.411226 0.878281 0.670031
0.535149 0.892633 0.684383
0.659072 0.906985 0.698735
0.782994 0.921337 0.713087
0.906917 0.935689 0.727439
0.920281 0.937483 0.729233
0.155373 0.898159 0.649659
0.168737 0.899953 0.651453
0.292660 0.914305 0.665805
0.416583 0.928657 0.680157
0.540505 0.943009 0.694509
0.664428 0.957361 0.708861
0.788351 0.971713 0.723213
0.912273 0.986065 0.737565
0.925638 0.987859 0.739359
0.021461 0.039325 0.637449
0.034825 0.039941 0.633749
0.158748 0.053116 0.642607
0.282670 0.066291 0.651465
0.406593 0.079466 0.660323
0.530516 0.092640 0.669181
0.654438 0.105815 0.678039
0.778361 0.118990 0.686897
0.791725 0.119606 0.683196
0.026817 0.087389 0.636789
0.040182 0.088006 0.633089
0.164104 0.101181 0.641947
0.288027 0.114355 0.650805
0.411949 0.127530 0.659663
0.535872 0.140705 0.668520
0.659795 0.153879 0.677378
0.783717 0.167054 0.686236
0.797082 0.167671 0.682536
0.048022 0.214303 0.651978
0.061387 0.214919 0.648278
0.185309 0.228094 0.657135
0.309232 0.241269 0.665993
0.433155 0.254443 0.674851
0.557077 0.267618 0.683709
0.681000 0.280793 0.692567
0.804923 0.294525 0.704025
0.818287 0.296319 0.705819
0.069228 0.341216 0.667166
0.082592 0.341833 0.663466
0.206515 0.355007 0.672324
0.330437 0.368182 0.681182
0.454360 0.381357 0.690040
0.578283 0.395045 0.701295
0.702205 0.409397 0.715647
0.826128 0.423749 0.729999
0.839493 0.425543 0.731793
0.090433 0.468129 0.682355
0.103798 0.468746 0.678655
0.227720 0.481921 0.687513
0.351643 0.495566 0.698566
0.475565 0.509918 0.712918
0.599488 0.524270 0.727270
0.723411 0.538622 0.741622
0.847333 0.552974 0.755974
0.860698 0.554768 0.757768
0.111638 0.595043 0.697544
0.125003 0.596087 0.695837
0.248926 0.610439 0.710189
0.372848 0.624791 0.724541
0.496771 0.639143 0.738893
0.620694 0.653495 0.753245
0.744616 0.667847 0.767597
0.868539 0.682199 0.781949
0.881903 0.683993 0.783743
0.132844 0.723517 0.720017
0.146208 0.725311 0.721812
0.270131 0.739663 0.736163
0.394054 0.754015 0.750516
0.517976 0.768367 0.764868
0.641899 0.782719 0.779220
0.765822 0.797071 0.793571
0.889744 0.811423 0.807924
0.903109 0.813217 0.809717
0.154049 0.852742 0.745992
0.167414 0.854536 0.747786
0.291336 0.868888 0.762138
0.415259 0.883240 0.776490
0.539182 0.897592 0.790842
0.663104 0.911944 0.805194
0.787027 0.926296 0.819546
0.910949 0.940648 0.833898
0.924314 0.942442 0.835692
0.159406 0.903118 0.756118
0.172770 0.904912 0.757912
0.296693 0.919264 0.772264
0.420615 0.933616 0.786616
0.544538 0.947968 0.800968
0.668461 0.962320 0.815320
0.792383 0.976672 0.829672
0.916306 0.991024 0.844024
0.929670 0.992818 0.845818
0.025493 0.043835 0.741814
0.038858 0.044452 0.738114
0.162780 0.057626 0.746971
0.286703 0.070801 0.755829
0.410626 0.083976 0.764687
0.534548 0.097150 0.773545
0.658471 0.110325 0.782403
0.782394 0.123500 0.791261
0.795758 0.124116 0.787561
0.030850 0.091899 0.741153
0.044214 0.092516 0.737453
0.168137 0.105691 0.746311
0.292059 0.118865 0.755169
0.415982 0.132040 0.764027
0.539905 0.145215 0.772885
0.663827 0.158389 0.781743
0.787750 0.171564 0.790600
0.801115 0.172181 0.786900
0.052055 0.218813 0.756342
0.065420 0.219429 0.752642
0.189342 0.232604 0.761500
0.313265 0.245779 0.770358
0.437188 0.258954 0.779215
0.561110 0.272128 0.788073
0.685033 0.285303 0.796931
0.808955 0.299484 0.810483
0.822320 0.301278 0.812277
0.073260 0.345726 0.771531
0.086625 0.346343 0.767830
0.210548 0.359518 0.776688
0.334470 0.372692 0.785546
0.458393 0.385867 0.794404
0.582315 0.400004 0.807754
0.706238 0.414356 0.822106
0.830161 0.428708 0.836458
0.843525 0.430502 0.838252
0.094466 0.472640 0.786719
0.107830 0.473256 0.783019
0.231753 0.486431 0.791877
0.355676 0.500525 0.805025
0.479598 0.514877 0.819377
0.603521 0.529229 0.833729
0.727444 0.543581 0.848081
0.851366 0.557933 0.862433
0.864731 0.559727 0.864227
0.115671 0.599553 0.801908
0.129036 0.601046 0.802296
0.252958 0.615398 0.816648
0.376881 0.629750 0.831000
0.500804 0.644102 0.845352
0.624726 0.658454 0.859704
0.748649 0.672806 0.874056
0.872571 0.687158 0.888408
0.885936 0.688952 0.890202
0.136877 0.728476 0.826476
0.150241 0.730270 0.828270
0.274164 0.744622 0.842622
0.398086 0.758974 0.856974
0.522009 0.773326 0.871326
0.645932 0.787678 0.885678
0.769854 0.802030 0.900030
0.893777 0.816382 0.914382
0.907141 0.818176 0.916176
0.158082 0.857701 0.852451
0.171447 0.859495 0.854245
0.295369 0.873847 0.868597
0.419292 0.888199 0.882949
0.543214 0.902551 0.897301
0.667137 0.916903 0.911653
0.791060 0.931255 0.926005
0.914982 0.945607 0.940357
0.928347 0.947401 0.942151
0.163438 0.908077 0.862577
0.176803 0.909871 0.864371
0.300725 0.924223 0.878723
0.424648 0.938575 0.893075
0.548571 0.952927 0.907427
0.672493 0.967279 0.921779
0.796416 0.981631 0.936131
0.920339 0.995983 0.950483
0.933703 0.997777 0.952277
0.026790 0.045609 0.787442
0.040155 0.046226 0.783742
0.164077 0.059400 0.792600
0.288000 0.072575 0.801458
0.411922 0.085750 0.810315
0.535845 0.098924 0.819173
0.659768 0.112099 0.828031
0.783690 0.125274 0.836889
0.797055 0.125891 0.833189
0.032146 0.093673 0.786782
0.045511 0.094290 0.783081
0.169434 0.107465 0.791939
0.293356 0.120639 0.800797
0.417279 0.133814 0.809655
0.541202 0.146989 0.818513
0.665124 0.160164 0.827371
0.789047 0.173338 0.836229
0.802411 0.174276 0.834026
0.053352 0.220587 0.801970
0.066716 0.221204 0.798270
0.190639 0.234378 0.807128
0.314562 0.247553 0.815986
0.438484 0.260728 0.824844
0.562407 0.273902 0.833702
0.686330 0.287355 0.843854
0.810252 0.301707 0.858206
0.823617 0.303501 0.860000
0.074557 0.347500 0.817159
0.087922 0.348117 0.813459
0.211844 0.361292 0.822317
0.335767 0.374466 0.831175
0.459690 0.387875 0.841125
0.583612 0.402227 0.855477
0.707535 0.416579 0.869829
0.831457 0.430931 0.884181
0.844822 0.432725 0.885975
0.095763 0.474414 0.832347
0.109127 0.475030 0.828647
0.233050 0.488396 0.838396
0.356972 0.502748 0.852748
0.480895 0.517100 0.867100
0.604818 0.531452 0.881452
0.728740 0.545804 0.895804
0.852663 0.560156 0.910156
0.866028 0.561950 0.911950
0.116968 0.601475 0.848225
0.130333 0.603269 0.850019
0.254255 0.617621 0.864371
0.378178 0.631973 0.878723
0.502100 0.646325 0.893075
0.626023 0.660677 0.907427
0.749946 0.675029 0.921779
0.873868 0.689381 0.936131
0.887233 0.691175 0.937925
0.138173 0.730699 0.874200
0.151538 0.732493 0.875993
0.275460 0.746845 0.890346
0.399383 0.761197 0.904697
0.523306 0.775549 0.919049
0.647228 0.789901 0.933401
0.771151 0.804253 0.947753
0.895074 0.818605 0.962105
0.908438 0.820399 0.963899
0.159379 0.859924 0.900174
0.172743 0.861718 0.901968
0.296666 0.876070 0.916320
0.420589 0.890422 0.930672
0.544511 0.904774 0.945024
0.668434 0.919126 0.959376
0.792356 0.933478 0.973728
0.916279 0.947830 0.988080
0.929644 0.949624 0.989874
0.164735 0.910300 0.910300
0.178100 0.912094 0.912094
0.302022 0.926446 0.926446
0.425945 0.940798 0.940798
0.549867 0.955150 0.955150
0.673790 0.969502 0.969502
0.797713 0.983854 0.983854
0.921635 0.998206 0.998206
0.935000 1.000000 1.000000
