docs/luts/fresh-nikon-z6-contrast.cube
TITLE "FreshLUTs??-NikonZ6??"
LUT_3D_SIZE 5
DOMAIN_MIN 0.0 0.0 0.0
DOMAIN_MAX 1.0 1.0 1.0
0.000000 0.004000 0.016000
0.212944 0.004000 0.013488
0.507010 0.004000 0.010977
0.801076 0.004000 0.008465
1.000000 0.004000 0.005954
0.000000 0.220776 0.011069
0.210420 0.219520 0.008558
0.504486 0.217786 0.006046
0.798552 0.216052 0.003534
1.000000 0.214796 0.001023
0.000000 0.508130 0.006138
0.207074 0.506874 0.003627
0.501457 0.505140 0.001115
0.796554 0.503406 0.000000
1.000000 0.502150 0.000000
0.000279 0.795484 0.001208
0.205039 0.794228 0.000000
0.500135 0.792494 0.000000
0.795232 0.790760 0.000000
1.000000 0.789504 0.000000
0.002303 1.000000 0.000000
0.204539 1.000000 0.000000
0.499636 1.000000 0.000000
0.794732 1.000000 0.000000
1.000000 1.000000 0.000000
0.000000 0.004000 0.228764
0.212465 0.004000 0.224996
0.506531 0.004000 0.220750
0.800597 0.004000 0.216505
1.000000 0.004000 0.212737
0.000000 0.220297 0.221309
0.209941 0.219041 0.217541
0.504007 0.217307 0.213296
0.798073 0.215573 0.209050
1.000000 0.214317 0.205282
0.000000 0.507651 0.213032
0.206595 0.506395 0.209265
0.501372 0.504661 0.205019
0.796468 0.502927 0.203127
1.000000 0.501671 0.201871
0.000672 0.795005 0.204755
0.204953 0.793749 0.203250
0.500050 0.792015 0.201515
0.795147 0.790281 0.199781
1.000000 0.789025 0.198525
0.002697 1.000000 0.201981
0.204453 1.000000 0.200725
0.499550 1.000000 0.198991
0.794647 1.000000 0.197257
1.000000 1.000000 0.196001
0.000000 0.004000 0.522945
0.211804 0.004000 0.519177
0.505870 0.004000 0.514932
0.799936 0.004000 0.510686
1.000000 0.004000 0.506918
0.000000 0.219636 0.515490
0.209280 0.218380 0.511723
0.503346 0.216646 0.507477
0.797522 0.214912 0.503231
1.000000 0.213656 0.500356
0.000000 0.506990 0.507213
0.206007 0.505734 0.503446
0.501103 0.504000 0.500000
0.796200 0.502266 0.498266
1.000000 0.501010 0.497010
0.001066 0.794344 0.499644
0.204685 0.793088 0.498388
0.499782 0.791354 0.496654
0.794879 0.789620 0.494920
1.000000 0.788364 0.493664
0.003090 1.000000 0.497120
0.204185 1.000000 0.495864
0.499282 1.000000 0.494130
0.794379 1.000000 0.492396
1.000000 1.000000 0.491140
0.000000 0.004000 0.817126
0.211143 0.004000 0.813359
0.505209 0.004000 0.809113
0.799275 0.004000 0.804867
1.000000 0.004000 0.801100
0.000000 0.218975 0.809671
0.208619 0.217719 0.805904
0.502685 0.215985 0.801658
0.797254 0.214251 0.797412
1.000000 0.212995 0.795495
0.000000 0.506329 0.801394
0.205739 0.505073 0.797627
0.500835 0.503339 0.795139
0.795932 0.501605 0.793405
1.000000 0.500349 0.792149
0.001459 0.793683 0.794783
0.204417 0.792427 0.793527
0.499514 0.790693 0.791793
0.794610 0.788959 0.790059
1.000000 0.787703 0.788803
0.003483 1.000000 0.792259
0.203917 1.000000 0.791003
0.499014 1.000000 0.789269
0.794110 1.000000 0.787535
1.000000 1.000000 0.786279
0.000000 0.004000 1.000000
0.210664 0.004000 1.000000
0.504730 0.004000 1.000000
0.798796 0.004000 1.000000
1.000000 0.004000 1.000000
0.000000 0.218496 1.000000
0.208140 0.217240 1.000000
0.502206 0.215506 1.000000
0.797168 0.213772 1.000000
1.000000 0.212516 1.000000
0.000000 0.505850 1.000000
0.205653 0.504594 1.000000
0.500750 0.502860 1.000000
0.795846 0.501126 1.000000
1.000000 0.499870 1.000000
0.001852 0.793204 1.000000
0.204331 0.791948 1.000000
0.499428 0.790214 1.000000
0.794525 0.788480 1.000000
1.000000 0.787224 1.000000
0.003876 1.000000 1.000000
0.203831 1.000000 1.000000
0.498928 1.000000 1.000000
0.794025 1.000000 1.000000
1.000000 1.000000 1.000000
