docs/luts/fresh-cinematic-green.cube
TITLE "FreshLUTs??-????"
LUT_3D_SIZE 9
DOMAIN_MIN 0.0 0.0 0.0
DOMAIN_MAX 1.0 1.0 1.0
0.000000 0.068750 0.000000
0.050667 0.065853 0.000000
0.183683 0.063555 0.000000
0.316698 0.061256 0.000000
0.449713 0.058958 0.000000
0.582729 0.056659 0.000000
0.715744 0.054361 0.000000
0.848759 0.052062 0.000000
0.943176 0.049166 0.002508
0.000000 0.138623 0.000000
0.058408 0.135727 0.000000
0.191424 0.133428 0.000000
0.324439 0.131129 0.000000
0.457454 0.128831 0.000000
0.590470 0.126532 0.000000
0.723485 0.124234 0.001360
0.856500 0.121935 0.004948
0.950918 0.119039 0.007938
0.000000 0.267257 0.000000
0.067910 0.264361 0.000000
0.200926 0.262062 0.000000
0.333941 0.259764 0.000000
0.466956 0.257465 0.001375
0.599972 0.255167 0.004962
0.732987 0.252868 0.008550
0.866002 0.250569 0.012138
0.960420 0.247673 0.015129
0.000000 0.395892 0.000000
0.077412 0.392995 0.000000
0.210428 0.390696 0.001389
0.343443 0.388398 0.004977
0.476458 0.386099 0.008565
0.609474 0.383801 0.012153
0.742489 0.381502 0.015741
0.875096 0.379846 0.019096
0.966766 0.381266 0.020516
0.000000 0.524526 0.002002
0.086915 0.521629 0.004992
0.219930 0.519331 0.008580
0.352945 0.517032 0.012168
0.485960 0.514733 0.015756
0.618668 0.512918 0.019168
0.748937 0.514937 0.021187
0.879205 0.516955 0.023205
0.970875 0.518375 0.024625
0.001999 0.653160 0.009193
0.096417 0.650263 0.012183
0.229432 0.647965 0.015771
0.362241 0.645991 0.019241
0.492509 0.648009 0.021259
0.622777 0.650027 0.023277
0.753046 0.652046 0.025296
0.883314 0.654064 0.027314
0.974984 0.655484 0.028734
0.011501 0.781794 0.016383
0.105813 0.779063 0.019313
0.236081 0.781082 0.021332
0.366350 0.783100 0.023350
0.496618 0.785118 0.025368
0.626886 0.787136 0.027386
0.757154 0.789155 0.029405
0.887423 0.791173 0.031423
0.979093 0.792593 0.032843
0.018252 0.914752 0.022002
0.109922 0.916172 0.023422
0.240191 0.918191 0.025440
0.370459 0.920209 0.027459
0.500727 0.922227 0.029477
0.630995 0.924245 0.031495
0.761263 0.926264 0.033514
0.891532 0.928282 0.035532
0.983202 0.929702 0.036952
0.020600 0.993100 0.024350
0.112270 0.994520 0.025770
0.242539 0.996539 0.027788
0.372807 0.998557 0.029807
0.503075 1.000000 0.031825
0.633343 1.000000 0.033843
0.763611 1.000000 0.035861
0.893880 1.000000 0.037880
0.985550 1.000000 0.039300
0.000000 0.067753 0.084309
0.052363 0.064856 0.087299
0.185378 0.062557 0.090887
0.318394 0.060259 0.094475
0.451409 0.057960 0.098063
0.584424 0.055662 0.101651
0.717440 0.053363 0.105239
0.850455 0.051065 0.108827
0.944872 0.048168 0.111817
0.000000 0.137626 0.089739
0.060104 0.134729 0.092729
0.193119 0.132431 0.096317
0.326135 0.130132 0.099905
0.459150 0.127833 0.103493
0.592165 0.125535 0.107081
0.725181 0.123236 0.110669
0.858196 0.120938 0.114257
0.952613 0.118041 0.117247
0.000000 0.266260 0.096930
0.069606 0.263363 0.099920
0.202621 0.261065 0.103508
0.335637 0.258766 0.107096
0.468652 0.256468 0.110684
0.601667 0.254169 0.114272
0.734683 0.251870 0.117860
0.867698 0.249572 0.121448
0.962115 0.246675 0.124438
0.000000 0.394894 0.104121
0.079108 0.391997 0.107111
0.212124 0.389699 0.110699
0.345139 0.387400 0.114287
0.478154 0.385102 0.117875
0.611169 0.382803 0.121463
0.744185 0.380505 0.125051
0.875744 0.380494 0.127807
0.967414 0.381914 0.129227
0.000000 0.523528 0.111311
0.088610 0.520632 0.114301
0.221626 0.518333 0.117889
0.354641 0.516035 0.121477
0.487656 0.513736 0.125065
0.619317 0.513567 0.127879
0.749585 0.515585 0.129897
0.879853 0.517603 0.131916
0.971523 0.519023 0.133336
0.003695 0.652162 0.118502
0.098112 0.649266 0.121492
0.231128 0.646967 0.125080
0.362889 0.646639 0.127952
0.493157 0.648657 0.129970
0.623426 0.650676 0.131988
0.753694 0.652694 0.134006
0.883962 0.654712 0.136025
0.975632 0.656132 0.137445
0.013197 0.780797 0.125693
0.106462 0.779712 0.128024
0.236730 0.781730 0.130042
0.366998 0.783748 0.132061
0.497266 0.785766 0.134079
0.627535 0.787785 0.136097
0.757803 0.789803 0.138115
0.888071 0.791821 0.140134
0.979741 0.793241 0.141554
0.018900 0.915400 0.130713
0.110571 0.916821 0.132133
0.240839 0.918839 0.134151
0.371107 0.920857 0.136170
0.501375 0.922875 0.138188
0.631644 0.924894 0.140206
0.761912 0.926912 0.142224
0.892180 0.928930 0.144243
0.983850 0.930350 0.145663
0.021248 0.993748 0.133061
0.112919 0.995169 0.134481
0.243187 0.997187 0.136499
0.373455 0.999205 0.138518
0.503723 1.000000 0.140536
0.633992 1.000000 0.142554
0.764260 1.000000 0.144572
0.894528 1.000000 0.146591
0.986198 1.000000 0.148011
0.000000 0.066841 0.207954
0.054144 0.063944 0.210944
0.187160 0.061645 0.214532
0.320175 0.059347 0.218120
0.453190 0.057048 0.221708
0.586206 0.054750 0.225296
0.719221 0.052451 0.228884
0.852236 0.050153 0.232472
0.946654 0.047256 0.235462
0.000000 0.136714 0.213384
0.061885 0.133817 0.216374
0.194901 0.131519 0.219962
0.327916 0.129220 0.223550
0.460931 0.126921 0.227138
0.593947 0.124623 0.230726
0.726962 0.122324 0.234314
0.859977 0.120026 0.237902
0.954395 0.117129 0.240892
0.000000 0.265348 0.220575
0.071387 0.262451 0.223565
0.204403 0.260153 0.227153
0.337418 0.257854 0.230741
0.470433 0.255556 0.234329
0.603449 0.253257 0.237917
0.736464 0.250958 0.241505
0.869479 0.248660 0.245093
0.963897 0.245763 0.248083
0.000000 0.393982 0.227765
0.080889 0.391085 0.230756
0.213905 0.388787 0.234344
0.346920 0.386488 0.237931
0.479935 0.384190 0.241519
0.612951 0.381891 0.245108
0.745966 0.379593 0.248695
0.876478 0.381228 0.250853
0.968148 0.382648 0.252273
0.000000 0.522616 0.234956
0.090392 0.519720 0.237946
0.223407 0.517421 0.241534
0.356422 0.515123 0.245122
0.489438 0.512824 0.248710
0.620050 0.514301 0.250926
0.750319 0.516319 0.252944
0.880587 0.518337 0.254962
0.972257 0.519757 0.256382
0.005476 0.651250 0.242147
0.099894 0.648354 0.245137
0.232909 0.646055 0.248725
0.363623 0.647373 0.250998
0.493891 0.649391 0.253016
0.624159 0.651410 0.255034
0.754428 0.653428 0.257053
0.884696 0.655446 0.259071
0.976366 0.656866 0.260491
0.014978 0.779885 0.249338
0.107195 0.780446 0.251070
0.237464 0.782464 0.253089
0.367732 0.784482 0.255107
0.498000 0.786500 0.257125
0.628269 0.788519 0.259144
0.758537 0.790537 0.261162
0.888805 0.792555 0.263180
0.980475 0.793975 0.264600
0.019634 0.916134 0.253759
0.111305 0.917555 0.255180
0.241573 0.919573 0.257198
0.371841 0.921591 0.259216
0.502109 0.923609 0.261234
0.632378 0.925628 0.263253
0.762646 0.927646 0.265271
0.892914 0.929664 0.267289
0.984584 0.931084 0.268709
0.021982 0.994482 0.256107
0.113652 0.995903 0.257528
0.243921 0.997921 0.259546
0.374189 0.999939 0.261564
0.504457 1.000000 0.263582
0.634725 1.000000 0.265601
0.764994 1.000000 0.267619
0.895262 1.000000 0.269637
0.986932 1.000000 0.271057
0.000000 0.065929 0.331599
0.055926 0.063032 0.334589
0.188941 0.060733 0.338177
0.321956 0.058435 0.341765
0.454972 0.056136 0.345353
0.587987 0.053838 0.348941
0.721002 0.051539 0.352529
0.854017 0.049241 0.356117
0.948435 0.046344 0.359107
0.000000 0.135802 0.337029
0.063667 0.132905 0.340019
0.196682 0.130607 0.343607
0.329697 0.128308 0.347195
0.462713 0.126009 0.350783
0.595728 0.123711 0.354371
0.728743 0.121412 0.357959
0.861758 0.119114 0.361547
0.956176 0.116217 0.364537
0.000000 0.264436 0.344220
0.073169 0.261539 0.347210
0.206184 0.259241 0.350798
0.339199 0.256942 0.354386
0.472215 0.254644 0.357974
0.605230 0.252345 0.361562
0.738245 0.250047 0.365150
0.871261 0.247748 0.368738
0.964773 0.246273 0.371211
0.000000 0.393070 0.351410
0.082671 0.390173 0.354400
0.215686 0.387875 0.357988
0.348701 0.385576 0.361576
0.481717 0.383278 0.365164
0.614732 0.380979 0.368752
0.746944 0.379944 0.371881
0.877212 0.381962 0.373899
0.968882 0.383382 0.375320
0.000000 0.521704 0.358601
0.092173 0.518808 0.361591
0.225188 0.516509 0.365179
0.358203 0.514211 0.368767
0.490516 0.513016 0.371954
0.620784 0.515034 0.373972
0.751053 0.517053 0.375990
0.881321 0.519071 0.378008
0.972991 0.520491 0.379429
0.007258 0.650338 0.365792
0.101675 0.647442 0.368782
0.234089 0.646089 0.372026
0.364357 0.648107 0.374044
0.494625 0.650125 0.376063
0.624893 0.652143 0.378081
0.755162 0.654162 0.380099
0.885430 0.656180 0.382117
0.977100 0.657600 0.383538
0.016259 0.779759 0.372697
0.107929 0.781179 0.374117
0.238198 0.783198 0.376135
0.368466 0.785216 0.378153
0.498734 0.787234 0.380172
0.629002 0.789252 0.382190
0.759271 0.791271 0.384208
0.889539 0.793289 0.386226
0.981209 0.794709 0.387647
0.020368 0.916868 0.376806
0.112038 0.918288 0.378226
0.242307 0.920307 0.380244
0.372575 0.922325 0.382262
0.502843 0.924343 0.384281
0.633111 0.926361 0.386299
0.763380 0.928380 0.388317
0.893648 0.930398 0.390335
0.985318 0.931818 0.391756
0.022716 0.995216 0.379154
0.114386 0.996636 0.380574
0.244655 0.998655 0.382592
0.374923 1.000000 0.384610
0.505191 1.000000 0.386629
0.635459 1.000000 0.388647
0.765728 1.000000 0.390665
0.895996 1.000000 0.392683
0.987666 1.000000 0.394104
0.000000 0.065017 0.455244
0.057707 0.062120 0.458234
0.190722 0.059821 0.461822
0.323737 0.057523 0.465410
0.456753 0.055224 0.468998
0.589768 0.052926 0.472586
0.722783 0.050627 0.476174
0.855799 0.048329 0.479762
0.950216 0.045432 0.482752
0.000000 0.134890 0.460674
0.065448 0.131993 0.463664
0.198463 0.129695 0.467252
0.331479 0.127396 0.470840
0.464494 0.125097 0.474428
0.597509 0.122799 0.478016
0.730524 0.120500 0.481604
0.863540 0.118202 0.485192
0.957957 0.115305 0.488182
0.000000 0.263524 0.467865
0.074950 0.260627 0.470854
0.207965 0.258329 0.474442
0.340981 0.256030 0.478030
0.473996 0.253732 0.481619
0.607011 0.251433 0.485206
0.740027 0.249134 0.488795
0.873042 0.246836 0.492383
0.965507 0.247007 0.494257
0.000000 0.392158 0.475055
0.084452 0.389261 0.478045
0.217467 0.386963 0.481633
0.350483 0.384664 0.485221
0.483498 0.382366 0.488809
0.616513 0.380067 0.492397
0.747677 0.380677 0.494928
0.877946 0.382696 0.496946
0.969616 0.384116 0.498366
0.000000 0.520792 0.482246
0.093954 0.517896 0.485236
0.226969 0.515597 0.488824
0.359985 0.513299 0.492412
0.491250 0.513750 0.495000
0.621518 0.515768 0.497018
0.751786 0.517787 0.499036
0.882055 0.519805 0.501055
0.973725 0.521225 0.502475
0.009039 0.649426 0.489437
0.103456 0.646530 0.492427
0.234823 0.646823 0.495073
0.365091 0.648841 0.497091
0.495359 0.650859 0.499109
0.625627 0.652877 0.501127
0.755895 0.654896 0.503146
0.886164 0.656914 0.505164
0.977834 0.658334 0.506584
0.016993 0.780493 0.495743
0.108663 0.781913 0.497163
0.238931 0.783932 0.499182
0.369200 0.785950 0.501200
0.499468 0.787968 0.503218
0.629736 0.789986 0.505236
0.760004 0.792005 0.507255
0.890273 0.794023 0.509273
0.981943 0.795443 0.510693
0.021102 0.917602 0.499852
0.112772 0.919022 0.501272
0.243041 0.921041 0.503290
0.373309 0.923059 0.505309
0.503577 0.925077 0.507327
0.633845 0.927095 0.509345
0.764114 0.929114 0.511363
0.894382 0.931132 0.513382
0.986052 0.932552 0.514802
0.023450 0.995950 0.502200
0.115120 0.997370 0.503620
0.245388 0.999389 0.505638
0.375657 1.000000 0.507657
0.505925 1.000000 0.509675
0.636193 1.000000 0.511693
0.766462 1.000000 0.513711
0.896730 1.000000 0.515730
0.988400 1.000000 0.517150
0.000000 0.064105 0.578889
0.059488 0.061208 0.581879
0.192503 0.058909 0.585467
0.325519 0.056611 0.589055
0.458534 0.054312 0.592643
0.591549 0.052014 0.596231
0.724565 0.049715 0.599819
0.857580 0.047417 0.603407
0.951997 0.044520 0.606397
0.000000 0.133978 0.584319
0.067229 0.131081 0.587309
0.200244 0.128783 0.590897
0.333260 0.126484 0.594485
0.466275 0.124185 0.598073
0.599290 0.121887 0.601661
0.732306 0.119588 0.605249
0.865321 0.117290 0.608837
0.959738 0.114393 0.611827
0.000000 0.262612 0.591509
0.076731 0.259715 0.594499
0.209746 0.257417 0.598087
0.342762 0.255118 0.601675
0.475777 0.252820 0.605263
0.608792 0.250521 0.608851
0.741808 0.248222 0.612439
0.874571 0.246321 0.615883
0.966241 0.247741 0.617303
0.000000 0.391246 0.598700
0.086233 0.388349 0.601690
0.219249 0.386051 0.605278
0.352264 0.383752 0.608866
0.485279 0.381454 0.612454
0.618143 0.379393 0.615956
0.748411 0.381411 0.617974
0.878680 0.383430 0.619992
0.970350 0.384850 0.621412
0.001318 0.519880 0.605891
0.095735 0.516984 0.608881
0.228751 0.514685 0.612469
0.361716 0.512466 0.616028
0.491984 0.514484 0.618046
0.622252 0.516502 0.620065
0.752520 0.518520 0.622083
0.882789 0.520539 0.624101
0.974459 0.521959 0.625521
0.010820 0.648514 0.613082
0.105237 0.645618 0.616072
0.235556 0.647556 0.618119
0.365825 0.649575 0.620137
0.496093 0.651593 0.622155
0.626361 0.653611 0.624174
0.756629 0.655629 0.626192
0.886898 0.657648 0.628210
0.978568 0.659068 0.629630
0.017727 0.781227 0.618789
0.109397 0.782647 0.620210
0.239665 0.784665 0.622228
0.369934 0.786684 0.624246
0.500202 0.788702 0.626264
0.630470 0.790720 0.628283
0.760738 0.792738 0.630301
0.891007 0.794757 0.632319
0.982677 0.796177 0.633739
0.021836 0.918336 0.622898
0.113506 0.919756 0.624319
0.243774 0.921774 0.626337
0.374043 0.923793 0.628355
0.504311 0.925811 0.630373
0.634579 0.927829 0.632392
0.764847 0.929847 0.634410
0.895116 0.931866 0.636428
0.986786 0.933286 0.637848
0.024184 0.996684 0.625246
0.115854 0.998104 0.626667
0.246122 1.000000 0.628685
0.376391 1.000000 0.630703
0.506659 1.000000 0.632721
0.636927 1.000000 0.634740
0.767195 1.000000 0.636758
0.897464 1.000000 0.638776
0.989134 1.000000 0.640196
0.000000 0.063193 0.702534
0.061269 0.060296 0.705524
0.194285 0.057997 0.709112
0.327300 0.055699 0.712700
0.460315 0.053400 0.716288
0.593331 0.051102 0.719876
0.726346 0.048803 0.723464
0.859361 0.046505 0.727052
0.953778 0.043608 0.730042
0.000000 0.133066 0.707963
0.069010 0.130169 0.710954
0.202026 0.127871 0.714542
0.335041 0.125572 0.718129
0.468056 0.123273 0.721718
0.601072 0.120975 0.725306
0.734087 0.118676 0.728894
0.867102 0.116378 0.732482
0.961520 0.113481 0.735472
0.000000 0.261700 0.715154
0.078512 0.258803 0.718144
0.211528 0.256505 0.721732
0.344543 0.254206 0.725320
0.477558 0.251908 0.728908
0.610574 0.249609 0.732496
0.743589 0.247310 0.736084
0.875304 0.247054 0.738930
0.966975 0.248475 0.740350
0.000000 0.390334 0.722345
0.088014 0.387437 0.725335
0.221030 0.385139 0.728923
0.354045 0.382840 0.732511
0.487060 0.380542 0.736099
0.618877 0.380127 0.739002
0.749145 0.382145 0.741020
0.879413 0.384163 0.743039
0.971084 0.385584 0.744459
0.003099 0.518968 0.729536
0.097517 0.516072 0.732526
0.230532 0.513773 0.736114
0.362450 0.513200 0.739074
0.492718 0.515218 0.741093
0.622986 0.517236 0.743111
0.753254 0.519254 0.745129
0.883522 0.521273 0.747148
0.975193 0.522693 0.748568
0.012601 0.647602 0.736727
0.106022 0.646272 0.739147
0.236290 0.648290 0.741165
0.366559 0.650309 0.743184
0.496827 0.652327 0.745202
0.627095 0.654345 0.747220
0.757363 0.656363 0.749238
0.887632 0.658382 0.751257
0.979302 0.659802 0.752677
0.018461 0.781961 0.741836
0.110131 0.783381 0.743256
0.240399 0.785399 0.745274
0.370668 0.787418 0.747293
0.500936 0.789436 0.749311
0.631204 0.791454 0.751329
0.761472 0.793472 0.753347
0.891741 0.795491 0.755366
0.983411 0.796911 0.756786
0.022570 0.919070 0.745945
0.114240 0.920490 0.747365
0.244508 0.922508 0.749383
0.374777 0.924527 0.751402
0.505045 0.926545 0.753420
0.635313 0.928563 0.755438
0.765581 0.930581 0.757456
0.895849 0.932600 0.759475
0.987520 0.934020 0.760895
0.024918 0.997418 0.748293
0.116588 0.998838 0.749713
0.246856 1.000000 0.751731
0.377125 1.000000 0.753750
0.507393 1.000000 0.755768
0.637661 1.000000 0.757786
0.767929 1.000000 0.759804
0.898197 1.000000 0.761823
0.989868 1.000000 0.763243
0.000000 0.062281 0.826179
0.063051 0.059384 0.829169
0.196066 0.057085 0.832757
0.329081 0.054787 0.836345
0.462096 0.052488 0.839933
0.595112 0.050190 0.843521
0.728127 0.047891 0.847109
0.861142 0.045593 0.850697
0.955560 0.042696 0.853687
0.000000 0.132154 0.831608
0.070792 0.129257 0.834598
0.203807 0.126959 0.838186
0.336822 0.124660 0.841774
0.469838 0.122361 0.845362
0.602853 0.120063 0.848950
0.735868 0.117764 0.852538
0.868883 0.115466 0.856126
0.963301 0.112569 0.859116
0.000000 0.260788 0.838799
0.080294 0.257891 0.841789
0.213309 0.255593 0.845377
0.346324 0.253294 0.848965
0.479340 0.250996 0.852553
0.612355 0.248697 0.856141
0.745370 0.246398 0.859729
0.876038 0.247788 0.861976
0.967709 0.249209 0.863396
0.000000 0.389422 0.845990
0.089796 0.386526 0.848980
0.222811 0.384227 0.852568
0.355826 0.381928 0.856156
0.488842 0.379630 0.859744
0.619611 0.380861 0.862048
0.749879 0.382879 0.864067
0.880147 0.384897 0.866085
0.971818 0.386318 0.867505
0.004880 0.518056 0.853181
0.099298 0.515160 0.856171
0.232313 0.512861 0.859759
0.363183 0.513933 0.862121
0.493452 0.515952 0.864139
0.623720 0.517970 0.866157
0.753988 0.519988 0.868176
0.884256 0.522006 0.870194
0.975927 0.523427 0.871614
0.014383 0.646690 0.860371
0.106756 0.647006 0.862193
0.237024 0.649024 0.864212
0.367292 0.651042 0.866230
0.497561 0.653061 0.868248
0.627829 0.655079 0.870266
0.758097 0.657097 0.872285
0.888365 0.659115 0.874303
0.980036 0.660536 0.875723
0.019195 0.782695 0.864882
0.110865 0.784115 0.866302
0.241133 0.786133 0.868321
0.371401 0.788151 0.870339
0.501670 0.790170 0.872357
0.631938 0.792188 0.874375
0.762206 0.794206 0.876394
0.892474 0.796224 0.878412
0.984145 0.797645 0.879832
0.023304 0.919804 0.868991
0.114974 0.921224 0.870411
0.245242 0.923242 0.872430
0.375510 0.925260 0.874448
0.505779 0.927279 0.876466
0.636047 0.929297 0.878484
0.766315 0.931315 0.880503
0.896583 0.933333 0.882521
0.988254 0.934754 0.883941
0.025652 0.998152 0.871339
0.117322 0.999572 0.872759
0.247590 1.000000 0.874778
0.377858 1.000000 0.876796
0.508127 1.000000 0.878814
0.638395 1.000000 0.880832
0.768663 1.000000 0.882851
0.898931 1.000000 0.884869
0.990602 1.000000 0.886289
0.000000 0.061283 0.935488
0.064746 0.058386 0.938478
0.197762 0.056088 0.942066
0.330777 0.053789 0.945654
0.463792 0.051491 0.949242
0.596808 0.049192 0.952830
0.729823 0.046894 0.956418
0.862838 0.044595 0.960006
0.957256 0.041698 0.962996
0.000000 0.131156 0.940918
0.072487 0.128260 0.943908
0.205503 0.125961 0.947496
0.338518 0.123662 0.951084
0.471533 0.121364 0.954672
0.604549 0.119065 0.958260
0.737564 0.116767 0.961848
0.870579 0.114468 0.965436
0.964248 0.112748 0.967998
0.000000 0.259790 0.948108
0.081989 0.256894 0.951098
0.215005 0.254595 0.954687
0.348020 0.252297 0.958274
0.481035 0.249998 0.961862
0.614051 0.247700 0.965450
0.746418 0.246418 0.968668
0.876687 0.248437 0.970687
0.968357 0.249857 0.972107
0.000000 0.388425 0.955299
0.091491 0.385528 0.958289
0.224507 0.383229 0.961877
0.357522 0.380931 0.965465
0.489991 0.379491 0.968741
0.620259 0.381509 0.970759
0.750528 0.383527 0.972777
0.880796 0.385546 0.974796
0.972466 0.386966 0.976216
0.006576 0.517059 0.962490
0.100994 0.514162 0.965480
0.233563 0.512564 0.968813
0.363832 0.514582 0.970832
0.494100 0.516600 0.972850
0.624368 0.518618 0.974868
0.754636 0.520637 0.976886
0.884905 0.522655 0.978905
0.976575 0.524075 0.980325
0.015734 0.646234 0.969484
0.107404 0.647654 0.970904
0.237672 0.649673 0.972923
0.367941 0.651691 0.974941
0.498209 0.653709 0.976959
0.628477 0.655727 0.978977
0.758745 0.657746 0.980996
0.889014 0.659764 0.983014
0.980684 0.661184 0.984434
0.019843 0.783343 0.973593
0.111513 0.784763 0.975013
0.241782 0.786782 0.977031
0.372050 0.788800 0.979050
0.502318 0.790818 0.981068
0.632586 0.792836 0.983086
0.762854 0.794855 0.985104
0.893123 0.796873 0.987123
0.984793 0.798293 0.988543
0.023952 0.920452 0.977702
0.115622 0.921872 0.979122
0.245890 0.923891 0.981140
0.376159 0.925909 0.983159
0.506427 0.927927 0.985177
0.636695 0.929945 0.987195
0.766964 0.931964 0.989213
0.897232 0.933982 0.991232
0.988902 0.935402 0.992652
0.026300 0.998800 0.980050
0.117970 1.000000 0.981470
0.248238 1.000000 0.983488
0.378507 1.000000 0.985507
0.508775 1.000000 0.987525
0.639043 1.000000 0.989543
0.769311 1.000000 0.991561
0.899580 1.000000 0.993580
0.991250 1.000000 0.995000
