docs/luts/fresh-kodak-2383.cube
TITLE "FreshLUTs??-Kodak2383"
LUT_3D_SIZE 33
DOMAIN_MIN 0.0 0.0 0.0
DOMAIN_MAX 1.0 1.0 1.0
0.000000 0.000000 0.000000
0.000000 0.000000 0.000000
0.010210 0.000000 0.000000
0.045946 0.000000 0.000000
0.081682 0.000000 0.000000
0.117418 0.000000 0.000000
0.153154 0.000000 0.000000
0.188891 0.000000 0.000000
0.224627 0.000000 0.000000
0.260363 0.000000 0.000000
0.296099 0.000000 0.000000
0.331835 0.000000 0.000000
0.367571 0.000000 0.000000
0.403307 0.000000 0.000000
0.439043 0.000000 0.000000
0.474779 0.000000 0.000000
0.510515 0.000000 0.000000
0.546251 0.000000 0.000000
0.581987 0.000000 0.000000
0.617723 0.000000 0.000000
0.653459 0.000000 0.000000
0.689195 0.000000 0.000000
0.724931 0.000000 0.000000
0.760667 0.000000 0.000000
0.796403 0.000000 0.000000
0.832139 0.000000 0.000000
0.867876 0.000000 0.000000
0.903612 0.000000 0.000000
0.939348 0.000000 0.000000
0.975084 0.000000 0.000000
1.000000 0.000000 0.000000
1.000000 0.000000 0.000000
1.000000 0.000000 0.000000
0.000000 0.000000 0.000000
0.000000 0.000000 0.000000
0.010210 0.000000 0.000000
0.045946 0.000000 0.000000
0.081682 0.000000 0.000000
0.117418 0.000000 0.000000
0.153154 0.000000 0.000000
0.188891 0.000000 0.000000
0.224627 0.000000 0.000000
0.260363 0.000000 0.000000
0.296099 0.000000 0.000000
0.331835 0.000000 0.000000
0.367571 0.000000 0.000000
0.403307 0.000000 0.000000
0.439043 0.000000 0.000000
0.474779 0.000000 0.000000
0.510515 0.000000 0.000000
0.546251 0.000000 0.000000
0.581987 0.000000 0.000000
0.617723 0.000000 0.000000
0.653459 0.000000 0.000000
0.689195 0.000000 0.000000
0.724931 0.000000 0.000000
0.760667 0.000000 0.000000
0.796403 0.000000 0.000000
0.832139 0.000000 0.000000
0.867876 0.000000 0.000000
0.903612 0.000000 0.000000
0.939348 0.000000 0.000000
0.975084 0.000000 0.000000
1.000000 0.000000 0.000000
1.000000 0.000000 0.000000
1.000000 0.000000 0.000000
0.000000 0.027841 0.000000
0.000000 0.027841 0.000000
0.009726 0.027751 0.000000
0.045462 0.027437 0.000000
0.081198 0.027123 0.000000
0.116934 0.026809 0.000000
0.152670 0.026495 0.000000
0.188406 0.026181 0.000000
0.224142 0.025867 0.000000
0.259878 0.025553 0.000000
0.295614 0.025239 0.000000
0.331350 0.024925 0.000000
0.367087 0.024612 0.000000
0.402823 0.024298 0.000000
0.438559 0.023984 0.000000
0.474295 0.023670 0.000000
0.510031 0.023356 0.000000
0.545767 0.023042 0.000000
0.581503 0.022728 0.000000
0.617239 0.022414 0.000000
0.652975 0.022100 0.000000
0.688711 0.021786 0.000000
0.724447 0.021472 0.000000
0.760183 0.021158 0.000000
0.795919 0.020844 0.000000
0.831655 0.020530 0.000000
0.867391 0.020216 0.000000
0.903127 0.019902 0.000000
0.938863 0.019588 0.000000
0.974599 0.019274 0.000000
1.000000 0.018960 0.000000
1.000000 0.018871 0.000000
1.000000 0.018871 0.000000
0.000000 0.062009 0.000000
0.000000 0.062009 0.000000
0.009132 0.061919 0.000000
0.044868 0.061605 0.000000
0.080604 0.061291 0.000000
0.116340 0.060977 0.000000
0.152076 0.060663 0.000000
0.187812 0.060349 0.000000
0.223548 0.060035 0.000000
0.259284 0.059722 0.000000
0.295020 0.059408 0.000000
0.330756 0.059094 0.000000
0.366492 0.058780 0.000000
0.402228 0.058466 0.000000
0.437964 0.058152 0.000000
0.473700 0.057838 0.000000
0.509436 0.057524 0.000000
0.545172 0.057210 0.000000
0.580908 0.056896 0.000000
0.616645 0.056582 0.000000
0.652381 0.056268 0.000000
0.688117 0.055954 0.000000
0.723853 0.055640 0.000000
0.759589 0.055326 0.000000
0.795325 0.055012 0.000000
0.831061 0.054698 0.000000
0.866797 0.054384 0.000000
0.902533 0.054070 0.000000
0.938269 0.053756 0.000000
0.974005 0.053443 0.000000
1.000000 0.053129 0.000000
1.000000 0.053039 0.000000
1.000000 0.053039 0.000000
0.000000 0.096177 0.000000
0.000000 0.096177 0.000000
0.008537 0.096087 0.000000
0.044273 0.095773 0.000000
0.080009 0.095459 0.000000
0.115745 0.095145 0.000000
0.151482 0.094832 0.000000
0.187218 0.094518 0.000000
0.222954 0.094204 0.000000
0.258690 0.093890 0.000000
0.294426 0.093576 0.000000
0.330162 0.093262 0.000000
0.365898 0.092948 0.000000
0.401634 0.092634 0.000000
0.437370 0.092320 0.000000
0.473106 0.092006 0.000000
0.508842 0.091692 0.000000
0.544578 0.091378 0.000000
0.580314 0.091064 0.000000
0.616050 0.090750 0.000000
0.651786 0.090436 0.000000
0.687522 0.090122 0.000000
0.723258 0.089808 0.000000
0.758994 0.089494 0.000000
0.794730 0.089180 0.000000
0.830467 0.088866 0.000000
0.866203 0.088553 0.000000
0.901939 0.088239 0.000000
0.937675 0.087925 0.000000
0.973411 0.087611 0.000000
1.000000 0.087297 0.000000
1.000000 0.087207 0.000000
1.000000 0.087207 0.000000
0.000000 0.130345 0.000000
0.000000 0.130345 0.000000
0.007943 0.130256 0.000000
0.043679 0.129942 0.000000
0.079415 0.129628 0.000000
0.115151 0.129314 0.000000
0.150887 0.129000 0.000000
0.186623 0.128686 0.000000
0.222359 0.128372 0.000000
0.258095 0.128058 0.000000
0.293831 0.127744 0.000000
0.329567 0.127430 0.000000
0.365304 0.127116 0.000000
0.401040 0.126802 0.000000
0.436776 0.126488 0.000000
0.472512 0.126174 0.000000
0.508248 0.125860 0.000000
0.543984 0.125546 0.000000
0.579720 0.125232 0.000000
0.615456 0.124918 0.000000
0.651192 0.124604 0.000000
0.686928 0.124290 0.000000
0.722664 0.123977 0.000000
0.758400 0.123663 0.000000
0.794136 0.123349 0.000000
0.829872 0.123035 0.000000
0.865608 0.122721 0.000000
0.901344 0.122407 0.000000
0.937080 0.122093 0.000000
0.972816 0.121779 0.000000
1.000000 0.121465 0.000000
1.000000 0.121375 0.000000
1.000000 0.121375 0.000000
0.000000 0.164513 0.000000
0.000000 0.164513 0.000000
0.007349 0.164424 0.000000
0.043085 0.164110 0.000000
0.078821 0.163796 0.000000
0.114557 0.163482 0.000000
0.150293 0.163168 0.000000
0.186029 0.162854 0.000000
0.221765 0.162540 0.000000
0.257501 0.162226 0.000000
0.293237 0.161912 0.000000
0.328973 0.161598 0.000000
0.364709 0.161284 0.000000
0.400445 0.160970 0.000000
0.436181 0.160656 0.000000
0.471917 0.160342 0.000000
0.507653 0.160028 0.000000
0.543389 0.159714 0.000000
0.579125 0.159400 0.000000
0.614862 0.159087 0.000000
0.650598 0.158773 0.000000
0.686334 0.158459 0.000000
0.722070 0.158145 0.000000
0.757806 0.157831 0.000000
0.793542 0.157517 0.000000
0.829278 0.157203 0.000000
0.865014 0.156889 0.000000
0.900750 0.156575 0.000000
0.936486 0.156261 0.000000
0.972222 0.155947 0.000000
1.000000 0.155633 0.000000
1.000000 0.155543 0.000000
1.000000 0.155543 0.000000
0.000000 0.198682 0.000000
0.000000 0.198682 0.000000
0.006754 0.198592 0.000000
0.042490 0.198278 0.000000
0.078226 0.197964 0.000000
0.113962 0.197650 0.000000
0.149699 0.197336 0.000000
0.185435 0.197022 0.000000
0.221171 0.196708 0.000000
0.256907 0.196394 0.000000
0.292643 0.196080 0.000000
0.328379 0.195766 0.000000
0.364115 0.195452 0.000000
0.399851 0.195138 0.000000
0.435587 0.194824 0.000000
0.471323 0.194510 0.000000
0.507059 0.194197 0.000000
0.542795 0.193883 0.000000
0.578531 0.193569 0.000000
0.614267 0.193255 0.000000
0.650003 0.192941 0.000000
0.685739 0.192627 0.000000
0.721475 0.192313 0.000000
0.757211 0.191999 0.000000
0.792947 0.191685 0.000000
0.828683 0.191371 0.000000
0.864420 0.191057 0.000000
0.900156 0.190743 0.000000
0.935892 0.190429 0.000000
0.971628 0.190115 0.000000
1.000000 0.189801 0.000000
1.000000 0.189712 0.000000
1.000000 0.189941 0.000000
0.000000 0.232850 0.000000
0.000000 0.232850 0.000000
0.006160 0.232760 0.000000
0.041896 0.232446 0.000000
0.077632 0.232132 0.000000
0.113368 0.231818 0.000000
0.149104 0.231504 0.000000
0.184840 0.231190 0.000000
0.220576 0.230876 0.000000
0.256312 0.230562 0.000000
0.292048 0.230248 0.000000
0.327784 0.229934 0.000000
0.363521 0.229620 0.000000
0.399257 0.229307 0.000000
0.434993 0.228993 0.000000
0.470729 0.228679 0.000000
0.506465 0.228365 0.000000
0.542201 0.228051 0.000000
0.577937 0.227737 0.000000
0.613673 0.227423 0.000000
0.649409 0.227109 0.000000
0.685145 0.226795 0.000000
0.720881 0.226481 0.000000
0.756617 0.226167 0.000000
0.792353 0.225853 0.000000
0.828089 0.225539 0.000000
0.863825 0.225225 0.000000
0.899561 0.224911 0.000000
0.935297 0.224597 0.000000
0.971033 0.224283 0.000000
1.000000 0.224189 0.000000
1.000000 0.224389 0.000000
1.000000 0.224679 0.000000
0.000000 0.267018 0.000000
0.000000 0.267018 0.000000
0.005566 0.266928 0.000000
0.041302 0.266614 0.000000
0.077038 0.266300 0.000000
0.112774 0.265986 0.000000
0.148510 0.265672 0.000000
0.184246 0.265358 0.000000
0.219982 0.265044 0.000000
0.255718 0.264731 0.000000
0.291454 0.264417 0.000000
0.327190 0.264103 0.000000
0.362926 0.263789 0.000000
0.398662 0.263475 0.000000
0.434398 0.263161 0.000000
0.470134 0.262847 0.000000
0.505870 0.262533 0.000000
0.541606 0.262219 0.000000
0.577342 0.261905 0.000000
0.613079 0.261591 0.000000
0.648815 0.261277 0.000000
0.684551 0.260963 0.000000
0.720287 0.260649 0.000000
0.756023 0.260335 0.000000
0.791759 0.260021 0.000000
0.827495 0.259707 0.000000
0.863231 0.259393 0.000000
0.898967 0.259079 0.000000
0.935224 0.258974 0.000000
0.971685 0.258950 0.000000
1.000000 0.258926 0.000000
1.000000 0.259126 0.000000
1.000000 0.259416 0.000000
0.000000 0.301186 0.000000
0.000000 0.301186 0.000000
0.004971 0.301096 0.000000
0.040707 0.300782 0.000000
0.076443 0.300468 0.000000
0.112179 0.300154 0.000000
0.147916 0.299841 0.000000
0.183652 0.299527 0.000000
0.219388 0.299213 0.000000
0.255124 0.298899 0.000000
0.290860 0.298585 0.000000
0.326596 0.298271 0.000000
0.362332 0.297957 0.000000
0.398068 0.297643 0.000000
0.433804 0.297329 0.000000
0.469540 0.297015 0.000000
0.505276 0.296701 0.000000
0.541012 0.296387 0.000000
0.576748 0.296073 0.000000
0.612484 0.295759 0.000000
0.648220 0.295445 0.000000
0.683956 0.295131 0.000000
0.719692 0.294817 0.000000
0.755428 0.294503 0.000000
0.791164 0.294189 0.000000
0.826900 0.293875 0.000000
0.863131 0.293759 0.000000
0.899592 0.293735 0.000000
0.936053 0.293711 0.000000
0.972514 0.293687 0.000000
1.000000 0.293663 0.000000
1.000000 0.293864 0.000000
1.000000 0.294154 0.000000
0.000000 0.335354 0.000000
0.000000 0.335354 0.000000
0.004377 0.335264 0.000000
0.040113 0.334951 0.000000
0.075849 0.334637 0.000000
0.111585 0.334323 0.000000
0.147321 0.334009 0.000000
0.183057 0.333695 0.000000
0.218793 0.333381 0.000000
0.254529 0.333067 0.000000
0.290265 0.332753 0.000000
0.326001 0.332439 0.000000
0.361737 0.332125 0.000000
0.397474 0.331811 0.000000
0.433210 0.331497 0.000000
0.468946 0.331183 0.000000
0.504682 0.330869 0.000000
0.540418 0.330555 0.000000
0.576154 0.330241 0.000000
0.611890 0.329927 0.000000
0.647626 0.329613 0.000000
0.683362 0.329299 0.000000
0.719098 0.328985 0.000000
0.754834 0.328672 0.000000
0.791038 0.328545 0.000000
0.827499 0.328521 0.000000
0.863960 0.328497 0.000000
0.900421 0.328473 0.000000
0.936882 0.328449 0.000000
0.973343 0.328425 0.000000
1.000000 0.328401 0.000000
1.000000 0.328601 0.000000
1.000000 0.328891 0.000000
0.000000 0.369522 0.000000
0.000000 0.369522 0.000000
0.003783 0.369433 0.000000
0.039519 0.369119 0.000000
0.075255 0.368805 0.000000
0.110991 0.368491 0.000000
0.146727 0.368177 0.000000
0.182463 0.367863 0.000000
0.218199 0.367549 0.000000
0.253935 0.367235 0.000000
0.289671 0.366921 0.000000
0.325407 0.366607 0.000000
0.361143 0.366293 0.000000
0.396879 0.365979 0.000000
0.432615 0.365665 0.000000
0.468351 0.365351 0.000000
0.504087 0.365037 0.000000
0.539823 0.364723 0.000000
0.575559 0.364409 0.000000
0.611295 0.364096 0.000000
0.647032 0.363782 0.000000
0.682768 0.363468 0.000000
0.718945 0.363330 0.000000
0.755406 0.363306 0.000000
0.791867 0.363282 0.000000
0.828328 0.363258 0.000000
0.864789 0.363234 0.000000
0.901250 0.363210 0.000000
0.937711 0.363186 0.000000
0.974172 0.363162 0.000000
1.000000 0.363138 0.000000
1.000000 0.363339 0.000000
1.000000 0.363629 0.000000
0.000000 0.403691 0.000000
0.000000 0.403691 0.000000
0.003188 0.403601 0.000000
0.038924 0.403287 0.000000
0.074660 0.402973 0.000000
0.110396 0.402659 0.000000
0.146133 0.402345 0.000000
0.181869 0.402031 0.000000
0.217605 0.401717 0.000000
0.253341 0.401403 0.000000
0.289077 0.401089 0.000000
0.324813 0.400775 0.000000
0.360549 0.400461 0.000000
0.396285 0.400147 0.000000
0.432021 0.399833 0.000000
0.467757 0.399519 0.000000
0.503493 0.399206 0.000000
0.539229 0.398892 0.000000
0.574965 0.398578 0.000000
0.610701 0.398264 0.000000
0.646852 0.398116 0.000000
0.683313 0.398092 0.000000
0.719774 0.398068 0.000000
0.756235 0.398044 0.000000
0.792696 0.398020 0.000000
0.829157 0.397996 0.000000
0.865618 0.397972 0.000000
0.902079 0.397948 0.000000
0.938540 0.397924 0.000000
0.975001 0.397900 0.000000
1.000000 0.397876 0.000000
1.000000 0.398076 0.000000
1.000000 0.398366 0.000000
0.000000 0.437859 0.000000
0.000000 0.437859 0.000000
0.002594 0.437769 0.000000
0.038330 0.437455 0.000000
0.074066 0.437141 0.000000
0.109802 0.436827 0.000000
0.145538 0.436513 0.000000
0.181274 0.436199 0.000000
0.217010 0.435885 0.000000
0.252746 0.435571 0.000000
0.288482 0.435257 0.000000
0.324218 0.434943 0.000000
0.359954 0.434629 0.000000
0.395691 0.434316 0.000000
0.431427 0.434002 0.000000
0.467163 0.433688 0.000000
0.502899 0.433374 0.000000
0.538635 0.433060 0.000000
0.574759 0.432901 0.000000
0.611220 0.432877 0.000000
0.647681 0.432853 0.000000
0.684142 0.432829 0.000000
0.720603 0.432805 0.000000
0.757064 0.432781 0.000000
0.793525 0.432757 0.000000
0.829986 0.432733 0.000000
0.866447 0.432709 0.000000
0.902908 0.432685 0.000000
0.939369 0.432661 0.000000
0.975830 0.432637 0.000000
1.000000 0.432613 0.000000
1.000000 0.432814 0.000000
1.000000 0.433104 0.000000
0.000000 0.472027 0.000000
0.000000 0.472027 0.000000
0.002000 0.471937 0.000000
0.037736 0.471623 0.000000
0.073472 0.471309 0.000000
0.109208 0.470995 0.000000
0.144944 0.470681 0.000000
0.180680 0.470367 0.000000
0.216416 0.470053 0.000000
0.252152 0.469739 0.000000
0.287888 0.469426 0.000000
0.323624 0.469112 0.000000
0.359360 0.468798 0.000000
0.395096 0.468484 0.000000
0.430832 0.468170 0.000000
0.466568 0.467856 0.000000
0.502666 0.467686 0.000000
0.539127 0.467662 0.000000
0.575588 0.467638 0.000000
0.612049 0.467614 0.000000
0.648510 0.467590 0.000000
0.684971 0.467566 0.000000
0.721432 0.467543 0.000000
0.757893 0.467519 0.000000
0.794354 0.467495 0.000000
0.830815 0.467471 0.000000
0.867276 0.467447 0.000000
0.903737 0.467423 0.000000
0.940198 0.467399 0.000000
0.976659 0.467375 0.000000
1.000000 0.467351 0.000000
1.000000 0.467551 0.000000
1.000000 0.467841 0.000000
0.000000 0.506195 0.000000
0.000000 0.506195 0.000000
0.001405 0.506105 0.000000
0.037141 0.505791 0.000000
0.072877 0.505477 0.000000
0.108613 0.505163 0.000000
0.144349 0.504849 0.000000
0.180086 0.504536 0.000000
0.215822 0.504222 0.000000
0.251558 0.503908 0.000000
0.287294 0.503594 0.000000
0.323030 0.503280 0.000000
0.358766 0.502966 0.000000
0.394502 0.502652 0.000000
0.430572 0.502472 0.000000
0.467033 0.502448 0.000000
0.503494 0.502424 0.000000
0.539955 0.502400 0.000000
0.576416 0.502376 0.000000
0.612877 0.502352 0.000000
0.649338 0.502328 0.000000
0.685799 0.502304 0.000000
0.722260 0.502280 0.000000
0.758721 0.502256 0.000000
0.795182 0.502232 0.000000
0.831643 0.502208 0.000000
0.868104 0.502184 0.000000
0.904565 0.502160 0.000000
0.941026 0.502136 0.000000
0.977487 0.502112 0.000000
1.000000 0.502088 0.000000
1.000000 0.502288 0.000000
1.000000 0.502578 0.000000
0.000000 0.540363 0.000000
0.000000 0.540363 0.000000
0.000811 0.540273 0.000000
0.036547 0.539960 0.000000
0.072283 0.539646 0.000000
0.108019 0.539332 0.000000
0.143755 0.539018 0.000000
0.179491 0.538704 0.000000
0.215227 0.538390 0.000000
0.250963 0.538076 0.000000
0.286699 0.537762 0.000000
0.322435 0.537448 0.000000
0.358479 0.537257 0.000000
0.394940 0.537233 0.000000
0.431401 0.537209 0.000000
0.467862 0.537185 0.000000
0.504323 0.537161 0.000000
0.540784 0.537137 0.000000
0.577245 0.537113 0.000000
0.613706 0.537089 0.000000
0.650167 0.537065 0.000000
0.686628 0.537041 0.000000
0.723089 0.537017 0.000000
0.759550 0.536993 0.000000
0.796011 0.536969 0.000000
0.832472 0.536946 0.000000
0.868933 0.536922 0.000000
0.905394 0.536898 0.000000
0.941855 0.536874 0.000000
0.978316 0.536850 0.000000
1.000000 0.536826 0.000000
1.000000 0.537026 0.000000
1.000000 0.537316 0.000000
0.000000 0.574531 0.000000
0.000000 0.574531 0.000000
0.000217 0.574442 0.000000
0.035953 0.574128 0.000000
0.071689 0.573814 0.000000
0.107425 0.573500 0.000000
0.143161 0.573186 0.000000
0.178897 0.572872 0.000000
0.214633 0.572558 0.000000
0.250369 0.572244 0.000000
0.286386 0.572043 0.000000
0.322847 0.572019 0.000000
0.359308 0.571995 0.000000
0.395769 0.571971 0.000000
0.432230 0.571947 0.000000
0.468691 0.571923 0.000000
0.505152 0.571899 0.000000
0.541613 0.571875 0.000000
0.578074 0.571851 0.000000
0.614535 0.571827 0.000000
0.650996 0.571803 0.000000
0.687457 0.571779 0.000000
0.723918 0.571755 0.000000
0.760379 0.571731 0.000000
0.796840 0.571707 0.000000
0.833301 0.571683 0.000000
0.869762 0.571659 0.000000
0.906223 0.571635 0.000000
0.942684 0.571611 0.000000
0.979145 0.571587 0.000000
1.000000 0.571563 0.000000
1.000000 0.571763 0.000000
1.000000 0.572053 0.000000
0.000000 0.608699 0.000000
0.000000 0.608699 0.000000
0.000000 0.608610 0.000000
0.035358 0.608296 0.000000
0.071094 0.607982 0.000000
0.106830 0.607668 0.000000
0.142566 0.607354 0.000000
0.178303 0.607040 0.000000
0.214293 0.606828 0.000000
0.250754 0.606804 0.000000
0.287215 0.606780 0.000000
0.323676 0.606756 0.000000
0.360137 0.606732 0.000000
0.396598 0.606708 0.000000
0.433059 0.606684 0.000000
0.469520 0.606660 0.000000
0.505981 0.606636 0.000000
0.542442 0.606612 0.000000
0.578903 0.606588 0.000000
0.615364 0.606564 0.000000
0.651825 0.606540 0.000000
0.688286 0.606516 0.000000
0.724747 0.606492 0.000000
0.761208 0.606468 0.000000
0.797669 0.606444 0.000000
0.834130 0.606420 0.000000
0.870591 0.606396 0.000000
0.907052 0.606372 0.000000
0.943513 0.606348 0.000000
0.979974 0.606325 0.000000
1.000000 0.606301 0.000000
1.000000 0.606501 0.000000
1.000000 0.606791 0.000000
0.000000 0.642868 0.000000
0.000000 0.642868 0.000000
0.000000 0.642778 0.000000
0.034764 0.642464 0.000000
0.070500 0.642150 0.000000
0.106236 0.641836 0.000000
0.142200 0.641613 0.000000
0.178661 0.641589 0.000000
0.215122 0.641565 0.000000
0.251583 0.641541 0.000000
0.288044 0.641517 0.000000
0.324505 0.641493 0.000000
0.360966 0.641469 0.000000
0.397427 0.641446 0.000000
0.433888 0.641422 0.000000
0.470349 0.641398 0.000000
0.506810 0.641374 0.000000
0.543271 0.641350 0.000000
0.579732 0.641326 0.000000
0.616193 0.641302 0.000000
0.652654 0.641278 0.000000
0.689115 0.641254 0.000000
0.725576 0.641230 0.000000
0.762037 0.641206 0.000000
0.798498 0.641182 0.000000
0.834959 0.641158 0.000000
0.871420 0.641134 0.000000
0.907881 0.641110 0.000000
0.944342 0.641086 0.000000
0.980803 0.641062 0.000000
1.000000 0.641038 0.000000
1.000000 0.641238 0.000000
1.000000 0.641528 0.000000
0.000000 0.677036 0.000000
0.000000 0.677036 0.000000
0.000000 0.676946 0.000000
0.034170 0.676632 0.000000
0.070107 0.676399 0.000000
0.106568 0.676375 0.000000
0.143029 0.676351 0.000000
0.179490 0.676327 0.000000
0.215951 0.676303 0.000000
0.252412 0.676279 0.000000
0.288873 0.676255 0.000000
0.325334 0.676231 0.000000
0.361795 0.676207 0.000000
0.398256 0.676183 0.000000
0.434717 0.676159 0.000000
0.471178 0.676135 0.000000
0.507639 0.676111 0.000000
0.544100 0.676087 0.000000
0.580561 0.676063 0.000000
0.617022 0.676039 0.000000
0.653483 0.676015 0.000000
0.689944 0.675991 0.000000
0.726405 0.675967 0.000000
0.762866 0.675943 0.000000
0.799327 0.675919 0.000000
0.835788 0.675895 0.000000
0.872249 0.675871 0.000000
0.908710 0.675847 0.000000
0.945171 0.675823 0.000000
0.981632 0.675799 0.000000
1.000000 0.675775 0.000000
1.000000 0.675976 0.000000
1.000000 0.676266 0.000000
0.000000 0.711204 0.000000
0.000000 0.711204 0.000000
0.000175 0.711184 0.000000
0.034475 0.711160 0.000000
0.070936 0.711136 0.000000
0.107397 0.711112 0.000000
0.143858 0.711088 0.000000
0.180319 0.711064 0.000000
0.216780 0.711040 0.000000
0.253241 0.711016 0.000000
0.289702 0.710992 0.000000
0.326163 0.710968 0.000000
0.362624 0.710944 0.000000
0.399085 0.710920 0.000000
0.435546 0.710896 0.000000
0.472007 0.710872 0.000000
0.508468 0.710849 0.000000
0.544929 0.710825 0.000000
0.581390 0.710801 0.000000
0.617851 0.710777 0.000000
0.654312 0.710753 0.000000
0.690773 0.710729 0.000000
0.727234 0.710705 0.000000
0.763695 0.710681 0.000000
0.800156 0.710657 0.000000
0.836617 0.710633 0.000000
0.873078 0.710609 0.000000
0.909539 0.710585 0.000000
0.946000 0.710561 0.000000
0.982461 0.710537 0.000000
1.000000 0.710513 0.000000
1.000000 0.710713 0.000000
1.000000 0.711003 0.000000
0.000148 0.745431 0.000000
0.000873 0.745721 0.000000
0.001598 0.745922 0.000000
0.035304 0.745898 0.000000
0.071765 0.745874 0.000000
0.108226 0.745850 0.000000
0.144687 0.745826 0.000000
0.181148 0.745802 0.000000
0.217609 0.745778 0.000000
0.254070 0.745754 0.000000
0.290531 0.745730 0.000000
0.326992 0.745706 0.000000
0.363453 0.745682 0.000000
0.399914 0.745658 0.000000
0.436375 0.745634 0.000000
0.472836 0.745610 0.000000
0.509297 0.745586 0.000000
0.545758 0.745562 0.000000
0.582219 0.745538 0.000000
0.618680 0.745514 0.000000
0.655141 0.745490 0.000000
0.691602 0.745466 0.000000
0.728063 0.745442 0.000000
0.764524 0.745418 0.000000
0.800985 0.745394 0.000000
0.837446 0.745370 0.000000
0.873907 0.745346 0.000000
0.910368 0.745322 0.000000
0.946829 0.745298 0.000000
0.983290 0.745274 0.000000
1.000000 0.745250 0.000000
1.000000 0.745451 0.000000
1.000000 0.745741 0.000000
0.001571 0.780169 0.000000
0.002296 0.780459 0.000000
0.003021 0.780659 0.000000
0.036133 0.780635 0.000000
0.072594 0.780611 0.000000
0.109055 0.780587 0.000000
0.145516 0.780563 0.000000
0.181977 0.780539 0.000000
0.218438 0.780515 0.000000
0.254899 0.780491 0.000000
0.291360 0.780467 0.000000
0.327821 0.780443 0.000000
0.364282 0.780419 0.000000
0.400743 0.780395 0.000000
0.437204 0.780371 0.000000
0.473665 0.780347 0.000000
0.510126 0.780323 0.000000
0.546587 0.780299 0.000000
0.583048 0.780275 0.000000
0.619509 0.780251 0.000000
0.655970 0.780228 0.000000
0.692431 0.780204 0.000000
0.728892 0.780180 0.000000
0.765353 0.780156 0.000000
0.801814 0.780132 0.000000
0.838275 0.780108 0.000000
0.874736 0.780084 0.000000
0.911197 0.780060 0.000000
0.947658 0.780036 0.000000
0.984119 0.780012 0.000000
1.000000 0.779988 0.000000
1.000000 0.780188 0.000000
1.000000 0.780478 0.000000
0.002994 0.814906 0.000000
0.003719 0.815196 0.000000
0.004444 0.815396 0.000000
0.036961 0.815372 0.000000
0.073422 0.815349 0.000000
0.109883 0.815325 0.000000
0.146344 0.815301 0.000000
0.182805 0.815277 0.000000
0.219266 0.815253 0.000000
0.255727 0.815229 0.000000
0.292188 0.815205 0.000000
0.328649 0.815181 0.000000
0.365110 0.815157 0.000000
0.401571 0.815133 0.000000
0.438032 0.815109 0.000000
0.474493 0.815085 0.000000
0.510954 0.815061 0.000000
0.547415 0.815037 0.000000
0.583876 0.815013 0.000000
0.620337 0.814989 0.000000
0.656798 0.814965 0.000000
0.693259 0.814941 0.000000
0.729720 0.814917 0.000000
0.766181 0.814893 0.000000
0.802642 0.814869 0.000000
0.839103 0.814845 0.000000
0.875564 0.814821 0.000000
0.912025 0.814797 0.000000
0.948486 0.814773 0.000000
0.984947 0.814749 0.000000
1.000000 0.814725 0.000000
1.000000 0.814926 0.000000
1.000000 0.815216 0.000000
0.004418 0.849644 0.000000
0.005143 0.849934 0.000000
0.005867 0.850134 0.000000
0.037790 0.850110 0.000000
0.074251 0.850086 0.000000
0.110712 0.850062 0.000000
0.147173 0.850038 0.000000
0.183634 0.850014 0.000000
0.220095 0.849990 0.000000
0.256556 0.849966 0.000000
0.293017 0.849942 0.000000
0.329478 0.849918 0.000000
0.365939 0.849894 0.000000
0.402400 0.849870 0.000000
0.438861 0.849846 0.000000
0.475322 0.849822 0.000000
0.511783 0.849798 0.000000
0.548244 0.849774 0.000000
0.584705 0.849750 0.000000
0.621166 0.849726 0.000000
0.657627 0.849702 0.000000
0.694088 0.849678 0.000000
0.730549 0.849654 0.000000
0.767010 0.849631 0.000000
0.803471 0.849607 0.000000
0.839932 0.849583 0.000000
0.876393 0.849559 0.000000
