docs/luts/fresh-warm-correction.cube
TITLE "FreshLUTs??-????"
LUT_3D_SIZE 5
DOMAIN_MIN 0.0 0.0 0.0
DOMAIN_MAX 1.0 1.0 1.0
0.022761 0.011711 0.000000
0.261862 0.013162 0.000000
0.515751 0.014701 0.000000
0.769641 0.016241 0.000000
1.000000 0.017691 0.000000
0.025638 0.254688 0.000000
0.264738 0.256138 0.000000
0.518628 0.257678 0.000000
0.772518 0.259218 0.000618
1.000000 0.260668 0.002068
0.028631 0.507581 0.000000
0.267732 0.509032 0.000532
0.521621 0.510571 0.002071
0.775511 0.512111 0.003611
1.000000 0.513561 0.005061
0.031625 0.760475 0.002075
0.270725 0.761925 0.003525
0.524615 0.763465 0.005065
0.778505 0.765005 0.006605
1.000000 0.766455 0.008055
0.034501 1.000000 0.004951
0.273602 1.000000 0.006402
0.527491 1.000000 0.007941
0.781381 1.000000 0.009481
1.000000 1.000000 0.010931
0.023326 0.012276 0.236326
0.262426 0.013726 0.237776
0.516316 0.015266 0.239316
0.770206 0.016806 0.240856
1.000000 0.018256 0.242306
0.026202 0.255252 0.239202
0.265302 0.256702 0.240652
0.519192 0.258242 0.242192
0.773082 0.259782 0.243732
1.000000 0.261232 0.245182
0.029196 0.508146 0.242196
0.268296 0.509596 0.243646
0.522186 0.511136 0.245186
0.776076 0.512676 0.246726
1.000000 0.514126 0.248176
0.032189 0.761039 0.245189
0.271290 0.762490 0.246640
0.525179 0.764029 0.248179
0.779069 0.765569 0.249719
1.000000 0.767019 0.251169
0.035066 1.000000 0.248066
0.274166 1.000000 0.249516
0.528056 1.000000 0.251056
0.781946 1.000000 0.252596
1.000000 1.000000 0.254046
0.023890 0.012840 0.479440
0.262990 0.014290 0.480890
0.516880 0.015830 0.482430
0.770770 0.017370 0.483970
1.000000 0.018820 0.485420
0.026766 0.255816 0.482316
0.265866 0.257266 0.483766
0.519756 0.258806 0.485306
0.773646 0.260346 0.486846
1.000000 0.261796 0.488296
0.029760 0.508710 0.485310
0.268860 0.510160 0.486760
0.522750 0.511700 0.488300
0.776640 0.513240 0.489840
1.000000 0.514690 0.491290
0.032754 0.761604 0.488304
0.271854 0.763054 0.489754
0.525744 0.764594 0.491294
0.779634 0.766134 0.492834
1.000000 0.767584 0.494284
0.035630 1.000000 0.491180
0.274730 1.000000 0.492630
0.528620 1.000000 0.494170
0.782510 1.000000 0.495710
1.000000 1.000000 0.497160
0.024454 0.013404 0.722554
0.263554 0.014854 0.724004
0.517444 0.016394 0.725544
0.771334 0.017934 0.727084
1.000000 0.019384 0.728534
0.027331 0.256381 0.725431
0.266431 0.257831 0.726881
0.520321 0.259371 0.728421
0.774210 0.260910 0.729960
1.000000 0.262361 0.731411
0.030324 0.509274 0.728424
0.269424 0.510724 0.729874
0.523314 0.512264 0.731414
0.777204 0.513804 0.732954
1.000000 0.515254 0.734404
0.033318 0.762168 0.731418
0.272418 0.763618 0.732868
0.526308 0.765158 0.734408
0.780198 0.766698 0.735948
1.000000 0.768148 0.737398
0.036194 1.000000 0.734294
0.275294 1.000000 0.735744
0.529184 1.000000 0.737284
0.783074 1.000000 0.738824
1.000000 1.000000 0.740274
0.025019 0.013969 0.965669
0.264119 0.015419 0.967119
0.518009 0.016959 0.968659
0.771898 0.018498 0.970198
1.000000 0.019949 0.971649
0.027895 0.256945 0.968545
0.266995 0.258395 0.969995
0.520885 0.259935 0.971535
0.774775 0.261475 0.973075
1.000000 0.262925 0.974525
0.030889 0.509839 0.971539
0.269989 0.511289 0.972989
0.523879 0.512829 0.974529
0.777768 0.514368 0.976068
1.000000 0.515819 0.977519
0.033882 0.762732 0.974532
0.272982 0.764182 0.975982
0.526872 0.765722 0.977522
0.780762 0.767262 0.979062
1.000000 0.768712 0.980512
0.036759 1.000000 0.977409
0.275859 1.000000 0.978859
0.529749 1.000000 0.980399
0.783638 1.000000 0.981938
1.000000 1.000000 0.983389
