docs/luts/fresh-green-nature.cube
TITLE "FreshLUTs??-????"
LUT_3D_SIZE 5
DOMAIN_MIN 0.0 0.0 0.0
DOMAIN_MAX 1.0 1.0 1.0
0.000000 0.068750 0.000000
0.224181 0.060116 0.000000
0.494709 0.051483 0.000000
0.763759 0.042849 0.000000
0.993055 0.034216 0.000000
0.000000 0.265224 0.000000
0.234300 0.253660 0.000000
0.501926 0.241977 0.000000
0.768073 0.230293 0.000000
0.999398 0.218729 0.000000
0.000000 0.543065 0.000000
0.236843 0.531501 0.000000
0.501566 0.519818 0.000000
0.764385 0.512935 0.000000
1.000000 0.510004 0.000000
0.000000 0.820906 0.000000
0.233275 0.813825 0.000000
0.495425 0.810775 0.000000
0.757575 0.807725 0.000000
1.000000 0.804795 0.000000
0.000000 1.000000 0.000000
0.228344 1.000000 0.000000
0.490494 1.000000 0.000000
0.752645 1.000000 0.000000
1.000000 1.000000 0.000000
0.000000 0.065458 0.222382
0.226432 0.056825 0.224946
0.496397 0.048191 0.227390
0.764883 0.039557 0.229835
0.994733 0.030924 0.232398
0.000000 0.260815 0.228237
0.235445 0.249251 0.230801
0.502507 0.237568 0.233246
0.768091 0.225884 0.235690
0.999969 0.214321 0.238254
0.000000 0.538656 0.232214
0.236881 0.527092 0.234778
0.501040 0.515409 0.237222
0.763267 0.511817 0.234517
1.000000 0.508887 0.231587
0.000000 0.816497 0.236191
0.232158 0.812708 0.233808
0.494308 0.809658 0.230758
0.756458 0.806608 0.227708
1.000000 0.803678 0.224778
0.000000 1.000000 0.231807
0.227227 1.000000 0.228877
0.489377 1.000000 0.225827
0.751527 1.000000 0.222777
1.000000 1.000000 0.219847
0.000000 0.062167 0.478160
0.228469 0.053533 0.480723
0.497870 0.044899 0.483168
0.765792 0.036266 0.485612
0.996196 0.027632 0.488176
0.000000 0.256406 0.484015
0.236375 0.244842 0.486579
0.502873 0.233159 0.489023
0.767893 0.221475 0.491467
1.000000 0.212979 0.492079
0.000000 0.534247 0.487992
0.236704 0.522683 0.490556
0.500000 0.513750 0.491250
0.762150 0.510700 0.488200
1.000000 0.507770 0.485270
0.000000 0.814521 0.490421
0.231041 0.811591 0.487491
0.493191 0.808541 0.484441
0.755341 0.805491 0.481391
1.000000 0.802561 0.478461
0.000000 1.000000 0.485490
0.226110 1.000000 0.482560
0.488260 1.000000 0.479510
0.750410 1.000000 0.476460
1.000000 1.000000 0.473530
0.000000 0.058875 0.733937
0.230291 0.050241 0.736501
0.499128 0.041607 0.738945
0.766487 0.032974 0.741390
0.997444 0.024340 0.743954
0.000000 0.251997 0.739792
0.237090 0.240433 0.742356
0.503025 0.228750 0.744801
0.767481 0.217066 0.747245
1.000000 0.211862 0.745762
0.000000 0.529838 0.743769
0.236313 0.518274 0.746333
0.498883 0.512633 0.744933
0.761033 0.509583 0.741883
1.000000 0.506653 0.738953
0.000000 0.813404 0.744104
0.229923 0.810473 0.741173
0.492074 0.807424 0.738124
0.754224 0.804374 0.735074
1.000000 0.801444 0.732144
0.000000 1.000000 0.739173
0.224993 1.000000 0.736243
0.487143 1.000000 0.733193
0.749293 1.000000 0.730143
1.000000 1.000000 0.727213
0.000000 0.055583 0.964629
0.231897 0.046949 0.970123
0.500171 0.038316 0.975617
0.766966 0.029682 0.981111
0.998476 0.021049 0.986606
0.000000 0.247588 0.975415
0.237590 0.236024 0.980909
0.502961 0.224341 0.986403
0.766725 0.213675 0.991250
1.000000 0.210745 0.991250
0.000000 0.525429 0.986201
0.235615 0.514565 0.991250
0.497766 0.511516 0.991250
0.759916 0.508466 0.991250
1.000000 0.505536 0.991250
0.000000 0.812286 0.991250
0.228806 0.809356 0.991250
0.490956 0.806306 0.991250
0.753107 0.803257 0.988757
1.000000 0.800326 0.985826
0.000000 1.000000 0.991250
0.223875 1.000000 0.989925
0.486026 1.000000 0.986876
0.748176 1.000000 0.983826
1.000000 1.000000 0.980896
