docs/luts/fresh-peaky-blinders.cube
TITLE "FreshLUTs??-????"
LUT_3D_SIZE 33
DOMAIN_MIN 0.0 0.0 0.0
DOMAIN_MAX 1.0 1.0 1.0
0.000000 0.025000 0.055000
0.000000 0.024509 0.053921
0.000000 0.024019 0.052842
0.000000 0.024885 0.053119
0.016379 0.026820 0.054466
0.048254 0.028755 0.055812
0.080129 0.030690 0.057158
0.112004 0.032625 0.058505
0.143879 0.034561 0.059851
0.175754 0.036496 0.061198
0.207629 0.038431 0.062544
0.239504 0.040366 0.063891
0.271379 0.042301 0.065237
0.303254 0.044236 0.066583
0.335128 0.046171 0.067930
0.367003 0.048106 0.069276
0.398878 0.050041 0.070623
0.430753 0.051976 0.071969
0.462628 0.053911 0.073316
0.494503 0.055847 0.074662
0.526378 0.057782 0.076008
0.558253 0.059717 0.077355
0.590128 0.061652 0.078701
0.622003 0.063587 0.080048
0.653877 0.065522 0.081394
0.685752 0.067457 0.082741
0.717627 0.069392 0.084087
0.749502 0.071327 0.085434
0.781377 0.073262 0.086780
0.813252 0.075197 0.088126
0.831383 0.076064 0.088404
0.832070 0.075573 0.087325
0.832757 0.075082 0.086245
0.000000 0.024037 0.052881
0.000000 0.023546 0.051802
0.000000 0.023056 0.050723
0.000000 0.023922 0.051000
0.017728 0.025857 0.052347
0.049603 0.027792 0.053693
0.081477 0.029727 0.055040
0.113352 0.031662 0.056386
0.145227 0.033597 0.057733
0.177102 0.035533 0.059079
0.208977 0.037468 0.060425
0.240852 0.039403 0.061772
0.272727 0.041338 0.063118
0.304602 0.043273 0.064465
0.336477 0.045208 0.065811
0.368352 0.047143 0.067158
0.400227 0.049078 0.068504
0.432101 0.051013 0.069850
0.463976 0.052948 0.071197
0.495851 0.054883 0.072543
0.527726 0.056819 0.073890
0.559601 0.058754 0.075236
0.591476 0.060689 0.076583
0.623351 0.062624 0.077929
0.655226 0.064559 0.079276
0.687101 0.066494 0.080622
0.718976 0.068429 0.081968
0.750850 0.070364 0.083315
0.782725 0.072299 0.084661
0.814600 0.074234 0.086008
0.832731 0.075101 0.086285
0.833418 0.074610 0.085206
0.834105 0.074119 0.084127
0.000000 0.032165 0.052054
0.000000 0.031675 0.050975
0.000000 0.031184 0.049896
0.000000 0.032050 0.050173
0.020367 0.033985 0.051520
0.052242 0.035921 0.052866
0.084117 0.037856 0.054212
0.115992 0.039791 0.055559
0.147867 0.041726 0.056905
0.179742 0.043661 0.058252
0.211617 0.045596 0.059598
0.243492 0.047531 0.060945
0.275367 0.049466 0.062291
0.307241 0.051401 0.063637
0.339116 0.053336 0.064984
0.370991 0.055271 0.066330
0.402866 0.057207 0.067677
0.434741 0.059142 0.069023
0.466616 0.061077 0.070370
0.498491 0.063012 0.071716
0.530366 0.064947 0.073062
0.562241 0.066882 0.074409
0.594116 0.068817 0.075755
0.625991 0.070752 0.077102
0.657865 0.072687 0.078448
0.689740 0.074622 0.079795
0.721615 0.076557 0.081141
0.753490 0.078493 0.082488
0.785365 0.080428 0.083834
0.817240 0.082363 0.085180
0.835371 0.083229 0.085458
0.836058 0.082738 0.084379
0.836744 0.082248 0.083299
0.000000 0.063022 0.054455
0.000000 0.062532 0.053376
0.000000 0.062041 0.052297
0.000000 0.062907 0.052574
0.026236 0.064842 0.053921
0.058110 0.066777 0.055267
0.089985 0.068713 0.056614
0.121860 0.070648 0.057960
0.153735 0.072583 0.059306
0.185610 0.074518 0.060653
0.217485 0.076453 0.061999
0.249360 0.078388 0.063346
0.281235 0.080323 0.064692
0.313110 0.082258 0.066039
0.344985 0.084193 0.067385
0.376859 0.086128 0.068732
0.408734 0.088063 0.070078
0.440609 0.089998 0.071424
0.472484 0.091934 0.072771
0.504359 0.093869 0.074117
0.536234 0.095804 0.075464
0.568109 0.097739 0.076810
0.599984 0.099674 0.078157
0.631859 0.101609 0.079503
0.663734 0.103544 0.080849
0.695608 0.105479 0.082196
0.727483 0.107414 0.083542
0.759358 0.109349 0.084889
0.791233 0.111284 0.086235
0.823108 0.113220 0.087582
0.841239 0.114086 0.087859
0.841926 0.113595 0.086780
0.842613 0.113105 0.085701
0.000000 0.093879 0.056856
0.000000 0.093388 0.055777
0.000000 0.092898 0.054698
0.000229 0.093764 0.054975
0.032104 0.095699 0.056322
0.063979 0.097634 0.057668
0.095853 0.099569 0.059015
0.127728 0.101504 0.060361
0.159603 0.103440 0.061708
0.191478 0.105375 0.063054
0.223353 0.107310 0.064401
0.255228 0.109245 0.065747
0.287103 0.111180 0.067093
0.318978 0.113115 0.068440
0.350853 0.115050 0.069786
0.382728 0.116985 0.071133
0.414603 0.118920 0.072479
0.446477 0.120855 0.073826
0.478352 0.122790 0.075172
0.510227 0.124726 0.076518
0.542102 0.126661 0.077865
0.573977 0.128596 0.079211
0.605852 0.130531 0.080558
0.637727 0.132466 0.081904
0.669602 0.134401 0.083251
0.701477 0.136336 0.084597
0.733352 0.138271 0.085943
0.765226 0.140206 0.087290
0.797101 0.142141 0.088636
0.828976 0.144076 0.089983
0.847107 0.144943 0.090260
0.847794 0.144452 0.089181
0.848481 0.143962 0.088102
0.000000 0.124736 0.059258
0.000000 0.124245 0.058178
0.000000 0.123755 0.057099
0.006097 0.124621 0.057377
0.037972 0.126556 0.058723
0.069847 0.128491 0.060070
0.101722 0.130426 0.061416
0.133597 0.132361 0.062762
0.165471 0.134296 0.064109
0.197346 0.136231 0.065455
0.229221 0.138167 0.066802
0.261096 0.140102 0.068148
0.292971 0.142037 0.069495
0.324846 0.143972 0.070841
0.356721 0.145907 0.072187
0.388596 0.147842 0.073534
0.420471 0.149777 0.074880
0.452346 0.151712 0.076227
0.484220 0.153647 0.077573
0.516095 0.155582 0.078920
0.547970 0.157517 0.080266
0.579845 0.159453 0.081613
0.611720 0.161388 0.082959
0.643595 0.163323 0.084305
0.675470 0.165258 0.085652
0.707345 0.167193 0.086998
0.739220 0.169128 0.088345
0.771095 0.171063 0.089691
0.802970 0.172998 0.091038
0.834844 0.174933 0.092384
0.852975 0.175799 0.092661
0.853662 0.175309 0.091582
0.854349 0.174818 0.090503
0.000000 0.155593 0.061659
0.000000 0.155102 0.060580
0.000000 0.154612 0.059500
0.011965 0.155478 0.059778
0.043840 0.157413 0.061124
0.075715 0.159348 0.062471
0.107590 0.161283 0.063817
0.139465 0.163218 0.065164
0.171340 0.165153 0.066510
0.203215 0.167088 0.067856
0.235089 0.169023 0.069203
0.266964 0.170959 0.070549
0.298839 0.172894 0.071896
0.330714 0.174829 0.073242
0.362589 0.176764 0.074589
0.394464 0.178699 0.075935
0.426339 0.180634 0.077282
0.458214 0.182569 0.078628
0.490089 0.184504 0.079974
0.521964 0.186439 0.081321
0.553838 0.188374 0.082667
0.585713 0.190309 0.084014
0.617588 0.192245 0.085360
0.649463 0.194180 0.086707
0.681338 0.196115 0.088053
0.713213 0.198050 0.089399
0.745088 0.199985 0.090746
0.776963 0.201920 0.092092
0.808838 0.203855 0.093439
0.840713 0.205790 0.094785
0.858844 0.206656 0.095063
0.859530 0.206166 0.093983
0.860217 0.205675 0.092904
0.000000 0.186450 0.064060
0.000000 0.185959 0.062981
0.000000 0.185468 0.061902
0.017833 0.186335 0.062179
0.049708 0.188270 0.063526
0.081583 0.190205 0.064872
0.113458 0.192140 0.066218
0.145333 0.194075 0.067565
0.177208 0.196010 0.068911
0.209083 0.197945 0.070258
0.240958 0.199880 0.071604
0.272832 0.201815 0.072951
0.304707 0.203750 0.074297
0.336582 0.205686 0.075643
0.368457 0.207621 0.076990
0.400332 0.209556 0.078336
0.432207 0.211491 0.079683
0.464082 0.213426 0.081029
0.495957 0.215361 0.082376
0.527832 0.217296 0.083722
0.559707 0.219231 0.085068
0.591582 0.221166 0.086415
0.623456 0.223101 0.087761
0.655331 0.225036 0.089108
0.687206 0.226972 0.090454
0.719081 0.228907 0.091801
0.750956 0.230842 0.093147
0.782831 0.232777 0.094494
0.814706 0.234712 0.095840
0.846581 0.236647 0.097186
0.864712 0.237513 0.097464
0.865398 0.237023 0.096385
0.866085 0.236532 0.095305
0.004197 0.217306 0.066461
0.004884 0.216816 0.065382
0.005570 0.216325 0.064303
0.023701 0.217191 0.064580
0.055576 0.219127 0.065927
0.087451 0.221062 0.067273
0.119326 0.222997 0.068620
0.151201 0.224932 0.069966
0.183076 0.226867 0.071312
0.214951 0.228802 0.072659
0.246826 0.230737 0.074005
0.278701 0.232672 0.075352
0.310576 0.234607 0.076698
0.342450 0.236542 0.078045
0.374325 0.238477 0.079391
0.406200 0.240413 0.080737
0.438075 0.242348 0.082084
0.469950 0.244283 0.083430
0.501825 0.246218 0.084777
0.533700 0.248153 0.086123
0.565575 0.250088 0.087470
0.597450 0.252023 0.088816
0.629325 0.253958 0.090163
0.661199 0.255893 0.091509
0.693074 0.257828 0.092855
0.724949 0.259763 0.094202
0.756824 0.261699 0.095548
0.788699 0.263634 0.096895
0.820574 0.265569 0.098241
0.852449 0.267504 0.099588
0.870580 0.268370 0.099865
0.871267 0.267879 0.098786
0.871953 0.267389 0.097707
0.010065 0.248163 0.068862
0.010752 0.247673 0.067783
0.011439 0.247182 0.066704
0.029570 0.248048 0.066981
0.061445 0.249983 0.068328
0.093319 0.251919 0.069674
0.125194 0.253854 0.071021
0.157069 0.255789 0.072367
0.188944 0.257724 0.073714
0.220819 0.259659 0.075060
0.252694 0.261594 0.076407
0.284569 0.263529 0.077753
0.316444 0.265464 0.079099
0.348319 0.267399 0.080446
0.380194 0.269334 0.081792
0.412068 0.271269 0.083139
0.443943 0.273205 0.084485
0.475818 0.275140 0.085832
0.507693 0.277075 0.087178
0.539568 0.279010 0.088524
0.571443 0.280945 0.089871
0.603318 0.282880 0.091217
0.635193 0.284815 0.092564
0.667068 0.286750 0.093910
0.698943 0.288685 0.095257
0.730817 0.290620 0.096603
0.762692 0.292555 0.097949
0.794567 0.294491 0.099296
0.826442 0.296426 0.100642
0.858317 0.298361 0.101989
0.876448 0.299227 0.102266
0.877135 0.298736 0.101187
0.877822 0.298246 0.100108
0.015933 0.279020 0.071264
0.016620 0.278530 0.070184
0.017307 0.278039 0.069105
0.035438 0.278905 0.069383
0.067313 0.280840 0.070729
0.099188 0.282775 0.072076
0.131062 0.284710 0.073422
0.162937 0.286646 0.074768
0.194812 0.288581 0.076115
0.226687 0.290516 0.077461
0.258562 0.292451 0.078808
0.290437 0.294386 0.080154
0.322312 0.296321 0.081501
0.354187 0.298256 0.082847
0.386062 0.300191 0.084193
0.417937 0.302126 0.085540
0.449812 0.304061 0.086886
0.481686 0.305996 0.088233
0.513561 0.307932 0.089579
0.545436 0.309867 0.090926
0.577311 0.311802 0.092272
0.609186 0.313737 0.093618
0.641061 0.315672 0.094965
0.672936 0.317607 0.096311
0.704811 0.319542 0.097658
0.736686 0.321477 0.099004
0.768561 0.323412 0.100351
0.800435 0.325347 0.101697
0.832310 0.327282 0.103044
0.864185 0.329218 0.104390
0.882316 0.330084 0.104667
0.883003 0.329593 0.103588
0.883231 0.329431 0.103231
0.021801 0.309877 0.073665
0.022488 0.309386 0.072586
0.023175 0.308896 0.071506
0.041306 0.309762 0.071784
0.073181 0.311697 0.073130
0.105056 0.313632 0.074477
0.136931 0.315567 0.075823
0.168806 0.317502 0.077170
0.200680 0.319438 0.078516
0.232555 0.321373 0.079862
0.264430 0.323308 0.081209
0.296305 0.325243 0.082555
0.328180 0.327178 0.083902
0.360055 0.329113 0.085248
0.391930 0.331048 0.086595
0.423805 0.332983 0.087941
0.455680 0.334918 0.089288
0.487555 0.336853 0.090634
0.519429 0.338788 0.091980
0.551304 0.340724 0.093327
0.583179 0.342659 0.094673
0.615054 0.344594 0.096020
0.646929 0.346529 0.097366
0.678804 0.348464 0.098713
0.710679 0.350399 0.100059
0.742554 0.352334 0.101405
0.774429 0.354269 0.102752
0.806304 0.356204 0.104098
0.838179 0.358139 0.105445
0.870053 0.360074 0.106791
0.887750 0.361250 0.107750
0.887750 0.361250 0.107750
0.887750 0.361250 0.107750
0.027670 0.340734 0.076066
0.028356 0.340243 0.074987
0.029043 0.339753 0.073908
0.047174 0.340619 0.074185
0.079049 0.342554 0.075531
0.110924 0.344489 0.076878
0.142799 0.346424 0.078224
0.174674 0.348359 0.079571
0.206549 0.350294 0.080917
0.238424 0.352229 0.082264
0.270298 0.354165 0.083610
0.302173 0.356100 0.084957
0.334048 0.358035 0.086303
0.365923 0.359970 0.087649
0.397798 0.361905 0.088996
0.429673 0.363840 0.090342
0.461548 0.365775 0.091689
0.493423 0.367710 0.093035
0.525298 0.369645 0.094382
0.557173 0.371580 0.095728
0.589047 0.373515 0.097074
0.620922 0.375451 0.098421
0.652797 0.377386 0.099767
0.684672 0.379321 0.101114
0.716547 0.381256 0.102460
0.748422 0.383191 0.103807
0.780297 0.385126 0.105153
0.812172 0.387061 0.106499
0.843638 0.389288 0.108488
0.874826 0.391714 0.110914
0.892270 0.393070 0.112270
0.892270 0.393070 0.112270
0.892270 0.393070 0.112270
0.033538 0.371591 0.078467
0.034225 0.371100 0.077388
0.034911 0.370610 0.076309
0.053042 0.371476 0.076586
0.084917 0.373411 0.077933
0.116792 0.375346 0.079279
0.148667 0.377281 0.080626
0.180542 0.379216 0.081972
0.212417 0.381151 0.083318
0.244292 0.383086 0.084665
0.276167 0.385021 0.086011
0.308041 0.386956 0.087358
0.339916 0.388892 0.088704
0.371791 0.390827 0.090051
0.403666 0.392762 0.091397
0.435541 0.394697 0.092743
0.467416 0.396632 0.094090
0.499291 0.398567 0.095436
0.531166 0.400502 0.096783
0.563041 0.402437 0.098129
0.594916 0.404372 0.099476
0.626791 0.406307 0.100822
0.658665 0.408242 0.102169
0.690540 0.410178 0.103515
0.722415 0.412113 0.104861
0.754290 0.414048 0.106208
0.785782 0.416257 0.108157
0.816970 0.418682 0.110582
0.848158 0.421108 0.113008
0.879346 0.423534 0.115434
0.896790 0.424890 0.116790
0.896790 0.424890 0.116790
0.896790 0.424890 0.116790
0.039406 0.402448 0.080868
0.040093 0.401957 0.079789
0.040779 0.401466 0.078710
0.058910 0.402333 0.078987
0.090785 0.404268 0.080334
0.122660 0.406203 0.081680
0.154535 0.408138 0.083027
0.186410 0.410073 0.084373
0.218285 0.412008 0.085720
0.250160 0.413943 0.087066
0.282035 0.415878 0.088412
0.313910 0.417813 0.089759
0.345785 0.419748 0.091105
0.377659 0.421684 0.092452
0.409534 0.423619 0.093798
0.441409 0.425554 0.095145
0.473284 0.427489 0.096491
0.505159 0.429424 0.097838
0.537034 0.431359 0.099184
0.568909 0.433294 0.100530
0.600784 0.435229 0.101877
0.632659 0.437164 0.103223
0.664534 0.439099 0.104570
0.696408 0.441034 0.105916
0.727925 0.443225 0.107825
0.759113 0.445651 0.110251
0.790302 0.448077 0.112677
0.821490 0.450502 0.115102
0.852678 0.452928 0.117528
0.883866 0.455353 0.119953
0.901310 0.456710 0.121310
0.901310 0.456710 0.121310
0.901310 0.456710 0.121310
0.045274 0.433304 0.083270
0.045961 0.432814 0.082190
0.046648 0.432323 0.081111
0.064779 0.433189 0.081389
0.096653 0.435125 0.082735
0.128528 0.437060 0.084082
0.160403 0.438995 0.085428
0.192278 0.440930 0.086774
0.224153 0.442865 0.088121
0.256028 0.444800 0.089467
0.287903 0.446735 0.090814
0.319778 0.448670 0.092160
0.351653 0.450605 0.093507
0.383528 0.452540 0.094853
0.415403 0.454475 0.096199
0.447277 0.456411 0.097546
0.479152 0.458346 0.098892
0.511027 0.460281 0.100239
0.542902 0.462216 0.101585
0.574777 0.464151 0.102932
0.606652 0.466086 0.104278
0.638527 0.468021 0.105624
0.670069 0.470194 0.107494
0.701257 0.472620 0.109920
0.732445 0.475045 0.112345
0.763633 0.477471 0.114771
0.794821 0.479896 0.117196
0.826010 0.482322 0.119622
0.857198 0.484748 0.122048
0.888386 0.487173 0.124473
0.905830 0.488530 0.125830
0.905830 0.488530 0.125830
0.905830 0.488530 0.125830
0.051142 0.464161 0.085671
0.051829 0.463671 0.084592
0.052516 0.463180 0.083512
0.070647 0.464046 0.083790
0.102522 0.465981 0.085136
0.134397 0.467917 0.086483
0.166271 0.469852 0.087829
0.198146 0.471787 0.089176
0.230021 0.473722 0.090522
0.261896 0.475657 0.091868
0.293771 0.477592 0.093215
0.325646 0.479527 0.094561
0.357521 0.481462 0.095908
0.389396 0.483397 0.097254
0.421271 0.485332 0.098601
0.453146 0.487267 0.099947
0.485021 0.489202 0.101293
0.516895 0.491138 0.102640
0.548770 0.493073 0.103986
0.580645 0.495008 0.105333
0.612213 0.497163 0.107163
0.643401 0.499588 0.109588
0.674589 0.502014 0.112014
0.705777 0.504439 0.114439
0.736965 0.506865 0.116865
0.768153 0.509291 0.119291
0.799341 0.511716 0.121716
0.830530 0.514142 0.124142
0.861718 0.516568 0.126568
0.892906 0.518993 0.128993
0.910350 0.520350 0.130350
0.910350 0.520350 0.130350
0.910350 0.520350 0.130350
0.057010 0.495018 0.088072
0.057697 0.494528 0.086993
0.058384 0.494037 0.085914
0.076515 0.494903 0.086191
0.108390 0.496838 0.087537
0.140265 0.498773 0.088884
0.172140 0.500708 0.090230
0.204015 0.502644 0.091577
0.235889 0.504579 0.092923
0.267764 0.506514 0.094270
0.299639 0.508449 0.095616
0.331514 0.510384 0.096963
0.363389 0.512319 0.098309
0.395264 0.514254 0.099655
0.427139 0.516189 0.101002
0.459014 0.518124 0.102348
0.490889 0.520059 0.103695
0.522764 0.521994 0.105041
0.554356 0.524131 0.106831
0.585544 0.526557 0.109257
0.616732 0.528982 0.111682
0.647921 0.531408 0.114108
0.679109 0.533834 0.116534
0.710297 0.536259 0.118959
0.741485 0.538685 0.121385
0.772673 0.541111 0.123811
0.803861 0.543536 0.126236
0.835049 0.545962 0.128662
0.866238 0.548388 0.131088
0.897426 0.550813 0.133513
0.914870 0.552170 0.134870
0.914870 0.552170 0.134870
0.914870 0.552170 0.134870
0.062879 0.525875 0.090473
0.063565 0.525384 0.089394
0.064252 0.524894 0.088315
0.082383 0.525760 0.088592
0.114258 0.527695 0.089939
0.146133 0.529630 0.091285
0.178008 0.531565 0.092632
0.209883 0.533500 0.093978
0.241758 0.535435 0.095324
0.273633 0.537371 0.096671
0.305507 0.539306 0.098017
0.337382 0.541241 0.099364
0.369257 0.543176 0.100710
0.401132 0.545111 0.102057
0.433007 0.547046 0.103403
0.464882 0.548981 0.104749
0.496500 0.551100 0.106500
0.527688 0.553525 0.108925
0.558876 0.555951 0.111351
0.590064 0.558377 0.113777
0.621252 0.560802 0.116202
0.652440 0.563228 0.118628
0.683629 0.565654 0.121054
0.714817 0.568079 0.123479
0.746005 0.570505 0.125905
0.777193 0.572931 0.128331
0.808381 0.575356 0.130756
0.839569 0.577782 0.133182
0.870757 0.580207 0.135607
0.901946 0.582633 0.138033
0.919390 0.583990 0.139390
0.919390 0.583990 0.139390
0.919390 0.583990 0.139390
0.068747 0.556732 0.092874
0.069434 0.556241 0.091795
0.070120 0.555751 0.090716
0.088251 0.556617 0.090993
0.120126 0.558552 0.092340
0.152001 0.560487 0.093686
0.183876 0.562422 0.095033
0.215751 0.564357 0.096379
0.247626 0.566292 0.097726
0.279501 0.568227 0.099072
0.311376 0.570163 0.100418
0.343250 0.572098 0.101765
0.375125 0.574033 0.103111
0.407000 0.575968 0.104458
0.438643 0.578068 0.106168
0.469832 0.580494 0.108594
0.501020 0.582920 0.111020
0.532208 0.585345 0.113445
0.563396 0.587771 0.115871
0.594584 0.590197 0.118297
0.625772 0.592622 0.120722
0.656960 0.595048 0.123148
0.688149 0.597474 0.125574
0.719337 0.599899 0.127999
0.750525 0.602325 0.130425
0.781713 0.604750 0.132850
0.812901 0.607176 0.135276
0.844089 0.609602 0.137702
0.875277 0.612027 0.140127
0.906465 0.614453 0.142553
0.923910 0.615810 0.143910
0.923910 0.615810 0.143910
0.923910 0.615810 0.143910
0.074615 0.587589 0.095276
0.075302 0.587098 0.094196
0.075988 0.586608 0.093117
0.094119 0.587474 0.093395
0.125994 0.589409 0.094741
0.157869 0.591344 0.096088
0.189744 0.593279 0.097434
0.221619 0.595214 0.098780
0.253494 0.597149 0.100127
0.285369 0.599084 0.101473
0.317244 0.601019 0.102820
0.349119 0.602954 0.104166
0.380787 0.605037 0.105837
0.411975 0.607463 0.108263
0.443163 0.609888 0.110688
0.474351 0.612314 0.113114
0.505540 0.614740 0.115540
0.536728 0.617165 0.117965
0.567916 0.619591 0.120391
0.599104 0.622017 0.122817
0.630292 0.624442 0.125242
0.661480 0.626868 0.127668
0.692668 0.629293 0.130093
0.723857 0.631719 0.132519
0.755045 0.634145 0.134945
0.786233 0.636570 0.137370
0.817421 0.638996 0.139796
0.848609 0.641422 0.142222
0.879797 0.643847 0.144647
0.910985 0.646273 0.147073
0.928430 0.647630 0.148430
0.928430 0.647630 0.148430
0.928430 0.647630 0.148430
0.080483 0.618446 0.097677
0.081170 0.617955 0.096598
0.081857 0.617464 0.095518
0.099988 0.618331 0.095796
0.131862 0.620266 0.097142
0.163737 0.622201 0.098489
0.195612 0.624136 0.099835
0.227487 0.626071 0.101182
0.259362 0.628006 0.102528
0.291237 0.629941 0.103874
0.322931 0.632006 0.105506
0.354119 0.634431 0.107931
0.385307 0.636857 0.110357
0.416495 0.639283 0.112783
0.447683 0.641708 0.115208
0.478871 0.644134 0.117634
0.510059 0.646560 0.120059
0.541248 0.648985 0.122485
0.572436 0.651411 0.124911
0.603624 0.653836 0.127336
0.634812 0.656262 0.129762
0.666000 0.658688 0.132188
0.697188 0.661113 0.134613
0.728376 0.663539 0.137039
0.759565 0.665965 0.139465
0.790753 0.668390 0.141890
0.821941 0.670816 0.144316
0.853129 0.673242 0.146742
0.884317 0.675667 0.149167
0.915505 0.678093 0.151593
0.932949 0.679450 0.152949
0.932949 0.679450 0.152949
0.932949 0.679450 0.152949
0.086351 0.649302 0.100078
0.087038 0.648812 0.098999
0.087725 0.648321 0.097920
0.105856 0.649187 0.098197
0.137731 0.651123 0.099543
0.169606 0.653058 0.100890
0.201480 0.654993 0.102236
0.233355 0.656928 0.103583
0.265074 0.658974 0.105174
0.296262 0.661400 0.107600
0.327451 0.663826 0.110026
0.358639 0.666251 0.112451
0.389827 0.668677 0.114877
0.421015 0.671102 0.117302
0.452203 0.673528 0.119728
0.483391 0.675954 0.122154
0.514579 0.678379 0.124579
0.545768 0.680805 0.127005
0.576956 0.683231 0.129431
0.608144 0.685656 0.131856
0.639332 0.688082 0.134282
0.670520 0.690508 0.136708
0.701708 0.692933 0.139133
0.732896 0.695359 0.141559
0.764084 0.697784 0.143984
0.795273 0.700210 0.146410
0.826461 0.702636 0.148836
0.857649 0.705061 0.151261
0.888837 0.707487 0.153687
0.920025 0.709913 0.156113
0.937469 0.711269 0.157469
0.937469 0.711269 0.157469
0.937469 0.711269 0.157469
0.092219 0.680159 0.102479
0.092906 0.679669 0.101400
0.093593 0.679178 0.100321
0.111724 0.680044 0.100598
0.143599 0.681979 0.101945
0.175474 0.683914 0.103291
0.207218 0.685943 0.104843
0.238406 0.688369 0.107269
0.269594 0.690794 0.109694
0.300782 0.693220 0.112120
0.331970 0.695645 0.114545
0.363159 0.698071 0.116971
0.394347 0.700497 0.119397
0.425535 0.702922 0.121822
0.456723 0.705348 0.124248
0.487911 0.707774 0.126674
0.519099 0.710199 0.129099
0.550287 0.712625 0.131525
0.581476 0.715051 0.133951
0.612664 0.717476 0.136376
0.643852 0.719902 0.138802
0.675040 0.722327 0.141227
0.706228 0.724753 0.143653
0.737416 0.727179 0.146079
0.768604 0.729604 0.148504
0.799793 0.732030 0.150930
0.830981 0.734456 0.153356
0.862169 0.736881 0.155781
0.893357 0.739307 0.158207
0.924545 0.741733 0.160633
0.941989 0.743089 0.161989
0.941989 0.743089 0.161989
0.941989 0.743089 0.161989
0.098088 0.711016 0.104880
0.098774 0.710526 0.103801
0.099461 0.710035 0.102722
0.117592 0.710901 0.102999
0.149362 0.712912 0.104512
0.180550 0.715337 0.106937
0.211738 0.717763 0.109363
0.242926 0.720188 0.111788
0.274114 0.722614 0.114214
0.305302 0.725040 0.116640
0.336490 0.727465 0.119065
0.367679 0.729891 0.121491
0.398867 0.732317 0.123917
0.430055 0.734742 0.126342
0.461243 0.737168 0.128768
0.492431 0.739594 0.131194
0.523619 0.742019 0.133619
0.554807 0.744445 0.136045
0.585995 0.746870 0.138470
0.617184 0.749296 0.140896
0.648372 0.751722 0.143322
0.679560 0.754147 0.145747
0.710748 0.756573 0.148173
0.741936 0.758999 0.150599
0.773124 0.761424 0.153024
0.804312 0.763850 0.155450
0.835501 0.766276 0.157876
0.866689 0.768701 0.160301
0.897877 0.771127 0.162727
0.929065 0.773552 0.165152
0.946509 0.774909 0.166509
0.946509 0.774909 0.166509
0.946509 0.774909 0.166509
0.103956 0.741873 0.107282
0.104643 0.741382 0.106202
0.105249 0.740949 0.105249
0.122693 0.742306 0.106606
0.153881 0.744731 0.109031
0.185070 0.747157 0.111457
0.216258 0.749583 0.113883
0.247446 0.752008 0.116308
0.278634 0.754434 0.118734
0.309822 0.756860 0.121160
0.341010 0.759285 0.123585
0.372198 0.761711 0.126011
0.403387 0.764137 0.128437
0.434575 0.766562 0.130862
0.465763 0.768988 0.133288
0.496951 0.771413 0.135713
0.528139 0.773839 0.138139
0.559327 0.776265 0.140565
0.590515 0.778690 0.142990
0.621704 0.781116 0.145416
0.652892 0.783542 0.147842
0.684080 0.785967 0.150267
0.715268 0.788393 0.152693
0.746456 0.790819 0.155119
0.777644 0.793244 0.157544
0.808832 0.795670 0.159970
0.840020 0.798095 0.162395
0.871209 0.800521 0.164821
0.902397 0.802947 0.167247
0.933585 0.805372 0.169672
0.951029 0.806729 0.171029
0.951029 0.806729 0.171029
0.951029 0.806729 0.171029
0.109769 0.772769 0.109769
0.109769 0.772769 0.109769
0.109769 0.772769 0.109769
0.127213 0.774126 0.111126
0.158401 0.776551 0.113551
0.189589 0.778977 0.115977
0.220778 0.781403 0.118403
0.251966 0.783828 0.120828
0.283154 0.786254 0.123254
0.314342 0.788680 0.125680
0.345530 0.791105 0.128105
0.376718 0.793531 0.130531
0.407906 0.795956 0.132956
0.439095 0.798382 0.135382
0.470283 0.800808 0.137808
0.501471 0.803233 0.140233
0.532659 0.805659 0.142659
0.563847 0.808085 0.145085
0.595035 0.810510 0.147510
0.626223 0.812936 0.149936
0.657412 0.815362 0.152362
0.688600 0.817787 0.154787
0.719788 0.820213 0.157213
0.750976 0.822638 0.159638
0.782164 0.825064 0.162064
0.813352 0.827490 0.164490
0.844540 0.829915 0.166915
