docs/luts/fresh-royals.cube
TITLE "FreshLUTs??-????"
LUT_3D_SIZE 5
DOMAIN_MIN 0.0 0.0 0.0
DOMAIN_MAX 1.0 1.0 1.0
0.000000 0.000000 0.000000
0.221845 0.001345 0.000000
0.492990 0.002990 0.000000
0.764135 0.004635 0.000000
0.985980 0.005980 0.000000
0.002759 0.233059 0.000000
0.224604 0.234404 0.000000
0.495749 0.236049 0.000000
0.766893 0.237693 0.000000
0.991403 0.240593 0.006502
0.005870 0.495870 0.000000
0.227715 0.497216 0.000000
0.501239 0.500248 0.006421
0.780117 0.506403 0.010505
1.000000 0.512259 0.011850
0.011076 0.759903 0.006339
0.240654 0.765759 0.010327
0.519531 0.771915 0.011971
0.798409 0.778070 0.013616
1.000000 0.783926 0.014961
0.029016 1.000000 0.011740
0.258594 1.000000 0.013085
0.537471 1.000000 0.014730
0.816349 1.000000 0.016374
1.000000 1.000000 0.017720
0.000559 0.000559 0.207753
0.222404 0.001904 0.214593
0.493549 0.003549 0.221732
0.764693 0.005193 0.228870
0.986539 0.006539 0.235710
0.003318 0.233617 0.221298
0.225163 0.234963 0.228138
0.496308 0.236607 0.235277
0.767452 0.238252 0.242415
0.994910 0.242871 0.249255
0.006429 0.496429 0.235196
0.228274 0.497774 0.242035
0.504746 0.502526 0.249174
0.783623 0.508682 0.251163
1.000000 0.514538 0.252509
0.014583 0.762182 0.249093
0.244161 0.768038 0.250985
0.523038 0.774193 0.252630
0.801916 0.780348 0.254274
1.000000 0.786205 0.255620
0.032523 1.000000 0.252399
0.262101 1.000000 0.253744
0.540978 1.000000 0.255389
0.819856 1.000000 0.257033
1.000000 1.000000 0.258379
0.001140 0.001140 0.460329
0.222985 0.002486 0.467169
0.494130 0.004130 0.474308
0.765275 0.005775 0.481446
0.987120 0.007120 0.488286
0.003899 0.234199 0.473875
0.225744 0.235544 0.480714
0.496889 0.237189 0.487853
0.768861 0.239316 0.494991
0.998439 0.245172 0.499879
0.007010 0.497010 0.487772
0.229399 0.498672 0.494611
0.508276 0.504828 0.500000
0.787153 0.510983 0.501645
1.000000 0.516839 0.502990
0.018112 0.764483 0.500121
0.247691 0.770339 0.501467
0.526568 0.776494 0.503111
0.805445 0.782650 0.504756
1.000000 0.788506 0.506101
0.036052 1.000000 0.502880
0.265631 1.000000 0.504225
0.544508 1.000000 0.505870
0.823385 1.000000 0.507514
1.000000 1.000000 0.508860
0.001721 0.001721 0.712906
0.223567 0.003067 0.719745
0.494711 0.004711 0.726884
0.765856 0.006356 0.734023
0.987701 0.007701 0.740862
0.004480 0.234780 0.726451
0.226326 0.236126 0.733290
0.497470 0.237770 0.740429
0.772391 0.241617 0.747568
1.000000 0.247474 0.750360
0.007591 0.497591 0.740348
0.232928 0.500974 0.747188
0.511806 0.507129 0.750481
0.790683 0.513284 0.752126
1.000000 0.519140 0.753471
0.021642 0.766784 0.750603
0.251220 0.772640 0.751948
0.530098 0.778796 0.753592
0.808975 0.784951 0.755237
1.000000 0.790807 0.756583
0.039582 1.000000 0.753361
0.269160 1.000000 0.754707
0.548038 1.000000 0.756351
0.826915 1.000000 0.757996
1.000000 1.000000 0.759341
0.002280 0.002280 0.955659
0.224125 0.003626 0.962499
0.495270 0.005270 0.969637
0.766414 0.006914 0.976776
0.988260 0.008260 0.983615
0.005039 0.235339 0.969204
0.226884 0.236684 0.976044
0.498029 0.238329 0.983182
0.775898 0.243896 0.989673
1.000000 0.249752 0.991019
0.008150 0.498150 0.983101
0.236435 0.503252 0.989495
0.515312 0.509407 0.991140
0.794190 0.515563 0.992784
1.000000 0.521419 0.994130
0.025149 0.769062 0.991261
0.254727 0.774919 0.992607
0.533605 0.781074 0.994251
0.812482 0.787229 0.995896
1.000000 0.793085 0.997241
0.043089 1.000000 0.994020
0.272667 1.000000 0.995366
0.551544 1.000000 0.997010
0.830422 1.000000 0.998655
1.000000 1.000000 1.000000
