docs/luts/fresh-green-orange-cinematic.cube
TITLE "FreshLUTs??-????"
LUT_3D_SIZE 33
DOMAIN_MIN 0.0 0.0 0.0
DOMAIN_MAX 1.0 1.0 1.0
0.000000 0.035000 0.000000
0.000000 0.034313 0.000000
0.029042 0.033626 0.000000
0.064685 0.032940 0.000000
0.100328 0.032253 0.000000
0.135970 0.031566 0.000000
0.171613 0.030879 0.000000
0.207256 0.030193 0.000000
0.242898 0.029506 0.000000
0.278541 0.028819 0.000000
0.314184 0.028132 0.000000
0.349826 0.027446 0.000000
0.385469 0.026759 0.000000
0.421112 0.026072 0.000000
0.456755 0.025385 0.000000
0.492397 0.024699 0.000000
0.528040 0.024012 0.000000
0.563683 0.023325 0.000000
0.599325 0.022638 0.000000
0.634968 0.021951 0.000000
0.670611 0.021265 0.000000
0.706253 0.020578 0.000000
0.741896 0.019891 0.000000
0.777539 0.019204 0.000000
0.813182 0.018518 0.000000
0.848824 0.017831 0.000000
0.884467 0.017144 0.000000
0.920110 0.016457 0.000000
0.955752 0.015771 0.000000
0.991395 0.015084 0.000000
1.000000 0.014397 0.000000
1.000000 0.013710 0.000000
1.000000 0.013024 0.000000
0.000000 0.033652 0.000000
0.000000 0.032965 0.000000
0.029042 0.032278 0.000000
0.064685 0.031591 0.000000
0.100328 0.030905 0.000000
0.135970 0.030218 0.000000
0.171613 0.029531 0.000000
0.207256 0.028844 0.000000
0.242898 0.028158 0.000000
0.278541 0.027471 0.000000
0.314184 0.026784 0.000000
0.349826 0.026097 0.000000
0.385469 0.025411 0.000000
0.421112 0.024724 0.000000
0.456755 0.024037 0.000000
0.492397 0.023350 0.000000
0.528040 0.022663 0.000000
0.563683 0.021977 0.000000
0.599325 0.021290 0.000000
0.634968 0.020603 0.000000
0.670611 0.019916 0.000000
0.706253 0.019230 0.000000
0.741896 0.018543 0.000000
0.777539 0.017856 0.000000
0.813182 0.017169 0.000000
0.848824 0.016483 0.000000
0.884467 0.015796 0.000000
0.920110 0.015109 0.000000
0.955752 0.014422 0.000000
0.991395 0.013736 0.000000
1.000000 0.013049 0.000000
1.000000 0.012362 0.000000
1.000000 0.011675 0.000000
0.000000 0.038114 0.000000
0.000000 0.037428 0.000000
0.028778 0.036083 0.000000
0.064421 0.034589 0.000000
0.100063 0.033095 0.000000
0.135706 0.031601 0.000000
0.171349 0.030107 0.000000
0.206992 0.028613 0.000000
0.242634 0.027119 0.000000
0.278277 0.026123 0.000000
0.313920 0.025436 0.000000
0.349562 0.024749 0.000000
0.385205 0.024062 0.000000
0.420848 0.023376 0.000000
0.456490 0.022689 0.000000
0.492133 0.022002 0.000000
0.527776 0.021315 0.000000
0.563419 0.020628 0.000000
0.599061 0.019942 0.000000
0.634704 0.019255 0.000000
0.670347 0.018568 0.000000
0.705989 0.017881 0.000000
0.741632 0.017195 0.000000
0.777275 0.016508 0.000000
0.812917 0.015821 0.000000
0.848560 0.015134 0.000000
0.884203 0.014448 0.000000
0.919846 0.013761 0.000000
0.955488 0.013074 0.000000
0.991131 0.012387 0.000000
1.000000 0.011701 0.000000
1.000000 0.011014 0.000000
1.000000 0.010327 0.000000
0.000000 0.073245 0.000000
0.000000 0.072559 0.000000
0.027120 0.071214 0.000000
0.062762 0.069720 0.000000
0.098405 0.068226 0.000000
0.134048 0.066732 0.000000
0.169691 0.065238 0.000000
0.205333 0.063744 0.000000
0.240976 0.062250 0.000000
0.276619 0.060755 0.000000
0.312261 0.059261 0.000000
0.347904 0.057767 0.000000
0.383547 0.056273 0.000000
0.419189 0.054779 0.000000
0.454832 0.053285 0.000000
0.490475 0.051791 0.000000
0.526118 0.050297 0.000000
0.561760 0.048803 0.000000
0.597403 0.047309 0.000000
0.633046 0.045815 0.000000
0.668688 0.044321 0.000000
0.704331 0.042827 0.000000
0.739974 0.041333 0.000000
0.775616 0.039839 0.000000
0.811259 0.038345 0.000000
0.846902 0.036850 0.000000
0.882545 0.035356 0.000000
0.918187 0.033862 0.000000
0.953830 0.032368 0.000000
0.989473 0.030874 0.000000
1.000000 0.029380 0.000000
1.000000 0.028036 0.000000
1.000000 0.027349 0.000000
0.000000 0.108376 0.000000
0.000000 0.107689 0.000000
0.025461 0.106345 0.000000
0.061104 0.104851 0.000000
0.096747 0.103357 0.000000
0.132390 0.101863 0.000000
0.168032 0.100369 0.000000
0.203675 0.098875 0.000000
0.239318 0.097381 0.000000
0.274960 0.095886 0.000000
0.310603 0.094392 0.000000
0.346246 0.092898 0.000000
0.381888 0.091404 0.000000
0.417531 0.089910 0.000000
0.453174 0.088416 0.000000
0.488817 0.086922 0.000000
0.524459 0.085428 0.000000
0.560102 0.083934 0.000000
0.595745 0.082440 0.000000
0.631387 0.080946 0.000000
0.667030 0.079452 0.000000
0.702673 0.077958 0.000000
0.738316 0.076464 0.000000
0.773958 0.074970 0.000000
0.809601 0.073475 0.000000
0.845244 0.071981 0.000000
0.880886 0.070487 0.000000
0.916529 0.068993 0.000000
0.952172 0.067499 0.000000
0.987814 0.066005 0.000000
1.000000 0.064511 0.000000
1.000000 0.063167 0.000000
1.000000 0.062480 0.000000
0.000000 0.143507 0.000000
0.000000 0.142820 0.000000
0.023803 0.141476 0.000000
0.059446 0.139982 0.000000
0.095089 0.138488 0.000000
0.130731 0.136994 0.000000
0.166374 0.135500 0.000000
0.202017 0.134006 0.000000
0.237659 0.132511 0.000000
0.273302 0.131017 0.000000
0.308945 0.129523 0.000000
0.344588 0.128029 0.000000
0.380230 0.126535 0.000000
0.415873 0.125041 0.000000
0.451516 0.123547 0.000000
0.487158 0.122053 0.000000
0.522801 0.120559 0.000000
0.558444 0.119065 0.000000
0.594086 0.117571 0.000000
0.629729 0.116077 0.000000
0.665372 0.114583 0.000000
0.701015 0.113089 0.000000
0.736657 0.111595 0.000000
0.772300 0.110100 0.000000
0.807943 0.108606 0.000000
0.843585 0.107112 0.000000
0.879228 0.105618 0.000000
0.914871 0.104124 0.000000
0.950513 0.102630 0.000000
0.986156 0.101136 0.000000
1.000000 0.099642 0.000000
1.000000 0.098297 0.000000
1.000000 0.097611 0.000000
0.000000 0.178638 0.000000
0.000000 0.177951 0.000000
0.022145 0.176607 0.000000
0.057788 0.175113 0.000000
0.093430 0.173619 0.000000
0.129073 0.172125 0.000000
0.164716 0.170631 0.000000
0.200358 0.169136 0.000000
0.236001 0.167642 0.000000
0.271644 0.166148 0.000000
0.307287 0.164654 0.000000
0.342929 0.163160 0.000000
0.378572 0.161666 0.000000
0.414215 0.160172 0.000000
0.449857 0.158678 0.000000
0.485500 0.157184 0.000000
0.521143 0.155690 0.000000
0.556785 0.154196 0.000000
0.592428 0.152702 0.000000
0.628071 0.151208 0.000000
0.663714 0.149714 0.000000
0.699356 0.148220 0.000000
0.734999 0.146726 0.000000
0.770642 0.145231 0.000000
0.806284 0.143737 0.000000
0.841927 0.142243 0.000000
0.877570 0.140749 0.000000
0.913212 0.139255 0.000000
0.948855 0.137761 0.000000
0.984498 0.136267 0.000000
1.000000 0.134773 0.000000
1.000000 0.133428 0.000000
1.000000 0.132742 0.000000
0.000000 0.213769 0.000000
0.000000 0.213082 0.000000
0.020487 0.211738 0.000000
0.056129 0.210244 0.000000
0.091772 0.208750 0.000000
0.127415 0.207256 0.000000
0.163057 0.205762 0.000000
0.198700 0.204267 0.000000
0.234343 0.202773 0.000000
0.269986 0.201279 0.000000
0.305628 0.199785 0.000000
0.341271 0.198291 0.000000
0.376914 0.196797 0.000000
0.412556 0.195303 0.000000
0.448199 0.193809 0.000000
0.483842 0.192315 0.000000
0.519484 0.190821 0.000000
0.555127 0.189327 0.000000
0.590770 0.187833 0.000000
0.626413 0.186339 0.000000
0.662055 0.184845 0.000000
0.697698 0.183351 0.000000
0.733341 0.181856 0.000000
0.768983 0.180362 0.000000
0.804626 0.178868 0.000000
0.840269 0.177374 0.000000
0.875911 0.175880 0.000000
0.911554 0.174386 0.000000
0.947197 0.172892 0.000000
0.982840 0.171398 0.000000
1.000000 0.169904 0.000000
1.000000 0.168559 0.000000
1.000000 0.167873 0.000000
0.000000 0.248900 0.000000
0.000000 0.248213 0.000000
0.018828 0.246869 0.000000
0.054471 0.245375 0.000000
0.090114 0.243881 0.000000
0.125756 0.242387 0.000000
0.161399 0.240892 0.000000
0.197042 0.239398 0.000000
0.232685 0.237904 0.000000
0.268327 0.236410 0.000000
0.303970 0.234916 0.000000
0.339613 0.233422 0.000000
0.375255 0.231928 0.000000
0.410898 0.230434 0.000000
0.446541 0.228940 0.000000
0.482183 0.227446 0.000000
0.517826 0.225952 0.000000
0.553469 0.224458 0.000000
0.589112 0.222964 0.000000
0.624754 0.221470 0.000000
0.660397 0.219976 0.000000
0.696040 0.218481 0.000000
0.731682 0.216987 0.000000
0.767325 0.215493 0.000000
0.802968 0.213999 0.000000
0.838610 0.212505 0.000000
0.874253 0.211011 0.000000
0.909896 0.209517 0.000000
0.945539 0.208023 0.000000
0.981181 0.206529 0.000000
1.000000 0.205035 0.000000
1.000000 0.203690 0.000000
1.000000 0.203004 0.000000
0.000000 0.284031 0.000000
0.000000 0.283344 0.000000
0.017170 0.282000 0.000000
0.052813 0.280506 0.000000
0.088456 0.279012 0.000000
0.124098 0.277518 0.000000
0.159741 0.276023 0.000000
0.195384 0.274529 0.000000
0.231026 0.273035 0.000000
0.266669 0.271541 0.000000
0.302312 0.270047 0.000000
0.337954 0.268553 0.000000
0.373597 0.267059 0.000000
0.409240 0.265565 0.000000
0.444883 0.264071 0.000000
0.480525 0.262577 0.000000
0.516168 0.261083 0.000000
0.551811 0.259589 0.000000
0.587453 0.258095 0.000000
0.623096 0.256601 0.000000
0.658739 0.255107 0.000000
0.694381 0.253612 0.000000
0.730024 0.252118 0.000000
0.765667 0.250624 0.000000
0.801310 0.249130 0.000000
0.836952 0.247636 0.000000
0.872595 0.246142 0.000000
0.908238 0.244648 0.000000
0.944517 0.243154 0.000000
0.981046 0.241660 0.000000
1.000000 0.240166 0.000000
1.000000 0.238821 0.000000
1.000000 0.238135 0.000000
0.000000 0.319162 0.000000
0.000000 0.318475 0.000000
0.015512 0.317131 0.000000
0.051155 0.315637 0.000000
0.086797 0.314143 0.000000
0.122440 0.312648 0.000000
0.158083 0.311154 0.000000
0.193725 0.309660 0.000000
0.229368 0.308166 0.000000
0.265011 0.306672 0.000000
0.300653 0.305178 0.000000
0.336296 0.303684 0.000000
0.371939 0.302190 0.000000
0.407582 0.300696 0.000000
0.443224 0.299202 0.000000
0.478867 0.297708 0.000000
0.514510 0.296214 0.000000
0.550152 0.294720 0.000000
0.585795 0.293226 0.000000
0.621438 0.291732 0.000000
0.657080 0.290237 0.000000
0.692723 0.288743 0.000000
0.728366 0.287249 0.000000
0.764009 0.285755 0.000000
0.799651 0.284261 0.000000
0.835294 0.282767 0.000000
0.871541 0.281273 0.000000
0.908070 0.279779 0.000000
0.944599 0.278285 0.000000
0.981127 0.276791 0.000000
1.000000 0.275297 0.000000
1.000000 0.273952 0.000000
1.000000 0.273725 0.000000
0.000000 0.354293 0.000000
0.000000 0.353606 0.000000
0.013854 0.352262 0.000000
0.049496 0.350768 0.000000
0.085139 0.349273 0.000000
0.120782 0.347779 0.000000
0.156424 0.346285 0.000000
0.192067 0.344791 0.000000
0.227710 0.343297 0.000000
0.263352 0.341803 0.000000
0.298995 0.340309 0.000000
0.334638 0.338815 0.000000
0.370281 0.337321 0.000000
0.405923 0.335827 0.000000
0.441566 0.334333 0.000000
0.477209 0.332839 0.000000
0.512851 0.331345 0.000000
0.548494 0.329851 0.000000
0.584137 0.328357 0.000000
0.619779 0.326863 0.000000
0.655422 0.325368 0.000000
0.691065 0.323874 0.000000
0.726708 0.322380 0.000000
0.762350 0.320886 0.000000
0.798565 0.319392 0.000000
0.835094 0.317898 0.000000
0.871622 0.316404 0.000000
0.908151 0.314910 0.000000
0.944680 0.313416 0.000000
0.981209 0.311922 0.000000
1.000000 0.310862 0.000000
1.000000 0.310204 0.000000
1.000000 0.310204 0.000000
0.000000 0.389424 0.000000
0.000000 0.388737 0.000000
0.012195 0.387393 0.000000
0.047838 0.385899 0.000000
0.083481 0.384404 0.000000
0.119123 0.382910 0.000000
0.154766 0.381416 0.000000
0.190409 0.379922 0.000000
0.226051 0.378428 0.000000
0.261694 0.376934 0.000000
0.297337 0.375440 0.000000
0.332980 0.373946 0.000000
0.368622 0.372452 0.000000
0.404265 0.370958 0.000000
0.439908 0.369464 0.000000
0.475550 0.367970 0.000000
0.511193 0.366476 0.000000
0.546836 0.364982 0.000000
0.582479 0.363488 0.000000
0.618121 0.361993 0.000000
0.653764 0.360499 0.000000
0.689407 0.359005 0.000000
0.725589 0.357511 0.000000
0.762117 0.356017 0.000000
0.798646 0.354523 0.000000
0.835175 0.353029 0.000000
0.871704 0.351535 0.000000
0.908232 0.350041 0.000000
0.944761 0.348955 0.000000
0.981290 0.348148 0.000000
1.000000 0.347341 0.000000
1.000000 0.346683 0.000000
1.000000 0.346683 0.000000
0.000000 0.424555 0.000000
0.000000 0.423868 0.000000
0.010537 0.422524 0.000000
0.046180 0.421029 0.000000
0.081822 0.419535 0.000000
0.117465 0.418041 0.000000
0.153108 0.416547 0.000000
0.188751 0.415053 0.000000
0.224393 0.413559 0.000000
0.260036 0.412065 0.000000
0.295679 0.410571 0.000000
0.331321 0.409077 0.000000
0.366964 0.407583 0.000000
0.402607 0.406089 0.000000
0.438249 0.404595 0.000000
0.473892 0.403101 0.000000
0.509535 0.401607 0.000000
0.545178 0.400113 0.000000
0.580820 0.398618 0.000000
0.616463 0.397124 0.000000
0.652612 0.395630 0.000000
0.689141 0.394136 0.000000
0.725670 0.392642 0.000000
0.762199 0.391148 0.000000
0.798727 0.389654 0.000000
0.835256 0.388160 0.000000
0.871785 0.387049 0.000000
0.908314 0.386242 0.000000
0.944842 0.385435 0.000000
0.981371 0.384627 0.000000
1.000000 0.383820 0.000000
1.000000 0.383162 0.000000
1.000000 0.383162 0.000000
0.000000 0.459686 0.000000
0.000000 0.458999 0.000000
0.008879 0.457655 0.000000
0.044521 0.456160 0.000000
0.080164 0.454666 0.000000
0.115807 0.453172 0.000000
0.151450 0.451678 0.000000
0.187092 0.450184 0.000000
0.222735 0.448690 0.000000
0.258378 0.447196 0.000000
0.294020 0.445702 0.000000
0.329663 0.444208 0.000000
0.365306 0.442714 0.000000
0.400948 0.441220 0.000000
0.436591 0.439726 0.000000
0.472234 0.438232 0.000000
0.507877 0.436738 0.000000
0.543519 0.435244 0.000000
0.579636 0.433749 0.000000
0.616165 0.432255 0.000000
0.652694 0.430761 0.000000
0.689222 0.429267 0.000000
0.725751 0.427773 0.000000
0.762280 0.426279 0.000000
0.798809 0.425143 0.000000
0.835337 0.424336 0.000000
0.871866 0.423529 0.000000
0.908395 0.422721 0.000000
0.944924 0.421914 0.000000
0.981452 0.421107 0.000000
1.000000 0.420299 0.000000
1.000000 0.419642 0.000000
1.000000 0.419642 0.000000
0.000000 0.494817 0.000000
0.000000 0.494130 0.000000
0.007220 0.492785 0.000000
0.042863 0.491291 0.000000
0.078506 0.489797 0.000000
0.114149 0.488303 0.000000
0.149791 0.486809 0.000000
0.185434 0.485315 0.000000
0.221077 0.483821 0.000000
0.256719 0.482327 0.000000
0.292362 0.480833 0.000000
0.328005 0.479339 0.000000
0.363647 0.477845 0.000000
0.399290 0.476351 0.000000
0.434933 0.474857 0.000000
0.470576 0.473363 0.000000
0.506660 0.471869 0.000000
0.543189 0.470374 0.000000
0.579717 0.468880 0.000000
0.616246 0.467386 0.000000
0.652775 0.465892 0.000000
0.689304 0.464398 0.000000
0.725832 0.463237 0.000000
0.762361 0.462430 0.000000
0.798890 0.461622 0.000000
0.835419 0.460815 0.000000
0.871947 0.460008 0.000000
0.908476 0.459200 0.000000
0.945005 0.458393 0.000000
0.981534 0.457586 0.000000
1.000000 0.456779 0.000000
1.000000 0.456121 0.000000
1.000000 0.456121 0.000000
0.000000 0.529948 0.000000
0.000000 0.529261 0.000000
0.005562 0.527916 0.000000
0.041205 0.526422 0.000000
0.076848 0.524928 0.000000
0.112490 0.523434 0.000000
0.148133 0.521940 0.000000
0.183776 0.520446 0.000000
0.219418 0.518952 0.000000
0.255061 0.517458 0.000000
0.290704 0.515964 0.000000
0.326346 0.514470 0.000000
0.361989 0.512976 0.000000
0.397632 0.511482 0.000000
0.433684 0.509988 0.000000
0.470212 0.508494 0.000000
0.506741 0.507000 0.000000
0.543270 0.505505 0.000000
0.579799 0.504011 0.000000
0.616327 0.502517 0.000000
0.652856 0.501331 0.000000
0.689385 0.500524 0.000000
0.725914 0.499716 0.000000
0.762442 0.498909 0.000000
0.798971 0.498102 0.000000
0.835500 0.497294 0.000000
0.872028 0.496487 0.000000
0.908557 0.495680 0.000000
0.945086 0.494872 0.000000
0.981615 0.494065 0.000000
1.000000 0.493258 0.000000
1.000000 0.492600 0.000000
1.000000 0.492600 0.000000
0.000000 0.565079 0.000000
0.000000 0.564392 0.000000
0.003904 0.563047 0.000000
0.039547 0.561553 0.000000
0.075189 0.560059 0.000000
0.110832 0.558565 0.000000
0.146475 0.557071 0.000000
0.182117 0.555577 0.000000
0.217760 0.554083 0.000000
0.253403 0.552589 0.000000
0.289046 0.551095 0.000000
0.324688 0.549601 0.000000
0.360707 0.548107 0.000000
0.397236 0.546613 0.000000
0.433765 0.545119 0.000000
0.470294 0.543625 0.000000
0.506822 0.542130 0.000000
0.543351 0.540636 0.000000
0.579880 0.539425 0.000000
0.616408 0.538617 0.000000
0.652937 0.537810 0.000000
0.689466 0.537003 0.000000
0.725995 0.536195 0.000000
0.762523 0.535388 0.000000
0.799052 0.534581 0.000000
0.835581 0.533774 0.000000
0.872110 0.532966 0.000000
0.908638 0.532159 0.000000
0.945167 0.531352 0.000000
0.981696 0.530544 0.000000
1.000000 0.529737 0.000000
1.000000 0.529079 0.000000
1.000000 0.529079 0.000000
0.000000 0.600210 0.000000
0.000000 0.599523 0.000000
0.002246 0.598178 0.000000
0.037888 0.596684 0.000000
0.073531 0.595190 0.000000
0.109174 0.593696 0.000000
0.144816 0.592202 0.000000
0.180459 0.590708 0.000000
0.216102 0.589214 0.000000
0.251745 0.587720 0.000000
0.287731 0.586226 0.000000
0.324260 0.584732 0.000000
0.360788 0.583238 0.000000
0.397317 0.581744 0.000000
0.433846 0.580250 0.000000
0.470375 0.578755 0.000000
0.506903 0.577518 0.000000
0.543432 0.576711 0.000000
0.579961 0.575904 0.000000
0.616490 0.575097 0.000000
0.653018 0.574289 0.000000
0.689547 0.573482 0.000000
0.726076 0.572675 0.000000
0.762605 0.571867 0.000000
0.799133 0.571060 0.000000
0.835662 0.570253 0.000000
0.872191 0.569445 0.000000
0.908720 0.568638 0.000000
0.945248 0.567831 0.000000
0.981777 0.567024 0.000000
1.000000 0.566216 0.000000
1.000000 0.565558 0.000000
1.000000 0.565558 0.000000
0.000000 0.635341 0.000000
0.000000 0.634654 0.000000
0.000587 0.633309 0.000000
0.036230 0.631815 0.000000
0.071873 0.630321 0.000000
0.107515 0.628827 0.000000
0.143158 0.627333 0.000000
0.178801 0.625839 0.000000
0.214755 0.624345 0.000000
0.251283 0.622851 0.000000
0.287812 0.621357 0.000000
0.324341 0.619863 0.000000
0.360870 0.618369 0.000000
0.397398 0.616875 0.000000
0.433927 0.615612 0.000000
0.470456 0.614805 0.000000
0.506985 0.613998 0.000000
0.543513 0.613190 0.000000
0.580042 0.612383 0.000000
0.616571 0.611576 0.000000
0.653100 0.610768 0.000000
0.689628 0.609961 0.000000
0.726157 0.609154 0.000000
0.762686 0.608347 0.000000
0.799215 0.607539 0.000000
0.835743 0.606732 0.000000
0.872272 0.605925 0.000000
0.908801 0.605117 0.000000
0.945330 0.604310 0.000000
0.981858 0.603503 0.000000
1.000000 0.602695 0.000000
1.000000 0.602038 0.000000
1.000000 0.602038 0.000000
0.000000 0.670472 0.000000
0.000000 0.669785 0.000000
0.000000 0.668440 0.000000
0.034572 0.666946 0.000000
0.070214 0.665452 0.000000
0.105857 0.663958 0.000000
0.141778 0.662464 0.000000
0.178307 0.660970 0.000000
0.214836 0.659476 0.000000
0.251365 0.657982 0.000000
0.287893 0.656488 0.000000
0.324422 0.654994 0.000000
0.360951 0.653706 0.000000
0.397480 0.652899 0.000000
0.434008 0.652092 0.000000
0.470537 0.651284 0.000000
0.507066 0.650477 0.000000
0.543595 0.649670 0.000000
0.580123 0.648862 0.000000
0.616652 0.648055 0.000000
0.653181 0.647248 0.000000
0.689710 0.646440 0.000000
0.726238 0.645633 0.000000
0.762767 0.644826 0.000000
0.799296 0.644019 0.000000
0.835825 0.643211 0.000000
0.872353 0.642404 0.000000
0.908882 0.641597 0.000000
0.945411 0.640789 0.000000
0.981940 0.639982 0.000000
1.000000 0.639175 0.000000
1.000000 0.638517 0.000000
1.000000 0.638517 0.000000
0.000000 0.705603 0.000000
0.000000 0.704916 0.000000
0.000000 0.703571 0.000000
0.032914 0.702077 0.000000
0.068802 0.700583 0.000000
0.105331 0.699089 0.000000
0.141860 0.697595 0.000000
0.178388 0.696101 0.000000
0.214917 0.694607 0.000000
0.251446 0.693113 0.000000
0.287975 0.691800 0.000000
0.324503 0.690993 0.000000
0.361032 0.690185 0.000000
0.397561 0.689378 0.000000
0.434090 0.688571 0.000000
0.470618 0.687763 0.000000
0.507147 0.686956 0.000000
0.543676 0.686149 0.000000
0.580205 0.685342 0.000000
0.616733 0.684534 0.000000
0.653262 0.683727 0.000000
0.689791 0.682920 0.000000
0.726320 0.682112 0.000000
0.762848 0.681305 0.000000
0.799377 0.680498 0.000000
0.835906 0.679690 0.000000
0.872435 0.678883 0.000000
0.908963 0.678076 0.000000
0.945492 0.677269 0.000000
0.982021 0.676461 0.000000
1.000000 0.675654 0.000000
1.000000 0.674996 0.000000
1.000000 0.674996 0.000000
0.000000 0.740734 0.000000
0.000000 0.740047 0.000000
0.000213 0.738702 0.000000
0.032355 0.737208 0.000000
0.068883 0.735714 0.000000
0.105412 0.734220 0.000000
0.141941 0.732726 0.000000
0.178470 0.731232 0.000000
0.214998 0.729894 0.000000
0.251527 0.729086 0.000000
0.288056 0.728279 0.000000
0.324585 0.727472 0.000000
0.361113 0.726665 0.000000
0.397642 0.725857 0.000000
0.434171 0.725050 0.000000
0.470700 0.724243 0.000000
0.507228 0.723435 0.000000
0.543757 0.722628 0.000000
0.580286 0.721821 0.000000
0.616815 0.721013 0.000000
0.653343 0.720206 0.000000
0.689872 0.719399 0.000000
0.726401 0.718592 0.000000
0.762930 0.717784 0.000000
0.799458 0.716977 0.000000
0.835987 0.716170 0.000000
0.872516 0.715362 0.000000
0.909045 0.714555 0.000000
0.945573 0.713748 0.000000
0.982102 0.712940 0.000000
1.000000 0.712133 0.000000
1.000000 0.711475 0.000000
1.000000 0.711475 0.000000
0.000181 0.775864 0.000000
0.001067 0.775178 0.000000
0.001953 0.773833 0.000000
0.032436 0.772339 0.000000
0.068965 0.770845 0.000000
0.105493 0.769351 0.000000
0.142022 0.767988 0.000000
0.178551 0.767180 0.000000
0.215080 0.766373 0.000000
0.251608 0.765566 0.000000
0.288137 0.764758 0.000000
0.324666 0.763951 0.000000
0.361195 0.763144 0.000000
0.397723 0.762336 0.000000
0.434252 0.761529 0.000000
0.470781 0.760722 0.000000
0.507310 0.759915 0.000000
0.543838 0.759107 0.000000
0.580367 0.758300 0.000000
0.616896 0.757493 0.000000
0.653425 0.756685 0.000000
0.689953 0.755878 0.000000
0.726482 0.755071 0.000000
0.763011 0.754263 0.000000
0.799540 0.753456 0.000000
0.836068 0.752649 0.000000
0.872597 0.751842 0.000000
0.909126 0.751034 0.000000
0.945655 0.750227 0.000000
0.982183 0.749420 0.000000
1.000000 0.748612 0.000000
1.000000 0.747955 0.000000
1.000000 0.747955 0.000000
0.001920 0.810995 0.000000
0.002806 0.810309 0.000000
0.003692 0.808964 0.000000
0.032517 0.807470 0.000000
0.069046 0.806081 0.000000
0.105575 0.805274 0.000000
0.142103 0.804467 0.000000
0.178632 0.803659 0.000000
0.215161 0.802852 0.000000
0.251690 0.802045 0.000000
0.288218 0.801238 0.000000
0.324747 0.800430 0.000000
0.361276 0.799623 0.000000
0.397805 0.798816 0.000000
0.434333 0.798008 0.000000
0.470862 0.797201 0.000000
0.507391 0.796394 0.000000
0.543920 0.795586 0.000000
0.580448 0.794779 0.000000
0.616977 0.793972 0.000000
0.653506 0.793165 0.000000
0.690035 0.792357 0.000000
0.726563 0.791550 0.000000
0.763092 0.790743 0.000000
0.799621 0.789935 0.000000
0.836149 0.789128 0.000000
0.872678 0.788321 0.000000
0.909207 0.787513 0.000000
0.945736 0.786706 0.000000
0.982264 0.785899 0.000000
1.000000 0.785092 0.000000
1.000000 0.784434 0.000000
1.000000 0.784434 0.000000
0.003660 0.846126 0.000000
0.004546 0.845440 0.000000
0.005432 0.844175 0.000000
0.032598 0.843368 0.000000
0.069127 0.842561 0.000000
0.105656 0.841753 0.000000
0.142185 0.840946 0.000000
0.178713 0.840139 0.000000
0.215242 0.839331 0.000000
0.251771 0.838524 0.000000
0.288300 0.837717 0.000000
0.324828 0.836910 0.000000
0.361357 0.836102 0.000000
0.397886 0.835295 0.000000
0.434415 0.834488 0.000000
0.470943 0.833680 0.000000
0.507472 0.832873 0.000000
0.544001 0.832066 0.000000
0.580529 0.831258 0.000000
0.617058 0.830451 0.000000
0.653587 0.829644 0.000000
0.690116 0.828837 0.000000
0.726644 0.828029 0.000000
0.763173 0.827222 0.000000
0.799702 0.826415 0.000000
0.836231 0.825607 0.000000
0.872759 0.824800 0.000000
0.909288 0.823993 0.000000
0.945817 0.823185 0.000000
0.982346 0.822378 0.000000
1.000000 0.821571 0.000000
1.000000 0.820913 0.000000
1.000000 0.820913 0.000000
0.005399 0.881312 0.000000
0.006285 0.881312 0.000000
0.007171 0.880654 0.000000
0.032680 0.879847 0.000000
0.069208 0.879040 0.000000
0.105737 0.878233 0.000000
0.142266 0.877425 0.000000
0.178795 0.876618 0.000000
0.215323 0.875811 0.000000
0.251852 0.875003 0.000000
0.288381 0.874196 0.000000
0.324909 0.873389 0.000000
0.361438 0.872581 0.000000
0.397967 0.871774 0.000000
0.434496 0.870967 0.000000
0.471024 0.870160 0.000000
0.507553 0.869352 0.000000
0.544082 0.868545 0.000000
0.580611 0.867738 0.000000
0.617139 0.866930 0.000000
0.653668 0.866123 0.000000
0.690197 0.865316 0.000000
0.726726 0.864508 0.000000
0.763254 0.863701 0.000000
0.799783 0.862894 0.000000
0.836312 0.862087 0.000000
0.872841 0.861279 0.000000
