docs/luts/fresh-cinema-3.cube
TITLE "FreshLUTs??-??3"
LUT_3D_SIZE 5
DOMAIN_MIN 0.0 0.0 0.0
DOMAIN_MAX 1.0 1.0 1.0
0.000000 0.000000 0.045000
0.205608 0.000000 0.037936
0.514020 0.000000 0.030872
0.822432 0.000000 0.023808
1.000000 0.000000 0.016744
0.000000 0.199633 0.031132
0.200677 0.200380 0.024068
0.509089 0.199932 0.017004
0.817501 0.199483 0.009940
1.000000 0.200231 0.002877
0.000000 0.500587 0.017264
0.193868 0.501335 0.010200
0.503668 0.500886 0.003137
0.816591 0.498692 0.000000
1.000000 0.496300 0.000000
0.001222 0.801541 0.003396
0.192792 0.800659 0.000000
0.505714 0.797071 0.000000
0.818637 0.793483 0.000000
1.000000 0.791091 0.000000
0.010078 1.000000 0.000000
0.196716 1.000000 0.000000
0.509639 1.000000 0.000000
0.822562 1.000000 0.000000
1.000000 1.000000 0.000000
0.000000 0.000000 0.264926
0.204628 0.000000 0.255470
0.513040 0.000000 0.244819
0.821452 0.000000 0.234167
1.000000 0.000000 0.224711
0.000000 0.199849 0.246128
0.199697 0.200597 0.236672
0.508109 0.200148 0.226020
0.816521 0.199700 0.215368
1.000000 0.200447 0.205912
0.000000 0.500804 0.225451
0.192888 0.501551 0.215995
0.504407 0.501103 0.205343
0.817330 0.497712 0.201312
1.000000 0.495320 0.198920
0.002942 0.801758 0.204774
0.193531 0.799678 0.201678
0.506454 0.796090 0.198090
0.819377 0.792502 0.194502
1.000000 0.790110 0.192110
0.011797 1.000000 0.199140
0.197456 1.000000 0.196748
0.510379 1.000000 0.193160
0.823301 1.000000 0.189572
1.000000 1.000000 0.187180
0.000000 0.000000 0.557334
0.203328 0.000000 0.547878
0.511740 0.000000 0.537226
0.820152 0.000000 0.526574
1.000000 0.000000 0.517118
0.000000 0.199747 0.538535
0.198397 0.200494 0.529079
0.506809 0.200046 0.518427
0.815704 0.199597 0.507775
1.000000 0.199229 0.500829
0.000000 0.500701 0.517858
0.191905 0.501449 0.508402
0.504828 0.500000 0.500000
0.817750 0.496412 0.496412
1.000000 0.494020 0.494020
0.004662 0.800771 0.499171
0.193951 0.798379 0.496779
0.506874 0.794791 0.493191
0.819797 0.791203 0.489603
1.000000 0.788811 0.487211
0.013517 1.000000 0.494240
0.197876 1.000000 0.491848
0.510799 1.000000 0.488260
0.823722 1.000000 0.484672
1.000000 1.000000 0.482280
0.000000 0.000000 0.849741
0.202028 0.000000 0.840285
0.510440 0.000000 0.829633
0.818852 0.000000 0.818981
1.000000 0.000000 0.809525
0.000000 0.199644 0.830942
0.197098 0.200392 0.821486
0.505510 0.199943 0.810834
0.816124 0.199495 0.800182
1.000000 0.197930 0.795930
0.000000 0.500598 0.810265
0.192325 0.501346 0.800809
0.505248 0.498700 0.795100
0.818171 0.495112 0.791512
1.000000 0.492720 0.789120
0.006381 0.799471 0.794271
0.194371 0.797079 0.791879
0.507294 0.793491 0.788291
0.820217 0.789903 0.784703
1.000000 0.787511 0.782311
0.015237 1.000000 0.789340
0.198296 1.000000 0.786948
0.511219 1.000000 0.783360
0.824142 1.000000 0.779772
1.000000 1.000000 0.777380
0.000000 0.000000 1.000000
0.201048 0.000000 1.000000
0.509460 0.000000 1.000000
0.817872 0.000000 1.000000
1.000000 0.000000 1.000000
0.000000 0.199861 1.000000
0.196117 0.200608 1.000000
0.504529 0.200160 1.000000
0.816864 0.199341 1.000000
1.000000 0.196949 1.000000
0.000000 0.500815 1.000000
0.193064 0.501308 1.000000
0.505987 0.497720 1.000000
0.818910 0.494132 1.000000
1.000000 0.491740 1.000000
0.008101 0.798491 1.000000
0.195111 0.796099 1.000000
0.508034 0.792511 1.000000
0.820956 0.788923 1.000000
1.000000 0.786531 1.000000
0.016957 1.000000 1.000000
0.199036 1.000000 1.000000
0.511958 1.000000 1.000000
0.824881 1.000000 1.000000
1.000000 1.000000 1.000000
