docs/luts/fresh-hypnosis.cube
TITLE "FreshLUTs??-??"
LUT_3D_SIZE 9
DOMAIN_MIN 0.0 0.0 0.0
DOMAIN_MAX 1.0 1.0 1.0
0.000000 0.000000 0.055000
0.049054 0.000000 0.050683
0.225073 0.000000 0.046366
0.401091 0.000000 0.042050
0.577110 0.000000 0.037733
0.753129 0.000000 0.033416
0.929147 0.000000 0.029099
1.000000 0.000000 0.024782
1.000000 0.000000 0.020466
0.000000 0.069438 0.046525
0.040660 0.065895 0.042208
0.216679 0.055116 0.037892
0.392697 0.044337 0.033575
0.568716 0.033558 0.029258
0.744734 0.022779 0.024941
0.920753 0.012001 0.020624
1.000000 0.001222 0.016308
1.000000 0.000000 0.011991
0.000000 0.226146 0.038050
0.021935 0.222602 0.033734
0.197954 0.211824 0.029417
0.373972 0.201045 0.025100
0.549991 0.190266 0.020783
0.726009 0.179487 0.016466
0.902028 0.168708 0.012149
1.000000 0.157929 0.007833
1.000000 0.154386 0.003516
0.000000 0.382853 0.029576
0.003210 0.379310 0.025259
0.179228 0.368531 0.020942
0.355247 0.357752 0.016625
0.531265 0.346973 0.012308
0.707284 0.336194 0.007991
0.885194 0.325415 0.003675
1.000000 0.314636 0.000000
1.000000 0.311093 0.000000
0.000000 0.539560 0.021101
0.000000 0.536017 0.016784
0.160503 0.525238 0.012467
0.336521 0.514459 0.008150
0.514324 0.503680 0.003834
0.693243 0.492901 0.000000
0.872161 0.482122 0.000000
1.000000 0.471343 0.000000
1.000000 0.467800 0.000000
0.000000 0.696267 0.012626
0.000000 0.692724 0.008309
0.143455 0.681945 0.003992
0.322374 0.671166 0.000000
0.501292 0.660387 0.000000
0.680210 0.649608 0.000000
0.859129 0.638829 0.000000
1.000000 0.628050 0.000000
1.000000 0.624507 0.000000
0.001571 0.852974 0.004151
0.004471 0.849431 0.000000
0.130423 0.838652 0.000000
0.309341 0.827873 0.000000
0.488260 0.817094 0.000000
0.667178 0.806315 0.000000
0.846096 0.795536 0.000000
1.000000 0.784758 0.000000
1.000000 0.781214 0.000000
0.007264 0.989727 0.000000
0.010164 0.988980 0.000000
0.117391 0.988232 0.000000
0.296309 0.984581 0.000000
0.475227 0.973802 0.000000
0.654146 0.963023 0.000000
0.833064 0.952244 0.000000
1.000000 0.941465 0.000000
1.000000 0.937922 0.000000
0.012957 0.988260 0.000000
0.015857 0.987513 0.000000
0.114689 0.986765 0.000000
0.293608 0.986017 0.000000
0.472526 0.985270 0.000000
0.651444 0.984522 0.000000
0.830363 0.983775 0.000000
1.000000 0.983028 0.000000
1.000000 0.982280 0.000000
0.000000 0.000000 0.104138
0.047988 0.000000 0.097026
0.224007 0.000000 0.082677
0.400026 0.000000 0.068329
0.576044 0.000000 0.053981
0.752063 0.000000 0.039633
0.928081 0.000000 0.027453
1.000000 0.000000 0.023136
1.000000 0.000000 0.018820
0.000000 0.068088 0.087269
0.039594 0.064544 0.080157
0.215613 0.053765 0.065809
0.391631 0.042986 0.051460
0.567650 0.032208 0.037112
0.743669 0.021429 0.023295
0.919687 0.010650 0.018978
1.000000 0.000000 0.014662
1.000000 0.000000 0.010345
0.000000 0.224795 0.060069
0.020869 0.221252 0.052957
0.196888 0.210473 0.038608
0.372906 0.199694 0.024260
0.548925 0.188915 0.019137
0.724943 0.178136 0.014820
0.900962 0.167357 0.010504
1.000000 0.156578 0.006187
1.000000 0.153035 0.001870
0.000000 0.381502 0.032869
0.002144 0.377959 0.025757
0.178162 0.367180 0.019296
0.354181 0.356401 0.014979
0.530199 0.345622 0.010662
0.706315 0.334843 0.006346
0.885233 0.324064 0.002029
1.000000 0.313285 0.000000
1.000000 0.309742 0.000000
0.000000 0.538209 0.019455
0.000000 0.534666 0.015138
0.159437 0.523887 0.010821
0.335456 0.513108 0.006504
0.514364 0.502329 0.002188
0.693283 0.491550 0.000000
0.872201 0.480771 0.000000
1.000000 0.469992 0.000000
1.000000 0.466449 0.000000
0.000000 0.694916 0.010980
0.000000 0.691373 0.006663
0.143495 0.680594 0.002346
0.322413 0.669815 0.000000
0.501332 0.659036 0.000000
0.680250 0.648257 0.000000
0.859168 0.637478 0.000000
1.000000 0.626699 0.000000
1.000000 0.623156 0.000000
0.002677 0.851623 0.002505
0.005577 0.848080 0.000000
0.130463 0.837301 0.000000
0.309381 0.826522 0.000000
0.488299 0.815744 0.000000
0.667218 0.804965 0.000000
0.846136 0.794186 0.000000
1.000000 0.783407 0.000000
1.000000 0.779864 0.000000
0.008370 0.989443 0.000000
0.011269 0.988695 0.000000
0.117430 0.987947 0.000000
0.296349 0.983230 0.000000
0.475267 0.972451 0.000000
0.654185 0.961672 0.000000
0.833104 0.950893 0.000000
1.000000 0.940114 0.000000
1.000000 0.936571 0.000000
0.014062 0.987975 0.000000
0.016962 0.987228 0.000000
0.114729 0.986480 0.000000
0.293647 0.985733 0.000000
0.472566 0.984985 0.000000
0.651484 0.984237 0.000000
0.830402 0.983490 0.000000
1.000000 0.982742 0.000000
1.000000 0.981995 0.000000
0.000000 0.000000 0.284718
0.044164 0.000000 0.277605
0.220182 0.000000 0.263257
0.396201 0.000000 0.248909
0.572219 0.000000 0.234560
0.748238 0.000000 0.220212
0.924256 0.000000 0.205864
1.000000 0.000000 0.191516
1.000000 0.000000 0.184403
0.000000 0.063978 0.267849
0.035770 0.060435 0.260736
0.211788 0.049656 0.246388
0.387807 0.038877 0.232040
0.563825 0.028098 0.217691
0.739844 0.017319 0.203343
0.915862 0.006540 0.188995
1.000000 0.000000 0.174647
1.000000 0.000000 0.167534
0.000000 0.220685 0.240649
0.017044 0.217142 0.233536
0.193063 0.206363 0.219188
0.369081 0.195584 0.204840
0.545100 0.184805 0.190491
0.721119 0.174026 0.176143
0.897137 0.163247 0.161795
1.000000 0.152468 0.147447
1.000000 0.148925 0.140334
0.000000 0.377392 0.213449
0.000000 0.373849 0.206336
0.174338 0.363070 0.191988
0.350356 0.352291 0.177640
0.526375 0.341512 0.163291
0.703596 0.330733 0.148943
0.882514 0.319954 0.134595
1.000000 0.309175 0.124180
1.000000 0.305632 0.121385
0.000000 0.534099 0.186248
0.000000 0.530556 0.179136
0.155612 0.519777 0.164788
0.332727 0.508998 0.150439
0.511645 0.498219 0.136091
0.690563 0.487440 0.125518
0.869482 0.476662 0.115487
1.000000 0.465883 0.105455
1.000000 0.462339 0.102659
0.000000 0.690807 0.159048
0.000989 0.687263 0.151936
0.140776 0.676485 0.137588
0.319694 0.665706 0.126856
0.498613 0.654927 0.116824
0.677531 0.644148 0.106793
0.856449 0.633369 0.096761
1.000000 0.622590 0.086730
1.000000 0.619047 0.083934
0.003782 0.847514 0.131848
0.006682 0.843971 0.128193
0.127744 0.833192 0.118162
0.306662 0.822413 0.108130
0.485580 0.811634 0.098099
0.664499 0.800855 0.088067
0.843417 0.790076 0.078036
1.000000 0.779297 0.068004
1.000000 0.775754 0.065209
0.009475 0.989158 0.112264
0.012375 0.988410 0.109468
0.114711 0.987662 0.099436
0.293630 0.979120 0.089405
0.472548 0.968341 0.079373
0.651466 0.957562 0.069342
0.830385 0.946783 0.059311
1.000000 0.936004 0.049279
1.000000 0.932461 0.046484
0.015168 0.987690 0.103869
0.018068 0.986943 0.101074
0.112010 0.986195 0.091042
0.290928 0.985448 0.081011
0.469847 0.984700 0.070979
0.648765 0.983953 0.060948
0.827683 0.983205 0.050916
1.000000 0.982457 0.040885
1.000000 0.981710 0.038089
0.000000 0.000000 0.465297
0.040339 0.000000 0.458185
0.216358 0.000000 0.443836
0.392376 0.000000 0.429488
0.568395 0.000000 0.415140
0.744413 0.000000 0.400792
0.920432 0.000000 0.386443
1.000000 0.000000 0.372095
1.000000 0.000000 0.364983
0.000000 0.059868 0.448428
0.031945 0.056325 0.441316
0.207963 0.045546 0.426967
0.383982 0.034767 0.412619
0.560001 0.023988 0.398271
0.736019 0.013209 0.383923
0.912038 0.002430 0.369574
1.000000 0.000000 0.355226
1.000000 0.000000 0.348114
0.000000 0.216575 0.421228
0.013220 0.213032 0.414116
0.189238 0.202253 0.399767
0.365257 0.191474 0.385419
0.541275 0.180695 0.371071
0.717294 0.169916 0.356723
0.893312 0.159137 0.342374
1.000000 0.148358 0.328026
1.000000 0.144815 0.322335
0.000000 0.373282 0.394028
0.000000 0.369739 0.386915
0.170513 0.358960 0.372567
0.346531 0.348181 0.358219
0.522550 0.337402 0.343871
0.700877 0.326624 0.329522
0.879795 0.315845 0.316437
1.000000 0.305066 0.306406
1.000000 0.301523 0.303610
0.000000 0.529990 0.366828
0.000000 0.526447 0.359715
0.151788 0.515668 0.345367
0.330008 0.504889 0.331019
0.508926 0.494110 0.317775
0.687844 0.483331 0.307743
0.866763 0.472552 0.297712
1.000000 0.461773 0.287680
1.000000 0.458230 0.284885
0.000000 0.686697 0.339628
0.002095 0.683154 0.332515
0.138057 0.672375 0.319112
0.316975 0.661596 0.309081
0.495894 0.650817 0.299049
0.674812 0.640038 0.289018
0.853730 0.629259 0.278987
1.000000 0.618480 0.268955
1.000000 0.614937 0.266159
0.004888 0.843404 0.313214
0.007788 0.839861 0.310418
0.125025 0.829082 0.300387
0.303943 0.818303 0.290356
0.482861 0.807524 0.280324
0.661780 0.796745 0.270293
0.840698 0.785966 0.260261
1.000000 0.775187 0.250230
1.000000 0.771644 0.247434
0.010581 0.988873 0.294489
0.013481 0.988125 0.291693
0.111992 0.985789 0.281662
0.290910 0.975010 0.271630
0.469829 0.964231 0.261599
0.648747 0.953452 0.251567
0.827665 0.942673 0.241536
1.000000 0.931894 0.231504
1.000000 0.928351 0.228709
0.016274 0.987405 0.286095
0.019173 0.986657 0.283299
0.109291 0.985910 0.273268
0.288209 0.985163 0.263236
0.467128 0.984415 0.253205
0.646046 0.983668 0.243173
0.824964 0.982920 0.233142
1.000000 0.982173 0.223110
1.000000 0.981425 0.220315
0.000000 0.000000 0.645876
0.036514 0.000000 0.638764
0.212533 0.000000 0.624416
0.388551 0.000000 0.610068
0.564570 0.000000 0.595719
0.740589 0.000000 0.581371
0.916607 0.000000 0.567023
1.000000 0.000000 0.552674
1.000000 0.000000 0.545562
0.000000 0.055758 0.629008
0.028120 0.052215 0.621895
0.204139 0.041436 0.607547
0.380157 0.030657 0.593199
0.556176 0.019878 0.578850
0.732194 0.009099 0.564502
0.908213 0.000000 0.550154
1.000000 0.000000 0.535806
1.000000 0.000000 0.528693
0.000000 0.212466 0.601807
0.009395 0.208922 0.594695
0.185414 0.198144 0.580347
0.361432 0.187365 0.565998
0.537451 0.176586 0.551650
0.713469 0.165807 0.537302
0.890108 0.155028 0.522954
1.000000 0.144249 0.508605
1.000000 0.140706 0.504561
0.000000 0.369173 0.574607
0.000000 0.365630 0.567495
0.166688 0.354851 0.553147
0.342707 0.344072 0.538798
0.519239 0.333293 0.524450
0.698158 0.322514 0.510102
0.877076 0.311735 0.498662
1.000000 0.300956 0.488631
1.000000 0.297413 0.485835
0.000000 0.525880 0.547407
0.000000 0.522337 0.540295
0.148370 0.511558 0.525947
0.327289 0.500779 0.511598
0.506207 0.490000 0.500000
0.685125 0.479221 0.489969
0.864044 0.468442 0.479937
1.000000 0.457663 0.469906
1.000000 0.454120 0.467110
0.000301 0.682587 0.520207
0.003200 0.679044 0.513095
0.135338 0.668265 0.501338
0.314256 0.657486 0.491306
0.493174 0.646707 0.481275
0.672093 0.635928 0.471243
0.851011 0.625149 0.461212
1.000000 0.614370 0.451180
1.000000 0.610827 0.448385
0.005994 0.839294 0.495439
0.008893 0.835751 0.492644
0.122305 0.824972 0.482612
0.301224 0.814193 0.472581
0.480142 0.803414 0.462549
0.659060 0.792635 0.452518
0.837979 0.781856 0.442487
1.000000 0.771078 0.432455
1.000000 0.767534 0.429659
0.011686 0.988587 0.476714
0.014586 0.987840 0.473918
0.109273 0.981679 0.463887
0.288191 0.970901 0.453856
0.467110 0.960122 0.443824
0.646028 0.949343 0.433793
0.824946 0.938564 0.423761
1.000000 0.927785 0.413730
1.000000 0.924242 0.410934
0.017379 0.987120 0.468320
0.020279 0.986372 0.465524
0.106572 0.985625 0.455493
0.285490 0.984877 0.445461
0.464408 0.984130 0.435430
0.643327 0.983383 0.425399
0.822245 0.982635 0.415367
1.000000 0.981888 0.405336
1.000000 0.981140 0.402540
0.000000 0.000000 0.826456
0.032690 0.000000 0.819343
0.208708 0.000000 0.804995
0.384727 0.000000 0.790647
0.560745 0.000000 0.776299
0.736764 0.000000 0.761950
0.912782 0.000000 0.747602
1.000000 0.000000 0.733254
1.000000 0.000000 0.726141
0.000000 0.051649 0.809587
0.024296 0.048106 0.802475
0.200314 0.037327 0.788126
0.376333 0.026548 0.773778
0.552351 0.015769 0.759430
0.728370 0.004990 0.745081
0.904388 0.000000 0.730733
1.000000 0.000000 0.716385
1.000000 0.000000 0.709273
0.000000 0.208356 0.782387
0.005570 0.204813 0.775274
0.181589 0.194034 0.760926
0.357607 0.183255 0.746578
0.533626 0.172476 0.732230
0.709644 0.161697 0.717881
0.887389 0.150918 0.703533
1.000000 0.140139 0.689582
1.000000 0.136596 0.686786
0.000000 0.365063 0.755187
0.000000 0.361520 0.748074
0.162864 0.350741 0.733726
0.338882 0.339962 0.719378
0.516520 0.329183 0.705030
0.695439 0.318404 0.690919
0.874357 0.307625 0.680888
1.000000 0.296846 0.670856
1.000000 0.293303 0.668061
0.000000 0.521770 0.727987
0.000000 0.518227 0.720874
0.145651 0.507448 0.706526
0.324569 0.496669 0.692257
0.503488 0.485890 0.682225
0.682406 0.475111 0.672194
0.861324 0.464332 0.662162
1.000000 0.453553 0.652131
1.000000 0.450010 0.649335
0.001406 0.678478 0.700787
0.004306 0.674934 0.693674
0.132619 0.664155 0.683563
0.311537 0.653376 0.673531
0.490455 0.642597 0.663500
0.669374 0.631819 0.653469
0.848292 0.621040 0.643437
1.000000 0.610261 0.633406
1.000000 0.606718 0.630610
0.007099 0.835185 0.677665
0.009999 0.831642 0.674869
0.119586 0.820863 0.664838
0.298505 0.810084 0.654806
0.477423 0.799305 0.644775
0.656341 0.788526 0.634743
0.835260 0.777747 0.624712
1.000000 0.766968 0.614680
1.000000 0.763425 0.611885
0.012792 0.988302 0.658939
0.015692 0.987555 0.656144
0.106554 0.977570 0.646112
0.285472 0.966791 0.636081
0.464391 0.956012 0.626049
0.643309 0.945233 0.616018
0.822227 0.934454 0.605986
1.000000 0.923675 0.595955
1.000000 0.920132 0.593159
0.018485 0.986835 0.650545
0.021385 0.986088 0.647750
0.103853 0.985340 0.637718
0.282771 0.984592 0.627687
0.461689 0.983845 0.617655
0.640608 0.983097 0.607624
0.819526 0.982350 0.597592
0.998444 0.981603 0.587561
1.000000 0.980855 0.584765
0.000000 0.000000 1.000000
0.028865 0.000000 0.999923
0.204883 0.000000 0.985575
0.380902 0.000000 0.971226
0.556921 0.000000 0.956878
0.732939 0.000000 0.942530
0.908958 0.000000 0.928182
1.000000 0.000000 0.913833
1.000000 0.000000 0.906721
0.000000 0.047539 0.990166
0.020471 0.043996 0.983054
0.196489 0.033217 0.968706
0.372508 0.022438 0.954357
0.548526 0.011659 0.940009
0.724545 0.000880 0.925661
0.900564 0.000000 0.911313
1.000000 0.000000 0.896964
1.000000 0.000000 0.889852
0.000000 0.204246 0.962966
0.001746 0.200703 0.955854
0.177764 0.189924 0.941506
0.353783 0.179145 0.927157
0.529801 0.168366 0.912809
0.705820 0.157587 0.898461
0.884670 0.146808 0.884113
1.000000 0.136029 0.871807
1.000000 0.132486 0.869011
0.000000 0.360953 0.935766
0.000000 0.357410 0.928654
0.159039 0.346631 0.914305
0.335057 0.335852 0.899957
0.513801 0.325073 0.885609
0.692719 0.314294 0.873144
0.871638 0.303515 0.863113
1.000000 0.292737 0.853082
1.000000 0.289193 0.850286
0.000000 0.517661 0.908566
0.000000 0.514117 0.901454
0.142932 0.503338 0.887105
0.321850 0.492560 0.874482
0.500769 0.481781 0.864451
0.679687 0.471002 0.854419
0.858605 0.460223 0.844388
1.000000 0.449444 0.834356
1.000000 0.445901 0.831561
0.002512 0.674368 0.881366
0.005412 0.670825 0.875820
0.129900 0.660046 0.865788
0.308818 0.649267 0.855757
0.487736 0.638488 0.845725
0.666655 0.627709 0.835694
0.845573 0.616930 0.825662
1.000000 0.606151 0.815631
1.000000 0.602608 0.812835
0.008205 0.831075 0.859890
0.011105 0.827532 0.857094
0.116867 0.816753 0.847063
0.295786 0.805974 0.837031
0.474704 0.795195 0.827000
0.653622 0.784416 0.816969
0.832541 0.773637 0.806937
1.000000 0.762858 0.796906
1.000000 0.759315 0.794110
0.013898 0.987782 0.841165
0.016797 0.984239 0.838369
0.103835 0.973460 0.828338
0.282753 0.962681 0.818306
0.461671 0.951902 0.808275
0.640590 0.941123 0.798243
0.819508 0.930344 0.788212
0.998426 0.919565 0.778180
1.000000 0.916022 0.775385
0.019591 0.986550 0.832771
0.022490 0.985803 0.829975
0.101134 0.985055 0.819943
0.280052 0.984308 0.809912
0.458970 0.983560 0.799881
0.637889 0.982812 0.789849
0.816807 0.982065 0.779818
0.995725 0.981317 0.769786
1.000000 0.980570 0.766991
0.000000 0.000000 1.000000
0.025040 0.000000 1.000000
0.201059 0.000000 1.000000
0.377077 0.000000 1.000000
0.553096 0.000000 1.000000
0.729114 0.000000 1.000000
0.905133 0.000000 1.000000
1.000000 0.000000 1.000000
1.000000 0.000000 1.000000
0.000000 0.043429 1.000000
0.016646 0.039886 1.000000
0.192665 0.029107 1.000000
0.368683 0.018328 1.000000
0.544702 0.007549 1.000000
0.720720 0.000000 1.000000
0.896739 0.000000 1.000000
1.000000 0.000000 1.000000
1.000000 0.000000 1.000000
0.000000 0.200137 1.000000
0.000000 0.196593 1.000000
0.173939 0.185814 1.000000
0.349958 0.175035 1.000000
0.525976 0.164257 1.000000
0.703033 0.153478 1.000000
0.881951 0.142699 1.000000
1.000000 0.131920 1.000000
1.000000 0.128377 1.000000
0.000000 0.356844 1.000000
0.000000 0.353301 1.000000
0.155214 0.342522 1.000000
0.332164 0.331743 1.000000
0.511082 0.320964 1.000000
0.690000 0.310185 1.000000
0.868919 0.299406 1.000000
1.000000 0.288627 1.000000
1.000000 0.285084 1.000000
0.000000 0.513551 1.000000
0.000824 0.510008 1.000000
0.140213 0.499229 1.000000
0.319131 0.488450 1.000000
0.498050 0.477671 1.000000
0.676968 0.466892 1.000000
0.855886 0.456113 1.000000
1.000000 0.445334 1.000000
1.000000 0.441791 1.000000
0.003617 0.670258 1.000000
0.006517 0.666715 1.000000
0.127181 0.655936 1.000000
0.306099 0.645157 1.000000
0.485017 0.634378 1.000000
0.663936 0.623599 1.000000
0.842854 0.612820 1.000000
1.000000 0.602041 0.997856
1.000000 0.598498 0.995061
0.009310 0.826965 1.000000
0.012210 0.823422 1.000000
0.114148 0.812643 1.000000
0.293066 0.801864 1.000000
0.471985 0.791085 1.000000
0.650903 0.780306 0.999194
0.829821 0.769527 0.989162
1.000000 0.758748 0.979131
1.000000 0.755205 0.976335
0.015003 0.983672 1.000000
0.017903 0.980129 1.000000
0.101116 0.969350 1.000000
0.280034 0.958571 1.000000
0.458952 0.947792 0.990500
0.637871 0.937014 0.980469
0.816789 0.926235 0.970437
0.995707 0.915456 0.960406
1.000000 0.911913 0.957610
0.020696 0.986265 1.000000
0.023596 0.985518 1.000000
0.098414 0.984770 1.000000
0.277333 0.984023 0.992137
0.456251 0.983275 0.982106
0.635169 0.982527 0.972074
0.814088 0.981780 0.962043
0.993006 0.981032 0.952012
1.000000 0.980285 0.949216
0.000000 0.000000 1.000000
0.023974 0.000000 1.000000
0.199993 0.000000 1.000000
0.376011 0.000000 1.000000
0.552030 0.000000 1.000000
0.728049 0.000000 1.000000
0.904067 0.000000 1.000000
1.000000 0.000000 1.000000
1.000000 0.000000 1.000000
0.000000 0.042078 1.000000
0.015580 0.038535 1.000000
0.191599 0.027756 1.000000
0.367617 0.016977 1.000000
0.543636 0.006198 1.000000
0.719654 0.000000 1.000000
0.895673 0.000000 1.000000
1.000000 0.000000 1.000000
1.000000 0.000000 1.000000
0.000000 0.198786 1.000000
0.000000 0.195242 1.000000
0.172874 0.184464 1.000000
0.348892 0.173685 1.000000
0.524911 0.162906 1.000000
0.703072 0.152127 1.000000
0.881991 0.141348 1.000000
1.000000 0.130569 1.000000
1.000000 0.127026 1.000000
0.000000 0.355493 1.000000
0.000000 0.351950 1.000000
0.154148 0.341171 1.000000
0.332203 0.330392 1.000000
0.511122 0.319613 1.000000
0.690040 0.308834 1.000000
0.868958 0.298055 1.000000
1.000000 0.287276 1.000000
1.000000 0.283733 1.000000
0.000000 0.512200 1.000000
0.001930 0.508657 1.000000
0.140253 0.497878 1.000000
0.319171 0.487099 1.000000
0.498089 0.476320 1.000000
0.677008 0.465541 1.000000
0.855926 0.454762 1.000000
1.000000 0.443983 1.000000
1.000000 0.440440 1.000000
0.004723 0.668907 1.000000
0.007623 0.665364 1.000000
0.127220 0.654585 1.000000
0.306139 0.643806 1.000000
0.485057 0.633027 1.000000
0.663975 0.622248 1.000000
0.842894 0.611469 1.000000
1.000000 0.600690 1.000000
1.000000 0.597147 1.000000
0.010416 0.825614 1.000000
0.013316 0.822071 1.000000
0.114188 0.811292 1.000000
0.293106 0.800513 1.000000
0.472024 0.789734 1.000000
0.650943 0.778955 1.000000
0.829861 0.768177 1.000000
1.000000 0.757398 1.000000
1.000000 0.753854 1.000000
0.016109 0.982322 1.000000
0.019009 0.978778 1.000000
0.101155 0.967999 1.000000
0.280074 0.957221 1.000000
0.458992 0.946442 1.000000
0.637910 0.935663 1.000000
0.816829 0.924884 1.000000
0.995747 0.914105 1.000000
1.000000 0.910562 1.000000
0.021802 0.985980 1.000000
0.024702 0.985232 1.000000
0.098454 0.984485 1.000000
0.277373 0.983738 1.000000
0.456291 0.982990 1.000000
0.635209 0.982243 1.000000
0.814128 0.981495 1.000000
0.993046 0.980747 1.000000
1.000000 0.980000 1.000000
