docs/luts/fresh-orange-teal-blockbuster.cube
TITLE "FreshLUTs??-????"
LUT_3D_SIZE 9
DOMAIN_MIN 0.0 0.0 0.0
DOMAIN_MAX 1.0 1.0 1.0
0.000000 0.012000 0.085000
0.059626 0.011058 0.078329
0.214720 0.010116 0.071657
0.369815 0.009174 0.064986
0.524909 0.008233 0.058314
0.680003 0.007291 0.051643
0.835097 0.006349 0.044971
0.988735 0.005407 0.038300
0.990698 0.004465 0.031629
0.000000 0.109859 0.071903
0.056787 0.106181 0.065231
0.211881 0.100172 0.058560
0.366975 0.094162 0.051888
0.522069 0.088152 0.045217
0.677163 0.082142 0.038545
0.832257 0.076132 0.031874
0.987352 0.070122 0.025203
0.994550 0.066444 0.018531
0.000000 0.249701 0.058805
0.051130 0.246023 0.052134
0.206224 0.240013 0.045462
0.361318 0.234003 0.038791
0.516412 0.227993 0.032119
0.671506 0.221983 0.025448
0.826600 0.215973 0.018777
0.981694 0.209964 0.012105
1.000000 0.206286 0.003880
0.000000 0.389542 0.045708
0.045472 0.385865 0.039036
0.200566 0.379855 0.032365
0.355661 0.373845 0.025693
0.510755 0.367835 0.019022
0.665849 0.361825 0.012351
0.824095 0.355815 0.004208
0.983730 0.349945 0.000000
1.000000 0.347209 0.000000
0.000000 0.529384 0.032610
0.039815 0.525706 0.025939
0.194909 0.519696 0.019267
0.350003 0.513686 0.012596
0.508072 0.507676 0.004537
0.667779 0.501772 0.000000
0.825744 0.496704 0.000000
0.983709 0.491636 0.000000
1.000000 0.488900 0.000000
0.000000 0.669225 0.019513
0.034158 0.665548 0.012841
0.192048 0.659538 0.004865
0.351828 0.653599 0.000000
0.509793 0.648531 0.000000
0.667758 0.643463 0.000000
0.825723 0.638394 0.000000
0.983688 0.633326 0.000000
1.000000 0.630591 0.000000
0.000732 0.809067 0.005193
0.035877 0.805425 0.000000
0.193842 0.800357 0.000000
0.351807 0.795289 0.000000
0.509772 0.790221 0.000000
0.667737 0.785153 0.000000
0.825701 0.780085 0.000000
0.983666 0.775017 0.000000
1.000000 0.772281 0.000000
0.012107 0.949852 0.000000
0.035856 0.947116 0.000000
0.193821 0.942048 0.000000
0.351785 0.936980 0.000000
0.509750 0.931912 0.000000
0.667715 0.926844 0.000000
0.825680 0.921776 0.000000
0.983645 0.916708 0.000000
1.000000 0.913972 0.000000
0.021595 1.000000 0.000000
0.038652 1.000000 0.000000
0.196617 1.000000 0.000000
0.354582 1.000000 0.000000
0.512547 1.000000 0.000000
0.670512 1.000000 0.000000
0.828477 1.000000 0.000000
0.986441 1.000000 0.000000
1.000000 1.000000 0.000000
0.000000 0.011641 0.175111
0.059229 0.010699 0.165703
0.214323 0.009757 0.153964
0.369417 0.008815 0.142224
0.524511 0.007874 0.130485
0.679605 0.006932 0.118745
0.834699 0.005990 0.107006
0.989483 0.005048 0.095266
0.991446 0.004106 0.085859
0.000000 0.108354 0.155321
0.056389 0.104677 0.145914
0.211483 0.098667 0.134175
0.366577 0.092657 0.122435
0.521672 0.086647 0.110696
0.676766 0.080637 0.098956
0.831860 0.074627 0.087217
0.986954 0.068617 0.075477
0.995298 0.064940 0.066070
0.000000 0.248196 0.132715
0.050732 0.244518 0.123307
0.205826 0.238508 0.111568
0.360920 0.232498 0.099828
0.516014 0.226488 0.088089
0.671108 0.220479 0.076349
0.826203 0.214469 0.064610
0.981636 0.208459 0.052712
1.000000 0.204781 0.041049
0.000000 0.388037 0.110108
0.045075 0.384360 0.100700
0.200169 0.378350 0.088961
0.355263 0.372340 0.077221
0.510357 0.366330 0.065482
0.665613 0.360320 0.053667
0.825540 0.354310 0.039672
0.984427 0.348800 0.029213
1.000000 0.346064 0.024222
0.000000 0.527879 0.087501
0.039418 0.524201 0.078094
0.194512 0.518191 0.066354
0.349606 0.512182 0.054615
0.509517 0.506172 0.040627
0.668476 0.500626 0.029923
0.826441 0.495558 0.022600
0.984406 0.490490 0.015276
1.000000 0.487754 0.010285
0.000000 0.667721 0.064894
0.033760 0.664043 0.055487
0.193493 0.658033 0.041582
0.352525 0.652453 0.030633
0.510490 0.647385 0.023309
0.668455 0.642317 0.015986
0.826420 0.637249 0.008662
0.984385 0.632181 0.001339
1.000000 0.629445 0.000000
0.003322 0.807562 0.040205
0.036574 0.804280 0.031342
0.194539 0.799212 0.024019
0.352504 0.794144 0.016695
0.510469 0.789076 0.009372
0.668434 0.784007 0.002049
0.826398 0.778939 0.000000
0.984363 0.773871 0.000000
1.000000 0.771135 0.000000
0.013949 0.948706 0.022396
0.036553 0.945970 0.017405
0.194518 0.940902 0.010082
0.352482 0.935834 0.002758
0.510447 0.930766 0.000000
0.668412 0.925698 0.000000
0.826377 0.920630 0.000000
0.984342 0.915562 0.000000
1.000000 0.912826 0.000000
0.023437 1.000000 0.011277
0.039349 1.000000 0.006286
0.197314 1.000000 0.000000
0.355279 1.000000 0.000000
0.513244 1.000000 0.000000
0.671209 1.000000 0.000000
0.829174 1.000000 0.000000
0.987138 1.000000 0.000000
1.000000 1.000000 0.000000
0.000000 0.011282 0.326069
0.058079 0.010340 0.316662
0.213173 0.009398 0.304922
0.368267 0.008456 0.293183
0.523361 0.007514 0.281443
0.678455 0.006573 0.269704
0.833549 0.005631 0.257964
0.988644 0.004689 0.246225
0.992194 0.003747 0.236817
0.000000 0.106097 0.306280
0.055239 0.102419 0.296872
0.210333 0.096410 0.285133
0.365427 0.090400 0.273393
0.520522 0.084390 0.261654
0.675616 0.078380 0.249914
0.830710 0.072370 0.238175
0.985804 0.066360 0.226435
0.996046 0.062682 0.217028
0.000000 0.245939 0.283673
0.049582 0.242261 0.274266
0.204676 0.236251 0.262526
0.359770 0.230241 0.250787
0.514864 0.224231 0.239047
0.669959 0.218221 0.227308
0.825053 0.212211 0.215568
0.982329 0.206202 0.202810
1.000000 0.202524 0.191148
0.000000 0.385780 0.261066
0.043925 0.382103 0.251659
0.199019 0.376093 0.239919
0.354113 0.370083 0.228180
0.509207 0.364073 0.216440
0.666306 0.358063 0.203765
0.826233 0.352053 0.189771
0.984372 0.346901 0.181855
1.000000 0.344166 0.176864
0.000000 0.525622 0.238459
0.038268 0.521944 0.229052
0.193362 0.515934 0.217312
0.350282 0.509924 0.204721
0.510209 0.503914 0.190726
0.668421 0.498728 0.182565
0.826386 0.493660 0.175242
0.984350 0.488592 0.167918
1.000000 0.485856 0.162927
0.000000 0.665463 0.215852
0.034259 0.661786 0.205676
0.194186 0.655776 0.191681
0.352470 0.650555 0.183275
0.510434 0.645487 0.175951
0.668399 0.640419 0.168628
0.826364 0.635351 0.161304
0.984329 0.630283 0.153981
1.000000 0.627547 0.148990
0.005913 0.805305 0.190304
0.036518 0.802382 0.183984
0.194483 0.797314 0.176661
0.352448 0.792245 0.169337
0.510413 0.787177 0.162014
0.668378 0.782109 0.154691
0.826343 0.777041 0.147367
0.984308 0.771973 0.140044
1.000000 0.769237 0.135052
0.015792 0.946808 0.175038
0.036497 0.944072 0.170047
0.194462 0.939004 0.162724
0.352427 0.933936 0.155400
0.510392 0.928868 0.148077
0.668357 0.923800 0.140753
0.826322 0.918732 0.133430
0.984287 0.913664 0.126107
1.000000 0.910928 0.121115
0.025280 1.000000 0.163919
0.039293 1.000000 0.158928
0.197258 1.000000 0.151604
0.355223 1.000000 0.144281
0.513188 1.000000 0.136957
0.671153 1.000000 0.129634
0.829118 1.000000 0.122310
0.987083 1.000000 0.114987
1.000000 1.000000 0.109996
0.000000 0.010923 0.477027
0.056929 0.009981 0.467620
0.212023 0.009039 0.455880
0.367117 0.008097 0.444141
0.522211 0.007155 0.432401
0.677305 0.006213 0.420662
0.832400 0.005272 0.408922
0.987494 0.004330 0.397183
0.992942 0.003388 0.387776
0.000000 0.103840 0.457238
0.054089 0.100162 0.447831
0.209183 0.094152 0.436091
0.364277 0.088142 0.424352
0.519372 0.082133 0.412612
0.674466 0.076123 0.400873
0.829560 0.070113 0.389133
0.984654 0.064103 0.377394
0.996794 0.060425 0.367986
0.000000 0.243681 0.434631
0.048432 0.240004 0.425224
0.203526 0.233994 0.413484
0.358620 0.227984 0.401745
0.513714 0.221974 0.390005
0.668809 0.215964 0.378266
0.823903 0.209954 0.366526
0.983022 0.203944 0.352909
1.000000 0.200577 0.343443
0.000000 0.383523 0.412024
0.042775 0.379845 0.402617
0.197869 0.373835 0.390878
0.352963 0.367826 0.379138
0.508057 0.361816 0.367399
0.666998 0.355806 0.353864
0.826351 0.350071 0.341821
0.984316 0.345003 0.334497
1.000000 0.342267 0.329506
0.000000 0.523365 0.389417
0.037118 0.519687 0.380010
0.192212 0.513677 0.368271
0.350975 0.507667 0.354819
0.510400 0.501898 0.342530
0.668365 0.496830 0.335207
0.826330 0.491762 0.327884
0.984295 0.486694 0.320560
1.000000 0.483958 0.315569
0.000000 0.663206 0.366811
0.034952 0.659528 0.355774
0.194449 0.653725 0.343240
0.352414 0.648657 0.335917
0.510379 0.643589 0.328593
0.668344 0.638521 0.321270
0.826309 0.633453 0.313946
0.984274 0.628385 0.306623
1.000000 0.625649 0.301632
0.008147 0.803219 0.341618
0.036463 0.800483 0.336626
0.194428 0.795415 0.329303
0.352393 0.790347 0.321979
0.510358 0.785279 0.314656
0.668323 0.780211 0.307333
0.826288 0.775143 0.300009
0.984253 0.770075 0.292686
1.000000 0.767339 0.287694
0.017635 0.944910 0.327680
0.036442 0.942174 0.322689
0.194407 0.937106 0.315366
0.352372 0.932038 0.308042
0.510336 0.926970 0.300719
0.668301 0.921902 0.293395
0.826266 0.916834 0.286072
0.984231 0.911766 0.278749
1.000000 0.909030 0.273757
0.027123 1.000000 0.316561
0.039238 1.000000 0.311570
0.197203 1.000000 0.304246
0.355168 1.000000 0.296923
0.513133 1.000000 0.289599
0.671098 1.000000 0.282276
0.829063 1.000000 0.274952
0.987028 1.000000 0.267629
1.000000 1.000000 0.262638
0.000000 0.010564 0.627986
0.055779 0.009622 0.618578
0.210873 0.008680 0.606839
0.365967 0.007738 0.595099
0.521061 0.006796 0.583360
0.676155 0.005854 0.571620
0.831250 0.004912 0.559881
0.986344 0.003971 0.548141
0.993690 0.003029 0.538734
0.000000 0.101583 0.608196
0.052939 0.097905 0.598789
0.208033 0.091895 0.587049
0.363128 0.085885 0.575310
0.518222 0.079875 0.563571
0.673316 0.073865 0.551831
0.828410 0.067856 0.540092
0.983504 0.061846 0.528352
0.998754 0.058168 0.518379
0.000000 0.241424 0.585589
0.047282 0.237747 0.576182
0.202376 0.231737 0.564443
0.357470 0.225727 0.552703
0.512564 0.219717 0.540964
0.667659 0.213707 0.529224
0.823787 0.207697 0.517002
0.983714 0.201687 0.503007
1.000000 0.198679 0.496085
0.000000 0.381266 0.562983
0.041625 0.377588 0.553575
0.196719 0.371578 0.541836
0.351813 0.365568 0.530096
0.507764 0.359558 0.517957
0.667691 0.353549 0.503962
0.826296 0.348173 0.494463
0.984261 0.343105 0.487139
1.000000 0.340369 0.482148
0.000000 0.521107 0.540376
0.035968 0.517430 0.530968
0.191741 0.511420 0.518912
0.351668 0.505410 0.504917
0.510345 0.500000 0.495172
0.668310 0.494932 0.487849
0.826275 0.489864 0.480526
0.984240 0.484796 0.473202
1.000000 0.482060 0.468211
0.000000 0.660949 0.517535
0.035644 0.657271 0.505872
0.194394 0.651827 0.495882
0.352359 0.646759 0.488559
0.510324 0.641691 0.481235
0.668288 0.636623 0.473912
0.826253 0.631555 0.466588
0.984218 0.626486 0.459265
1.000000 0.623751 0.454274
0.009989 0.801321 0.494260
0.036408 0.798585 0.489268
0.194372 0.793517 0.481945
0.352337 0.788449 0.474621
0.510302 0.783381 0.467298
0.668267 0.778313 0.459975
0.826232 0.773245 0.452651
0.984197 0.768177 0.445328
1.000000 0.765441 0.440336
0.019477 0.943012 0.480322
0.036386 0.940276 0.475331
0.194351 0.935208 0.468008
0.352316 0.930140 0.460684
0.510281 0.925072 0.453361
0.668246 0.920004 0.446037
0.826211 0.914936 0.438714
0.984176 0.909868 0.431390
1.000000 0.907132 0.426399
0.028966 1.000000 0.469203
0.039183 1.000000 0.464212
0.197148 1.000000 0.456888
0.355112 1.000000 0.449565
0.513077 1.000000 0.442241
0.671042 1.000000 0.434918
0.829007 1.000000 0.427594
0.986972 1.000000 0.420271
1.000000 1.000000 0.415280
0.000000 0.010205 0.778944
0.054629 0.009263 0.769536
0.209723 0.008321 0.757797
0.364817 0.007379 0.746058
0.519911 0.006437 0.734318
0.675005 0.005495 0.722579
0.830100 0.004553 0.710839
0.985194 0.003612 0.699100
0.994438 0.002670 0.689692
0.000000 0.099326 0.759155
0.051789 0.095648 0.749747
0.206883 0.089638 0.738008
0.361978 0.083628 0.726268
0.517072 0.077618 0.714529
0.672166 0.071608 0.702789
0.827260 0.065598 0.691050
0.982354 0.059588 0.679310
1.000000 0.055911 0.668477
0.000000 0.239167 0.736548
0.046132 0.235489 0.727140
0.201226 0.229479 0.715401
0.356320 0.223470 0.703661
0.511414 0.217460 0.691922
0.666509 0.211450 0.680182
0.824480 0.205440 0.667100
0.984227 0.199517 0.653718
1.000000 0.196781 0.648727
0.000000 0.379009 0.713941
0.040475 0.375331 0.704534
0.195569 0.369321 0.692794
0.350663 0.363311 0.681055
0.508457 0.357301 0.668055
0.668276 0.351343 0.654428
0.826241 0.346275 0.647105
0.984205 0.341207 0.639781
1.000000 0.338471 0.634790
0.000000 0.518850 0.691334
0.034818 0.515172 0.681927
0.192433 0.509163 0.669011
0.352324 0.503170 0.655138
0.510289 0.498102 0.647814
0.668254 0.493034 0.640491
0.826219 0.487966 0.633168
0.984184 0.482898 0.625844
1.000000 0.480162 0.620853
0.000345 0.658692 0.667633
0.036337 0.655014 0.655971
0.194338 0.649929 0.648524
0.352303 0.644861 0.641201
0.510268 0.639792 0.633877
0.668233 0.634724 0.626554
0.826198 0.629656 0.619230
0.984163 0.624588 0.611907
1.000000 0.621853 0.606916
0.011832 0.799423 0.646902
0.036352 0.796687 0.641910
0.194317 0.791619 0.634587
0.352282 0.786551 0.627263
0.510247 0.781483 0.619940
0.668212 0.776415 0.612617
0.826177 0.771347 0.605293
0.984142 0.766279 0.597970
1.000000 0.763543 0.592978
0.021320 0.941114 0.632964
0.036331 0.938378 0.627973
0.194296 0.933310 0.620650
0.352261 0.928242 0.613326
0.510226 0.923174 0.606003
0.668191 0.918106 0.598679
0.826155 0.913038 0.591356
0.984120 0.907970 0.584032
1.000000 0.905234 0.579041
0.030808 1.000000 0.621845
0.039127 1.000000 0.616854
0.197092 1.000000 0.609530
0.355057 1.000000 0.602207
0.513022 1.000000 0.594883
0.670987 1.000000 0.587560
0.828952 1.000000 0.580236
0.986917 1.000000 0.572913
1.000000 1.000000 0.567922
0.000000 0.009845 0.929902
0.053479 0.008904 0.920495
0.208573 0.007962 0.908755
0.363667 0.007020 0.897016
0.518761 0.006078 0.885276
0.673855 0.005136 0.873537
0.828950 0.004194 0.861797
0.984044 0.003252 0.850058
0.995186 0.002311 0.840651
0.000000 0.097068 0.910113
0.050639 0.093391 0.900706
0.205733 0.087381 0.888966
0.360828 0.081371 0.877227
0.515922 0.075361 0.865487
0.671016 0.069351 0.853748
0.826110 0.063341 0.842008
0.981269 0.057331 0.830238
1.000000 0.053654 0.818576
0.000000 0.236910 0.887506
0.044982 0.233232 0.878099
0.200076 0.227222 0.866359
0.355170 0.221212 0.854620
0.510264 0.215202 0.842880
0.665359 0.209193 0.831141
0.825173 0.203183 0.817199
0.984171 0.197618 0.806360
1.000000 0.194883 0.801369
0.000000 0.376751 0.864899
0.039325 0.373074 0.855492
0.194419 0.367064 0.843752
0.349513 0.361054 0.832013
0.509149 0.355044 0.818154
0.668220 0.349445 0.807070
0.826185 0.344377 0.799747
0.984150 0.339309 0.792423
1.000000 0.336573 0.787432
0.000000 0.516593 0.842292
0.033668 0.512915 0.832885
0.193126 0.506905 0.819109
0.352269 0.501272 0.807780
0.510234 0.496204 0.800456
0.668199 0.491136 0.793133
0.826164 0.486068 0.785810
0.984129 0.481000 0.778486
1.000000 0.478264 0.773495
0.002936 0.656435 0.817732
0.036318 0.653099 0.808489
0.194283 0.648031 0.801166
0.352248 0.642962 0.793843
0.510213 0.637894 0.786519
0.668178 0.632826 0.779196
0.826143 0.627758 0.771872
0.984107 0.622690 0.764549
1.000000 0.619954 0.759558
0.013675 0.797525 0.799544
0.036297 0.794789 0.794552
0.194262 0.789721 0.787229
0.352227 0.784653 0.779905
0.510191 0.779585 0.772582
0.668156 0.774517 0.765259
0.826121 0.769449 0.757935
0.984086 0.764381 0.750612
1.000000 0.761645 0.745620
0.023163 0.939216 0.785606
0.036275 0.936480 0.780615
0.194240 0.931412 0.773292
0.352205 0.926344 0.765968
0.510170 0.921276 0.758645
0.668135 0.916208 0.751321
0.826100 0.911139 0.743998
0.984065 0.906071 0.736674
1.000000 0.903336 0.731683
0.032651 1.000000 0.774487
0.039072 1.000000 0.769495
0.197037 1.000000 0.762172
0.355002 1.000000 0.754849
0.512967 1.000000 0.747525
0.670931 1.000000 0.740202
0.828896 1.000000 0.732878
0.986861 1.000000 0.725555
1.000000 1.000000 0.720564
0.000000 0.009486 1.000000
0.052329 0.008544 1.000000
0.207423 0.007603 1.000000
0.362517 0.006661 1.000000
0.517611 0.005719 1.000000
0.672705 0.004777 1.000000
0.827800 0.003835 1.000000
0.982894 0.002893 1.000000
0.995934 0.001952 0.991609
0.000000 0.094811 1.000000
0.049489 0.091133 1.000000
0.204583 0.085124 1.000000
0.359678 0.079114 1.000000
0.514772 0.073104 1.000000
0.669866 0.067094 1.000000
0.824960 0.061084 0.992966
0.981961 0.055074 0.980337
1.000000 0.051396 0.968674
0.000000 0.234653 1.000000
0.043832 0.230975 1.000000
0.198926 0.224965 1.000000
0.354020 0.218955 1.000000
0.509114 0.212945 0.993838
0.665938 0.206935 0.981292
0.825865 0.200925 0.967297
0.984116 0.195720 0.959002
1.000000 0.192984 0.954011
0.000000 0.374494 1.000000
0.038175 0.370817 1.000000
0.193269 0.364807 0.994711
0.349915 0.358797 0.982247
0.509842 0.352787 0.968252
0.668165 0.347547 0.959712
0.826130 0.342479 0.952389
0.984095 0.337411 0.945065
1.000000 0.334675 0.940074
0.000000 0.514336 0.993251
0.033892 0.510658 0.983202
0.193819 0.504648 0.969207
0.352214 0.499374 0.960422
0.510179 0.494306 0.953098
0.668143 0.489238 0.945775
0.826108 0.484170 0.938451
0.984073 0.479102 0.931128
1.000000 0.476366 0.926137
0.005527 0.654177 0.967830
0.036263 0.651200 0.961131
0.194227 0.646132 0.953808
0.352192 0.641064 0.946485
0.510157 0.635996 0.939161
0.668122 0.630928 0.931838
0.826087 0.625860 0.924514
0.984052 0.620792 0.917191
1.000000 0.618056 0.912200
0.015517 0.795627 0.952186
0.036241 0.792891 0.947194
0.194206 0.787823 0.939871
0.352171 0.782755 0.932547
0.510136 0.777687 0.925224
0.668101 0.772619 0.917901
0.826066 0.767551 0.910577
0.984031 0.762483 0.903254
1.000000 0.759747 0.898262
0.025005 0.937318 0.938248
0.036220 0.934582 0.933257
0.194185 0.929514 0.925934
0.352150 0.924446 0.918610
0.510115 0.919378 0.911287
0.668080 0.914309 0.903963
0.826045 0.909241 0.896640
0.984010 0.904173 0.889316
1.000000 0.901438 0.884325
0.034494 1.000000 0.927129
0.039327 1.000000 0.922137
0.196981 1.000000 0.914814
0.354946 1.000000 0.907491
0.512911 1.000000 0.900167
0.670876 1.000000 0.892844
0.828841 1.000000 0.885520
0.986806 1.000000 0.878197
1.000000 1.000000 0.873206
0.000000 0.009127 1.000000
0.051931 0.008185 1.000000
0.207025 0.007243 1.000000
0.362120 0.006302 1.000000
0.517214 0.005360 1.000000
0.672308 0.004418 1.000000
0.827402 0.003476 1.000000
0.982496 0.002534 1.000000
0.996683 0.001592 1.000000
0.000000 0.093306 1.000000
0.049092 0.089629 1.000000
0.204186 0.083619 1.000000
0.359280 0.077609 1.000000
0.514374 0.071599 1.000000
0.669468 0.065589 1.000000
0.824562 0.059579 1.000000
0.983407 0.053569 1.000000
1.000000 0.050148 0.995995
0.000000 0.233148 1.000000
0.043435 0.229470 1.000000
0.198529 0.223460 1.000000
0.353623 0.217450 1.000000
0.508717 0.211440 1.000000
0.667383 0.205431 1.000000
0.826848 0.199643 0.996078
0.984813 0.194575 0.993822
1.000000 0.191839 0.991567
0.000000 0.372989 1.000000
0.037777 0.369312 1.000000
0.192871 0.363302 1.000000
0.351360 0.357292 1.000000
0.510897 0.351469 0.996161
0.668862 0.346401 0.993905
0.826827 0.341333 0.991650
0.984792 0.336265 0.989394
1.000000 0.333529 0.987139
0.000000 0.512831 1.000000
0.035337 0.509153 1.000000
0.194946 0.503296 0.996244
0.352911 0.498228 0.993988
0.510876 0.493160 0.991733
0.668840 0.488092 0.989477
0.826805 0.483024 0.987222
0.984770 0.477956 0.984967
1.000000 0.475220 0.982711
0.007872 0.652791 0.996327
0.036959 0.650055 0.994071
0.194924 0.644987 0.991816
0.352889 0.639919 0.989560
0.510854 0.634851 0.987305
0.668819 0.629783 0.985050
0.826784 0.624715 0.982794
0.984749 0.619646 0.980539
1.000000 0.616911 0.978283
0.017360 0.794481 0.991899
0.036938 0.791745 0.989643
0.194903 0.786677 0.987388
0.352868 0.781609 0.985133
0.510833 0.776541 0.982877
0.668798 0.771473 0.980622
0.826763 0.766405 0.978366
0.984728 0.761337 0.976111
1.000000 0.758601 0.973856
0.026848 0.936172 0.987471
0.036917 0.933436 0.985216
0.194882 0.928368 0.982960
0.352847 0.923300 0.980705
0.510812 0.918232 0.978449
0.668777 0.913164 0.976194
0.826742 0.908096 0.973939
0.984707 0.903028 0.971683
1.000000 0.900292 0.969428
0.036336 1.000000 0.983043
0.041169 1.000000 0.980788
0.197678 1.000000 0.978532
0.355643 1.000000 0.976277
0.513608 1.000000 0.974022
0.671573 1.000000 0.971766
0.829538 1.000000 0.969511
0.987503 1.000000 0.967255
1.000000 1.000000 0.965000
