docs/luts/fresh-urban-monochrome.cube
TITLE "??????"
LUT_3D_SIZE 9
DOMAIN_MIN 0.0 0.0 0.0
DOMAIN_MAX 1.0 1.0 1.0
0.000000 0.000000 0.015000
0.000000 0.000000 0.015000
0.000000 0.000000 0.015000
0.024400 0.024400 0.039034
0.059200 0.059200 0.073312
0.094000 0.094000 0.107590
0.128800 0.128800 0.141868
0.163600 0.163600 0.176146
0.198400 0.198400 0.210424
0.009900 0.009900 0.024752
0.044700 0.044700 0.059030
0.079500 0.079500 0.093308
0.114300 0.114300 0.127586
0.149100 0.149100 0.161864
0.183900 0.183900 0.196141
0.218700 0.218700 0.230419
0.253500 0.253500 0.264698
0.288300 0.288300 0.298976
0.099800 0.099800 0.113303
0.134600 0.134600 0.147581
0.169400 0.169400 0.181859
0.204200 0.204200 0.216137
0.239000 0.239000 0.250415
0.273800 0.273800 0.284693
0.308600 0.308600 0.318971
0.343400 0.343400 0.353249
0.378200 0.378200 0.387527
0.189700 0.189700 0.201854
0.224500 0.224500 0.236132
0.259300 0.259300 0.270410
0.294100 0.294100 0.304689
0.328900 0.328900 0.338966
0.363700 0.363700 0.373244
0.398500 0.398500 0.407522
0.433300 0.433300 0.441801
0.468100 0.468100 0.476078
0.279600 0.279600 0.290406
0.314400 0.314400 0.324684
0.349200 0.349200 0.358962
0.384000 0.384000 0.393240
0.418800 0.418800 0.427518
0.453600 0.453600 0.461796
0.488400 0.488400 0.496074
0.523200 0.523200 0.530352
0.558000 0.558000 0.564630
0.369500 0.369500 0.378958
0.404300 0.404300 0.413235
0.439100 0.439100 0.447514
0.473900 0.473900 0.481792
0.508700 0.508700 0.516070
0.543500 0.543500 0.550347
0.578300 0.578300 0.584626
0.613100 0.613100 0.618903
0.647900 0.647900 0.653181
0.459400 0.459400 0.467509
0.494200 0.494200 0.501787
0.529000 0.529000 0.536065
0.563800 0.563800 0.570343
0.598600 0.598600 0.604621
0.633400 0.633400 0.638899
0.668200 0.668200 0.673177
0.703000 0.703000 0.707455
0.737800 0.737800 0.741733
0.549300 0.549300 0.556060
0.584100 0.584100 0.590339
0.618900 0.618900 0.624617
0.653700 0.653700 0.658894
0.688500 0.688500 0.693172
0.723300 0.723300 0.727450
0.758100 0.758100 0.761728
0.792900 0.792900 0.796006
0.827700 0.827700 0.830284
0.639200 0.639200 0.644612
0.674000 0.674000 0.678890
0.708800 0.708800 0.713168
0.743600 0.743600 0.747446
0.778400 0.778400 0.781724
0.813200 0.813200 0.816002
0.848000 0.848000 0.850280
0.882800 0.882800 0.884558
0.917600 0.917600 0.918836
0.000000 0.000000 0.015000
0.000000 0.000000 0.015000
0.009900 0.009900 0.024752
0.044700 0.044700 0.059030
0.079500 0.079500 0.093308
0.114300 0.114300 0.127586
0.149100 0.149100 0.161864
0.183900 0.183900 0.196141
0.218700 0.218700 0.230419
0.030200 0.030200 0.044747
0.065000 0.065000 0.079025
0.099800 0.099800 0.113303
0.134600 0.134600 0.147581
0.169400 0.169400 0.181859
0.204200 0.204200 0.216137
0.239000 0.239000 0.250415
0.273800 0.273800 0.284693
0.308600 0.308600 0.318971
0.120100 0.120100 0.133298
0.154900 0.154900 0.167577
0.189700 0.189700 0.201854
0.224500 0.224500 0.236133
0.259300 0.259300 0.270411
0.294100 0.294100 0.304689
0.328900 0.328900 0.338966
0.363700 0.363700 0.373245
0.398500 0.398500 0.407523
0.210000 0.210000 0.221850
0.244800 0.244800 0.256128
0.279600 0.279600 0.290406
0.314400 0.314400 0.324684
0.349200 0.349200 0.358962
0.384000 0.384000 0.393240
0.418800 0.418800 0.427518
0.453600 0.453600 0.461796
0.488400 0.488400 0.496074
0.299900 0.299900 0.310402
0.334700 0.334700 0.344679
0.369500 0.369500 0.378958
0.404300 0.404300 0.413236
0.439100 0.439100 0.447514
0.473900 0.473900 0.481791
0.508700 0.508700 0.516069
0.543500 0.543500 0.550347
0.578300 0.578300 0.584626
0.389800 0.389800 0.398953
0.424600 0.424600 0.433231
0.459400 0.459400 0.467509
0.494200 0.494200 0.501787
0.529000 0.529000 0.536065
0.563800 0.563800 0.570343
0.598600 0.598600 0.604621
0.633400 0.633400 0.638899
0.668200 0.668200 0.673177
0.479700 0.479700 0.487504
0.514500 0.514500 0.521782
0.549300 0.549300 0.556060
0.584100 0.584100 0.590338
0.618900 0.618900 0.624616
0.653700 0.653700 0.658894
0.688500 0.688500 0.693172
0.723300 0.723300 0.727450
0.758100 0.758100 0.761728
0.569600 0.569600 0.576056
0.604400 0.604400 0.610334
0.639200 0.639200 0.644612
0.674000 0.674000 0.678890
0.708800 0.708800 0.713168
0.743600 0.743600 0.747446
0.778400 0.778400 0.781724
0.813200 0.813200 0.816002
0.848000 0.848000 0.850280
0.659500 0.659500 0.664608
0.694300 0.694300 0.698885
0.729100 0.729100 0.733163
0.763900 0.763900 0.767441
0.798700 0.798700 0.801719
0.833500 0.833500 0.835997
0.868300 0.868300 0.870275
0.903100 0.903100 0.904553
0.937900 0.937900 0.938831
0.000000 0.000000 0.015000
0.000000 0.000000 0.015000
0.030200 0.030200 0.044747
0.065000 0.065000 0.079025
0.099800 0.099800 0.113303
0.134600 0.134600 0.147581
0.169400 0.169400 0.181859
0.204200 0.204200 0.216137
0.239000 0.239000 0.250415
0.050500 0.050500 0.064743
0.085300 0.085300 0.099021
0.120100 0.120100 0.133298
0.154900 0.154900 0.167577
0.189700 0.189700 0.201855
0.224500 0.224500 0.236132
0.259300 0.259300 0.270410
0.294100 0.294100 0.304689
0.328900 0.328900 0.338967
0.140400 0.140400 0.153294
0.175200 0.175200 0.187572
0.210000 0.210000 0.221850
0.244800 0.244800 0.256128
0.279600 0.279600 0.290406
0.314400 0.314400 0.324684
0.349200 0.349200 0.358962
0.384000 0.384000 0.393240
0.418800 0.418800 0.427518
0.230300 0.230300 0.241845
0.265100 0.265100 0.276124
0.299900 0.299900 0.310402
0.334700 0.334700 0.344680
0.369500 0.369500 0.378957
0.404300 0.404300 0.413235
0.439100 0.439100 0.447514
0.473900 0.473900 0.481792
0.508700 0.508700 0.516069
0.320200 0.320200 0.330397
0.355000 0.355000 0.364675
0.389800 0.389800 0.398953
0.424600 0.424600 0.433231
0.459400 0.459400 0.467509
0.494200 0.494200 0.501787
0.529000 0.529000 0.536065
0.563800 0.563800 0.570343
0.598600 0.598600 0.604621
0.410100 0.410100 0.418949
0.444900 0.444900 0.453227
0.479700 0.479700 0.487505
0.514500 0.514500 0.521783
0.549300 0.549300 0.556061
0.584100 0.584100 0.590339
0.618900 0.618900 0.624617
0.653700 0.653700 0.658895
0.688500 0.688500 0.693172
0.500000 0.500000 0.507500
0.534800 0.534800 0.541778
0.569600 0.569600 0.576056
0.604400 0.604400 0.610334
0.639200 0.639200 0.644612
0.674000 0.674000 0.678890
0.708800 0.708800 0.713168
0.743600 0.743600 0.747446
0.778400 0.778400 0.781724
0.589900 0.589900 0.596051
0.624700 0.624700 0.630329
0.659500 0.659500 0.664608
0.694300 0.694300 0.698885
0.729100 0.729100 0.733163
0.763900 0.763900 0.767441
0.798700 0.798700 0.801719
0.833500 0.833500 0.835997
0.868300 0.868300 0.870275
0.679800 0.679800 0.684603
0.714600 0.714600 0.718881
0.749400 0.749400 0.753159
0.784200 0.784200 0.787437
0.819000 0.819000 0.821715
0.853800 0.853800 0.855993
0.888600 0.888600 0.890271
0.923400 0.923400 0.924549
0.958200 0.958200 0.958827
0.000000 0.000000 0.015000
0.015700 0.015700 0.030465
0.050500 0.050500 0.064743
0.085300 0.085300 0.099021
0.120100 0.120100 0.133298
0.154900 0.154900 0.167577
0.189700 0.189700 0.201854
0.224500 0.224500 0.236133
0.259300 0.259300 0.270410
0.070800 0.070800 0.084738
0.105600 0.105600 0.119016
0.140400 0.140400 0.153294
0.175200 0.175200 0.187572
0.210000 0.210000 0.221850
0.244800 0.244800 0.256128
0.279600 0.279600 0.290406
0.314400 0.314400 0.324684
0.349200 0.349200 0.358962
0.160700 0.160700 0.173290
0.195500 0.195500 0.207568
0.230300 0.230300 0.241846
0.265100 0.265100 0.276124
0.299900 0.299900 0.310402
0.334700 0.334700 0.344679
0.369500 0.369500 0.378957
0.404300 0.404300 0.413235
0.439100 0.439100 0.447514
0.250600 0.250600 0.261841
0.285400 0.285400 0.296119
0.320200 0.320200 0.330397
0.355000 0.355000 0.364675
0.389800 0.389800 0.398953
0.424600 0.424600 0.433231
0.459400 0.459400 0.467509
0.494200 0.494200 0.501787
0.529000 0.529000 0.536065
0.340500 0.340500 0.350392
0.375300 0.375300 0.384670
0.410100 0.410100 0.418949
0.444900 0.444900 0.453227
0.479700 0.479700 0.487504
0.514500 0.514500 0.521782
0.549300 0.549300 0.556060
0.584100 0.584100 0.590339
0.618900 0.618900 0.624617
0.430400 0.430400 0.438944
0.465200 0.465200 0.473222
0.500000 0.500000 0.507500
0.534800 0.534800 0.541778
0.569600 0.569600 0.576056
0.604400 0.604400 0.610334
0.639200 0.639200 0.644612
0.674000 0.674000 0.678890
0.708800 0.708800 0.713168
0.520300 0.520300 0.527496
0.555100 0.555100 0.561773
0.589900 0.589900 0.596051
0.624700 0.624700 0.630329
0.659500 0.659500 0.664608
0.694300 0.694300 0.698885
0.729100 0.729100 0.733163
0.763900 0.763900 0.767441
0.798700 0.798700 0.801719
0.610200 0.610200 0.616047
0.645000 0.645000 0.650325
0.679800 0.679800 0.684603
0.714600 0.714600 0.718881
0.749400 0.749400 0.753159
0.784200 0.784200 0.787437
0.819000 0.819000 0.821715
0.853800 0.853800 0.855993
0.888600 0.888600 0.890271
0.700100 0.700100 0.704598
0.734900 0.734900 0.738877
0.769700 0.769700 0.773154
0.804500 0.804500 0.807432
0.839300 0.839300 0.841710
0.874100 0.874100 0.875988
0.908900 0.908900 0.910267
0.943700 0.943700 0.944545
0.978500 0.978500 0.978822
0.001200 0.001200 0.016182
0.036000 0.036000 0.050460
0.070800 0.070800 0.084738
0.105600 0.105600 0.119016
0.140400 0.140400 0.153294
0.175200 0.175200 0.187572
0.210000 0.210000 0.221850
0.244800 0.244800 0.256128
0.279600 0.279600 0.290406
0.091100 0.091100 0.104734
0.125900 0.125900 0.139012
0.160700 0.160700 0.173290
0.195500 0.195500 0.207568
0.230300 0.230300 0.241846
0.265100 0.265100 0.276124
0.299900 0.299900 0.310402
0.334700 0.334700 0.344679
0.369500 0.369500 0.378958
0.181000 0.181000 0.193285
0.215800 0.215800 0.227563
0.250600 0.250600 0.261841
0.285400 0.285400 0.296119
0.320200 0.320200 0.330397
0.355000 0.355000 0.364675
0.389800 0.389800 0.398953
0.424600 0.424600 0.433231
0.459400 0.459400 0.467509
0.270900 0.270900 0.281837
0.305700 0.305700 0.316114
0.340500 0.340500 0.350392
0.375300 0.375300 0.384671
0.410100 0.410100 0.418949
0.444900 0.444900 0.453226
0.479700 0.479700 0.487504
0.514500 0.514500 0.521782
0.549300 0.549300 0.556060
0.360800 0.360800 0.370388
0.395600 0.395600 0.404666
0.430400 0.430400 0.438944
0.465200 0.465200 0.473222
0.500000 0.500000 0.507500
0.534800 0.534800 0.541778
0.569600 0.569600 0.576056
0.604400 0.604400 0.610334
0.639200 0.639200 0.644612
0.450700 0.450700 0.458940
0.485500 0.485500 0.493217
0.520300 0.520300 0.527496
0.555100 0.555100 0.561774
0.589900 0.589900 0.596052
0.624700 0.624700 0.630329
0.659500 0.659500 0.664608
0.694300 0.694300 0.698885
0.729100 0.729100 0.733163
0.540600 0.540600 0.547491
0.575400 0.575400 0.581769
0.610200 0.610200 0.616047
0.645000 0.645000 0.650325
0.679800 0.679800 0.684603
0.714600 0.714600 0.718881
0.749400 0.749400 0.753159
0.784200 0.784200 0.787437
0.819000 0.819000 0.821715
0.630500 0.630500 0.636043
0.665300 0.665300 0.670320
0.700100 0.700100 0.704599
0.734900 0.734900 0.738876
0.769700 0.769700 0.773154
0.804500 0.804500 0.807432
0.839300 0.839300 0.841710
0.874100 0.874100 0.875988
0.908900 0.908900 0.910267
0.720400 0.720400 0.724594
0.755200 0.755200 0.758872
0.790000 0.790000 0.793150
0.824800 0.824800 0.827428
0.859600 0.859600 0.861706
0.894400 0.894400 0.895984
0.929200 0.929200 0.930262
0.964000 0.964000 0.964540
0.998800 0.998800 0.998818
0.021500 0.021500 0.036178
0.056300 0.056300 0.070456
0.091100 0.091100 0.104734
0.125900 0.125900 0.139012
0.160700 0.160700 0.173290
0.195500 0.195500 0.207568
0.230300 0.230300 0.241846
0.265100 0.265100 0.276124
0.299900 0.299900 0.310402
0.111400 0.111400 0.124729
0.146200 0.146200 0.159007
0.181000 0.181000 0.193285
0.215800 0.215800 0.227563
0.250600 0.250600 0.261841
0.285400 0.285400 0.296119
0.320200 0.320200 0.330397
0.355000 0.355000 0.364675
0.389800 0.389800 0.398953
0.201300 0.201300 0.213281
0.236100 0.236100 0.247559
0.270900 0.270900 0.281837
0.305700 0.305700 0.316115
0.340500 0.340500 0.350392
0.375300 0.375300 0.384671
0.410100 0.410100 0.418949
0.444900 0.444900 0.453227
0.479700 0.479700 0.487505
0.291200 0.291200 0.301832
0.326000 0.326000 0.336110
0.360800 0.360800 0.370388
0.395600 0.395600 0.404666
0.430400 0.430400 0.438944
0.465200 0.465200 0.473222
0.500000 0.500000 0.507500
0.534800 0.534800 0.541778
0.569600 0.569600 0.576056
0.381100 0.381100 0.390384
0.415900 0.415900 0.424661
0.450700 0.450700 0.458940
0.485500 0.485500 0.493218
0.520300 0.520300 0.527496
0.555100 0.555100 0.561773
0.589900 0.589900 0.596051
0.624700 0.624700 0.630329
0.659500 0.659500 0.664608
0.471000 0.471000 0.478935
0.505800 0.505800 0.513213
0.540600 0.540600 0.547491
0.575400 0.575400 0.581769
0.610200 0.610200 0.616047
0.645000 0.645000 0.650325
0.679800 0.679800 0.684603
0.714600 0.714600 0.718881
0.749400 0.749400 0.753159
0.560900 0.560900 0.567487
0.595700 0.595700 0.601765
0.630500 0.630500 0.636042
0.665300 0.665300 0.670320
0.700100 0.700100 0.704598
0.734900 0.734900 0.738877
0.769700 0.769700 0.773155
0.804500 0.804500 0.807432
0.839300 0.839300 0.841710
0.650800 0.650800 0.656038
0.685600 0.685600 0.690316
0.720400 0.720400 0.724594
0.755200 0.755200 0.758872
0.790000 0.790000 0.793150
0.824800 0.824800 0.827428
0.859600 0.859600 0.861706
0.894400 0.894400 0.895984
0.929200 0.929200 0.930262
0.740700 0.740700 0.744590
0.775500 0.775500 0.778868
0.810300 0.810300 0.813145
0.845100 0.845100 0.847423
0.879900 0.879900 0.881702
0.914700 0.914700 0.915980
0.949500 0.949500 0.950257
0.984300 0.984300 0.984536
1.000000 1.000000 1.000000
0.041800 0.041800 0.056173
0.076600 0.076600 0.090451
0.111400 0.111400 0.124729
0.146200 0.146200 0.159007
0.181000 0.181000 0.193285
0.215800 0.215800 0.227563
0.250600 0.250600 0.261841
0.285400 0.285400 0.296119
0.320200 0.320200 0.330397
0.131700 0.131700 0.144725
0.166500 0.166500 0.179003
0.201300 0.201300 0.213281
0.236100 0.236100 0.247558
0.270900 0.270900 0.281837
0.305700 0.305700 0.316115
0.340500 0.340500 0.350392
0.375300 0.375300 0.384670
0.410100 0.410100 0.418949
0.221600 0.221600 0.233276
0.256400 0.256400 0.267554
0.291200 0.291200 0.301832
0.326000 0.326000 0.336110
0.360800 0.360800 0.370388
0.395600 0.395600 0.404666
0.430400 0.430400 0.438944
0.465200 0.465200 0.473222
0.500000 0.500000 0.507500
0.311500 0.311500 0.321827
0.346300 0.346300 0.356105
0.381100 0.381100 0.390383
0.415900 0.415900 0.424661
0.450700 0.450700 0.458940
0.485500 0.485500 0.493217
0.520300 0.520300 0.527496
0.555100 0.555100 0.561773
0.589900 0.589900 0.596051
0.401400 0.401400 0.410379
0.436200 0.436200 0.444657
0.471000 0.471000 0.478935
0.505800 0.505800 0.513213
0.540600 0.540600 0.547491
0.575400 0.575400 0.581769
0.610200 0.610200 0.616047
0.645000 0.645000 0.650325
0.679800 0.679800 0.684603
0.491300 0.491300 0.498931
0.526100 0.526100 0.533208
0.560900 0.560900 0.567487
0.595700 0.595700 0.601765
0.630500 0.630500 0.636043
0.665300 0.665300 0.670320
0.700100 0.700100 0.704598
0.734900 0.734900 0.738877
0.769700 0.769700 0.773154
0.581200 0.581200 0.587482
0.616000 0.616000 0.621760
0.650800 0.650800 0.656038
0.685600 0.685600 0.690316
0.720400 0.720400 0.724594
0.755200 0.755200 0.758872
0.790000 0.790000 0.793150
0.824800 0.824800 0.827428
0.859600 0.859600 0.861706
0.671100 0.671100 0.676033
0.705900 0.705900 0.710311
0.740700 0.740700 0.744590
0.775500 0.775500 0.778867
0.810300 0.810300 0.813145
0.845100 0.845100 0.847423
0.879900 0.879900 0.881701
0.914700 0.914700 0.915979
0.949500 0.949500 0.950257
0.761000 0.761000 0.764585
0.795800 0.795800 0.798863
0.830600 0.830600 0.833141
0.865400 0.865400 0.867419
0.900200 0.900200 0.901697
0.935000 0.935000 0.935975
0.969800 0.969800 0.970253
1.000000 1.000000 1.000000
1.000000 1.000000 1.000000
0.062100 0.062100 0.076169
0.096900 0.096900 0.110447
0.131700 0.131700 0.144725
0.166500 0.166500 0.179003
0.201300 0.201300 0.213281
0.236100 0.236100 0.247559
0.270900 0.270900 0.281837
0.305700 0.305700 0.316115
0.340500 0.340500 0.350392
0.152000 0.152000 0.164720
0.186800 0.186800 0.198998
0.221600 0.221600 0.233276
0.256400 0.256400 0.267554
0.291200 0.291200 0.301832
0.326000 0.326000 0.336110
0.360800 0.360800 0.370388
0.395600 0.395600 0.404666
0.430400 0.430400 0.438944
0.241900 0.241900 0.253272
0.276700 0.276700 0.287550
0.311500 0.311500 0.321827
0.346300 0.346300 0.356106
0.381100 0.381100 0.390384
0.415900 0.415900 0.424661
0.450700 0.450700 0.458940
0.485500 0.485500 0.493217
0.520300 0.520300 0.527496
0.331800 0.331800 0.341823
0.366600 0.366600 0.376101
0.401400 0.401400 0.410379
0.436200 0.436200 0.444657
0.471000 0.471000 0.478935
0.505800 0.505800 0.513213
0.540600 0.540600 0.547491
0.575400 0.575400 0.581769
0.610200 0.610200 0.616047
0.421700 0.421700 0.430374
0.456500 0.456500 0.464652
0.491300 0.491300 0.498930
0.526100 0.526100 0.533209
0.560900 0.560900 0.567487
0.595700 0.595700 0.601765
0.630500 0.630500 0.636043
0.665300 0.665300 0.670320
0.700100 0.700100 0.704599
0.511600 0.511600 0.518926
0.546400 0.546400 0.553204
0.581200 0.581200 0.587482
0.616000 0.616000 0.621760
0.650800 0.650800 0.656038
0.685600 0.685600 0.690316
0.720400 0.720400 0.724594
0.755200 0.755200 0.758872
0.790000 0.790000 0.793150
0.601500 0.601500 0.607478
0.636300 0.636300 0.641756
0.671100 0.671100 0.676033
0.705900 0.705900 0.710311
0.740700 0.740700 0.744590
0.775500 0.775500 0.778868
0.810300 0.810300 0.813145
0.845100 0.845100 0.847423
0.879900 0.879900 0.881702
0.691400 0.691400 0.696029
0.726200 0.726200 0.730307
0.761000 0.761000 0.764585
0.795800 0.795800 0.798863
0.830600 0.830600 0.833141
0.865400 0.865400 0.867419
0.900200 0.900200 0.901697
0.935000 0.935000 0.935975
0.969800 0.969800 0.970253
0.781300 0.781300 0.784581
0.816100 0.816100 0.818859
0.850900 0.850900 0.853136
0.885700 0.885700 0.887414
0.920500 0.920500 0.921693
0.955300 0.955300 0.955971
0.990100 0.990100 0.990249
1.000000 1.000000 1.000000
1.000000 1.000000 1.000000
0.082400 0.082400 0.096164
0.117200 0.117200 0.130442
0.152000 0.152000 0.164720
0.186800 0.186800 0.198998
0.221600 0.221600 0.233276
0.256400 0.256400 0.267554
0.291200 0.291200 0.301832
0.326000 0.326000 0.336110
0.360800 0.360800 0.370388
0.172300 0.172300 0.184716
0.207100 0.207100 0.218994
0.241900 0.241900 0.253272
0.276700 0.276700 0.287550
0.311500 0.311500 0.321827
0.346300 0.346300 0.356106
0.381100 0.381100 0.390384
0.415900 0.415900 0.424661
0.450700 0.450700 0.458940
0.262200 0.262200 0.273267
0.297000 0.297000 0.307545
0.331800 0.331800 0.341823
0.366600 0.366600 0.376101
0.401400 0.401400 0.410379
0.436200 0.436200 0.444657
0.471000 0.471000 0.478935
0.505800 0.505800 0.513213
0.540600 0.540600 0.547491
0.352100 0.352100 0.361818
0.386900 0.386900 0.396096
0.421700 0.421700 0.430374
0.456500 0.456500 0.464653
0.491300 0.491300 0.498930
0.526100 0.526100 0.533208
0.560900 0.560900 0.567487
0.595700 0.595700 0.601765
0.630500 0.630500 0.636043
0.442000 0.442000 0.450370
0.476800 0.476800 0.484648
0.511600 0.511600 0.518926
0.546400 0.546400 0.553204
0.581200 0.581200 0.587482
0.616000 0.616000 0.621760
0.650800 0.650800 0.656038
0.685600 0.685600 0.690316
0.720400 0.720400 0.724594
0.531900 0.531900 0.538922
0.566700 0.566700 0.573199
0.601500 0.601500 0.607478
0.636300 0.636300 0.641756
0.671100 0.671100 0.676034
0.705900 0.705900 0.710311
0.740700 0.740700 0.744590
0.775500 0.775500 0.778868
0.810300 0.810300 0.813145
0.621800 0.621800 0.627473
0.656600 0.656600 0.661751
0.691400 0.691400 0.696029
0.726200 0.726200 0.730307
0.761000 0.761000 0.764585
0.795800 0.795800 0.798863
0.830600 0.830600 0.833141
0.865400 0.865400 0.867419
0.900200 0.900200 0.901697
0.711700 0.711700 0.716024
0.746500 0.746500 0.750302
0.781300 0.781300 0.784581
0.816100 0.816100 0.818858
0.850900 0.850900 0.853136
0.885700 0.885700 0.887414
0.920500 0.920500 0.921692
0.955300 0.955300 0.955970
0.990100 0.990100 0.990248
0.801600 0.801600 0.804576
0.836400 0.836400 0.838854
0.871200 0.871200 0.873132
0.906000 0.906000 0.907410
0.940800 0.940800 0.941688
0.975600 0.975600 0.975966
1.000000 1.000000 1.000000
1.000000 1.000000 1.000000
1.000000 1.000000 1.000000
