docs/luts/fresh-cinematic-core.cube
TITLE "FreshLUTs??-????"
LUT_3D_SIZE 9
DOMAIN_MIN 0.0 0.0 0.0
DOMAIN_MAX 1.0 1.0 1.0
0.000000 0.000000 0.040000
0.073516 0.000000 0.036860
0.218014 0.000000 0.033721
0.362512 0.000000 0.030582
0.507010 0.000000 0.027442
0.651508 0.000000 0.024303
0.796006 0.000000 0.021163
0.940504 0.000000 0.018024
1.000000 0.000000 0.014884
0.000000 0.078072 0.033837
0.072489 0.078580 0.030697
0.216987 0.078670 0.027557
0.361485 0.078759 0.024418
0.505983 0.078849 0.021279
0.650481 0.078939 0.018139
0.794978 0.079029 0.014999
0.939476 0.079118 0.011860
1.000000 0.079627 0.008720
0.000000 0.218557 0.027673
0.070875 0.219065 0.024534
0.215373 0.219155 0.021394
0.359871 0.219244 0.018254
0.504368 0.219334 0.015115
0.648866 0.219424 0.011976
0.793364 0.219513 0.008836
0.937862 0.219603 0.005696
1.000000 0.220111 0.002557
0.000000 0.359041 0.021510
0.069261 0.359550 0.018370
0.213759 0.359639 0.015231
0.358256 0.359729 0.012091
0.502754 0.359819 0.008952
0.647252 0.359908 0.005812
0.792927 0.359998 0.002673
0.939229 0.359948 0.000000
1.000000 0.359514 0.000000
0.000000 0.499526 0.015346
0.067646 0.500034 0.012207
0.212144 0.500124 0.009067
0.356642 0.500214 0.005927
0.502250 0.500304 0.002788
0.648553 0.500288 0.000000
0.794855 0.499436 0.000000
0.941157 0.498584 0.000000
1.000000 0.498150 0.000000
0.000000 0.640011 0.009183
0.066032 0.640519 0.006043
0.211574 0.640609 0.002904
0.357876 0.640628 0.000000
0.504178 0.639776 0.000000
0.650480 0.638924 0.000000
0.796783 0.638071 0.000000
0.943085 0.637219 0.000000
1.000000 0.636786 0.000000
0.000978 0.780496 0.003019
0.067200 0.780968 0.000000
0.213502 0.780116 0.000000
0.359804 0.779264 0.000000
0.506106 0.778412 0.000000
0.652408 0.777559 0.000000
0.798711 0.776707 0.000000
0.945013 0.775855 0.000000
1.000000 0.775421 0.000000
0.004520 0.920037 0.000000
0.069128 0.919604 0.000000
0.215430 0.918752 0.000000
0.361732 0.917899 0.000000
0.508034 0.917047 0.000000
0.654336 0.916195 0.000000
0.800639 0.915343 0.000000
0.946941 0.914491 0.000000
1.000000 0.914057 0.000000
0.008062 1.000000 0.000000
0.071643 1.000000 0.000000
0.217945 1.000000 0.000000
0.364247 1.000000 0.000000
0.510549 1.000000 0.000000
0.656851 1.000000 0.000000
0.803154 1.000000 0.000000
0.949456 1.000000 0.000000
1.000000 1.000000 0.000000
0.000000 0.000000 0.120221
0.073334 0.000000 0.116648
0.217832 0.000000 0.112656
0.362330 0.000000 0.108664
0.506828 0.000000 0.104673
0.651325 0.000000 0.100681
0.795823 0.000000 0.096689
0.940321 0.000000 0.092698
1.000000 0.000000 0.089125
0.000000 0.078248 0.113030
0.072307 0.078757 0.109457
0.216805 0.078846 0.105465
0.361303 0.078936 0.101473
0.505800 0.079026 0.097482
0.650298 0.079116 0.093490
0.794796 0.079205 0.089499
0.939294 0.079295 0.085507
1.000000 0.079803 0.081934
0.000000 0.218733 0.105252
0.070693 0.219242 0.101679
0.215190 0.219331 0.097687
0.359688 0.219421 0.093696
0.504186 0.219511 0.089704
0.648684 0.219600 0.085712
0.793182 0.219690 0.081721
0.937806 0.219780 0.077729
1.000000 0.220288 0.074156
0.000000 0.359218 0.097474
0.069078 0.359726 0.093901
0.213576 0.359816 0.089910
0.358074 0.359906 0.085918
0.502572 0.359996 0.081926
0.647130 0.360085 0.077935
0.793432 0.360175 0.073943
0.939734 0.359765 0.071615
1.000000 0.359332 0.071182
0.000000 0.499703 0.089697
0.067464 0.500211 0.086124
0.211962 0.500301 0.082132
0.356460 0.500391 0.078140
0.502756 0.500480 0.074149
0.649058 0.500105 0.071705
0.795360 0.499253 0.070853
0.941662 0.498401 0.070001
1.000000 0.497968 0.069568
0.000000 0.640188 0.081919
0.065850 0.640696 0.078346
0.212080 0.640786 0.074354
0.358382 0.640446 0.071795
0.504684 0.639593 0.070943
0.650986 0.638741 0.070091
0.797288 0.637889 0.069239
0.943590 0.637037 0.068387
1.000000 0.636603 0.067953
0.001666 0.780673 0.074141
0.067705 0.780786 0.071886
0.214008 0.779933 0.071033
0.360310 0.779081 0.070181
0.506612 0.778229 0.069329
0.652914 0.777377 0.068477
0.799216 0.776525 0.067625
0.945518 0.775673 0.066773
1.000000 0.775239 0.066339
0.005208 0.919855 0.070705
0.069633 0.919421 0.070271
0.215936 0.918569 0.069419
0.362238 0.917717 0.068567
0.508540 0.916865 0.067715
0.654842 0.916013 0.066863
0.801144 0.915161 0.066011
0.947446 0.914308 0.065158
1.000000 0.913875 0.064725
0.008750 1.000000 0.069678
0.072148 1.000000 0.069244
0.218451 1.000000 0.068392
0.364753 1.000000 0.067540
0.511055 1.000000 0.066688
0.657357 1.000000 0.065835
0.803659 1.000000 0.064983
0.949961 1.000000 0.064131
1.000000 1.000000 0.063698
0.000000 0.000000 0.261504
0.073015 0.000000 0.257931
0.217513 0.000000 0.253940
0.362011 0.000000 0.249948
0.506508 0.000000 0.245956
0.651006 0.000000 0.241965
0.795504 0.000000 0.237973
0.940002 0.000000 0.233981
1.000000 0.000000 0.230408
0.000000 0.078288 0.254314
0.071988 0.078797 0.250741
0.216485 0.078886 0.246749
0.360983 0.078976 0.242757
0.505481 0.079066 0.238766
0.649979 0.079155 0.234774
0.794477 0.079245 0.230782
0.938975 0.079335 0.226791
1.000000 0.079843 0.223218
0.000000 0.218773 0.246536
0.070373 0.219281 0.242963
0.214871 0.219371 0.238971
0.359369 0.219461 0.234980
0.503867 0.219551 0.230988
0.648365 0.219640 0.226996
0.792863 0.219730 0.223005
0.938175 0.219820 0.219013
1.000000 0.220328 0.215440
0.000000 0.359258 0.238758
0.068759 0.359766 0.235185
0.213257 0.359856 0.231193
0.357755 0.359946 0.227202
0.502253 0.360035 0.223210
0.647499 0.360125 0.219218
0.793801 0.360215 0.215227
0.940103 0.359446 0.214096
1.000000 0.359013 0.213663
0.000000 0.499743 0.230980
0.067145 0.500251 0.227407
0.211643 0.500341 0.223416
0.356822 0.500431 0.219424
0.503125 0.500520 0.215432
0.649427 0.499786 0.214186
0.795729 0.498934 0.213334
0.942031 0.498082 0.212482
1.000000 0.497648 0.212048
0.000000 0.640228 0.223203
0.066146 0.640736 0.219630
0.212448 0.640826 0.215638
0.358750 0.640126 0.214276
0.505053 0.639274 0.213424
0.651355 0.638422 0.212572
0.797657 0.637570 0.211720
0.943959 0.636718 0.210868
1.000000 0.636284 0.210434
0.002353 0.780712 0.215425
0.068074 0.780466 0.214366
0.214376 0.779614 0.213514
0.360678 0.778762 0.212662
0.506981 0.777910 0.211810
0.653283 0.777058 0.210958
0.799585 0.776206 0.210106
0.945887 0.775353 0.209253
1.000000 0.774920 0.208820
0.005896 0.919536 0.213186
0.070002 0.919102 0.212752
0.216304 0.918250 0.211900
0.362606 0.917398 0.211048
0.508909 0.916546 0.210196
0.655211 0.915694 0.209344
0.801513 0.914841 0.208491
0.947815 0.913989 0.207639
1.000000 0.913556 0.207206
0.009438 1.000000 0.212158
0.072517 1.000000 0.211725
0.218819 1.000000 0.210873
0.365121 1.000000 0.210021
0.511424 1.000000 0.209168
0.657726 1.000000 0.208316
0.804028 1.000000 0.207464
0.950330 1.000000 0.206612
1.000000 1.000000 0.206178
0.000000 0.000000 0.402788
0.072696 0.000000 0.399215
0.217194 0.000000 0.395224
0.361691 0.000000 0.391232
0.506189 0.000000 0.387240
0.650687 0.000000 0.383249
0.795185 0.000000 0.379257
0.939683 0.000000 0.375265
1.000000 0.000000 0.371692
0.000000 0.078328 0.395597
0.071668 0.078837 0.392024
0.216166 0.078926 0.388033
0.360664 0.079016 0.384041
0.505162 0.079106 0.380049
0.649660 0.079195 0.376058
0.794158 0.079285 0.372066
0.938655 0.079375 0.368075
1.000000 0.079883 0.364501
0.000000 0.218813 0.387820
0.070054 0.219321 0.384247
0.214552 0.219411 0.380255
0.359050 0.219501 0.376263
0.503548 0.219590 0.372272
0.648046 0.219680 0.368280
0.792543 0.219770 0.364288
0.938544 0.219860 0.360297
1.000000 0.220058 0.357758
0.000000 0.359298 0.380042
0.068440 0.359806 0.376469
0.212938 0.359896 0.372477
0.357436 0.359986 0.368486
0.501933 0.360075 0.364494
0.647868 0.360165 0.360502
0.794170 0.359979 0.357429
0.940472 0.359127 0.356577
1.000000 0.358693 0.356143
0.000000 0.499783 0.372264
0.066826 0.500291 0.368691
0.211324 0.500381 0.364699
0.357191 0.500470 0.360708
0.503493 0.500319 0.357519
0.649795 0.499467 0.356667
0.796098 0.498615 0.355815
0.942400 0.497763 0.354963
1.000000 0.497329 0.354529
0.000000 0.640267 0.364486
0.066515 0.640776 0.360913
0.212817 0.640659 0.357609
0.359119 0.639807 0.356757
0.505421 0.638955 0.355905
0.651723 0.638103 0.355053
0.798026 0.637251 0.354201
0.944328 0.636398 0.353348
1.000000 0.635965 0.352915
0.003041 0.780581 0.357281
0.068443 0.780147 0.356847
0.214745 0.779295 0.355995
0.361047 0.778443 0.355143
0.507349 0.777591 0.354291
0.653651 0.776739 0.353439
0.799954 0.775886 0.352586
0.946256 0.775034 0.351734
1.000000 0.774601 0.351301
0.006584 0.919216 0.355666
0.070371 0.918783 0.355233
0.216673 0.917931 0.354381
0.362975 0.917079 0.353529
0.509277 0.916226 0.352676
0.655579 0.915374 0.351824
0.801882 0.914522 0.350972
0.948184 0.913670 0.350120
1.000000 0.913236 0.349686
0.010126 1.000000 0.354639
0.072886 1.000000 0.354206
0.219188 1.000000 0.353353
0.365490 1.000000 0.352501
0.511792 1.000000 0.351649
0.658094 1.000000 0.350797
0.804397 1.000000 0.349945
0.950699 1.000000 0.349093
1.000000 1.000000 0.348659
0.000000 0.000000 0.544072
0.072376 0.000000 0.540499
0.216874 0.000000 0.536507
0.361372 0.000000 0.532516
0.505870 0.000000 0.528524
0.650368 0.000000 0.524532
0.794866 0.000000 0.520541
0.939364 0.000000 0.516549
1.000000 0.000000 0.512976
0.000000 0.078368 0.536881
0.071349 0.078876 0.533308
0.215847 0.078966 0.529317
0.360345 0.079056 0.525325
0.504843 0.079146 0.521333
0.649341 0.079235 0.517342
0.793838 0.079325 0.513350
0.938336 0.079415 0.509358
1.000000 0.079923 0.505785
0.000000 0.218853 0.529104
0.069735 0.219361 0.525530
0.214233 0.219451 0.521539
0.358731 0.219541 0.517547
0.503228 0.219630 0.513555
0.647726 0.219720 0.509564
0.792610 0.219810 0.505572
0.938913 0.219899 0.501581
1.000000 0.219738 0.500239
0.000000 0.359338 0.521326
0.068121 0.359846 0.517753
0.212619 0.359936 0.513761
0.357116 0.360025 0.509769
0.501934 0.360115 0.505778
0.648236 0.360205 0.501786
0.794538 0.359660 0.499910
0.940841 0.358808 0.499058
1.000000 0.358374 0.498624
0.000000 0.499823 0.513548
0.066506 0.500331 0.509975
0.211258 0.500421 0.505983
0.357560 0.500510 0.501992
0.503862 0.500000 0.500000
0.650164 0.499148 0.499148
0.796466 0.498296 0.498296
0.942769 0.497444 0.497444
1.000000 0.497010 0.497010
0.000187 0.640307 0.505770
0.066884 0.640816 0.502197
0.213186 0.640340 0.500090
0.359488 0.639488 0.499238
0.505790 0.638636 0.498386
0.652092 0.637784 0.497534
0.798394 0.636931 0.496681
0.944697 0.636079 0.495829
1.000000 0.635646 0.495396
0.003729 0.780262 0.499762
0.068812 0.779828 0.499328
0.215114 0.778976 0.498476
0.361416 0.778124 0.497624
0.507718 0.777272 0.496772
0.654020 0.776419 0.495919
0.800322 0.775567 0.495067
0.946625 0.774715 0.494215
1.000000 0.774282 0.493781
0.007272 0.918897 0.498147
0.070740 0.918464 0.497714
0.217042 0.917612 0.496862
0.363344 0.916759 0.496009
0.509646 0.915907 0.495157
0.655948 0.915055 0.494305
0.802250 0.914203 0.493453
0.948553 0.913351 0.492601
1.000000 0.912917 0.492167
0.010814 1.000000 0.497120
0.073255 1.000000 0.496686
0.219557 1.000000 0.495834
0.365859 1.000000 0.494982
0.512161 1.000000 0.494130
0.658463 1.000000 0.493278
0.804765 1.000000 0.492426
0.951068 1.000000 0.491574
1.000000 1.000000 0.491140
0.000000 0.000000 0.685356
0.072057 0.000000 0.681783
0.216555 0.000000 0.677791
0.361053 0.000000 0.673799
0.505551 0.000000 0.669808
0.650049 0.000000 0.665816
0.794546 0.000000 0.661825
0.939044 0.000000 0.657833
1.000000 0.000000 0.654260
0.000000 0.078408 0.678165
0.071030 0.078916 0.674592
0.215528 0.079006 0.670600
0.360026 0.079096 0.666609
0.504524 0.079185 0.662617
0.649021 0.079275 0.658625
0.793519 0.079365 0.654634
0.938017 0.079455 0.650642
1.000000 0.079963 0.647069
0.000000 0.218893 0.670387
0.069416 0.219401 0.666814
0.213914 0.219491 0.662823
0.358411 0.219581 0.658831
0.502909 0.219670 0.654839
0.647407 0.219760 0.650848
0.792979 0.219850 0.646856
0.939281 0.219853 0.643153
1.000000 0.219419 0.642719
0.000000 0.359378 0.662610
0.067802 0.359886 0.659037
0.212299 0.359976 0.655045
0.356797 0.360065 0.651053
0.502303 0.360155 0.647062
0.648605 0.360193 0.643243
0.794907 0.359341 0.642391
0.941209 0.358489 0.641539
1.000000 0.358055 0.641105
0.000000 0.499862 0.654832
0.066187 0.500371 0.651259
0.211626 0.500460 0.647267
0.357929 0.500533 0.643333
0.504231 0.499681 0.642481
0.650533 0.498829 0.641629
0.796835 0.497976 0.640776
0.943137 0.497124 0.639924
1.000000 0.496691 0.639491
0.000875 0.640347 0.647054
0.067252 0.640856 0.643481
0.213554 0.640021 0.642571
0.359857 0.639169 0.641719
0.506159 0.638317 0.640867
0.652461 0.637464 0.640014
0.798763 0.636612 0.639162
0.945065 0.635760 0.638310
1.000000 0.635327 0.637877
0.004417 0.779942 0.642242
0.069180 0.779509 0.641809
0.215482 0.778657 0.640957
0.361785 0.777804 0.640104
0.508087 0.776952 0.639252
0.654389 0.776100 0.638400
0.800691 0.775248 0.637548
0.946993 0.774396 0.636696
1.000000 0.773962 0.636262
0.007959 0.918578 0.640628
0.071108 0.918145 0.640194
0.217410 0.917292 0.639342
0.363713 0.916440 0.638490
0.510015 0.915588 0.637638
0.656317 0.914736 0.636786
0.802619 0.913884 0.635934
0.948921 0.913032 0.635082
1.000000 0.912598 0.634648
0.011502 1.000000 0.639601
0.073623 1.000000 0.639167
0.219925 1.000000 0.638315
0.366228 1.000000 0.637463
0.512530 1.000000 0.636611
0.658832 1.000000 0.635759
0.805134 1.000000 0.634907
0.951436 1.000000 0.634054
1.000000 1.000000 0.633621
0.000000 0.000000 0.826640
0.071738 0.000000 0.823067
0.216236 0.000000 0.819075
0.360734 0.000000 0.815083
0.505232 0.000000 0.811092
0.649729 0.000000 0.807100
0.794227 0.000000 0.803108
0.938725 0.000000 0.799117
1.000000 0.000000 0.795544
0.000000 0.078448 0.819449
0.070711 0.078956 0.815876
0.215209 0.079046 0.811884
0.359707 0.079136 0.807893
0.504204 0.079225 0.803901
0.648702 0.079315 0.799909
0.793200 0.079405 0.795918
0.937722 0.079494 0.791926
1.000000 0.080003 0.788353
0.000000 0.218933 0.811671
0.069097 0.219441 0.808098
0.213594 0.219531 0.804106
0.358092 0.219620 0.800115
0.502590 0.219710 0.796123
0.647088 0.219800 0.792131
0.793348 0.219890 0.788140
0.939650 0.219534 0.785634
1.000000 0.219100 0.785200
0.000000 0.359418 0.803893
0.067482 0.359926 0.800320
0.211980 0.360016 0.796329
0.356478 0.360105 0.792337
0.502672 0.360195 0.788345
0.648974 0.359874 0.785724
0.795276 0.359022 0.784872
0.941578 0.358169 0.784019
1.000000 0.357736 0.783586
0.000000 0.499902 0.796116
0.065868 0.500411 0.792543
0.211995 0.500500 0.788551
0.358297 0.500214 0.785814
0.504600 0.499362 0.784962
0.650902 0.498509 0.784109
0.797204 0.497657 0.783257
0.943506 0.496805 0.782405
1.000000 0.496372 0.781972
0.001563 0.640387 0.788338
0.067621 0.640554 0.785904
0.213923 0.639702 0.785052
0.360225 0.638849 0.784200
0.506528 0.637997 0.783347
0.652830 0.637145 0.782495
0.799132 0.636293 0.781643
0.945434 0.635441 0.780791
1.000000 0.635007 0.780357
0.005105 0.779623 0.784723
0.069549 0.779190 0.784290
0.215851 0.778337 0.783437
0.362153 0.777485 0.782585
0.508456 0.776633 0.781733
0.654758 0.775781 0.780881
0.801060 0.774929 0.780029
0.947362 0.774077 0.779177
1.000000 0.773643 0.778743
0.008647 0.918259 0.783109
0.071477 0.917825 0.782675
0.217779 0.916973 0.781823
0.364081 0.916121 0.780971
0.510384 0.915269 0.780119
0.656686 0.914417 0.779267
0.802988 0.913565 0.778415
0.949290 0.912712 0.777562
1.000000 0.912279 0.777129
0.012190 1.000000 0.782082
0.073992 1.000000 0.781648
0.220294 1.000000 0.780796
0.366596 1.000000 0.779944
0.512898 1.000000 0.779092
0.659201 1.000000 0.778239
0.805503 1.000000 0.777387
0.951805 1.000000 0.776535
1.000000 1.000000 0.776102
0.000000 0.000000 0.967923
0.071419 0.000000 0.964350
0.215917 0.000000 0.960359
0.360415 0.000000 0.956367
0.504912 0.000000 0.952375
0.649410 0.000000 0.948384
0.793908 0.000000 0.944392
0.938406 0.000000 0.940400
1.000000 0.000000 0.936827
0.000000 0.078488 0.960733
0.070392 0.078996 0.957160
0.214889 0.079086 0.953168
0.359387 0.079176 0.949176
0.503885 0.079265 0.945185
0.648383 0.079355 0.941193
0.792881 0.079445 0.937201
0.938091 0.079534 0.933210
1.000000 0.080043 0.929637
0.000000 0.218973 0.952955
0.068777 0.219481 0.949382
0.213275 0.219571 0.945390
0.357773 0.219660 0.941399
0.502271 0.219750 0.937407
0.647414 0.219840 0.933415
0.793717 0.219929 0.929424
0.940019 0.219214 0.928114
1.000000 0.218781 0.927681
0.000000 0.359457 0.945177
0.067163 0.359966 0.941604
0.211661 0.360055 0.937612
0.356738 0.360145 0.933621
0.503040 0.360235 0.929629
0.649342 0.359554 0.928205
0.795645 0.358702 0.927352
0.941947 0.357850 0.926500
1.000000 0.357417 0.926067
0.000000 0.499942 0.937399
0.066062 0.500451 0.933826
0.212364 0.500540 0.929835
0.358666 0.499895 0.928295
0.504968 0.499042 0.927442
0.651270 0.498190 0.926590
0.797573 0.497338 0.925738
0.943875 0.496486 0.924886
1.000000 0.496052 0.924452
0.002251 0.640427 0.929622
0.067990 0.640235 0.928385
0.214292 0.639382 0.927532
0.360594 0.638530 0.926680
0.506896 0.637678 0.925828
0.653198 0.636826 0.924976
0.799501 0.635974 0.924124
0.945803 0.635122 0.923272
1.000000 0.634688 0.922838
0.005793 0.779304 0.927204
0.069918 0.778870 0.926770
0.216220 0.778018 0.925918
0.362522 0.777166 0.925066
0.508824 0.776314 0.924214
0.655126 0.775462 0.923362
0.801429 0.774610 0.922510
0.947731 0.773757 0.921657
1.000000 0.773324 0.921224
0.009335 0.917940 0.925590
0.071846 0.917506 0.925156
0.218148 0.916654 0.924304
0.364450 0.915802 0.923452
0.510752 0.914950 0.922600
0.657054 0.914098 0.921748
0.803357 0.913245 0.920895
0.949659 0.912393 0.920043
1.000000 0.911960 0.919610
0.012878 1.000000 0.924562
0.074361 1.000000 0.924129
0.220663 1.000000 0.923277
0.366965 1.000000 0.922425
0.513267 1.000000 0.921572
0.659569 1.000000 0.920720
0.805872 1.000000 0.919868
0.952174 1.000000 0.919016
1.000000 1.000000 0.918582
0.000000 0.000000 1.000000
0.071236 0.000000 1.000000
0.215734 0.000000 1.000000
0.360232 0.000000 1.000000
0.504730 0.000000 1.000000
0.649228 0.000000 1.000000
0.793726 0.000000 1.000000
0.938224 0.000000 1.000000
1.000000 0.000000 1.000000
0.000000 0.078665 1.000000
0.070209 0.079173 1.000000
0.214707 0.079263 1.000000
0.359205 0.079352 1.000000
0.503703 0.079442 1.000000
0.648201 0.079532 1.000000
0.792698 0.079621 1.000000
0.938596 0.079711 1.000000
1.000000 0.079963 1.000000
0.000000 0.219149 1.000000
0.068595 0.219658 1.000000
0.213093 0.219747 1.000000
0.357591 0.219837 1.000000
0.502089 0.219927 1.000000
0.647920 0.220016 1.000000
0.794222 0.219884 1.000000
0.940524 0.219032 1.000000
1.000000 0.218598 1.000000
0.000000 0.359634 1.000000
0.066981 0.360143 1.000000
0.211479 0.360232 1.000000
0.357244 0.360322 1.000000
0.503546 0.360224 1.000000
0.649848 0.359372 1.000000
0.796150 0.358520 1.000000
0.942452 0.357668 1.000000
1.000000 0.357234 1.000000
0.000000 0.500119 1.000000
0.066567 0.500627 1.000000
0.212869 0.500564 1.000000
0.359172 0.499712 1.000000
0.505474 0.498860 1.000000
0.651776 0.498008 1.000000
0.798078 0.497156 1.000000
0.944380 0.496304 1.000000
1.000000 0.495870 1.000000
0.002939 0.640486 1.000000
0.068495 0.640052 1.000000
0.214797 0.639200 1.000000
0.361100 0.638348 1.000000
0.507402 0.637496 1.000000
0.653704 0.636644 1.000000
0.800006 0.635791 1.000000
0.946308 0.634939 1.000000
1.000000 0.634506 1.000000
0.006481 0.779122 1.000000
0.070423 0.778688 1.000000
0.216725 0.777836 1.000000
0.363028 0.776984 1.000000
0.509330 0.776131 1.000000
0.655632 0.775279 1.000000
0.801934 0.774427 1.000000
0.948236 0.773575 1.000000
1.000000 0.773142 1.000000
0.010023 0.917757 1.000000
0.072351 0.917324 1.000000
0.218653 0.916472 1.000000
0.364956 0.915619 1.000000
0.511258 0.914767 1.000000
0.657560 0.913915 1.000000
0.803862 0.913063 1.000000
0.950164 0.912211 1.000000
1.000000 0.911777 1.000000
0.013566 1.000000 1.000000
0.074866 1.000000 1.000000
0.221168 1.000000 1.000000
0.367471 1.000000 1.000000
0.513773 1.000000 1.000000
0.660075 1.000000 1.000000
0.806377 1.000000 1.000000
0.952679 1.000000 1.000000
1.000000 1.000000 1.000000
