docs/luts/fresh-nikon-z6-contrast.cube
TITLE "FreshLUTs??-NikonZ6??"
LUT_3D_SIZE 33
DOMAIN_MIN 0.0 0.0 0.0
DOMAIN_MAX 1.0 1.0 1.0
0.000000 0.004000 0.016000
0.000000 0.004000 0.015686
0.000000 0.004000 0.015372
0.029153 0.004000 0.015058
0.065911 0.004000 0.014744
0.102670 0.004000 0.014430
0.139428 0.004000 0.014116
0.176186 0.004000 0.013802
0.212944 0.004000 0.013488
0.249702 0.004000 0.013174
0.286461 0.004000 0.012861
0.323219 0.004000 0.012547
0.359977 0.004000 0.012233
0.396735 0.004000 0.011919
0.433494 0.004000 0.011605
0.470252 0.004000 0.011291
0.507010 0.004000 0.010977
0.543768 0.004000 0.010663
0.580526 0.004000 0.010349
0.617285 0.004000 0.010035
0.654043 0.004000 0.009721
0.690801 0.004000 0.009407
0.727559 0.004000 0.009093
0.764318 0.004000 0.008779
0.801076 0.004000 0.008465
0.837834 0.004000 0.008151
0.874592 0.004000 0.007837
0.911350 0.004000 0.007523
0.948109 0.004000 0.007209
0.984867 0.004000 0.006895
1.000000 0.004000 0.006582
1.000000 0.004000 0.006268
1.000000 0.004000 0.005954
0.000000 0.004000 0.015384
0.000000 0.004000 0.015070
0.000000 0.004000 0.014756
0.029153 0.004000 0.014442
0.065911 0.004000 0.014128
0.102670 0.004000 0.013814
0.139428 0.004000 0.013500
0.176186 0.004000 0.013186
0.212944 0.004000 0.012872
0.249702 0.004000 0.012558
0.286461 0.004000 0.012244
0.323219 0.004000 0.011930
0.359977 0.004000 0.011616
0.396735 0.004000 0.011302
0.433494 0.004000 0.010988
0.470252 0.004000 0.010674
0.507010 0.004000 0.010360
0.543768 0.004000 0.010046
0.580526 0.004000 0.009733
0.617285 0.004000 0.009419
0.654043 0.004000 0.009105
0.690801 0.004000 0.008791
0.727559 0.004000 0.008477
0.764318 0.004000 0.008163
0.801076 0.004000 0.007849
0.837834 0.004000 0.007535
0.874592 0.004000 0.007221
0.911350 0.004000 0.006907
0.948109 0.004000 0.006593
0.984867 0.004000 0.006279
1.000000 0.004000 0.005965
1.000000 0.004000 0.005651
1.000000 0.004000 0.005337
0.000000 0.005260 0.014767
0.000000 0.005260 0.014453
0.000000 0.005260 0.014139
0.029138 0.005088 0.013825
0.065897 0.004872 0.013512
0.102655 0.004655 0.013198
0.139413 0.004438 0.012884
0.176171 0.004221 0.012570
0.212930 0.004005 0.012256
0.249688 0.004000 0.011942
0.286446 0.004000 0.011628
0.323204 0.004000 0.011314
0.359962 0.004000 0.011000
0.396721 0.004000 0.010686
0.433479 0.004000 0.010372
0.470237 0.004000 0.010058
0.506995 0.004000 0.009744
0.543754 0.004000 0.009430
0.580512 0.004000 0.009116
0.617270 0.004000 0.008802
0.654028 0.004000 0.008488
0.690786 0.004000 0.008174
0.727545 0.004000 0.007860
0.764303 0.004000 0.007546
0.801061 0.004000 0.007233
0.837819 0.004000 0.006919
0.874578 0.004000 0.006605
0.911336 0.004000 0.006291
0.948094 0.004000 0.005977
0.984852 0.004000 0.005663
1.000000 0.004000 0.005349
1.000000 0.004000 0.005035
1.000000 0.004000 0.004721
0.000000 0.041180 0.014151
0.000000 0.041180 0.013837
0.000000 0.041180 0.013523
0.028720 0.041008 0.013209
0.065478 0.040791 0.012895
0.102237 0.040574 0.012581
0.138995 0.040357 0.012267
0.175753 0.040141 0.011953
0.212511 0.039924 0.011639
0.249270 0.039707 0.011325
0.286028 0.039490 0.011011
0.322786 0.039273 0.010698
0.359544 0.039057 0.010384
0.396302 0.038840 0.010070
0.433061 0.038623 0.009756
0.469819 0.038406 0.009442
0.506577 0.038190 0.009128
0.543335 0.037973 0.008814
0.580094 0.037756 0.008500
0.616852 0.037539 0.008186
0.653610 0.037322 0.007872
0.690368 0.037106 0.007558
0.727126 0.036889 0.007244
0.763885 0.036672 0.006930
0.800643 0.036455 0.006616
0.837401 0.036239 0.006302
0.874159 0.036022 0.005988
0.910918 0.035805 0.005674
0.947676 0.035588 0.005360
0.984434 0.035372 0.005046
1.000000 0.035200 0.004732
1.000000 0.035200 0.004418
1.000000 0.035200 0.004105
0.000000 0.077099 0.013535
0.000000 0.077099 0.013221
0.000000 0.077099 0.012907
0.028302 0.076927 0.012593
0.065060 0.076710 0.012279
0.101818 0.076493 0.011965
0.138577 0.076277 0.011651
0.175335 0.076060 0.011337
0.212093 0.075843 0.011023
0.248851 0.075626 0.010709
0.285610 0.075410 0.010395
0.322368 0.075193 0.010081
0.359126 0.074976 0.009767
0.395884 0.074759 0.009453
0.432642 0.074542 0.009139
0.469401 0.074326 0.008825
0.506159 0.074109 0.008511
0.542917 0.073892 0.008197
0.579675 0.073675 0.007883
0.616434 0.073459 0.007570
0.653192 0.073242 0.007256
0.689950 0.073025 0.006942
0.726708 0.072808 0.006628
0.763466 0.072591 0.006314
0.800225 0.072375 0.006000
0.836983 0.072158 0.005686
0.873741 0.071941 0.005372
0.910499 0.071724 0.005058
0.947258 0.071508 0.004744
0.984016 0.071291 0.004430
1.000000 0.071119 0.004116
1.000000 0.071119 0.003802
1.000000 0.071119 0.003488
0.000000 0.113018 0.012918
0.000000 0.113018 0.012604
0.000000 0.113018 0.012290
0.027884 0.112846 0.011976
0.064642 0.112629 0.011662
0.101400 0.112413 0.011349
0.138158 0.112196 0.011035
0.174917 0.111979 0.010721
0.211675 0.111762 0.010407
0.248433 0.111546 0.010093
0.285191 0.111329 0.009779
0.321949 0.111112 0.009465
0.358708 0.110895 0.009151
0.395466 0.110678 0.008837
0.432224 0.110462 0.008523
0.468982 0.110245 0.008209
0.505741 0.110028 0.007895
0.542499 0.109811 0.007581
0.579257 0.109595 0.007267
0.616015 0.109378 0.006953
0.652774 0.109161 0.006639
0.689532 0.108944 0.006325
0.726290 0.108727 0.006011
0.763048 0.108511 0.005697
0.799806 0.108294 0.005383
0.836565 0.108077 0.005069
0.873323 0.107860 0.004756
0.910081 0.107644 0.004442
0.946839 0.107427 0.004128
0.983598 0.107210 0.003814
1.000000 0.107038 0.003500
1.000000 0.107038 0.003186
1.000000 0.107038 0.002872
0.000000 0.148937 0.012302
0.000000 0.148937 0.011988
0.000000 0.148937 0.011674
0.027465 0.148765 0.011360
0.064224 0.148549 0.011046
0.100982 0.148332 0.010732
0.137740 0.148115 0.010418
0.174498 0.147898 0.010104
0.211257 0.147682 0.009790
0.248015 0.147465 0.009476
0.284773 0.147248 0.009162
0.321531 0.147031 0.008848
0.358289 0.146814 0.008535
0.395048 0.146598 0.008221
0.431806 0.146381 0.007907
0.468564 0.146164 0.007593
0.505322 0.145947 0.007279
0.542081 0.145731 0.006965
0.578839 0.145514 0.006651
0.615597 0.145297 0.006337
0.652355 0.145080 0.006023
0.689114 0.144864 0.005709
0.725872 0.144647 0.005395
0.762630 0.144430 0.005081
0.799388 0.144213 0.004767
0.836146 0.143996 0.004453
0.872905 0.143780 0.004139
0.909663 0.143563 0.003825
0.946421 0.143346 0.003511
0.983179 0.143129 0.003197
1.000000 0.142957 0.002883
1.000000 0.142957 0.002569
1.000000 0.142957 0.002255
0.000000 0.184857 0.011686
0.000000 0.184857 0.011372
0.000000 0.184857 0.011058
0.027047 0.184685 0.010744
0.063805 0.184468 0.010430
0.100564 0.184251 0.010116
0.137322 0.184034 0.009802
0.174080 0.183818 0.009488
0.210838 0.183601 0.009174
0.247597 0.183384 0.008860
0.284355 0.183167 0.008546
0.321113 0.182951 0.008232
0.357871 0.182734 0.007918
0.394629 0.182517 0.007604
0.431388 0.182300 0.007290
0.468146 0.182083 0.006976
0.504904 0.181867 0.006662
0.541662 0.181650 0.006348
0.578421 0.181433 0.006034
0.615179 0.181216 0.005721
0.651937 0.181000 0.005407
0.688695 0.180783 0.005093
0.725453 0.180566 0.004779
0.762212 0.180349 0.004465
0.798970 0.180132 0.004151
0.835728 0.179916 0.003837
0.872486 0.179699 0.003523
0.909245 0.179482 0.003209
0.946003 0.179265 0.002895
0.982761 0.179049 0.002581
1.000000 0.178877 0.002267
1.000000 0.178877 0.001953
1.000000 0.178877 0.001639
0.000000 0.220776 0.011069
0.000000 0.220776 0.010755
0.000000 0.220776 0.010441
0.026629 0.220604 0.010127
0.063387 0.220387 0.009813
0.100145 0.220170 0.009499
0.136904 0.219954 0.009185
0.173662 0.219737 0.008872
0.210420 0.219520 0.008558
0.247178 0.219303 0.008244
0.283937 0.219087 0.007930
0.320695 0.218870 0.007616
0.357453 0.218653 0.007302
0.394211 0.218436 0.006988
0.430969 0.218219 0.006674
0.467728 0.218003 0.006360
0.504486 0.217786 0.006046
0.541244 0.217569 0.005732
0.578002 0.217352 0.005418
0.614761 0.217136 0.005104
0.651519 0.216919 0.004790
0.688277 0.216702 0.004476
0.725035 0.216485 0.004162
0.761793 0.216268 0.003848
0.798552 0.216052 0.003534
0.835310 0.215835 0.003220
0.872068 0.215618 0.002907
0.908826 0.215401 0.002593
0.945585 0.215185 0.002279
0.982343 0.214968 0.001965
1.000000 0.214796 0.001651
1.000000 0.214796 0.001337
1.000000 0.214796 0.001023
0.000000 0.256695 0.010453
0.000000 0.256695 0.010139
0.000000 0.256695 0.009825
0.026211 0.256523 0.009511
0.062969 0.256306 0.009197
0.099727 0.256090 0.008883
0.136485 0.255873 0.008569
0.173244 0.255656 0.008255
0.210002 0.255439 0.007941
0.246760 0.255223 0.007627
0.283518 0.255006 0.007313
0.320277 0.254789 0.006999
0.357035 0.254572 0.006685
0.393793 0.254355 0.006371
0.430551 0.254139 0.006058
0.467309 0.253922 0.005744
0.504068 0.253705 0.005430
0.540826 0.253488 0.005116
0.577584 0.253272 0.004802
0.614342 0.253055 0.004488
0.651101 0.252838 0.004174
0.687859 0.252621 0.003860
0.724617 0.252405 0.003546
0.761375 0.252188 0.003232
0.798133 0.251971 0.002918
0.834892 0.251754 0.002604
0.871650 0.251537 0.002290
0.908408 0.251321 0.001976
0.945259 0.251104 0.001662
0.982146 0.250887 0.001348
1.000000 0.250715 0.001034
1.000000 0.250715 0.000720
1.000000 0.250715 0.000406
0.000000 0.292614 0.009837
0.000000 0.292614 0.009523
0.000000 0.292614 0.009209
0.025793 0.292442 0.008895
0.062551 0.292226 0.008581
0.099309 0.292009 0.008267
0.136067 0.291792 0.007953
0.172825 0.291575 0.007639
0.209584 0.291359 0.007325
0.246342 0.291142 0.007011
0.283100 0.290925 0.006697
0.319858 0.290708 0.006383
0.356617 0.290492 0.006069
0.393375 0.290275 0.005755
0.430133 0.290058 0.005441
0.466891 0.289841 0.005127
0.503649 0.289624 0.004813
0.540408 0.289408 0.004499
0.577166 0.289191 0.004185
0.613924 0.288974 0.003871
0.650682 0.288757 0.003558
0.687441 0.288541 0.003244
0.724199 0.288324 0.002930
0.760957 0.288107 0.002616
0.797715 0.287890 0.002302
0.834473 0.287673 0.001988
0.871320 0.287457 0.001674
0.908207 0.287240 0.001360
0.945094 0.287023 0.001046
0.981981 0.286806 0.000732
1.000000 0.286634 0.000418
1.000000 0.286634 0.000104
1.000000 0.286634 0.000000
0.000000 0.328534 0.009220
0.000000 0.328534 0.008906
0.000000 0.328534 0.008592
0.025374 0.328362 0.008278
0.062132 0.328145 0.007964
0.098891 0.327928 0.007650
0.135649 0.327711 0.007336
0.172407 0.327495 0.007022
0.209165 0.327278 0.006709
0.245924 0.327061 0.006395
0.282682 0.326844 0.006081
0.319440 0.326628 0.005767
0.356198 0.326411 0.005453
0.392957 0.326194 0.005139
0.429715 0.325977 0.004825
0.466473 0.325760 0.004511
0.503231 0.325544 0.004197
0.539989 0.325327 0.003883
0.576748 0.325110 0.003569
0.613506 0.324893 0.003255
0.650264 0.324677 0.002941
0.687022 0.324460 0.002627
0.723781 0.324243 0.002313
0.760539 0.324026 0.001999
0.797380 0.323809 0.001685
0.834267 0.323593 0.001371
0.871154 0.323376 0.001057
0.908041 0.323159 0.000743
0.944929 0.322942 0.000430
0.981816 0.322726 0.000116
1.000000 0.322554 0.000000
1.000000 0.322554 0.000000
1.000000 0.322554 0.000000
0.000000 0.364453 0.008604
0.000000 0.364453 0.008290
0.000000 0.364453 0.007976
0.024956 0.364281 0.007662
0.061714 0.364064 0.007348
0.098472 0.363847 0.007034
0.135231 0.363631 0.006720
0.171989 0.363414 0.006406
0.208747 0.363197 0.006092
0.245505 0.362980 0.005778
0.282264 0.362764 0.005464
0.319022 0.362547 0.005150
0.355780 0.362330 0.004836
0.392538 0.362113 0.004522
0.429296 0.361897 0.004208
0.466055 0.361680 0.003895
0.502813 0.361463 0.003581
0.539571 0.361246 0.003267
0.576329 0.361029 0.002953
0.613088 0.360813 0.002639
0.649846 0.360596 0.002325
0.686604 0.360379 0.002011
0.723441 0.360162 0.001697
0.760328 0.359946 0.001383
0.797215 0.359729 0.001069
0.834102 0.359512 0.000755
0.870989 0.359295 0.000441
0.907876 0.359078 0.000127
0.944763 0.358862 0.000000
0.981650 0.358645 0.000000
1.000000 0.358473 0.000000
1.000000 0.358473 0.000000
1.000000 0.358473 0.000000
0.000000 0.400372 0.007987
0.000000 0.400372 0.007674
0.000000 0.400372 0.007360
0.024538 0.400200 0.007046
0.061296 0.399984 0.006732
0.098054 0.399767 0.006418
0.134812 0.399550 0.006104
0.171571 0.399333 0.005790
0.208329 0.399116 0.005476
0.245087 0.398900 0.005162
0.281845 0.398683 0.004848
0.318604 0.398466 0.004534
0.355362 0.398249 0.004220
0.392120 0.398033 0.003906
0.428878 0.397816 0.003592
0.465636 0.397599 0.003278
0.502395 0.397382 0.002964
0.539153 0.397165 0.002650
0.575911 0.396949 0.002336
0.612669 0.396732 0.002022
0.649501 0.396515 0.001708
0.686388 0.396298 0.001394
0.723276 0.396082 0.001081
0.760163 0.395865 0.000767
0.797050 0.395648 0.000453
0.833937 0.395431 0.000139
0.870824 0.395214 0.000000
0.907711 0.394998 0.000000
0.944598 0.394781 0.000000
0.981485 0.394564 0.000000
1.000000 0.394392 0.000000
1.000000 0.394392 0.000000
1.000000 0.394392 0.000000
0.000000 0.436291 0.007371
0.000000 0.436291 0.007057
0.000000 0.436291 0.006743
0.024120 0.436120 0.006429
0.060878 0.435903 0.006115
0.097636 0.435686 0.005801
0.134394 0.435469 0.005487
0.171152 0.435252 0.005173
0.207911 0.435036 0.004860
0.244669 0.434819 0.004546
0.281427 0.434602 0.004232
0.318185 0.434385 0.003918
0.354944 0.434169 0.003604
0.391702 0.433952 0.003290
0.428460 0.433735 0.002976
0.465218 0.433518 0.002662
0.501976 0.433301 0.002348
0.538735 0.433085 0.002034
0.575562 0.432868 0.001720
0.612449 0.432651 0.001406
0.649336 0.432434 0.001092
0.686223 0.432218 0.000778
0.723110 0.432001 0.000464
0.759997 0.431784 0.000150
0.796885 0.431567 0.000000
0.833772 0.431351 0.000000
0.870659 0.431134 0.000000
0.907546 0.430917 0.000000
0.944433 0.430700 0.000000
0.981320 0.430483 0.000000
1.000000 0.430311 0.000000
1.000000 0.430311 0.000000
1.000000 0.430311 0.000000
0.000000 0.472211 0.006755
0.000000 0.472211 0.006441
0.000000 0.472211 0.006127
0.023701 0.472039 0.005813
0.060460 0.471822 0.005499
0.097218 0.471605 0.005185
0.133976 0.471388 0.004871
0.170734 0.471172 0.004557
0.207492 0.470955 0.004243
0.244251 0.470738 0.003929
0.281009 0.470521 0.003615
0.317767 0.470305 0.003301
0.354525 0.470088 0.002987
0.391284 0.469871 0.002673
0.428042 0.469654 0.002359
0.464800 0.469438 0.002046
0.501622 0.469221 0.001732
0.538510 0.469004 0.001418
0.575397 0.468787 0.001104
0.612284 0.468570 0.000790
0.649171 0.468354 0.000476
0.686058 0.468137 0.000162
0.722945 0.467920 0.000000
0.759832 0.467703 0.000000
0.796719 0.467487 0.000000
0.833606 0.467270 0.000000
0.870494 0.467053 0.000000
0.907381 0.466836 0.000000
0.944268 0.466619 0.000000
0.981155 0.466403 0.000000
1.000000 0.466231 0.000000
1.000000 0.466231 0.000000
1.000000 0.466231 0.000000
0.000000 0.508130 0.006138
0.000000 0.508130 0.005824
0.000000 0.508130 0.005510
0.023283 0.507958 0.005197
0.060041 0.507741 0.004883
0.096800 0.507525 0.004569
0.133558 0.507308 0.004255
0.170316 0.507091 0.003941
0.207074 0.506874 0.003627
0.243832 0.506657 0.003313
0.280591 0.506441 0.002999
0.317349 0.506224 0.002685
0.354107 0.506007 0.002371
0.390865 0.505790 0.002057
0.427683 0.505574 0.001743
0.464570 0.505357 0.001429
0.501457 0.505140 0.001115
0.538344 0.504923 0.000801
0.575231 0.504706 0.000487
0.612119 0.504490 0.000173
0.649006 0.504273 0.000000
0.685893 0.504056 0.000000
0.722780 0.503839 0.000000
0.759667 0.503623 0.000000
0.796554 0.503406 0.000000
0.833441 0.503189 0.000000
0.870328 0.502972 0.000000
0.907215 0.502755 0.000000
0.944102 0.502539 0.000000
0.980990 0.502322 0.000000
1.000000 0.502150 0.000000
1.000000 0.502150 0.000000
1.000000 0.502150 0.000000
0.000000 0.544049 0.005522
0.000000 0.544049 0.005208
0.000000 0.544049 0.004894
0.022865 0.543877 0.004580
0.059623 0.543661 0.004266
0.096381 0.543444 0.003952
0.133140 0.543227 0.003638
0.169898 0.543010 0.003324
0.206656 0.542793 0.003010
0.243414 0.542577 0.002697
0.280172 0.542360 0.002383
0.316931 0.542143 0.002069
0.353744 0.541926 0.001755
0.390631 0.541710 0.001441
0.427518 0.541493 0.001127
0.464405 0.541276 0.000813
0.501292 0.541059 0.000499
0.538179 0.540842 0.000185
0.575066 0.540626 0.000000
0.611953 0.540409 0.000000
0.648840 0.540192 0.000000
0.685728 0.539975 0.000000
0.722615 0.539759 0.000000
0.759502 0.539542 0.000000
0.796389 0.539325 0.000000
0.833276 0.539108 0.000000
0.870163 0.538892 0.000000
0.907050 0.538675 0.000000
0.943937 0.538458 0.000000
0.980824 0.538241 0.000000
1.000000 0.538069 0.000000
1.000000 0.538069 0.000000
1.000000 0.538069 0.000000
0.000000 0.579969 0.004906
0.000000 0.579969 0.004592
0.000000 0.579969 0.004278
0.022447 0.579797 0.003964
0.059205 0.579580 0.003650
0.095963 0.579363 0.003336
0.132721 0.579146 0.003022
0.169480 0.578930 0.002708
0.206238 0.578713 0.002394
0.242996 0.578496 0.002080
0.279804 0.578279 0.001766
0.316691 0.578062 0.001452
0.353578 0.577846 0.001138
0.390465 0.577629 0.000824
0.427353 0.577412 0.000510
0.464240 0.577195 0.000196
0.501127 0.576979 0.000000
0.538014 0.576762 0.000000
0.574901 0.576545 0.000000
0.611788 0.576328 0.000000
0.648675 0.576111 0.000000
0.685562 0.575895 0.000000
0.722449 0.575678 0.000000
0.759337 0.575461 0.000000
0.796224 0.575244 0.000000
0.833111 0.575028 0.000000
0.869998 0.574811 0.000000
0.906885 0.574594 0.000000
0.943772 0.574377 0.000000
0.980659 0.574160 0.000000
1.000000 0.573989 0.000000
1.000000 0.573989 0.000000
1.000000 0.573989 0.000000
0.000000 0.615888 0.004289
0.000000 0.615888 0.003975
0.000000 0.615888 0.003661
0.022028 0.615716 0.003348
0.058787 0.615499 0.003034
0.095545 0.615282 0.002720
0.132303 0.615066 0.002406
0.169061 0.614849 0.002092
0.205865 0.614632 0.001778
0.242752 0.614415 0.001464
0.279639 0.614198 0.001150
0.316526 0.613982 0.000836
0.353413 0.613765 0.000522
0.390300 0.613548 0.000208
0.427187 0.613331 0.000000
0.464074 0.613115 0.000000
0.500962 0.612898 0.000000
0.537849 0.612681 0.000000
0.574736 0.612464 0.000000
0.611623 0.612247 0.000000
0.648510 0.612031 0.000000
0.685397 0.611814 0.000000
0.722284 0.611597 0.000000
0.759171 0.611380 0.000000
0.796058 0.611164 0.000000
0.832946 0.610947 0.000000
0.869833 0.610730 0.000000
0.906720 0.610513 0.000000
0.943607 0.610296 0.000000
0.980494 0.610080 0.000000
1.000000 0.609908 0.000000
1.000000 0.609908 0.000000
1.000000 0.609908 0.000000
0.000000 0.651807 0.003673
0.000000 0.651807 0.003359
0.000000 0.651807 0.003045
0.021610 0.651635 0.002731
0.058368 0.651418 0.002417
0.095127 0.651202 0.002103
0.131925 0.650985 0.001789
0.168812 0.650768 0.001475
0.205700 0.650551 0.001161
0.242587 0.650334 0.000847
0.279474 0.650118 0.000534
0.316361 0.649901 0.000220
0.353248 0.649684 0.000000
0.390135 0.649467 0.000000
0.427022 0.649251 0.000000
0.463909 0.649034 0.000000
0.500796 0.648817 0.000000
0.537683 0.648600 0.000000
0.574571 0.648384 0.000000
0.611458 0.648167 0.000000
0.648345 0.647950 0.000000
0.685232 0.647733 0.000000
0.722119 0.647516 0.000000
0.759006 0.647300 0.000000
0.795893 0.647083 0.000000
0.832780 0.646866 0.000000
0.869667 0.646649 0.000000
0.906555 0.646433 0.000000
0.943442 0.646216 0.000000
0.980329 0.645999 0.000000
1.000000 0.645827 0.000000
1.000000 0.645827 0.000000
1.000000 0.645827 0.000000
0.000000 0.687726 0.003057
0.000000 0.687726 0.002743
0.000000 0.687726 0.002429
0.021192 0.687554 0.002115
0.057986 0.687338 0.001801
0.094873 0.687121 0.001487
0.131760 0.686904 0.001173
0.168647 0.686687 0.000859
0.205534 0.686471 0.000545
0.242421 0.686254 0.000231
0.279309 0.686037 0.000000
0.316196 0.685820 0.000000
0.353083 0.685603 0.000000
0.389970 0.685387 0.000000
0.426857 0.685170 0.000000
0.463744 0.684953 0.000000
0.500631 0.684736 0.000000
0.537518 0.684520 0.000000
0.574405 0.684303 0.000000
0.611292 0.684086 0.000000
0.648180 0.683869 0.000000
0.685067 0.683652 0.000000
0.721954 0.683436 0.000000
0.758841 0.683219 0.000000
0.795728 0.683002 0.000000
0.832615 0.682785 0.000000
0.869502 0.682569 0.000000
0.906389 0.682352 0.000000
0.943276 0.682135 0.000000
0.980163 0.681918 0.000000
1.000000 0.681746 0.000000
1.000000 0.681746 0.000000
1.000000 0.681746 0.000000
0.000000 0.723646 0.002440
0.000000 0.723646 0.002126
0.000031 0.723646 0.001812
0.020934 0.723474 0.001498
0.057821 0.723257 0.001185
0.094708 0.723040 0.000871
0.131595 0.722823 0.000557
0.168482 0.722607 0.000243
0.205369 0.722390 0.000000
0.242256 0.722173 0.000000
0.279143 0.721956 0.000000
0.316030 0.721739 0.000000
0.352918 0.721523 0.000000
0.389805 0.721306 0.000000
0.426692 0.721089 0.000000
0.463579 0.720872 0.000000
0.500466 0.720656 0.000000
0.537353 0.720439 0.000000
0.574240 0.720222 0.000000
0.611127 0.720005 0.000000
0.648014 0.719788 0.000000
0.684901 0.719572 0.000000
0.721789 0.719355 0.000000
0.758676 0.719138 0.000000
0.795563 0.718921 0.000000
0.832450 0.718705 0.000000
0.869337 0.718488 0.000000
0.906224 0.718271 0.000000
0.943111 0.718054 0.000000
0.979998 0.717838 0.000000
1.000000 0.717666 0.000000
1.000000 0.717666 0.000000
1.000000 0.717666 0.000000
0.000026 0.759565 0.001824
0.000155 0.759565 0.001510
0.000284 0.759565 0.001196
0.020768 0.759393 0.000882
0.057655 0.759176 0.000568
0.094543 0.758959 0.000254
0.131430 0.758743 0.000000
0.168317 0.758526 0.000000
0.205204 0.758309 0.000000
0.242091 0.758092 0.000000
0.278978 0.757875 0.000000
0.315865 0.757659 0.000000
0.352752 0.757442 0.000000
0.389639 0.757225 0.000000
0.426526 0.757008 0.000000
0.463414 0.756792 0.000000
0.500301 0.756575 0.000000
0.537188 0.756358 0.000000
0.574075 0.756141 0.000000
0.610962 0.755925 0.000000
0.647849 0.755708 0.000000
0.684736 0.755491 0.000000
0.721623 0.755274 0.000000
0.758510 0.755057 0.000000
0.795398 0.754841 0.000000
0.832285 0.754624 0.000000
0.869172 0.754407 0.000000
0.906059 0.754190 0.000000
0.942946 0.753974 0.000000
0.979833 0.753757 0.000000
1.000000 0.753585 0.000000
1.000000 0.753585 0.000000
1.000000 0.753585 0.000000
0.000279 0.795484 0.001208
0.000408 0.795484 0.000894
0.000537 0.795484 0.000580
0.020603 0.795312 0.000266
0.057490 0.795095 0.000000
0.094377 0.794879 0.000000
0.131264 0.794662 0.000000
0.168152 0.794445 0.000000
0.205039 0.794228 0.000000
0.241926 0.794012 0.000000
0.278813 0.793795 0.000000
0.315700 0.793578 0.000000
0.352587 0.793361 0.000000
0.389474 0.793144 0.000000
0.426361 0.792928 0.000000
0.463248 0.792711 0.000000
0.500135 0.792494 0.000000
0.537023 0.792277 0.000000
0.573910 0.792061 0.000000
0.610797 0.791844 0.000000
0.647684 0.791627 0.000000
0.684571 0.791410 0.000000
0.721458 0.791193 0.000000
0.758345 0.790977 0.000000
0.795232 0.790760 0.000000
0.832119 0.790543 0.000000
0.869007 0.790326 0.000000
0.905894 0.790110 0.000000
0.942781 0.789893 0.000000
0.979668 0.789676 0.000000
1.000000 0.789504 0.000000
1.000000 0.789504 0.000000
1.000000 0.789504 0.000000
0.000532 0.831403 0.000591
0.000661 0.831403 0.000277
0.000790 0.831403 0.000000
0.020438 0.831231 0.000000
0.057325 0.831015 0.000000
0.094212 0.830798 0.000000
0.131099 0.830581 0.000000
0.167986 0.830364 0.000000
0.204873 0.830148 0.000000
0.241761 0.829931 0.000000
0.278648 0.829714 0.000000
0.315535 0.829497 0.000000
0.352422 0.829280 0.000000
0.389309 0.829064 0.000000
0.426196 0.828847 0.000000
0.463083 0.828630 0.000000
0.499970 0.828413 0.000000
0.536857 0.828197 0.000000
0.573744 0.827980 0.000000
0.610632 0.827763 0.000000
0.647519 0.827546 0.000000
0.684406 0.827329 0.000000
0.721293 0.827113 0.000000
0.758180 0.826896 0.000000
0.795067 0.826679 0.000000
0.831954 0.826462 0.000000
0.868841 0.826246 0.000000
0.905728 0.826029 0.000000
0.942616 0.825812 0.000000
0.979503 0.825595 0.000000
1.000000 0.825423 0.000000
1.000000 0.825423 0.000000
1.000000 0.825423 0.000000
0.000785 0.867323 0.000000
0.000914 0.867323 0.000000
0.001043 0.867323 0.000000
0.020273 0.867151 0.000000
0.057160 0.866934 0.000000
0.094047 0.866717 0.000000
0.130934 0.866500 0.000000
0.167821 0.866284 0.000000
0.204708 0.866067 0.000000
0.241595 0.865850 0.000000
0.278482 0.865633 0.000000
0.315370 0.865417 0.000000
0.352257 0.865200 0.000000
0.389144 0.864983 0.000000
0.426031 0.864766 0.000000
0.462918 0.864549 0.000000
0.499805 0.864333 0.000000
0.536692 0.864116 0.000000
0.573579 0.863899 0.000000
0.610466 0.863682 0.000000
0.647353 0.863466 0.000000
0.684241 0.863249 0.000000
0.721128 0.863032 0.000000
0.758015 0.862815 0.000000
0.794902 0.862598 0.000000
0.831789 0.862382 0.000000
0.868676 0.862165 0.000000
