docs/luts/fresh-night-glow.cube
TITLE "FreshLUTs??-????"
LUT_3D_SIZE 9
DOMAIN_MIN 0.0 0.0 0.0
DOMAIN_MAX 1.0 1.0 1.0
0.012000 0.014000 0.107875
0.102443 0.012901 0.099562
0.245330 0.011802 0.091223
0.388491 0.010704 0.082857
0.531925 0.009605 0.074465
0.675633 0.008506 0.066047
0.819615 0.007407 0.057603
0.963869 0.006308 0.049133
1.000000 0.005209 0.040637
0.010151 0.100460 0.091530
0.096345 0.098166 0.083165
0.239496 0.094684 0.074775
0.382922 0.091197 0.066358
0.526620 0.087704 0.057915
0.670592 0.084206 0.049445
0.814838 0.080703 0.040950
0.959357 0.077193 0.032428
1.000000 0.074871 0.023880
0.008302 0.238132 0.075084
0.088366 0.235990 0.066668
0.231780 0.232658 0.058226
0.375467 0.229320 0.049757
0.519428 0.225977 0.041263
0.663663 0.222628 0.032742
0.808171 0.219274 0.024195
0.952953 0.215914 0.015622
1.000000 0.213744 0.007023
0.006453 0.376412 0.058537
0.080363 0.374422 0.050069
0.224039 0.371240 0.041576
0.367989 0.368052 0.033056
0.512213 0.364858 0.024510
0.656710 0.361659 0.015938
0.802741 0.358454 0.007340
0.949727 0.355233 0.000000
1.000000 0.353140 0.000000
0.004604 0.515301 0.041889
0.072337 0.513463 0.033370
0.216276 0.510430 0.024825
0.360488 0.507391 0.016254
0.506163 0.504347 0.007657
0.652894 0.501271 0.000000
0.800038 0.497982 0.000000
0.947182 0.494693 0.000000
1.000000 0.492600 0.000000
0.002755 0.654798 0.025140
0.064287 0.653112 0.016570
0.209606 0.650228 0.007973
0.356061 0.647309 0.000000
0.503205 0.644020 0.000000
0.650350 0.640731 0.000000
0.797494 0.637442 0.000000
0.944638 0.634153 0.000000
1.000000 0.632060 0.000000
0.001952 0.794903 0.008290
0.059228 0.793348 0.000000
0.206373 0.790059 0.000000
0.353517 0.786770 0.000000
0.500661 0.783481 0.000000
0.647805 0.780192 0.000000
0.794949 0.776903 0.000000
0.942094 0.773614 0.000000
1.000000 0.771521 0.000000
0.004843 0.934901 0.000000
0.056684 0.932808 0.000000
0.203828 0.929519 0.000000
0.350972 0.926230 0.000000
0.498117 0.922941 0.000000
0.645261 0.919652 0.000000
0.792405 0.916363 0.000000
0.939549 0.913074 0.000000
1.000000 0.910981 0.000000
0.008638 1.000000 0.000000
0.056018 1.000000 0.000000
0.203162 1.000000 0.000000
0.350306 1.000000 0.000000
0.497451 1.000000 0.000000
0.644595 1.000000 0.000000
0.791739 1.000000 0.000000
0.938883 1.000000 0.000000
1.000000 1.000000 0.000000
0.011641 0.013581 0.164791
0.101599 0.012482 0.154542
0.244537 0.011383 0.143087
0.387750 0.010285 0.131594
0.531236 0.009186 0.120061
0.674995 0.008087 0.108489
0.819028 0.006988 0.096878
0.963335 0.005889 0.085227
1.000000 0.004790 0.074724
0.009792 0.099856 0.144293
0.095498 0.097561 0.133976
0.238701 0.094078 0.122449
0.382178 0.090590 0.110882
0.525928 0.087096 0.099276
0.669951 0.083596 0.087631
0.814249 0.080091 0.075947
0.958820 0.076581 0.064224
1.000000 0.074258 0.053653
0.007943 0.237587 0.121813
0.087515 0.235444 0.111424
0.230981 0.232110 0.099820
0.374720 0.228771 0.088177
0.518733 0.225427 0.076494
0.663019 0.222077 0.064773
0.807579 0.218722 0.053013
0.952548 0.215361 0.041213
1.000000 0.213190 0.030570
0.006094 0.375926 0.099182
0.079509 0.373935 0.088722
0.223237 0.370751 0.077041
0.367239 0.367561 0.065322
0.511514 0.364366 0.053563
0.656128 0.361166 0.041765
0.802882 0.357960 0.029928
0.949939 0.354708 0.022608
1.000000 0.352615 0.020515
0.004245 0.514873 0.076403
0.071480 0.513034 0.065870
0.215470 0.510000 0.054113
0.359735 0.506960 0.042317
0.506198 0.503914 0.030481
0.653107 0.500747 0.022847
0.800251 0.497458 0.019558
0.947395 0.494169 0.016269
1.000000 0.492076 0.014176
0.002396 0.654428 0.053473
0.063427 0.652741 0.042868
0.209534 0.649857 0.031035
0.356274 0.646785 0.023085
0.503418 0.643496 0.019796
0.650562 0.640207 0.016507
0.797706 0.636918 0.013218
0.944851 0.633629 0.009929
1.000000 0.631536 0.007836
0.002330 0.794592 0.030394
0.059441 0.792823 0.023323
0.206585 0.789534 0.020034
0.353729 0.786245 0.016745
0.500874 0.782956 0.013456
0.648018 0.779667 0.010167
0.795162 0.776378 0.006878
0.942306 0.773089 0.003589
1.000000 0.770996 0.001496
0.005580 0.934377 0.019077
0.056897 0.932284 0.016984
0.204041 0.928995 0.013695
0.351185 0.925706 0.010406
0.498329 0.922417 0.007117
0.645473 0.919128 0.003828
0.792618 0.915839 0.000539
0.939762 0.912550 0.000000
1.000000 0.910457 0.000000
0.009375 1.000000 0.014616
0.056231 1.000000 0.012523
0.203375 1.000000 0.009234
0.350519 1.000000 0.005945
0.497663 1.000000 0.002656
0.644808 1.000000 0.000000
0.791952 1.000000 0.000000
0.939096 1.000000 0.000000
1.000000 1.000000 0.000000
0.011282 0.013162 0.315909
0.099941 0.012063 0.305959
0.242931 0.010964 0.294801
0.386194 0.009866 0.283605
0.529731 0.008767 0.272370
0.673541 0.007668 0.261095
0.817625 0.006569 0.249782
0.961982 0.005470 0.238429
1.000000 0.004371 0.228224
0.009433 0.098441 0.295997
0.093836 0.096144 0.285978
0.237090 0.092658 0.274748
0.380618 0.089168 0.263479
0.524419 0.085672 0.252171
0.668494 0.082170 0.240823
0.812842 0.078663 0.229437
0.957463 0.075150 0.218011
1.000000 0.072825 0.207738
0.007584 0.236228 0.274100
0.085849 0.234083 0.264010
0.229365 0.230747 0.252703
0.373155 0.227406 0.241358
0.517219 0.224060 0.229973
0.661556 0.220707 0.218549
0.806167 0.217350 0.207086
0.951923 0.213987 0.195584
1.000000 0.211814 0.185239
0.005735 0.374623 0.252054
0.077838 0.372631 0.241892
0.221617 0.369445 0.230509
0.365670 0.366253 0.219087
0.509996 0.363056 0.207626
0.655396 0.359853 0.196125
0.802203 0.356645 0.184586
0.949331 0.353363 0.180563
1.000000 0.351270 0.178470
0.003886 0.513627 0.229859
0.069804 0.511787 0.219624
0.213845 0.508750 0.208165
0.358890 0.505708 0.196666
0.505413 0.502660 0.185128
0.652498 0.499401 0.180801
0.799643 0.496112 0.177512
0.946787 0.492823 0.174223
1.000000 0.490730 0.172130
0.002037 0.653240 0.207513
0.062405 0.651551 0.197207
0.208642 0.648664 0.185671
0.355666 0.645440 0.181040
0.502810 0.642151 0.177751
0.649954 0.638862 0.174462
0.797098 0.635573 0.171173
0.944242 0.632284 0.167884
1.000000 0.630191 0.165791
0.002709 0.793460 0.185018
0.058833 0.791478 0.181278
0.205977 0.788189 0.177989
0.353121 0.784900 0.174700
0.500266 0.781611 0.171411
0.647410 0.778322 0.168122
0.794554 0.775033 0.164833
0.941698 0.771744 0.161544
1.000000 0.769651 0.159451
0.006317 0.933032 0.177032
0.056289 0.930939 0.174939
0.203433 0.927650 0.171650
0.350577 0.924361 0.168361
0.497721 0.921072 0.165072
0.644865 0.917783 0.161783
0.792010 0.914494 0.158494
0.939154 0.911205 0.155205
1.000000 0.909112 0.153112
0.010112 1.000000 0.172570
0.055623 1.000000 0.170477
0.202767 1.000000 0.167188
0.349911 1.000000 0.163899
0.497055 1.000000 0.160610
0.644199 1.000000 0.157321
0.791344 1.000000 0.154032
0.938488 1.000000 0.150743
1.000000 1.000000 0.148650
0.010923 0.012743 0.467259
0.098283 0.011644 0.457608
0.241323 0.010545 0.446748
0.384638 0.009447 0.435849
0.528225 0.008348 0.424911
0.672086 0.007249 0.413934
0.816221 0.006150 0.402918
0.960629 0.005051 0.391863
1.000000 0.003953 0.381956
0.009074 0.097024 0.447933
0.092174 0.094725 0.438213
0.235479 0.091238 0.427280
0.379057 0.087745 0.416308
0.522909 0.084247 0.405298
0.667035 0.080743 0.394248
0.811434 0.077233 0.383159
0.956106 0.073718 0.372031
1.000000 0.071392 0.362056
0.007225 0.234868 0.426621
0.084182 0.232721 0.416829
0.227749 0.229384 0.405820
0.371590 0.226040 0.394771
0.515705 0.222691 0.383684
0.660093 0.219337 0.372558
0.804754 0.215977 0.361392
0.951298 0.212612 0.350188
1.000000 0.210464 0.342764
0.005376 0.373320 0.405159
0.076166 0.371326 0.395295
0.219996 0.368138 0.384209
0.364099 0.364944 0.373085
0.508477 0.361744 0.361921
0.654665 0.358540 0.350718
0.801579 0.355307 0.341807
0.948723 0.352018 0.338518
1.000000 0.349925 0.336425
0.003527 0.512381 0.383547
0.068127 0.510539 0.373611
0.212219 0.507500 0.362449
0.358052 0.504456 0.351248
0.504746 0.501345 0.342045
0.651890 0.498056 0.338756
0.799034 0.494767 0.335467
0.946179 0.491478 0.332178
1.000000 0.489385 0.330085
0.001677 0.652050 0.361786
0.061460 0.650360 0.351778
0.207913 0.647384 0.342284
0.355058 0.644095 0.338995
0.502202 0.640806 0.335706
0.649346 0.637517 0.332417
0.796490 0.634228 0.329128
0.943634 0.630939 0.325839
1.000000 0.628846 0.323746
0.003259 0.792226 0.341326
0.058225 0.790133 0.339233
0.205369 0.786844 0.335944
0.352513 0.783555 0.332655
0.499657 0.780266 0.329366
0.646802 0.776977 0.326077
0.793946 0.773688 0.322788
0.941090 0.770399 0.319499
1.000000 0.768306 0.317406
0.007054 0.931686 0.334986
0.055680 0.929593 0.332893
0.202825 0.926304 0.329604
0.349969 0.923015 0.326315
0.497113 0.919726 0.323026
0.644257 0.916437 0.319737
0.791401 0.913148 0.316448
0.938546 0.909859 0.313159
1.000000 0.907766 0.311066
0.010849 1.000000 0.330525
0.055015 1.000000 0.328432
0.202159 1.000000 0.325143
0.349303 1.000000 0.321854
0.496447 1.000000 0.318565
0.643591 1.000000 0.315276
0.790735 1.000000 0.311987
0.937880 1.000000 0.308698
1.000000 1.000000 0.306605
0.010564 0.012324 0.618843
0.096624 0.011225 0.609489
0.239715 0.010127 0.598927
0.383080 0.009028 0.588326
0.526719 0.007929 0.577685
0.670631 0.006830 0.567006
0.814816 0.005731 0.556287
0.959275 0.004632 0.545529
1.000000 0.003534 0.535921
0.008715 0.095606 0.600101
0.090510 0.093306 0.590680
0.233866 0.089816 0.580045
0.377495 0.086321 0.569370
0.521398 0.082821 0.558657
0.665575 0.079314 0.547905
0.810025 0.075803 0.537113
0.954748 0.072286 0.526283
1.000000 0.069958 0.516606
0.006866 0.233507 0.579373
0.082513 0.231359 0.569880
0.226132 0.228019 0.559168
0.370024 0.224673 0.548418
0.514189 0.221322 0.537628
0.658628 0.217966 0.526799
0.803754 0.214604 0.515931
0.950673 0.211236 0.505024
1.000000 0.209119 0.500719
0.005016 0.372016 0.558496
0.074493 0.370020 0.548930
0.218374 0.366830 0.538142
0.362528 0.363634 0.527315
0.507298 0.360432 0.516449
0.653933 0.357225 0.505543
0.800971 0.353962 0.499762
0.948115 0.350673 0.496473
1.000000 0.348580 0.494380
0.003167 0.511134 0.537468
0.066449 0.509290 0.527831
0.210864 0.506249 0.516966
0.357214 0.503202 0.506062
0.504138 0.500000 0.500000
0.651282 0.496711 0.496711
0.798426 0.493422 0.493422
0.945571 0.490133 0.490133
1.000000 0.488040 0.488040
0.001519 0.650860 0.516291
0.060515 0.649168 0.506582
0.207305 0.646038 0.500238
0.354449 0.642749 0.496949
0.501594 0.639460 0.493660
0.648738 0.636171 0.490371
0.795882 0.632882 0.487082
0.943026 0.629593 0.483793
1.000000 0.627500 0.481700
0.003996 0.790881 0.499281
0.057617 0.788788 0.497188
0.204761 0.785499 0.493899
0.351905 0.782210 0.490610
0.499049 0.778921 0.487321
0.646193 0.775632 0.484032
0.793338 0.772343 0.480743
0.940482 0.769054 0.477454
1.000000 0.766961 0.475361
0.007791 0.930341 0.492941
0.055072 0.928248 0.490848
0.202217 0.924959 0.487559
0.349361 0.921670 0.484270
0.496505 0.918381 0.480981
0.643649 0.915092 0.477692
0.790793 0.911803 0.474403
0.937937 0.908514 0.471114
1.000000 0.906421 0.469021
0.011586 1.000000 0.488480
0.054406 1.000000 0.486387
0.201551 1.000000 0.483098
0.348695 1.000000 0.479809
0.495839 1.000000 0.476520
0.642983 1.000000 0.473231
0.790127 1.000000 0.469942
0.937272 1.000000 0.466653
1.000000 1.000000 0.464560
0.010205 0.011905 0.770658
0.094963 0.010806 0.761603
0.238106 0.009708 0.751338
0.381521 0.008609 0.741035
0.525211 0.007510 0.730692
0.669174 0.006411 0.720310
0.813410 0.005312 0.709888
0.957920 0.004213 0.699428
1.000000 0.003115 0.690118
0.008355 0.094188 0.752503
0.088846 0.091886 0.743379
0.232253 0.088394 0.733042
0.375933 0.084897 0.722665
0.519887 0.081394 0.712249
0.664114 0.077885 0.701794
0.808615 0.074372 0.691300
0.953389 0.070852 0.680767
1.000000 0.068522 0.671389
0.006506 0.232145 0.732359
0.080844 0.229995 0.723164
0.224513 0.226653 0.712749
0.368456 0.223305 0.702296
0.512672 0.219952 0.691804
0.657162 0.216593 0.681273
0.803075 0.213229 0.670702
0.950051 0.209867 0.660767
1.000000 0.207774 0.658674
0.004657 0.370711 0.712065
0.072819 0.368714 0.702798
0.216751 0.365521 0.692307
0.360956 0.362323 0.681778
0.506514 0.359119 0.671209
0.653218 0.355905 0.661005
0.800363 0.352616 0.657716
0.947507 0.349327 0.654427
1.000000 0.347234 0.652334
0.002808 0.509886 0.691622
0.064771 0.508040 0.682283
0.209973 0.504997 0.671716
0.356386 0.501944 0.661244
0.503530 0.498655 0.657955
0.650674 0.495366 0.654666
0.797818 0.492077 0.651377
0.944962 0.488788 0.648088
1.000000 0.486695 0.645995
0.001896 0.649668 0.671029
0.059569 0.647975 0.661618
0.206697 0.644693 0.658193
0.353841 0.641404 0.654904
0.500985 0.638115 0.651615
0.648130 0.634826 0.648326
0.795274 0.631537 0.645037
0.942418 0.628248 0.641748
1.000000 0.626155 0.639655
0.004733 0.789536 0.657236
0.057009 0.787443 0.655143
0.204153 0.784154 0.651854
0.351297 0.780865 0.648565
0.498441 0.777576 0.645276
0.645585 0.774287 0.641987
0.792729 0.770998 0.638698
0.939874 0.767709 0.635409
1.000000 0.765616 0.633316
0.008528 0.928996 0.650896
0.054464 0.926903 0.648803
0.201608 0.923614 0.645514
0.348753 0.920325 0.642225
0.495897 0.917036 0.638936
0.643041 0.913747 0.635647
0.790185 0.910458 0.632358
0.937329 0.907169 0.629069
1.000000 0.905076 0.626976
0.012323 1.000000 0.646435
0.053798 1.000000 0.644342
0.200942 1.000000 0.641053
0.348087 1.000000 0.637764
0.495231 1.000000 0.634475
0.642375 1.000000 0.631186
0.789519 1.000000 0.627897
0.936663 1.000000 0.624608
1.000000 1.000000 0.622515
0.009845 0.011486 0.922706
0.093302 0.010387 0.913950
0.236495 0.009289 0.903982
0.379962 0.008190 0.893976
0.523702 0.007091 0.883931
0.667716 0.005992 0.873846
0.812003 0.004893 0.863723
0.956564 0.003795 0.853560
1.000000 0.002696 0.844548
0.007996 0.092768 0.905136
0.087181 0.090464 0.896311
0.230638 0.086970 0.886271
0.374369 0.083471 0.876192
0.518374 0.079966 0.866074
0.662652 0.076456 0.855917
0.807204 0.072940 0.845720
0.952055 0.069418 0.835485
1.000000 0.067086 0.826405
0.006147 0.230783 0.885577
0.079174 0.228631 0.876680
0.222894 0.225287 0.866563
0.366888 0.221937 0.856407
0.511155 0.218581 0.846213
0.655696 0.215220 0.835979
0.802397 0.211854 0.825706
0.949443 0.208522 0.818722
1.000000 0.206429 0.816629
0.004298 0.369405 0.865867
0.071144 0.367406 0.856898
0.215127 0.364211 0.846705
0.359383 0.361011 0.836473
0.505729 0.357805 0.826202
0.652610 0.354560 0.818960
0.799754 0.351271 0.815671
0.946899 0.347982 0.812382
1.000000 0.345889 0.810289
0.002449 0.508637 0.846008
0.063091 0.506789 0.836967
0.209081 0.503744 0.826698
0.355777 0.500599 0.819199
0.502922 0.497310 0.815910
0.650066 0.494021 0.812621
0.797210 0.490732 0.809332
0.944354 0.487443 0.806043
1.000000 0.485350 0.803950
0.002274 0.648476 0.825999
0.058945 0.646637 0.819437
0.206089 0.643348 0.816148
0.353233 0.640059 0.812859
0.500377 0.636770 0.809570
0.647522 0.633481 0.806281
0.794666 0.630192 0.802992
0.941810 0.626903 0.799703
1.000000 0.624810 0.797610
0.005470 0.788190 0.815190
0.056400 0.786097 0.813097
0.203545 0.782808 0.809808
0.350689 0.779519 0.806519
0.497833 0.776230 0.803230
0.644977 0.772941 0.799941
0.792121 0.769652 0.796652
0.939266 0.766363 0.793363
1.000000 0.764270 0.791270
0.009265 0.927651 0.808851
0.053856 0.925558 0.806758
0.201000 0.922269 0.803469
0.348144 0.918980 0.800180
0.495289 0.915691 0.796891
0.642433 0.912402 0.793602
0.789577 0.909113 0.790313
0.936721 0.905824 0.787024
1.000000 0.903731 0.784931
0.013060 1.000000 0.804390
0.053190 1.000000 0.802297
0.200334 1.000000 0.799008
0.347479 1.000000 0.795719
0.494623 1.000000 0.792430
0.641767 1.000000 0.789141
0.788911 1.000000 0.785852
0.936055 1.000000 0.782563
1.000000 1.000000 0.780470
0.009486 0.011067 1.000000
0.091640 0.009969 1.000000
0.234884 0.008870 1.000000
0.378401 0.007771 1.000000
0.522193 0.006672 1.000000
0.666257 0.005573 1.000000
0.810596 0.004474 1.000000
0.955207 0.003376 1.000000
1.000000 0.002277 0.999211
0.007637 0.091348 1.000000
0.085514 0.089042 1.000000
0.229023 0.085546 1.000000
0.372805 0.082045 1.000000
0.516860 0.078537 1.000000
0.661189 0.075025 1.000000
0.805792 0.071507 1.000000
0.951430 0.067983 0.990434
1.000000 0.065650 0.981653
0.005788 0.229419 1.000000
0.077503 0.227266 1.000000
0.221274 0.223919 1.000000
0.365319 0.220567 1.000000
0.509637 0.217209 1.000000
0.654919 0.213846 0.990918
0.801718 0.210478 0.980942
0.948835 0.207177 0.976677
1.000000 0.205084 0.974584
0.003939 0.368099 1.000000
0.069468 0.366098 1.000000
0.213502 0.362901 1.000000
0.358429 0.359698 0.991401
0.504943 0.356490 0.981427
0.652002 0.353215 0.976915
0.799146 0.349926 0.973626
0.946290 0.346637 0.970337
1.000000 0.344544 0.968244
0.002090 0.507387 1.000000
0.061959 0.505538 0.991884
0.208189 0.502490 0.981912
0.355169 0.499253 0.977153
0.502314 0.495964 0.973864
0.649458 0.492675 0.970575
0.796602 0.489386 0.967286
0.943746 0.486097 0.963997
1.000000 0.484004 0.961904
0.002652 0.647283 0.981202
0.058337 0.645292 0.977392
0.205481 0.642003 0.974103
0.352625 0.638714 0.970814
0.499769 0.635425 0.967525
0.646913 0.632136 0.964236
0.794058 0.628847 0.960947
0.941202 0.625558 0.957658
1.000000 0.623465 0.955565
0.006207 0.786845 0.973145
0.055792 0.784752 0.971052
0.202936 0.781463 0.967763
0.350081 0.778174 0.964474
0.497225 0.774885 0.961185
0.644369 0.771596 0.957896
0.791513 0.768307 0.954607
0.938657 0.765018 0.951318
1.000000 0.762925 0.949225
0.010002 0.926306 0.966806
0.053248 0.924213 0.964713
0.200392 0.920924 0.961424
0.347536 0.917635 0.958135
0.494681 0.914346 0.954846
0.641825 0.911057 0.951557
0.788969 0.907768 0.948268
0.936113 0.904479 0.944979
1.000000 0.902386 0.942886
0.013797 1.000000 0.962344
0.052582 1.000000 0.960251
0.199726 1.000000 0.956962
0.346870 1.000000 0.953673
0.494015 1.000000 0.950384
0.641159 1.000000 0.947095
0.788303 1.000000 0.943806
0.935447 1.000000 0.940517
1.000000 1.000000 0.938424
0.009127 0.010648 1.000000
0.090791 0.009550 1.000000
0.234086 0.008451 1.000000
0.377656 0.007352 1.000000
0.521498 0.006253 1.000000
0.665615 0.005154 1.000000
0.810005 0.004055 1.000000
0.954668 0.002957 1.000000
1.000000 0.001858 1.000000
0.007278 0.090740 1.000000
0.084663 0.088434 1.000000
0.228223 0.084937 1.000000
0.372056 0.081434 1.000000
0.516163 0.077925 1.000000
0.660544 0.074411 1.000000
0.805198 0.070892 1.000000
0.951625 0.067367 1.000000
1.000000 0.065099 1.000000
0.005429 0.228870 1.000000
0.076648 0.226716 1.000000
0.220471 0.223368 1.000000
0.364567 0.220015 1.000000
0.508937 0.216656 1.000000
0.655008 0.213292 1.000000
0.801903 0.209941 1.000000
0.949047 0.206652 1.000000
1.000000 0.204559 1.000000
0.003580 0.367609 1.000000
0.068610 0.365607 1.000000
0.212695 0.362408 1.000000
0.358411 0.359204 1.000000
0.505071 0.355980 1.000000
0.652215 0.352691 1.000000
0.799359 0.349402 1.000000
0.946503 0.346113 1.000000
1.000000 0.344020 1.000000
0.001731 0.506955 1.000000
0.061835 0.505105 1.000000
0.208238 0.502018 1.000000
0.355382 0.498729 1.000000
0.502526 0.495440 1.000000
0.649670 0.492151 1.000000
0.796815 0.488862 1.000000
0.943959 0.485573 1.000000
1.000000 0.483480 1.000000
0.003149 0.646860 1.000000
0.058549 0.644767 1.000000
0.205693 0.641478 1.000000
0.352838 0.638189 1.000000
0.499982 0.634900 1.000000
0.647126 0.631611 1.000000
0.794270 0.628322 1.000000
0.941414 0.625033 1.000000
1.000000 0.622940 1.000000
0.006944 0.786321 1.000000
0.056005 0.784228 1.000000
0.203149 0.780939 1.000000
0.350293 0.777650 1.000000
0.497438 0.774361 1.000000
0.644582 0.771072 1.000000
0.791726 0.767783 1.000000
0.938870 0.764494 1.000000
1.000000 0.762401 1.000000
0.010739 0.925781 1.000000
0.053461 0.923688 1.000000
0.200605 0.920399 1.000000
0.347749 0.917110 1.000000
0.494893 0.913821 1.000000
0.642037 0.910532 1.000000
0.789182 0.907243 1.000000
0.936326 0.903954 1.000000
1.000000 0.901861 1.000000
0.014534 1.000000 1.000000
0.052795 1.000000 1.000000
0.199939 1.000000 1.000000
0.347083 1.000000 1.000000
0.494227 1.000000 1.000000
0.641371 1.000000 1.000000
0.788516 1.000000 1.000000
0.935660 1.000000 1.000000
1.000000 1.000000 1.000000
