docs/luts/fresh-drone-real-estate-punch.cube
TITLE "FreshLUTs??-??????"
LUT_3D_SIZE 9
DOMAIN_MIN 0.0 0.0 0.0
DOMAIN_MAX 1.0 1.0 1.0
0.005500 0.009900 0.015400
0.091108 0.009900 0.015400
0.240922 0.009900 0.015400
0.390736 0.009900 0.015400
0.540550 0.009900 0.015400
0.690364 0.009900 0.015400
0.840178 0.009900 0.015400
0.989992 0.009900 0.015400
1.000000 0.009900 0.015400
0.005500 0.093204 0.015400
0.086412 0.090812 0.015400
0.236226 0.086626 0.015400
0.386040 0.082440 0.015400
0.535854 0.078254 0.015400
0.685668 0.074068 0.015400
0.835482 0.069882 0.015400
0.985296 0.065696 0.015400
1.000000 0.063304 0.015400
0.005500 0.238986 0.015400
0.078194 0.236594 0.015400
0.228008 0.232408 0.015400
0.377822 0.228222 0.015400
0.527636 0.224036 0.015400
0.677450 0.219850 0.015400
0.827264 0.215664 0.015400
0.977078 0.211478 0.015400
1.000000 0.209086 0.015400
0.005500 0.384768 0.015400
0.069976 0.382376 0.015400
0.219790 0.378190 0.015400
0.369604 0.374004 0.015400
0.519418 0.369818 0.015400
0.669232 0.365632 0.015400
0.819046 0.361446 0.015400
0.968860 0.357260 0.015400
1.000000 0.354868 0.015400
0.005500 0.530550 0.015400
0.061758 0.528158 0.015400
0.211572 0.523972 0.015400
0.361386 0.519786 0.015400
0.511200 0.515600 0.015400
0.661014 0.511414 0.015400
0.810828 0.507228 0.015400
0.960642 0.503042 0.015400
1.000000 0.500650 0.015400
0.005500 0.676332 0.015400
0.053540 0.673940 0.015400
0.203354 0.669754 0.015400
0.353168 0.665568 0.015400
0.502982 0.661382 0.015400
0.652796 0.657196 0.015400
0.802610 0.653010 0.015400
0.952424 0.648824 0.015400
1.000000 0.646432 0.015400
0.005500 0.822114 0.015400
0.045322 0.819722 0.015400
0.195136 0.815536 0.015400
0.344950 0.811350 0.015400
0.494764 0.807164 0.015400
0.644578 0.802978 0.015400
0.794392 0.798792 0.015400
0.944206 0.794606 0.015400
1.000000 0.792214 0.015400
0.005500 0.967896 0.015400
0.037104 0.965504 0.015400
0.186918 0.961318 0.015400
0.336732 0.957132 0.015400
0.486546 0.952946 0.015400
0.636360 0.948760 0.015400
0.786174 0.944574 0.015400
0.935988 0.940388 0.015400
1.000000 0.937996 0.015400
0.005500 1.000000 0.015400
0.032408 1.000000 0.015400
0.182222 1.000000 0.015400
0.332036 1.000000 0.015400
0.481850 1.000000 0.015400
0.631664 1.000000 0.015400
0.781478 1.000000 0.015400
0.931292 1.000000 0.015400
1.000000 1.000000 0.015400
0.005500 0.009900 0.098406
0.090239 0.009900 0.096014
0.240053 0.009900 0.091828
0.389867 0.009900 0.087642
0.539681 0.009900 0.083456
0.689495 0.009900 0.079270
0.839309 0.009900 0.075084
0.989123 0.009900 0.070898
1.000000 0.009900 0.068506
0.005500 0.092335 0.093710
0.085543 0.089943 0.091318
0.235357 0.085757 0.087132
0.385171 0.081571 0.082946
0.534985 0.077385 0.078760
0.684799 0.073199 0.074574
0.834613 0.069013 0.070388
0.984427 0.064827 0.066202
1.000000 0.062435 0.063810
0.005500 0.238117 0.085492
0.077325 0.235725 0.083100
0.227139 0.231539 0.078914
0.376953 0.227353 0.074728
0.526767 0.223167 0.070542
0.676581 0.218981 0.066356
0.826395 0.214795 0.062170
0.976209 0.210609 0.057984
1.000000 0.208217 0.055592
0.005500 0.383899 0.077274
0.069107 0.381507 0.074882
0.218921 0.377321 0.070696
0.368735 0.373135 0.066510
0.518549 0.368949 0.062324
0.668363 0.364763 0.058138
0.818177 0.360577 0.053952
0.967991 0.356391 0.049766
1.000000 0.353999 0.047374
0.005500 0.529681 0.069056
0.060889 0.527289 0.066664
0.210703 0.523103 0.062478
0.360517 0.518917 0.058292
0.510331 0.514731 0.054106
0.660145 0.510545 0.049920
0.809959 0.506359 0.045734
0.959773 0.502173 0.041548
1.000000 0.499781 0.039156
0.005500 0.675463 0.060838
0.052671 0.673071 0.058446
0.202485 0.668885 0.054260
0.352299 0.664699 0.050074
0.502113 0.660513 0.045888
0.651927 0.656327 0.041702
0.801741 0.652141 0.037516
0.951555 0.647955 0.033330
1.000000 0.645563 0.030938
0.005500 0.821245 0.052620
0.044453 0.818853 0.050228
0.194267 0.814667 0.046042
0.344081 0.810481 0.041856
0.493895 0.806295 0.037670
0.643709 0.802109 0.033484
0.793523 0.797923 0.029298
0.943337 0.793737 0.025112
1.000000 0.791345 0.022720
0.005500 0.967027 0.044402
0.036235 0.964635 0.042010
0.186049 0.960449 0.037824
0.335863 0.956263 0.033638
0.485677 0.952077 0.029452
0.635491 0.947891 0.025266
0.785305 0.943705 0.021080
0.935119 0.939519 0.016894
1.000000 0.937127 0.015400
0.005500 1.000000 0.039706
0.031539 1.000000 0.037314
0.181353 1.000000 0.033128
0.331167 1.000000 0.028942
0.480981 1.000000 0.024756
0.630795 1.000000 0.020570
0.780609 1.000000 0.016384
0.930423 1.000000 0.015400
1.000000 1.000000 0.015400
0.005500 0.009900 0.252171
0.088628 0.009900 0.249779
0.238443 0.009900 0.245593
0.388257 0.009900 0.241407
0.538071 0.009900 0.237221
0.687885 0.009900 0.233035
0.837699 0.009900 0.228849
0.987513 0.009900 0.224663
1.000000 0.009900 0.222271
0.005500 0.090724 0.247475
0.083932 0.088332 0.245083
0.233746 0.084146 0.240897
0.383561 0.079960 0.236711
0.533374 0.075774 0.232525
0.683188 0.071588 0.228339
0.833002 0.067402 0.224153
0.982817 0.063216 0.219967
1.000000 0.060824 0.217575
0.005500 0.236506 0.239257
0.075714 0.234114 0.236865
0.225528 0.229928 0.232679
0.375343 0.225742 0.228493
0.525156 0.221556 0.224307
0.674971 0.217370 0.220121
0.824785 0.213184 0.215935
0.974599 0.208998 0.211749
1.000000 0.206606 0.209357
0.005500 0.382289 0.231039
0.067496 0.379897 0.228647
0.217310 0.375711 0.224461
0.367125 0.371525 0.220275
0.516938 0.367339 0.216089
0.666752 0.363152 0.211903
0.816567 0.358966 0.207716
0.966380 0.354780 0.203531
1.000000 0.352388 0.201138
0.005500 0.528070 0.222821
0.059278 0.525679 0.220429
0.209092 0.521493 0.216243
0.358906 0.517307 0.212057
0.508720 0.513120 0.207870
0.658534 0.508934 0.203685
0.808349 0.504749 0.199498
0.958163 0.500563 0.195312
1.000000 0.498171 0.192920
0.005500 0.673853 0.214603
0.051060 0.671461 0.212210
0.200874 0.667274 0.208025
0.350689 0.663089 0.203839
0.500502 0.658903 0.199652
0.650316 0.654717 0.195467
0.800130 0.650531 0.191280
0.949945 0.646344 0.187094
1.000000 0.643953 0.184703
0.005500 0.819635 0.206384
0.042842 0.817243 0.203992
0.192656 0.813057 0.199806
0.342470 0.808871 0.195621
0.492284 0.804685 0.191434
0.642099 0.800499 0.187248
0.791913 0.796313 0.183062
0.941727 0.792127 0.178877
1.000000 0.789735 0.176484
0.005500 0.965417 0.198166
0.034624 0.963025 0.195774
0.184438 0.958839 0.191589
0.334252 0.954653 0.187402
0.484067 0.950467 0.183217
0.633880 0.946281 0.179031
0.783694 0.942095 0.174844
0.933508 0.937909 0.170658
1.000000 0.935517 0.168267
0.005500 1.000000 0.193471
0.029928 1.000000 0.191079
0.179742 1.000000 0.186893
0.329556 1.000000 0.182707
0.479370 1.000000 0.178520
0.629184 1.000000 0.174334
0.778999 1.000000 0.170148
0.928813 1.000000 0.165962
1.000000 1.000000 0.163570
0.005500 0.009900 0.405935
0.087018 0.009900 0.403543
0.236832 0.009900 0.399357
0.386646 0.009900 0.395171
0.536460 0.009900 0.390985
0.686274 0.009900 0.386799
0.836088 0.009900 0.382613
0.985902 0.009900 0.378427
1.000000 0.009900 0.376035
0.005500 0.089114 0.401239
0.082322 0.086722 0.398847
0.232136 0.082536 0.394661
0.381950 0.078350 0.390475
0.531764 0.074164 0.386289
0.681578 0.069978 0.382103
0.831392 0.065792 0.377917
0.981206 0.061606 0.373731
1.000000 0.059214 0.371339
0.005500 0.234896 0.393021
0.074104 0.232504 0.390629
0.223918 0.228318 0.386443
0.373732 0.224132 0.382257
0.523546 0.219946 0.378071
0.673360 0.215760 0.373885
0.823174 0.211574 0.369699
0.972988 0.207388 0.365513
1.000000 0.204996 0.363121
0.005500 0.380678 0.384803
0.065886 0.378286 0.382411
0.215700 0.374100 0.378225
0.365514 0.369914 0.374039
0.515328 0.365728 0.369853
0.665142 0.361542 0.365667
0.814956 0.357356 0.361481
0.964770 0.353170 0.357295
1.000000 0.350778 0.354903
0.005500 0.526460 0.376585
0.057668 0.524068 0.374193
0.207482 0.519882 0.370007
0.357296 0.515696 0.365821
0.507110 0.511510 0.361635
0.656924 0.507324 0.357449
0.806738 0.503138 0.353263
0.956552 0.498952 0.349077
1.000000 0.496560 0.346685
0.005500 0.672242 0.368367
0.049450 0.669850 0.365975
0.199264 0.665664 0.361789
0.349078 0.661478 0.357603
0.498892 0.657292 0.353417
0.648706 0.653106 0.349231
0.798520 0.648920 0.345045
0.948334 0.644734 0.340859
1.000000 0.642342 0.338467
0.005500 0.818024 0.360149
0.041232 0.815632 0.357757
0.191046 0.811446 0.353571
0.340860 0.807260 0.349385
0.490674 0.803074 0.345199
0.640488 0.798888 0.341013
0.790302 0.794702 0.336827
0.940116 0.790516 0.332641
1.000000 0.788124 0.330249
0.005500 0.963806 0.351931
0.033014 0.961414 0.349539
0.182828 0.957228 0.345353
0.332642 0.953042 0.341167
0.482456 0.948856 0.336981
0.632270 0.944670 0.332795
0.782084 0.940484 0.328609
0.931898 0.936298 0.324423
1.000000 0.933906 0.322031
0.005500 1.000000 0.347235
0.028318 1.000000 0.344843
0.178132 1.000000 0.340657
0.327946 1.000000 0.336471
0.477760 1.000000 0.332285
0.627574 1.000000 0.328099
0.777388 1.000000 0.323913
0.927202 1.000000 0.319727
1.000000 1.000000 0.317335
0.005500 0.009900 0.559700
0.085408 0.009900 0.557308
0.235222 0.009900 0.553122
0.385036 0.009900 0.548936
0.534850 0.009900 0.544750
0.684664 0.009900 0.540564
0.834478 0.009900 0.536378
0.984292 0.009900 0.532192
1.000000 0.009900 0.529800
0.005500 0.087504 0.555004
0.080712 0.085112 0.552612
0.230526 0.080926 0.548426
0.380340 0.076740 0.544240
0.530154 0.072554 0.540054
0.679968 0.068368 0.535868
0.829782 0.064182 0.531682
0.979596 0.059996 0.527496
1.000000 0.057604 0.525104
0.005500 0.233286 0.546786
0.072494 0.230894 0.544394
0.222308 0.226708 0.540208
0.372122 0.222522 0.536022
0.521936 0.218336 0.531836
0.671750 0.214150 0.527650
0.821564 0.209964 0.523464
0.971378 0.205778 0.519278
1.000000 0.203386 0.516886
0.005500 0.379068 0.538568
0.064276 0.376676 0.536176
0.214090 0.372490 0.531990
0.363904 0.368304 0.527804
0.513718 0.364118 0.523618
0.663532 0.359932 0.519432
0.813346 0.355746 0.515246
0.963160 0.351560 0.511060
1.000000 0.349168 0.508668
0.005500 0.524850 0.530350
0.056058 0.522458 0.527958
0.205872 0.518272 0.523772
0.355686 0.514086 0.519586
0.505500 0.509900 0.515400
0.655314 0.505714 0.511214
0.805128 0.501528 0.507028
0.954942 0.497342 0.502842
1.000000 0.494950 0.500450
0.005500 0.670632 0.522132
0.047840 0.668240 0.519740
0.197654 0.664054 0.515554
0.347468 0.659868 0.511368
0.497282 0.655682 0.507182
0.647096 0.651496 0.502996
0.796910 0.647310 0.498810
0.946724 0.643124 0.494624
1.000000 0.640732 0.492232
0.005500 0.816414 0.513914
0.039622 0.814022 0.511522
0.189436 0.809836 0.507336
0.339250 0.805650 0.503150
0.489064 0.801464 0.498964
0.638878 0.797278 0.494778
0.788692 0.793092 0.490592
0.938506 0.788906 0.486406
1.000000 0.786514 0.484014
0.005500 0.962196 0.505696
0.031404 0.959804 0.503304
0.181218 0.955618 0.499118
0.331032 0.951432 0.494932
0.480846 0.947246 0.490746
0.630660 0.943060 0.486560
0.780474 0.938874 0.482374
0.930288 0.934688 0.478188
1.000000 0.932296 0.475796
0.005500 1.000000 0.501000
0.026708 1.000000 0.498608
0.176522 1.000000 0.494422
0.326336 1.000000 0.490236
0.476150 1.000000 0.486050
0.625964 1.000000 0.481864
0.775778 1.000000 0.477678
0.925592 1.000000 0.473492
1.000000 1.000000 0.471100
0.005500 0.009900 0.713465
0.083798 0.009900 0.711073
0.233612 0.009900 0.706887
0.383426 0.009900 0.702701
0.533240 0.009900 0.698515
0.683054 0.009900 0.694329
0.832868 0.009900 0.690143
0.982682 0.009900 0.685957
1.000000 0.009900 0.683565
0.005500 0.085894 0.708769
0.079102 0.083502 0.706377
0.228916 0.079316 0.702191
0.378730 0.075130 0.698005
0.528544 0.070944 0.693819
0.678358 0.066758 0.689633
0.828172 0.062572 0.685447
0.977986 0.058386 0.681261
1.000000 0.055994 0.678869
0.005500 0.231676 0.700551
0.070884 0.229284 0.698159
0.220698 0.225098 0.693973
0.370512 0.220912 0.689787
0.520326 0.216726 0.685601
0.670140 0.212540 0.681415
0.819954 0.208354 0.677229
0.969768 0.204168 0.673043
1.000000 0.201776 0.670651
0.005500 0.377458 0.692333
0.062666 0.375066 0.689941
0.212480 0.370880 0.685755
0.362294 0.366694 0.681569
0.512108 0.362508 0.677383
0.661922 0.358322 0.673197
0.811736 0.354136 0.669011
0.961550 0.349950 0.664825
1.000000 0.347558 0.662433
0.005500 0.523240 0.684115
0.054448 0.520848 0.681723
0.204262 0.516662 0.677537
0.354076 0.512476 0.673351
0.503890 0.508290 0.669165
0.653704 0.504104 0.664979
0.803518 0.499918 0.660793
0.953332 0.495732 0.656607
1.000000 0.493340 0.654215
0.005500 0.669022 0.675897
0.046230 0.666630 0.673505
0.196044 0.662444 0.669319
0.345858 0.658258 0.665133
0.495672 0.654072 0.660947
0.645486 0.649886 0.656761
0.795300 0.645700 0.652575
0.945114 0.641514 0.648389
1.000000 0.639122 0.645997
0.005500 0.814804 0.667679
0.038012 0.812412 0.665287
0.187826 0.808226 0.661101
0.337640 0.804040 0.656915
0.487454 0.799854 0.652729
0.637268 0.795668 0.648543
0.787082 0.791482 0.644357
0.936896 0.787296 0.640171
1.000000 0.784904 0.637779
0.005500 0.960586 0.659461
0.029794 0.958194 0.657069
0.179608 0.954008 0.652883
0.329422 0.949822 0.648697
0.479236 0.945636 0.644511
0.629050 0.941450 0.640325
0.778864 0.937264 0.636139
0.928678 0.933078 0.631953
1.000000 0.930686 0.629561
0.005500 1.000000 0.654765
0.025098 1.000000 0.652373
0.174912 1.000000 0.648187
0.324726 1.000000 0.644001
0.474540 1.000000 0.639815
0.624354 1.000000 0.635629
0.774168 1.000000 0.631443
0.923982 1.000000 0.627257
1.000000 1.000000 0.624865
0.005500 0.009900 0.867229
0.082187 0.009900 0.864838
0.232001 0.009900 0.860652
0.381816 0.009900 0.856465
0.531629 0.009900 0.852279
0.681443 0.009900 0.848093
0.831258 0.009900 0.843907
0.981072 0.009900 0.839721
1.000000 0.009900 0.837329
0.005500 0.084283 0.862533
0.077491 0.081891 0.860142
0.227305 0.077705 0.855955
0.377119 0.073519 0.851769
0.526933 0.069333 0.847583
0.676747 0.065147 0.843398
0.826562 0.060961 0.839211
0.976376 0.056775 0.835025
1.000000 0.054383 0.832633
0.005500 0.230065 0.854316
0.069273 0.227673 0.851923
0.219087 0.223487 0.847738
0.368901 0.219301 0.843552
0.518715 0.215115 0.839365
0.668529 0.210929 0.835179
0.818344 0.206743 0.830994
0.968158 0.202557 0.826808
1.000000 0.200165 0.824415
0.005500 0.375848 0.846098
0.061055 0.373455 0.843705
0.210869 0.369270 0.839519
0.360683 0.365084 0.835333
0.510497 0.360897 0.831148
0.660311 0.356711 0.826962
0.810125 0.352525 0.822775
0.959940 0.348340 0.818589
1.000000 0.345947 0.816198
0.005500 0.521629 0.837879
0.052837 0.519238 0.835488
0.202651 0.515051 0.831302
0.352465 0.510865 0.827116
0.502279 0.506679 0.822929
0.652093 0.502494 0.818743
0.801907 0.498308 0.814557
0.951721 0.494121 0.810371
1.000000 0.491730 0.807979
0.005500 0.667412 0.829661
0.044619 0.665020 0.827269
0.194433 0.660834 0.823083
0.344247 0.656648 0.818897
0.494061 0.652462 0.814711
0.643875 0.648276 0.810525
0.793690 0.644089 0.806339
0.943504 0.639904 0.802153
1.000000 0.637512 0.799761
0.005500 0.813194 0.821443
0.036401 0.810802 0.819051
0.186215 0.806616 0.814865
0.336029 0.802430 0.810679
0.485843 0.798244 0.806493
0.635657 0.794058 0.802307
0.785471 0.789872 0.798121
0.935285 0.785686 0.793935
1.000000 0.783294 0.791543
0.005500 0.958976 0.813225
0.028183 0.956584 0.810833
0.177997 0.952398 0.806647
0.327811 0.948212 0.802461
0.477625 0.944026 0.798275
0.627439 0.939840 0.794090
0.777253 0.935654 0.789903
0.927068 0.931468 0.785717
1.000000 0.929076 0.783325
0.005500 1.000000 0.808530
0.023487 1.000000 0.806137
0.173301 1.000000 0.801951
0.323115 1.000000 0.797765
0.472930 1.000000 0.793579
0.622744 1.000000 0.789393
0.772558 1.000000 0.785207
0.922372 1.000000 0.781021
1.000000 1.000000 0.778629
0.005500 0.009900 1.000000
0.080577 0.009900 1.000000
0.230391 0.009900 1.000000
0.380205 0.009900 1.000000
0.530019 0.009900 1.000000
0.679833 0.009900 1.000000
0.829647 0.009900 0.997672
0.979461 0.009900 0.993486
1.000000 0.009900 0.991094
0.005500 0.082673 1.000000
0.075881 0.080281 1.000000
0.225695 0.076095 1.000000
0.375509 0.071909 1.000000
0.525323 0.067723 1.000000
0.675137 0.063537 0.997162
0.824951 0.059351 0.992976
0.974765 0.055165 0.988790
1.000000 0.052773 0.986398
0.005500 0.228455 1.000000
0.067663 0.226063 1.000000
0.217477 0.221877 1.000000
0.367291 0.217691 0.997316
0.517105 0.213505 0.993130
0.666919 0.209319 0.988944
0.816733 0.205133 0.984758
0.966547 0.200947 0.980572
1.000000 0.198555 0.978180
0.005500 0.374237 0.999862
0.059445 0.371845 0.997470
0.209259 0.367659 0.993284
0.359073 0.363473 0.989098
0.508887 0.359287 0.984912
0.658701 0.355101 0.980726
0.808515 0.350915 0.976540
0.958329 0.346729 0.972354
1.000000 0.344337 0.969962
0.005500 0.520019 0.991644
0.051227 0.517627 0.989252
0.201041 0.513441 0.985066
0.350855 0.509255 0.980880
0.500669 0.505069 0.976694
0.650483 0.500883 0.972508
0.800297 0.496697 0.968322
0.950111 0.492511 0.964136
1.000000 0.490119 0.961744
0.005500 0.665801 0.983426
0.043009 0.663409 0.981034
0.192823 0.659223 0.976848
0.342637 0.655037 0.972662
0.492451 0.650851 0.968476
0.642265 0.646665 0.964290
0.792079 0.642479 0.960104
0.941893 0.638293 0.955918
1.000000 0.635901 0.953526
0.005500 0.811583 0.975208
0.034791 0.809191 0.972816
0.184605 0.805005 0.968630
0.334419 0.800819 0.964444
0.484233 0.796633 0.960258
0.634047 0.792447 0.956072
0.783861 0.788261 0.951886
0.933675 0.784075 0.947700
1.000000 0.781683 0.945308
0.005500 0.957365 0.966990
0.026573 0.954973 0.964598
0.176387 0.950787 0.960412
0.326201 0.946601 0.956226
0.476015 0.942415 0.952040
0.625829 0.938229 0.947854
0.775643 0.934043 0.943668
0.925457 0.929857 0.939482
1.000000 0.927465 0.937090
0.005500 1.000000 0.962294
0.021877 1.000000 0.959902
0.171691 1.000000 0.955716
0.321505 1.000000 0.951530
0.471319 1.000000 0.947344
0.621133 1.000000 0.943158
0.770947 1.000000 0.938972
0.920761 1.000000 0.934786
1.000000 1.000000 0.932394
0.005500 0.009900 1.000000
0.079708 0.009900 1.000000
0.229522 0.009900 1.000000
0.379336 0.009900 1.000000
0.529150 0.009900 1.000000
0.678964 0.009900 1.000000
0.828778 0.009900 1.000000
0.978592 0.009900 1.000000
1.000000 0.009900 1.000000
0.005500 0.081804 1.000000
0.075012 0.079412 1.000000
0.224826 0.075226 1.000000
0.374640 0.071040 1.000000
0.524454 0.066854 1.000000
0.674268 0.062668 1.000000
0.824082 0.058482 1.000000
0.973896 0.054296 1.000000
1.000000 0.051904 1.000000
0.005500 0.227586 1.000000
0.066794 0.225194 1.000000
0.216608 0.221008 1.000000
0.366422 0.216822 1.000000
0.516236 0.212636 1.000000
0.666050 0.208450 1.000000
0.815864 0.204264 1.000000
0.965678 0.200078 1.000000
1.000000 0.197686 1.000000
0.005500 0.373368 1.000000
0.058576 0.370976 1.000000
0.208390 0.366790 1.000000
0.358204 0.362604 1.000000
0.508018 0.358418 1.000000
0.657832 0.354232 1.000000
0.807646 0.350046 1.000000
0.957460 0.345860 1.000000
1.000000 0.343468 1.000000
0.005500 0.519150 1.000000
0.050358 0.516758 1.000000
0.200172 0.512572 1.000000
0.349986 0.508386 1.000000
0.499800 0.504200 1.000000
0.649614 0.500014 1.000000
0.799428 0.495828 1.000000
0.949242 0.491642 1.000000
1.000000 0.489250 1.000000
0.005500 0.664932 1.000000
0.042140 0.662540 1.000000
0.191954 0.658354 1.000000
0.341768 0.654168 1.000000
0.491582 0.649982 1.000000
0.641396 0.645796 1.000000
0.791210 0.641610 1.000000
0.941024 0.637424 1.000000
1.000000 0.635032 1.000000
0.005500 0.810714 1.000000
0.033922 0.808322 1.000000
0.183736 0.804136 1.000000
0.333550 0.799950 1.000000
0.483364 0.795764 1.000000
0.633178 0.791578 1.000000
0.782992 0.787392 1.000000
0.932806 0.783206 1.000000
1.000000 0.780814 1.000000
0.005500 0.956496 1.000000
0.025704 0.954104 1.000000
0.175518 0.949918 1.000000
0.325332 0.945732 1.000000
0.475146 0.941546 1.000000
0.624960 0.937360 1.000000
0.774774 0.933174 1.000000
0.924588 0.928988 1.000000
1.000000 0.926596 1.000000
0.005500 1.000000 1.000000
0.021008 1.000000 1.000000
0.170822 1.000000 1.000000
0.320636 1.000000 1.000000
0.470450 1.000000 1.000000
0.620264 1.000000 1.000000
0.770078 1.000000 1.000000
0.919892 1.000000 1.000000
1.000000 1.000000 1.000000
