docs/luts/fresh-urban-monochrome.cube
TITLE "??????"
LUT_3D_SIZE 33
DOMAIN_MIN 0.0 0.0 0.0
DOMAIN_MAX 1.0 1.0 1.0
0.000000 0.000000 0.015000
0.000000 0.000000 0.015000
0.000000 0.000000 0.015000
0.000000 0.000000 0.015000
0.000000 0.000000 0.015000
0.000000 0.000000 0.015000
0.000000 0.000000 0.015000
0.000000 0.000000 0.015000
0.000000 0.000000 0.015000
0.000000 0.000000 0.015000
0.007000 0.007000 0.021895
0.015700 0.015700 0.030465
0.024400 0.024400 0.039034
0.033100 0.033100 0.047604
0.041800 0.041800 0.056173
0.050500 0.050500 0.064743
0.059200 0.059200 0.073312
0.067900 0.067900 0.081882
0.076600 0.076600 0.090451
0.085300 0.085300 0.099020
0.094000 0.094000 0.107590
0.102700 0.102700 0.116160
0.111400 0.111400 0.124729
0.120100 0.120100 0.133298
0.128800 0.128800 0.141868
0.137500 0.137500 0.150438
0.146200 0.146200 0.159007
0.154900 0.154900 0.167577
0.163600 0.163600 0.176146
0.172300 0.172300 0.184716
0.181000 0.181000 0.193285
0.189700 0.189700 0.201854
0.198400 0.198400 0.210424
0.000000 0.000000 0.015000
0.000000 0.000000 0.015000
0.000000 0.000000 0.015000
0.000000 0.000000 0.015000
0.000000 0.000000 0.015000
0.000000 0.000000 0.015000
0.000000 0.000000 0.015000
0.003375 0.003375 0.018324
0.012075 0.012075 0.026894
0.020775 0.020775 0.035463
0.029475 0.029475 0.044033
0.038175 0.038175 0.052602
0.046875 0.046875 0.061172
0.055575 0.055575 0.069741
0.064275 0.064275 0.078311
0.072975 0.072975 0.086880
0.081675 0.081675 0.095450
0.090375 0.090375 0.104019
0.099075 0.099075 0.112589
0.107775 0.107775 0.121158
0.116475 0.116475 0.129728
0.125175 0.125175 0.138297
0.133875 0.133875 0.146867
0.142575 0.142575 0.155436
0.151275 0.151275 0.164006
0.159975 0.159975 0.172575
0.168675 0.168675 0.181145
0.177375 0.177375 0.189714
0.186075 0.186075 0.198284
0.194775 0.194775 0.206853
0.203475 0.203475 0.215423
0.212175 0.212175 0.223992
0.220875 0.220875 0.232562
0.000000 0.000000 0.015000
0.000000 0.000000 0.015000
0.000000 0.000000 0.015000
0.000000 0.000000 0.015000
0.000000 0.000000 0.015000
0.008450 0.008450 0.023323
0.017150 0.017150 0.031893
0.025850 0.025850 0.040462
0.034550 0.034550 0.049032
0.043250 0.043250 0.057601
0.051950 0.051950 0.066171
0.060650 0.060650 0.074740
0.069350 0.069350 0.083310
0.078050 0.078050 0.091879
0.086750 0.086750 0.100449
0.095450 0.095450 0.109018
0.104150 0.104150 0.117588
0.112850 0.112850 0.126157
0.121550 0.121550 0.134727
0.130250 0.130250 0.143296
0.138950 0.138950 0.151866
0.147650 0.147650 0.160435
0.156350 0.156350 0.169005
0.165050 0.165050 0.177574
0.173750 0.173750 0.186144
0.182450 0.182450 0.194713
0.191150 0.191150 0.203283
0.199850 0.199850 0.211852
0.208550 0.208550 0.220422
0.217250 0.217250 0.228991
0.225950 0.225950 0.237561
0.234650 0.234650 0.246130
0.243350 0.243350 0.254700
0.000000 0.000000 0.015000
0.000000 0.000000 0.015000
0.004825 0.004825 0.019753
0.013525 0.013525 0.028322
0.022225 0.022225 0.036892
0.030925 0.030925 0.045461
0.039625 0.039625 0.054031
0.048325 0.048325 0.062600
0.057025 0.057025 0.071170
0.065725 0.065725 0.079739
0.074425 0.074425 0.088309
0.083125 0.083125 0.096878
0.091825 0.091825 0.105448
0.100525 0.100525 0.114017
0.109225 0.109225 0.122587
0.117925 0.117925 0.131156
0.126625 0.126625 0.139726
0.135325 0.135325 0.148295
0.144025 0.144025 0.156865
0.152725 0.152725 0.165434
0.161425 0.161425 0.174004
0.170125 0.170125 0.182573
0.178825 0.178825 0.191143
0.187525 0.187525 0.199712
0.196225 0.196225 0.208282
0.204925 0.204925 0.216851
0.213625 0.213625 0.225421
0.222325 0.222325 0.233990
0.231025 0.231025 0.242560
0.239725 0.239725 0.251129
0.248425 0.248425 0.259699
0.257125 0.257125 0.268268
0.265825 0.265825 0.276838
0.009900 0.009900 0.024752
0.018600 0.018600 0.033321
0.027300 0.027300 0.041891
0.036000 0.036000 0.050460
0.044700 0.044700 0.059030
0.053400 0.053400 0.067599
0.062100 0.062100 0.076169
0.070800 0.070800 0.084738
0.079500 0.079500 0.093308
0.088200 0.088200 0.101877
0.096900 0.096900 0.110446
0.105600 0.105600 0.119016
0.114300 0.114300 0.127586
0.123000 0.123000 0.136155
0.131700 0.131700 0.144725
0.140400 0.140400 0.153294
0.149100 0.149100 0.161864
0.157800 0.157800 0.170433
0.166500 0.166500 0.179003
0.175200 0.175200 0.187572
0.183900 0.183900 0.196141
0.192600 0.192600 0.204711
0.201300 0.201300 0.213281
0.210000 0.210000 0.221850
0.218700 0.218700 0.230419
0.227400 0.227400 0.238989
0.236100 0.236100 0.247559
0.244800 0.244800 0.256128
0.253500 0.253500 0.264698
0.262200 0.262200 0.273267
0.270900 0.270900 0.281837
0.279600 0.279600 0.290406
0.288300 0.288300 0.298976
0.032375 0.032375 0.046889
0.041075 0.041075 0.055459
0.049775 0.049775 0.064028
0.058475 0.058475 0.072598
0.067175 0.067175 0.081167
0.075875 0.075875 0.089737
0.084575 0.084575 0.098306
0.093275 0.093275 0.106876
0.101975 0.101975 0.115445
0.110675 0.110675 0.124015
0.119375 0.119375 0.132584
0.128075 0.128075 0.141154
0.136775 0.136775 0.149723
0.145475 0.145475 0.158293
0.154175 0.154175 0.166862
0.162875 0.162875 0.175432
0.171575 0.171575 0.184001
0.180275 0.180275 0.192571
0.188975 0.188975 0.201140
0.197675 0.197675 0.209710
0.206375 0.206375 0.218279
0.215075 0.215075 0.226849
0.223775 0.223775 0.235418
0.232475 0.232475 0.243988
0.241175 0.241175 0.252557
0.249875 0.249875 0.261127
0.258575 0.258575 0.269696
0.267275 0.267275 0.278266
0.275975 0.275975 0.286835
0.284675 0.284675 0.295405
0.293375 0.293375 0.303974
0.302075 0.302075 0.312544
0.310775 0.310775 0.321113
0.054850 0.054850 0.069027
0.063550 0.063550 0.077597
0.072250 0.072250 0.086166
0.080950 0.080950 0.094736
0.089650 0.089650 0.103305
0.098350 0.098350 0.111875
0.107050 0.107050 0.120444
0.115750 0.115750 0.129014
0.124450 0.124450 0.137583
0.133150 0.133150 0.146153
0.141850 0.141850 0.154722
0.150550 0.150550 0.163292
0.159250 0.159250 0.171861
0.167950 0.167950 0.180431
0.176650 0.176650 0.189000
0.185350 0.185350 0.197570
0.194050 0.194050 0.206139
0.202750 0.202750 0.214709
0.211450 0.211450 0.223278
0.220150 0.220150 0.231848
0.228850 0.228850 0.240417
0.237550 0.237550 0.248987
0.246250 0.246250 0.257556
0.254950 0.254950 0.266126
0.263650 0.263650 0.274695
0.272350 0.272350 0.283265
0.281050 0.281050 0.291834
0.289750 0.289750 0.300404
0.298450 0.298450 0.308973
0.307150 0.307150 0.317543
0.315850 0.315850 0.326112
0.324550 0.324550 0.334682
0.333250 0.333250 0.343251
0.077325 0.077325 0.091165
0.086025 0.086025 0.099735
0.094725 0.094725 0.108304
0.103425 0.103425 0.116874
0.112125 0.112125 0.125443
0.120825 0.120825 0.134013
0.129525 0.129525 0.142582
0.138225 0.138225 0.151152
0.146925 0.146925 0.159721
0.155625 0.155625 0.168291
0.164325 0.164325 0.176860
0.173025 0.173025 0.185430
0.181725 0.181725 0.193999
0.190425 0.190425 0.202569
0.199125 0.199125 0.211138
0.207825 0.207825 0.219708
0.216525 0.216525 0.228277
0.225225 0.225225 0.236847
0.233925 0.233925 0.245416
0.242625 0.242625 0.253986
0.251325 0.251325 0.262555
0.260025 0.260025 0.271125
0.268725 0.268725 0.279694
0.277425 0.277425 0.288264
0.286125 0.286125 0.296833
0.294825 0.294825 0.305403
0.303525 0.303525 0.313972
0.312225 0.312225 0.322542
0.320925 0.320925 0.331111
0.329625 0.329625 0.339681
0.338325 0.338325 0.348250
0.347025 0.347025 0.356820
0.355725 0.355725 0.365389
0.099800 0.099800 0.113303
0.108500 0.108500 0.121872
0.117200 0.117200 0.130442
0.125900 0.125900 0.139012
0.134600 0.134600 0.147581
0.143300 0.143300 0.156151
0.152000 0.152000 0.164720
0.160700 0.160700 0.173290
0.169400 0.169400 0.181859
0.178100 0.178100 0.190429
0.186800 0.186800 0.198998
0.195500 0.195500 0.207568
0.204200 0.204200 0.216137
0.212900 0.212900 0.224707
0.221600 0.221600 0.233276
0.230300 0.230300 0.241845
0.239000 0.239000 0.250415
0.247700 0.247700 0.258984
0.256400 0.256400 0.267554
0.265100 0.265100 0.276124
0.273800 0.273800 0.284693
0.282500 0.282500 0.293263
0.291200 0.291200 0.301832
0.299900 0.299900 0.310402
0.308600 0.308600 0.318971
0.317300 0.317300 0.327541
0.326000 0.326000 0.336110
0.334700 0.334700 0.344679
0.343400 0.343400 0.353249
0.352100 0.352100 0.361818
0.360800 0.360800 0.370388
0.369500 0.369500 0.378957
0.378200 0.378200 0.387527
0.122275 0.122275 0.135441
0.130975 0.130975 0.144010
0.139675 0.139675 0.152580
0.148375 0.148375 0.161149
0.157075 0.157075 0.169719
0.165775 0.165775 0.178288
0.174475 0.174475 0.186858
0.183175 0.183175 0.195427
0.191875 0.191875 0.203997
0.200575 0.200575 0.212566
0.209275 0.209275 0.221136
0.217975 0.217975 0.229705
0.226675 0.226675 0.238275
0.235375 0.235375 0.246844
0.244075 0.244075 0.255414
0.252775 0.252775 0.263983
0.261475 0.261475 0.272553
0.270175 0.270175 0.281122
0.278875 0.278875 0.289692
0.287575 0.287575 0.298261
0.296275 0.296275 0.306831
0.304975 0.304975 0.315400
0.313675 0.313675 0.323970
0.322375 0.322375 0.332539
0.331075 0.331075 0.341109
0.339775 0.339775 0.349678
0.348475 0.348475 0.358248
0.357175 0.357175 0.366817
0.365875 0.365875 0.375387
0.374575 0.374575 0.383956
0.383275 0.383275 0.392526
0.391975 0.391975 0.401095
0.400675 0.400675 0.409665
0.144750 0.144750 0.157579
0.153450 0.153450 0.166148
0.162150 0.162150 0.174718
0.170850 0.170850 0.183287
0.179550 0.179550 0.191857
0.188250 0.188250 0.200426
0.196950 0.196950 0.208996
0.205650 0.205650 0.217565
0.214350 0.214350 0.226135
0.223050 0.223050 0.234704
0.231750 0.231750 0.243274
0.240450 0.240450 0.251843
0.249150 0.249150 0.260413
0.257850 0.257850 0.268982
0.266550 0.266550 0.277552
0.275250 0.275250 0.286121
0.283950 0.283950 0.294691
0.292650 0.292650 0.303260
0.301350 0.301350 0.311830
0.310050 0.310050 0.320399
0.318750 0.318750 0.328969
0.327450 0.327450 0.337538
0.336150 0.336150 0.346108
0.344850 0.344850 0.354677
0.353550 0.353550 0.363247
0.362250 0.362250 0.371816
0.370950 0.370950 0.380386
0.379650 0.379650 0.388955
0.388350 0.388350 0.397525
0.397050 0.397050 0.406094
0.405750 0.405750 0.414664
0.414450 0.414450 0.423233
0.423150 0.423150 0.431803
0.167225 0.167225 0.179717
0.175925 0.175925 0.188286
0.184625 0.184625 0.196856
0.193325 0.193325 0.205425
0.202025 0.202025 0.213995
0.210725 0.210725 0.222564
0.219425 0.219425 0.231134
0.228125 0.228125 0.239703
0.236825 0.236825 0.248273
0.245525 0.245525 0.256842
0.254225 0.254225 0.265412
0.262925 0.262925 0.273981
0.271625 0.271625 0.282551
0.280325 0.280325 0.291120
0.289025 0.289025 0.299690
0.297725 0.297725 0.308259
0.306425 0.306425 0.316829
0.315125 0.315125 0.325398
0.323825 0.323825 0.333968
0.332525 0.332525 0.342537
0.341225 0.341225 0.351107
0.349925 0.349925 0.359676
0.358625 0.358625 0.368246
0.367325 0.367325 0.376815
0.376025 0.376025 0.385385
0.384725 0.384725 0.393954
0.393425 0.393425 0.402524
0.402125 0.402125 0.411093
0.410825 0.410825 0.419663
0.419525 0.419525 0.428232
0.428225 0.428225 0.436802
0.436925 0.436925 0.445371
0.445625 0.445625 0.453941
0.189700 0.189700 0.201854
0.198400 0.198400 0.210424
0.207100 0.207100 0.218994
0.215800 0.215800 0.227563
0.224500 0.224500 0.236132
0.233200 0.233200 0.244702
0.241900 0.241900 0.253271
0.250600 0.250600 0.261841
0.259300 0.259300 0.270410
0.268000 0.268000 0.278980
0.276700 0.276700 0.287550
0.285400 0.285400 0.296119
0.294100 0.294100 0.304689
0.302800 0.302800 0.313258
0.311500 0.311500 0.321827
0.320200 0.320200 0.330397
0.328900 0.328900 0.338966
0.337600 0.337600 0.347536
0.346300 0.346300 0.356106
0.355000 0.355000 0.364675
0.363700 0.363700 0.373244
0.372400 0.372400 0.381814
0.381100 0.381100 0.390383
0.389800 0.389800 0.398953
0.398500 0.398500 0.407522
0.407200 0.407200 0.416092
0.415900 0.415900 0.424661
0.424600 0.424600 0.433231
0.433300 0.433300 0.441801
0.442000 0.442000 0.450370
0.450700 0.450700 0.458940
0.459400 0.459400 0.467509
0.468100 0.468100 0.476078
0.212175 0.212175 0.223992
0.220875 0.220875 0.232562
0.229575 0.229575 0.241131
0.238275 0.238275 0.249701
0.246975 0.246975 0.258270
0.255675 0.255675 0.266840
0.264375 0.264375 0.275409
0.273075 0.273075 0.283979
0.281775 0.281775 0.292548
0.290475 0.290475 0.301118
0.299175 0.299175 0.309687
0.307875 0.307875 0.318257
0.316575 0.316575 0.326826
0.325275 0.325275 0.335396
0.333975 0.333975 0.343965
0.342675 0.342675 0.352535
0.351375 0.351375 0.361104
0.360075 0.360075 0.369674
0.368775 0.368775 0.378243
0.377475 0.377475 0.386813
0.386175 0.386175 0.395382
0.394875 0.394875 0.403952
0.403575 0.403575 0.412521
0.412275 0.412275 0.421091
0.420975 0.420975 0.429660
0.429675 0.429675 0.438230
0.438375 0.438375 0.446799
0.447075 0.447075 0.455369
0.455775 0.455775 0.463938
0.464475 0.464475 0.472508
0.473175 0.473175 0.481077
0.481875 0.481875 0.489647
0.490575 0.490575 0.498216
0.234650 0.234650 0.246130
0.243350 0.243350 0.254700
0.252050 0.252050 0.263269
0.260750 0.260750 0.271839
0.269450 0.269450 0.280408
0.278150 0.278150 0.288978
0.286850 0.286850 0.297547
0.295550 0.295550 0.306117
0.304250 0.304250 0.314686
0.312950 0.312950 0.323256
0.321650 0.321650 0.331825
0.330350 0.330350 0.340395
0.339050 0.339050 0.348964
0.347750 0.347750 0.357534
0.356450 0.356450 0.366103
0.365150 0.365150 0.374673
0.373850 0.373850 0.383242
0.382550 0.382550 0.391812
0.391250 0.391250 0.400381
0.399950 0.399950 0.408951
0.408650 0.408650 0.417520
0.417350 0.417350 0.426090
0.426050 0.426050 0.434659
0.434750 0.434750 0.443229
0.443450 0.443450 0.451798
0.452150 0.452150 0.460368
0.460850 0.460850 0.468937
0.469550 0.469550 0.477507
0.478250 0.478250 0.486076
0.486950 0.486950 0.494646
0.495650 0.495650 0.503215
0.504350 0.504350 0.511785
0.513050 0.513050 0.520354
0.257125 0.257125 0.268268
0.265825 0.265825 0.276838
0.274525 0.274525 0.285407
0.283225 0.283225 0.293977
0.291925 0.291925 0.302546
0.300625 0.300625 0.311116
0.309325 0.309325 0.319685
0.318025 0.318025 0.328255
0.326725 0.326725 0.336824
0.335425 0.335425 0.345394
0.344125 0.344125 0.353963
0.352825 0.352825 0.362533
0.361525 0.361525 0.371102
0.370225 0.370225 0.379672
0.378925 0.378925 0.388241
0.387625 0.387625 0.396811
0.396325 0.396325 0.405380
0.405025 0.405025 0.413950
0.413725 0.413725 0.422519
0.422425 0.422425 0.431089
0.431125 0.431125 0.439658
0.439825 0.439825 0.448228
0.448525 0.448525 0.456797
0.457225 0.457225 0.465367
0.465925 0.465925 0.473936
0.474625 0.474625 0.482506
0.483325 0.483325 0.491075
0.492025 0.492025 0.499645
0.500725 0.500725 0.508214
0.509425 0.509425 0.516784
0.518125 0.518125 0.525353
0.526825 0.526825 0.533923
0.535525 0.535525 0.542492
0.279600 0.279600 0.290406
0.288300 0.288300 0.298976
0.297000 0.297000 0.307545
0.305700 0.305700 0.316115
0.314400 0.314400 0.324684
0.323100 0.323100 0.333253
0.331800 0.331800 0.341823
0.340500 0.340500 0.350392
0.349200 0.349200 0.358962
0.357900 0.357900 0.367532
0.366600 0.366600 0.376101
0.375300 0.375300 0.384670
0.384000 0.384000 0.393240
0.392700 0.392700 0.401809
0.401400 0.401400 0.410379
0.410100 0.410100 0.418949
0.418800 0.418800 0.427518
0.427500 0.427500 0.436088
0.436200 0.436200 0.444657
0.444900 0.444900 0.453227
0.453600 0.453600 0.461796
0.462300 0.462300 0.470366
0.471000 0.471000 0.478935
0.479700 0.479700 0.487504
0.488400 0.488400 0.496074
0.497100 0.497100 0.504644
0.505800 0.505800 0.513213
0.514500 0.514500 0.521782
0.523200 0.523200 0.530352
0.531900 0.531900 0.538921
0.540600 0.540600 0.547491
0.549300 0.549300 0.556060
0.558000 0.558000 0.564630
0.302075 0.302075 0.312544
0.310775 0.310775 0.321113
0.319475 0.319475 0.329683
0.328175 0.328175 0.338252
0.336875 0.336875 0.346822
0.345575 0.345575 0.355391
0.354275 0.354275 0.363961
0.362975 0.362975 0.372530
0.371675 0.371675 0.381100
0.380375 0.380375 0.389669
0.389075 0.389075 0.398239
0.397775 0.397775 0.406808
0.406475 0.406475 0.415378
0.415175 0.415175 0.423947
0.423875 0.423875 0.432517
0.432575 0.432575 0.441086
0.441275 0.441275 0.449656
0.449975 0.449975 0.458225
0.458675 0.458675 0.466795
0.467375 0.467375 0.475364
0.476075 0.476075 0.483934
0.484775 0.484775 0.492503
0.493475 0.493475 0.501073
0.502175 0.502175 0.509642
0.510875 0.510875 0.518212
0.519575 0.519575 0.526781
0.528275 0.528275 0.535351
0.536975 0.536975 0.543920
0.545675 0.545675 0.552490
0.554375 0.554375 0.561059
0.563075 0.563075 0.569629
0.571775 0.571775 0.578198
0.580475 0.580475 0.586768
0.324550 0.324550 0.334682
0.333250 0.333250 0.343251
0.341950 0.341950 0.351821
0.350650 0.350650 0.360390
0.359350 0.359350 0.368960
0.368050 0.368050 0.377529
0.376750 0.376750 0.386099
0.385450 0.385450 0.394668
0.394150 0.394150 0.403238
0.402850 0.402850 0.411807
0.411550 0.411550 0.420377
0.420250 0.420250 0.428946
0.428950 0.428950 0.437516
0.437650 0.437650 0.446085
0.446350 0.446350 0.454655
0.455050 0.455050 0.463224
0.463750 0.463750 0.471794
0.472450 0.472450 0.480363
0.481150 0.481150 0.488933
0.489850 0.489850 0.497502
0.498550 0.498550 0.506072
0.507250 0.507250 0.514641
0.515950 0.515950 0.523211
0.524650 0.524650 0.531780
0.533350 0.533350 0.540350
0.542050 0.542050 0.548919
0.550750 0.550750 0.557489
0.559450 0.559450 0.566058
0.568150 0.568150 0.574628
0.576850 0.576850 0.583197
0.585550 0.585550 0.591767
0.594250 0.594250 0.600336
0.602950 0.602950 0.608906
0.347025 0.347025 0.356820
0.355725 0.355725 0.365389
0.364425 0.364425 0.373959
0.373125 0.373125 0.382528
0.381825 0.381825 0.391098
0.390525 0.390525 0.399667
0.399225 0.399225 0.408237
0.407925 0.407925 0.416806
0.416625 0.416625 0.425376
0.425325 0.425325 0.433945
0.434025 0.434025 0.442515
0.442725 0.442725 0.451084
0.451425 0.451425 0.459654
0.460125 0.460125 0.468223
0.468825 0.468825 0.476793
0.477525 0.477525 0.485362
0.486225 0.486225 0.493932
0.494925 0.494925 0.502501
0.503625 0.503625 0.511071
0.512325 0.512325 0.519640
0.521025 0.521025 0.528210
0.529725 0.529725 0.536779
0.538425 0.538425 0.545349
0.547125 0.547125 0.553918
0.555825 0.555825 0.562488
0.564525 0.564525 0.571057
0.573225 0.573225 0.579627
0.581925 0.581925 0.588196
0.590625 0.590625 0.596766
0.599325 0.599325 0.605335
0.608025 0.608025 0.613905
0.616725 0.616725 0.622474
0.625425 0.625425 0.631044
0.369500 0.369500 0.378958
0.378200 0.378200 0.387527
0.386900 0.386900 0.396097
0.395600 0.395600 0.404666
0.404300 0.404300 0.413235
0.413000 0.413000 0.421805
0.421700 0.421700 0.430374
0.430400 0.430400 0.438944
0.439100 0.439100 0.447514
0.447800 0.447800 0.456083
0.456500 0.456500 0.464653
0.465200 0.465200 0.473222
0.473900 0.473900 0.481792
0.482600 0.482600 0.490361
0.491300 0.491300 0.498930
0.500000 0.500000 0.507500
0.508700 0.508700 0.516070
0.517400 0.517400 0.524639
0.526100 0.526100 0.533208
0.534800 0.534800 0.541778
0.543500 0.543500 0.550347
0.552200 0.552200 0.558917
0.560900 0.560900 0.567487
0.569600 0.569600 0.576056
0.578300 0.578300 0.584626
0.587000 0.587000 0.593195
0.595700 0.595700 0.601765
0.604400 0.604400 0.610334
0.613100 0.613100 0.618903
0.621800 0.621800 0.627473
0.630500 0.630500 0.636043
0.639200 0.639200 0.644612
0.647900 0.647900 0.653181
0.391975 0.391975 0.401095
0.400675 0.400675 0.409665
0.409375 0.409375 0.418234
0.418075 0.418075 0.426804
0.426775 0.426775 0.435373
0.435475 0.435475 0.443943
0.444175 0.444175 0.452512
0.452875 0.452875 0.461082
0.461575 0.461575 0.469651
0.470275 0.470275 0.478221
0.478975 0.478975 0.486790
0.487675 0.487675 0.495360
0.496375 0.496375 0.503929
0.505075 0.505075 0.512499
0.513775 0.513775 0.521068
0.522475 0.522475 0.529638
0.531175 0.531175 0.538207
0.539875 0.539875 0.546777
0.548575 0.548575 0.555346
0.557275 0.557275 0.563916
0.565975 0.565975 0.572485
0.574675 0.574675 0.581055
0.583375 0.583375 0.589624
0.592075 0.592075 0.598194
0.600775 0.600775 0.606763
0.609475 0.609475 0.615333
0.618175 0.618175 0.623902
0.626875 0.626875 0.632472
0.635575 0.635575 0.641041
0.644275 0.644275 0.649611
0.652975 0.652975 0.658180
0.661675 0.661675 0.666750
0.670375 0.670375 0.675319
0.414450 0.414450 0.423233
0.423150 0.423150 0.431803
0.431850 0.431850 0.440372
0.440550 0.440550 0.448942
0.449250 0.449250 0.457511
0.457950 0.457950 0.466081
0.466650 0.466650 0.474650
0.475350 0.475350 0.483220
0.484050 0.484050 0.491789
0.492750 0.492750 0.500359
0.501450 0.501450 0.508928
0.510150 0.510150 0.517498
0.518850 0.518850 0.526067
0.527550 0.527550 0.534637
0.536250 0.536250 0.543206
0.544950 0.544950 0.551776
0.553650 0.553650 0.560345
0.562350 0.562350 0.568915
0.571050 0.571050 0.577484
0.579750 0.579750 0.586054
0.588450 0.588450 0.594623
0.597150 0.597150 0.603193
0.605850 0.605850 0.611762
0.614550 0.614550 0.620332
0.623250 0.623250 0.628901
0.631950 0.631950 0.637471
0.640650 0.640650 0.646040
0.649350 0.649350 0.654610
0.658050 0.658050 0.663179
0.666750 0.666750 0.671749
0.675450 0.675450 0.680318
0.684150 0.684150 0.688888
0.692850 0.692850 0.697457
0.436925 0.436925 0.445371
0.445625 0.445625 0.453941
0.454325 0.454325 0.462510
0.463025 0.463025 0.471080
0.471725 0.471725 0.479649
0.480425 0.480425 0.488219
0.489125 0.489125 0.496788
0.497825 0.497825 0.505358
0.506525 0.506525 0.513927
0.515225 0.515225 0.522497
0.523925 0.523925 0.531066
0.532625 0.532625 0.539636
0.541325 0.541325 0.548205
0.550025 0.550025 0.556775
0.558725 0.558725 0.565344
0.567425 0.567425 0.573914
0.576125 0.576125 0.582483
0.584825 0.584825 0.591053
0.593525 0.593525 0.599622
0.602225 0.602225 0.608192
0.610925 0.610925 0.616761
0.619625 0.619625 0.625331
0.628325 0.628325 0.633900
0.637025 0.637025 0.642470
0.645725 0.645725 0.651039
0.654425 0.654425 0.659609
0.663125 0.663125 0.668178
0.671825 0.671825 0.676748
0.680525 0.680525 0.685317
0.689225 0.689225 0.693887
0.697925 0.697925 0.702456
0.706625 0.706625 0.711026
0.715325 0.715325 0.719595
0.459400 0.459400 0.467509
0.468100 0.468100 0.476078
0.476800 0.476800 0.484648
0.485500 0.485500 0.493217
0.494200 0.494200 0.501787
0.502900 0.502900 0.510356
0.511600 0.511600 0.518926
0.520300 0.520300 0.527496
0.529000 0.529000 0.536065
0.537700 0.537700 0.544634
0.546400 0.546400 0.553204
0.555100 0.555100 0.561773
0.563800 0.563800 0.570343
0.572500 0.572500 0.578913
0.581200 0.581200 0.587482
0.589900 0.589900 0.596051
0.598600 0.598600 0.604621
0.607300 0.607300 0.613191
0.616000 0.616000 0.621760
0.624700 0.624700 0.630329
0.633400 0.633400 0.638899
0.642100 0.642100 0.647468
0.650800 0.650800 0.656038
0.659500 0.659500 0.664608
0.668200 0.668200 0.673177
0.676900 0.676900 0.681746
0.685600 0.685600 0.690316
0.694300 0.694300 0.698885
0.703000 0.703000 0.707455
0.711700 0.711700 0.716024
0.720400 0.720400 0.724594
0.729100 0.729100 0.733163
0.737800 0.737800 0.741733
0.481875 0.481875 0.489647
0.490575 0.490575 0.498216
0.499275 0.499275 0.506786
0.507975 0.507975 0.515355
0.516675 0.516675 0.523925
0.525375 0.525375 0.532494
0.534075 0.534075 0.541064
0.542775 0.542775 0.549633
0.551475 0.551475 0.558203
0.560175 0.560175 0.566772
0.568875 0.568875 0.575342
0.577575 0.577575 0.583911
0.586275 0.586275 0.592481
0.594975 0.594975 0.601050
0.603675 0.603675 0.609620
0.612375 0.612375 0.618189
0.621075 0.621075 0.626759
0.629775 0.629775 0.635328
0.638475 0.638475 0.643898
0.647175 0.647175 0.652467
0.655875 0.655875 0.661037
0.664575 0.664575 0.669606
0.673275 0.673275 0.678176
0.681975 0.681975 0.686745
0.690675 0.690675 0.695315
0.699375 0.699375 0.703884
0.708075 0.708075 0.712454
0.716775 0.716775 0.721023
0.725475 0.725475 0.729593
0.734175 0.734175 0.738162
0.742875 0.742875 0.746732
0.751575 0.751575 0.755301
0.760275 0.760275 0.763871
0.504350 0.504350 0.511785
0.513050 0.513050 0.520354
0.521750 0.521750 0.528924
0.530450 0.530450 0.537493
0.539150 0.539150 0.546063
0.547850 0.547850 0.554632
0.556550 0.556550 0.563202
0.565250 0.565250 0.571771
0.573950 0.573950 0.580341
0.582650 0.582650 0.588910
0.591350 0.591350 0.597480
0.600050 0.600050 0.606049
0.608750 0.608750 0.614619
0.617450 0.617450 0.623188
0.626150 0.626150 0.631758
0.634850 0.634850 0.640327
0.643550 0.643550 0.648897
0.652250 0.652250 0.657466
0.660950 0.660950 0.666036
0.669650 0.669650 0.674605
0.678350 0.678350 0.683175
0.687050 0.687050 0.691744
0.695750 0.695750 0.700314
0.704450 0.704450 0.708883
0.713150 0.713150 0.717453
0.721850 0.721850 0.726022
0.730550 0.730550 0.734592
0.739250 0.739250 0.743161
