docs/luts/fresh-serpent.cube
TITLE "FreshLUTs??-????"
LUT_3D_SIZE 9
DOMAIN_MIN 0.0 0.0 0.0
DOMAIN_MAX 1.0 1.0 1.0
0.000000 0.060000 0.000000
0.035590 0.055814 0.000523
0.175479 0.051927 0.001345
0.315368 0.048040 0.002168
0.455257 0.044153 0.002990
0.595146 0.040266 0.003812
0.735035 0.036379 0.004635
0.874924 0.032492 0.005457
0.965515 0.028306 0.005980
0.000000 0.107780 0.000675
0.044740 0.103594 0.001198
0.184629 0.099707 0.002021
0.324518 0.095820 0.002843
0.464407 0.091933 0.003665
0.604296 0.088046 0.004487
0.744185 0.084159 0.005310
0.884074 0.080272 0.006132
0.974664 0.076086 0.006655
0.000000 0.244816 0.002407
0.054946 0.240630 0.002930
0.194835 0.236743 0.003752
0.334725 0.232856 0.004574
0.474614 0.228969 0.005397
0.614503 0.225082 0.006219
0.754392 0.221195 0.007041
0.894281 0.217308 0.007863
0.984871 0.213122 0.009275
0.000000 0.381853 0.004138
0.065153 0.377667 0.004662
0.205042 0.373780 0.005484
0.344931 0.369893 0.006306
0.484820 0.366006 0.007128
0.624709 0.362119 0.007951
0.764598 0.358232 0.009613
0.903845 0.355045 0.011724
0.990118 0.355568 0.013536
0.000000 0.518889 0.005870
0.075359 0.514703 0.006393
0.215248 0.510816 0.007215
0.355137 0.506929 0.008038
0.495026 0.503042 0.009653
0.634432 0.499682 0.011764
0.770004 0.500505 0.013875
0.905577 0.501327 0.015986
0.991850 0.501850 0.017798
0.000000 0.655925 0.007602
0.085566 0.651739 0.008125
0.225455 0.647852 0.009693
0.365019 0.644319 0.011804
0.500592 0.645142 0.013915
0.636164 0.645964 0.016026
0.771736 0.646786 0.018137
0.907308 0.647608 0.020248
0.993582 0.648132 0.022060
0.005182 0.792962 0.010032
0.095607 0.788957 0.011844
0.231179 0.789779 0.013955
0.366751 0.790601 0.016066
0.502323 0.791423 0.018177
0.637896 0.792246 0.020288
0.773468 0.793068 0.022399
0.909040 0.793890 0.024510
0.995313 0.794413 0.026322
0.011065 0.934715 0.014293
0.097338 0.935238 0.016105
0.232910 0.936060 0.018216
0.368483 0.936883 0.020328
0.504055 0.937705 0.022439
0.639627 0.938527 0.024550
0.775199 0.939349 0.026661
0.910772 0.940172 0.028772
0.997045 0.940695 0.030584
0.011740 0.991740 0.017499
0.098013 0.992263 0.019311
0.233586 0.993086 0.021422
0.369158 0.993908 0.023533
0.504730 0.994730 0.025644
0.640302 0.995552 0.027755
0.775875 0.996374 0.029866
0.911447 0.997197 0.031977
0.997720 0.997720 0.033789
0.000000 0.058421 0.093317
0.037453 0.054235 0.093840
0.177342 0.050348 0.094662
0.317231 0.046461 0.095484
0.457120 0.042574 0.096307
0.597009 0.038687 0.097129
0.736898 0.034800 0.097951
0.876787 0.030913 0.098773
0.967377 0.026727 0.099297
0.000000 0.106201 0.093992
0.046602 0.102015 0.094515
0.186491 0.098128 0.095337
0.326381 0.094241 0.096159
0.466270 0.090354 0.096982
0.606159 0.086467 0.097804
0.746048 0.082580 0.098626
0.885937 0.078693 0.099448
0.976527 0.074507 0.099972
0.000000 0.243237 0.095723
0.056809 0.239051 0.096247
0.196698 0.235164 0.097069
0.336587 0.231277 0.097891
0.476476 0.227390 0.098713
0.616365 0.223503 0.099536
0.756254 0.219616 0.100358
0.896143 0.215729 0.101271
0.986733 0.211543 0.103083
0.000000 0.380274 0.097455
0.067015 0.376088 0.097978
0.206904 0.372201 0.098800
0.346793 0.368314 0.099623
0.486683 0.364427 0.100445
0.626572 0.360540 0.101310
0.766461 0.356653 0.103421
0.904062 0.355262 0.105532
0.990335 0.355785 0.107344
0.000000 0.517310 0.099187
0.077222 0.513124 0.099710
0.217111 0.509237 0.100532
0.357000 0.505350 0.101354
0.496889 0.501463 0.103461
0.634649 0.499899 0.105572
0.770221 0.500721 0.107683
0.905793 0.501543 0.109794
0.992067 0.502067 0.111606
0.000000 0.654346 0.100918
0.087428 0.650160 0.101441
0.227317 0.646273 0.103501
0.365236 0.644536 0.105612
0.500808 0.645358 0.107723
0.636380 0.646180 0.109834
0.771953 0.647003 0.111945
0.907525 0.647825 0.114056
0.993798 0.648348 0.115868
0.007045 0.791383 0.103840
0.095823 0.789173 0.105652
0.231395 0.789995 0.107763
0.366968 0.790818 0.109874
0.502540 0.791640 0.111985
0.638112 0.792462 0.114096
0.773684 0.793284 0.116207
0.909257 0.794107 0.118318
0.995530 0.794630 0.120130
0.011282 0.934932 0.108101
0.097555 0.935455 0.109913
0.233127 0.936277 0.112024
0.368699 0.937099 0.114136
0.504272 0.937922 0.116247
0.639844 0.938744 0.118358
0.775416 0.939566 0.120469
0.910988 0.940388 0.122580
0.997262 0.940912 0.124392
0.011957 0.991957 0.111307
0.098230 0.992480 0.113119
0.233802 0.993302 0.115230
0.369374 0.994124 0.117341
0.504947 0.994947 0.119452
0.640519 0.995769 0.121563
0.776091 0.996591 0.123674
0.911663 0.997413 0.125785
0.997937 0.997937 0.127597
0.000000 0.056933 0.225924
0.039406 0.052747 0.226448
0.179295 0.048860 0.227270
0.319184 0.044973 0.228092
0.459073 0.041086 0.228914
0.598962 0.037199 0.229737
0.738852 0.033312 0.230559
0.878741 0.029425 0.231381
0.969331 0.025239 0.231904
0.000000 0.104713 0.226599
0.048556 0.100527 0.227123
0.188445 0.096640 0.227945
0.328334 0.092753 0.228767
0.468223 0.088866 0.229589
0.608112 0.084979 0.230412
0.748001 0.081092 0.231234
0.887890 0.077205 0.232056
0.978481 0.073019 0.232579
0.000000 0.241750 0.228331
0.058763 0.237564 0.228854
0.198652 0.233677 0.229677
0.338541 0.229790 0.230499
0.478430 0.225903 0.231321
0.618319 0.222016 0.232143
0.758208 0.218129 0.232966
0.898097 0.214242 0.234370
0.988687 0.210056 0.236182
0.000000 0.378786 0.230063
0.068969 0.374600 0.230586
0.208858 0.370713 0.231408
0.348747 0.366826 0.232230
0.488636 0.362939 0.233053
0.628525 0.359052 0.234409
0.768414 0.355165 0.236521
0.904370 0.355570 0.238632
0.990643 0.356093 0.240444
0.000000 0.515822 0.231794
0.079175 0.511636 0.232318
0.219065 0.507749 0.233140
0.358954 0.503862 0.234449
0.498843 0.499975 0.236560
0.634957 0.500207 0.238671
0.770529 0.501029 0.240782
0.906101 0.501851 0.242893
0.992374 0.502374 0.244705
0.000000 0.652859 0.233526
0.089382 0.648673 0.234489
0.229271 0.644786 0.236600
0.365544 0.644844 0.238711
0.501116 0.645666 0.240822
0.636688 0.646488 0.242933
0.772261 0.647311 0.245044
0.907833 0.648133 0.247155
0.994106 0.648656 0.248967
0.008998 0.789895 0.236939
0.096131 0.789481 0.238751
0.231703 0.790303 0.240862
0.367275 0.791125 0.242973
0.502848 0.791948 0.245084
0.638420 0.792770 0.247195
0.773992 0.793592 0.249306
0.909564 0.794414 0.251417
0.995838 0.794938 0.253229
0.011589 0.935239 0.241201
0.097863 0.935763 0.243013
0.233435 0.936585 0.245124
0.369007 0.937407 0.247235
0.504579 0.938229 0.249346
0.640152 0.939052 0.251457
0.775724 0.939874 0.253568
0.911296 0.940696 0.255679
0.997569 0.941219 0.257491
0.012264 0.992264 0.244406
0.098538 0.992788 0.246218
0.234110 0.993610 0.248329
0.369682 0.994432 0.250440
0.505254 0.995254 0.252551
0.640827 0.996077 0.254662
0.776399 0.996899 0.256773
0.911971 0.997721 0.258884
0.998244 0.998244 0.260696
0.000000 0.055446 0.358532
0.041360 0.051260 0.359055
0.181249 0.047373 0.359878
0.321138 0.043486 0.360700
0.461027 0.039599 0.361522
0.600916 0.035712 0.362344
0.740805 0.031825 0.363167
0.880694 0.027938 0.363989
0.971284 0.023752 0.364512
0.000000 0.103225 0.359207
0.050510 0.099039 0.359731
0.190399 0.095153 0.360553
0.330288 0.091265 0.361375
0.470177 0.087378 0.362197
0.610066 0.083491 0.363019
0.749955 0.079605 0.363842
0.889844 0.075717 0.364664
0.980434 0.071532 0.365187
0.000000 0.240262 0.360939
0.060716 0.236076 0.361462
0.200605 0.232189 0.362284
0.340494 0.228302 0.363107
0.480383 0.224415 0.363929
0.620272 0.220528 0.364751
0.760162 0.216641 0.365573
0.900051 0.212754 0.367469
0.989219 0.210119 0.369281
0.000000 0.377298 0.362671
0.070923 0.373112 0.363194
0.210812 0.369225 0.364016
0.350701 0.365338 0.364838
0.490590 0.361451 0.365661
0.630479 0.357564 0.367509
0.769105 0.355055 0.369620
0.904677 0.355877 0.371731
0.990951 0.356401 0.373543
0.000000 0.514335 0.364402
0.081129 0.510149 0.364925
0.221018 0.506262 0.365748
0.360907 0.502375 0.367548
0.499692 0.499692 0.369659
0.635264 0.500514 0.371770
0.770837 0.501337 0.373882
0.906409 0.502159 0.375993
0.992682 0.502682 0.377805
0.000746 0.651371 0.366134
0.091336 0.647185 0.367588
0.230279 0.644329 0.369699
0.365852 0.645152 0.371810
0.501424 0.645974 0.373921
0.636996 0.646796 0.376032
0.772568 0.647618 0.378143
0.908141 0.648441 0.380254
0.994414 0.648964 0.382066
0.010165 0.789265 0.370038
0.096439 0.789789 0.371850
0.232011 0.790611 0.373961
0.367583 0.791433 0.376072
0.503155 0.792255 0.378183
0.638728 0.793078 0.380294
0.774300 0.793900 0.382405
0.909872 0.794722 0.384516
0.996146 0.795245 0.386328
0.011897 0.935547 0.374300
0.098170 0.936070 0.376112
0.233743 0.936893 0.378223
0.369315 0.937715 0.380334
0.504887 0.938537 0.382445
0.640459 0.939359 0.384556
0.776032 0.940182 0.386667
0.911604 0.941004 0.388778
0.997877 0.941527 0.390590
0.012572 0.992572 0.377505
0.098845 0.993095 0.379317
0.234418 0.993918 0.381428
0.369990 0.994740 0.383539
0.505562 0.995562 0.385650
0.641134 0.996384 0.387761
0.776707 0.997207 0.389872
0.912279 0.998029 0.391983
0.998552 0.998552 0.393795
0.000000 0.053958 0.491140
0.043314 0.049772 0.491663
0.183203 0.045885 0.492486
0.323092 0.041998 0.493308
0.462981 0.038111 0.494130
0.602870 0.034224 0.494952
0.742759 0.030337 0.495775
0.882648 0.026450 0.496597
0.973238 0.022264 0.497120
0.000000 0.101738 0.491815
0.052463 0.097552 0.492338
0.192352 0.093665 0.493161
0.332242 0.089778 0.493983
0.472131 0.085891 0.494805
0.612020 0.082004 0.495627
0.751909 0.078117 0.496450
0.891798 0.074230 0.497272
0.982388 0.070044 0.498118
0.000000 0.238774 0.493547
0.062670 0.234588 0.494070
0.202559 0.230701 0.494892
0.342448 0.226814 0.495714
0.482337 0.222927 0.496537
0.622226 0.219040 0.497359
0.762115 0.215153 0.498457
0.902004 0.211266 0.500568
0.989527 0.210427 0.502380
0.000000 0.375811 0.495278
0.072876 0.371625 0.495802
0.212765 0.367738 0.496624
0.352654 0.363851 0.497446
0.492544 0.359964 0.498497
0.632433 0.356077 0.500608
0.769413 0.355363 0.502719
0.904985 0.356185 0.504830
0.991258 0.356708 0.506642
0.000000 0.512847 0.497010
0.083083 0.508661 0.497533
0.222972 0.504774 0.498537
0.362861 0.500887 0.500648
0.500000 0.500000 0.502759
0.635572 0.500822 0.504870
0.771145 0.501645 0.506981
0.906717 0.502467 0.509092
0.992990 0.502990 0.510904
0.002699 0.649883 0.498875
0.093289 0.645697 0.500687
0.230587 0.644637 0.502798
0.366159 0.645459 0.504909
0.501732 0.646282 0.507020
0.637304 0.647104 0.509131
0.772876 0.647926 0.511243
0.908448 0.648748 0.513354
0.994722 0.649272 0.515166
0.010473 0.789573 0.503137
0.096747 0.790097 0.504949
0.232319 0.790919 0.507060
0.367891 0.791741 0.509171
0.503463 0.792563 0.511282
0.639036 0.793386 0.513393
0.774608 0.794208 0.515504
0.910180 0.795030 0.517615
0.996453 0.795553 0.519427
0.012205 0.935855 0.507399
0.098478 0.936378 0.509211
0.234050 0.937200 0.511322
0.369623 0.938023 0.513433
0.505195 0.938845 0.515544
0.640767 0.939667 0.517655
0.776339 0.940489 0.519766
0.911912 0.941312 0.521877
0.998185 0.941835 0.523689
0.012880 0.992880 0.510604
0.099153 0.993403 0.512416
0.234725 0.994225 0.514527
0.370298 0.995048 0.516638
0.505870 0.995870 0.518749
0.641442 0.996692 0.520860
0.777015 0.997514 0.522971
0.912587 0.998337 0.525082
0.998860 0.998860 0.526894
0.000000 0.052470 0.623748
0.045267 0.048284 0.624271
0.185156 0.044397 0.625093
0.325045 0.040510 0.625916
0.464934 0.036623 0.626738
0.604823 0.032736 0.627560
0.744713 0.028849 0.628382
0.884602 0.024962 0.629205
0.975192 0.020776 0.629728
0.000000 0.100250 0.624423
0.054417 0.096064 0.624946
0.194306 0.092177 0.625768
0.334195 0.088290 0.626591
0.474084 0.084403 0.627413
0.613973 0.080516 0.628235
0.753862 0.076629 0.629057
0.893751 0.072742 0.629880
0.984342 0.068556 0.631218
0.000000 0.237287 0.626154
0.064624 0.233101 0.626678
0.204513 0.229214 0.627500
0.344402 0.225327 0.628322
0.484291 0.221440 0.629144
0.624180 0.217553 0.629967
0.764069 0.213666 0.631556
0.903561 0.210211 0.633667
0.989835 0.210735 0.635479
0.000000 0.374323 0.627886
0.074830 0.370137 0.628409
0.214719 0.366250 0.629232
0.354608 0.362363 0.630054
0.494497 0.358476 0.631596
0.634148 0.354848 0.633707
0.769721 0.355671 0.635818
0.905293 0.356493 0.637929
0.991566 0.357016 0.639741
0.000000 0.511359 0.629618
0.085036 0.507173 0.630141
0.224926 0.503286 0.631636
0.364736 0.499486 0.633747
0.500308 0.500308 0.635858
0.635880 0.501130 0.637969
0.771452 0.501952 0.640080
0.907025 0.502775 0.642191
0.993298 0.503298 0.644003
0.004653 0.648396 0.631974
0.095243 0.644210 0.633786
0.230895 0.644945 0.635898
0.366467 0.645767 0.638009
0.502039 0.646589 0.640120
0.637612 0.647412 0.642231
0.773184 0.648234 0.644342
0.908756 0.649056 0.646453
0.995029 0.649579 0.648265
0.010781 0.789881 0.636236
0.097054 0.790404 0.638048
0.232627 0.791227 0.640159
0.368199 0.792049 0.642270
0.503771 0.792871 0.644381
0.639343 0.793693 0.646492
0.774916 0.794516 0.648604
0.910488 0.795338 0.650715
0.996761 0.795861 0.652527
0.012513 0.936163 0.640498
0.098786 0.936686 0.642310
0.234358 0.937508 0.644421
0.369930 0.938330 0.646532
0.505503 0.939153 0.648643
0.641075 0.939975 0.650754
0.776647 0.940797 0.652865
0.912220 0.941620 0.654976
0.998493 0.942143 0.656788
0.013188 0.993188 0.643703
0.099461 0.993711 0.645515
0.235033 0.994533 0.647626
0.370606 0.995356 0.649737
0.506178 0.996178 0.651848
0.641750 0.997000 0.653960
0.777322 0.997822 0.656071
0.912895 0.998645 0.658182
0.999168 0.999168 0.659994
0.000000 0.050983 0.756356
0.047221 0.046797 0.756879
0.187110 0.042910 0.757701
0.326999 0.039023 0.758523
0.466888 0.035136 0.759346
0.606777 0.031249 0.760168
0.746666 0.027362 0.760990
0.886555 0.023475 0.761812
0.977145 0.019289 0.762336
0.000000 0.098762 0.757031
0.056371 0.094576 0.757554
0.196260 0.090689 0.758376
0.336149 0.086802 0.759198
0.476038 0.082915 0.760021
0.615927 0.079028 0.760843
0.755816 0.075141 0.761665
0.895705 0.071254 0.762505
0.986295 0.067068 0.764317
0.000000 0.235799 0.758762
0.066577 0.231613 0.759286
0.206466 0.227726 0.760108
0.346355 0.223839 0.760930
0.486244 0.219952 0.761752
0.626133 0.216065 0.762575
0.766023 0.212178 0.764655
0.903869 0.210519 0.766766
0.990142 0.211042 0.768579
0.000000 0.372835 0.760494
0.076784 0.368649 0.761017
0.216673 0.364762 0.761839
0.356562 0.360875 0.762662
0.496451 0.356988 0.764695
0.634456 0.355156 0.766806
0.770028 0.355978 0.768917
0.905601 0.356801 0.771028
0.991874 0.357324 0.772840
0.000000 0.509872 0.762226
0.086990 0.505686 0.762749
0.226879 0.501799 0.764735
0.365043 0.499793 0.766846
0.500616 0.500616 0.768957
0.636188 0.501438 0.771068
0.771760 0.502260 0.773179
0.907332 0.503082 0.775290
0.993606 0.503606 0.777102
0.006607 0.646908 0.765074
0.095630 0.644430 0.766886
0.231203 0.645253 0.768997
0.366775 0.646075 0.771108
0.502347 0.646897 0.773219
0.637919 0.647720 0.775330
0.773492 0.648542 0.777441
0.909064 0.649364 0.779552
0.995337 0.649887 0.781364
0.011089 0.790189 0.769335
0.097362 0.790712 0.771147
0.232934 0.791534 0.773259
0.368507 0.792357 0.775370
0.504079 0.793179 0.777481
0.639651 0.794001 0.779592
0.775223 0.794823 0.781703
0.910796 0.795646 0.783814
0.997069 0.796169 0.785626
0.012821 0.936471 0.773597
0.099094 0.936994 0.775409
0.234666 0.937816 0.777520
0.370238 0.938638 0.779631
0.505811 0.939461 0.781742
0.641383 0.940283 0.783853
0.776955 0.941105 0.785965
0.912527 0.941927 0.788076
0.998801 0.942451 0.789888
0.013496 0.993496 0.776802
0.099769 0.994019 0.778615
0.235341 0.994841 0.780726
0.370913 0.995663 0.782837
0.506486 0.996486 0.784948
0.642058 0.997308 0.787059
0.777630 0.998130 0.789170
0.913202 0.998952 0.791281
0.999476 0.999476 0.793093
0.000000 0.049495 0.888963
0.049175 0.045309 0.889487
0.189064 0.041422 0.890309
0.328953 0.037535 0.891131
0.468842 0.033648 0.891953
0.608731 0.029761 0.892776
0.748620 0.025874 0.893598
0.888509 0.021987 0.894420
0.979099 0.017801 0.894943
0.000000 0.097275 0.889638
0.058324 0.093089 0.890162
0.198214 0.089202 0.890984
0.338103 0.085315 0.891806
0.477992 0.081428 0.892628
0.617881 0.077541 0.893451
0.757770 0.073654 0.894273
0.897659 0.069767 0.895604
0.988249 0.065581 0.897416
0.000000 0.234311 0.891370
0.068531 0.230125 0.891893
0.208420 0.226238 0.892716
0.348309 0.222351 0.893538
0.488198 0.218464 0.894360
0.628087 0.214577 0.895644
0.767976 0.210690 0.897755
0.904177 0.210827 0.899866
0.990450 0.211350 0.901678
0.000000 0.371348 0.893102
0.078737 0.367162 0.893625
0.218626 0.363275 0.894447
0.358515 0.359388 0.895683
0.498405 0.355501 0.897794
0.634764 0.355464 0.899905
0.770336 0.356286 0.902016
0.905909 0.357109 0.904127
0.992182 0.357632 0.905940
0.000000 0.508384 0.894833
0.088944 0.504198 0.895723
0.228833 0.500311 0.897834
0.365351 0.500101 0.899945
0.500923 0.500923 0.902056
0.636496 0.501746 0.904167
0.772068 0.502568 0.906278
0.907640 0.503390 0.908389
0.993913 0.503913 0.910201
0.008560 0.645420 0.898173
0.095938 0.644738 0.899985
0.231511 0.645561 0.902096
0.367083 0.646383 0.904207
0.502655 0.647205 0.906318
0.638227 0.648027 0.908429
0.773800 0.648850 0.910540
0.909372 0.649672 0.912651
0.995645 0.650195 0.914463
0.011397 0.790497 0.902435
0.097670 0.791020 0.904247
0.233242 0.791842 0.906358
0.368814 0.792664 0.908469
0.504387 0.793487 0.910580
0.639959 0.794309 0.912691
0.775531 0.795131 0.914802
0.911103 0.795953 0.916913
0.997377 0.796477 0.918725
0.013128 0.936778 0.906696
0.099402 0.937302 0.908508
0.234974 0.938124 0.910620
0.370546 0.938946 0.912731
0.506118 0.939768 0.914842
0.641691 0.940591 0.916953
0.777263 0.941413 0.919064
0.912835 0.942235 0.921175
0.999108 0.942758 0.922987
0.013803 0.993803 0.909902
0.100077 0.994327 0.911714
0.235649 0.995149 0.913825
0.371221 0.995971 0.915936
0.506793 0.996793 0.918047
0.642366 0.997616 0.920158
0.777938 0.998438 0.922269
0.913510 0.999260 0.924380
0.999783 0.999783 0.926192
0.000000 0.047916 0.982280
0.051037 0.043730 0.982803
0.190926 0.039843 0.983625
0.330815 0.035956 0.984448
0.470704 0.032069 0.985270
0.610593 0.028182 0.986092
0.750482 0.024295 0.986914
0.890371 0.020408 0.987737
0.980961 0.016222 0.988260
0.000000 0.095696 0.982955
0.060187 0.091510 0.983478
0.200076 0.087623 0.984301
0.339965 0.083736 0.985123
0.479854 0.079849 0.985945
0.619743 0.075962 0.986767
0.759632 0.072075 0.987590
0.899521 0.068188 0.989412
0.988935 0.065285 0.991224
0.000000 0.232732 0.984687
0.070393 0.228546 0.985210
0.210282 0.224659 0.986032
0.350172 0.220772 0.986854
0.490061 0.216885 0.987677
0.629950 0.212998 0.989452
0.768821 0.210221 0.991563
0.904393 0.211043 0.993674
0.990667 0.211567 0.995486
0.000000 0.369769 0.986418
0.080600 0.365583 0.986942
0.220489 0.361696 0.987764
0.360378 0.357809 0.989491
0.499408 0.354858 0.991602
0.634981 0.355681 0.993713
0.770553 0.356503 0.995824
0.906125 0.357325 0.997935
0.992398 0.357848 0.999747
0.000216 0.506805 0.988150
0.090806 0.502619 0.989531
0.229995 0.499495 0.991642
0.365568 0.500318 0.993753
0.501140 0.501140 0.995864
0.636712 0.501962 0.997975
0.772285 0.502784 1.000000
0.907857 0.503607 1.000000
0.994130 0.504130 1.000000
0.009882 0.644432 0.991981
0.096155 0.644955 0.993793
0.231727 0.645777 0.995904
0.367299 0.646599 0.998015
0.502872 0.647422 1.000000
0.638444 0.648244 1.000000
0.774016 0.649066 1.000000
0.909588 0.649888 1.000000
0.995862 0.650412 1.000000
0.011613 0.790713 0.996243
0.097887 0.791237 0.998055
0.233459 0.792059 1.000000
0.369031 0.792881 1.000000
0.504603 0.793703 1.000000
0.640176 0.794526 1.000000
0.775748 0.795348 1.000000
0.911320 0.796170 1.000000
0.997593 0.796693 1.000000
0.013345 0.936995 1.000000
0.099618 0.937518 1.000000
0.235190 0.938340 1.000000
0.370763 0.939163 1.000000
0.506335 0.939985 1.000000
0.641907 0.940807 1.000000
0.777479 0.941629 1.000000
0.913052 0.942452 1.000000
0.999325 0.942975 1.000000
0.014020 0.994020 1.000000
0.100293 0.994543 1.000000
0.235865 0.995366 1.000000
0.371438 0.996188 1.000000
0.507010 0.997010 1.000000
0.642582 0.997832 1.000000
0.778155 0.998655 1.000000
0.913727 0.999477 1.000000
1.000000 1.000000 1.000000
