docs/luts/fresh-hypnosis.cube
TITLE "FreshLUTs??-??"
LUT_3D_SIZE 33
DOMAIN_MIN 0.0 0.0 0.0
DOMAIN_MAX 1.0 1.0 1.0
0.000000 0.000000 0.055000
0.000000 0.000000 0.053921
0.000000 0.000000 0.052842
0.005050 0.000000 0.051762
0.049054 0.000000 0.050683
0.093059 0.000000 0.049604
0.137064 0.000000 0.048525
0.181068 0.000000 0.047446
0.225073 0.000000 0.046366
0.269078 0.000000 0.045287
0.313082 0.000000 0.044208
0.357087 0.000000 0.043129
0.401091 0.000000 0.042050
0.445096 0.000000 0.040970
0.489101 0.000000 0.039891
0.533105 0.000000 0.038812
0.577110 0.000000 0.037733
0.621115 0.000000 0.036654
0.665119 0.000000 0.035574
0.709124 0.000000 0.034495
0.753129 0.000000 0.033416
0.797133 0.000000 0.032337
0.841138 0.000000 0.031258
0.885142 0.000000 0.030178
0.929147 0.000000 0.029099
0.973152 0.000000 0.028020
1.000000 0.000000 0.026941
1.000000 0.000000 0.025862
1.000000 0.000000 0.024782
1.000000 0.000000 0.023703
1.000000 0.000000 0.022624
1.000000 0.000000 0.021545
1.000000 0.000000 0.020466
0.000000 0.000000 0.052881
0.000000 0.000000 0.051802
0.000000 0.000000 0.050723
0.005050 0.000000 0.049644
0.049054 0.000000 0.048564
0.093059 0.000000 0.047485
0.137064 0.000000 0.046406
0.181068 0.000000 0.045327
0.225073 0.000000 0.044248
0.269078 0.000000 0.043168
0.313082 0.000000 0.042089
0.357087 0.000000 0.041010
0.401091 0.000000 0.039931
0.445096 0.000000 0.038852
0.489101 0.000000 0.037772
0.533105 0.000000 0.036693
0.577110 0.000000 0.035614
0.621115 0.000000 0.034535
0.665119 0.000000 0.033456
0.709124 0.000000 0.032376
0.753129 0.000000 0.031297
0.797133 0.000000 0.030218
0.841138 0.000000 0.029139
0.885142 0.000000 0.028060
0.929147 0.000000 0.026980
0.973152 0.000000 0.025901
1.000000 0.000000 0.024822
1.000000 0.000000 0.023743
1.000000 0.000000 0.022664
1.000000 0.000000 0.021584
1.000000 0.000000 0.020505
1.000000 0.000000 0.019426
1.000000 0.000000 0.018347
0.000000 0.000000 0.050763
0.000000 0.000000 0.049683
0.000000 0.000000 0.048604
0.005050 0.000000 0.047525
0.049054 0.000000 0.046446
0.093059 0.000000 0.045367
0.137064 0.000000 0.044287
0.181068 0.000000 0.043208
0.225073 0.000000 0.042129
0.269078 0.000000 0.041050
0.313082 0.000000 0.039971
0.357087 0.000000 0.038891
0.401091 0.000000 0.037812
0.445096 0.000000 0.036733
0.489101 0.000000 0.035654
0.533105 0.000000 0.034575
0.577110 0.000000 0.033495
0.621115 0.000000 0.032416
0.665119 0.000000 0.031337
0.709124 0.000000 0.030258
0.753129 0.000000 0.029179
0.797133 0.000000 0.028099
0.841138 0.000000 0.027020
0.885142 0.000000 0.025941
0.929147 0.000000 0.024862
0.973152 0.000000 0.023783
1.000000 0.000000 0.022703
1.000000 0.000000 0.021624
1.000000 0.000000 0.020545
1.000000 0.000000 0.019466
1.000000 0.000000 0.018387
1.000000 0.000000 0.017307
1.000000 0.000000 0.016228
0.000000 0.030262 0.048644
0.000000 0.030075 0.047565
0.000000 0.029888 0.046485
0.001337 0.029413 0.045406
0.045342 0.026718 0.044327
0.089346 0.024024 0.043248
0.133351 0.021329 0.042169
0.177355 0.018634 0.041089
0.221360 0.015940 0.040010
0.265365 0.013245 0.038931
0.309369 0.010550 0.037852
0.353374 0.007855 0.036773
0.397379 0.005161 0.035693
0.441383 0.002466 0.034614
0.485388 0.000000 0.033535
0.529393 0.000000 0.032456
0.573397 0.000000 0.031377
0.617402 0.000000 0.030297
0.661407 0.000000 0.029218
0.705411 0.000000 0.028139
0.749416 0.000000 0.027060
0.793420 0.000000 0.025981
0.837425 0.000000 0.024901
0.881430 0.000000 0.023822
0.925434 0.000000 0.022743
0.969439 0.000000 0.021664
1.000000 0.000000 0.020585
1.000000 0.000000 0.019505
1.000000 0.000000 0.018426
1.000000 0.000000 0.017347
1.000000 0.000000 0.016268
1.000000 0.000000 0.015189
1.000000 0.000000 0.014109
0.000000 0.069438 0.046525
0.000000 0.069252 0.045446
0.000000 0.069065 0.044367
0.000000 0.068590 0.043288
0.040660 0.065895 0.042208
0.084665 0.063201 0.041129
0.128670 0.060506 0.040050
0.172674 0.057811 0.038971
0.216679 0.055116 0.037892
0.260683 0.052422 0.036812
0.304688 0.049727 0.035733
0.348693 0.047032 0.034654
0.392697 0.044337 0.033575
0.436702 0.041643 0.032496
0.480707 0.038948 0.031416
0.524711 0.036253 0.030337
0.568716 0.033558 0.029258
0.612721 0.030864 0.028179
0.656725 0.028169 0.027100
0.700730 0.025474 0.026020
0.744734 0.022779 0.024941
0.788739 0.020085 0.023862
0.832744 0.017390 0.022783
0.876748 0.014695 0.021704
0.920753 0.012001 0.020624
0.964758 0.009306 0.019545
1.000000 0.006611 0.018466
1.000000 0.003916 0.017387
1.000000 0.001222 0.016308
1.000000 0.000000 0.015228
1.000000 0.000000 0.014149
1.000000 0.000000 0.013070
1.000000 0.000000 0.011991
0.000000 0.108615 0.044406
0.000000 0.108428 0.043327
0.000000 0.108241 0.042248
0.000000 0.107767 0.041169
0.035979 0.105072 0.040090
0.079984 0.102377 0.039010
0.123988 0.099683 0.037931
0.167993 0.096988 0.036852
0.211997 0.094293 0.035773
0.256002 0.091598 0.034694
0.300007 0.088904 0.033614
0.344011 0.086209 0.032535
0.388016 0.083514 0.031456
0.432021 0.080819 0.030377
0.476025 0.078125 0.029298
0.520030 0.075430 0.028218
0.564035 0.072735 0.027139
0.608039 0.070040 0.026060
0.652044 0.067346 0.024981
0.696048 0.064651 0.023902
0.740053 0.061956 0.022822
0.784058 0.059262 0.021743
0.828062 0.056567 0.020664
0.872067 0.053872 0.019585
0.916072 0.051177 0.018506
0.960076 0.048483 0.017426
1.000000 0.045788 0.016347
1.000000 0.043093 0.015268
1.000000 0.040398 0.014189
1.000000 0.037704 0.013110
1.000000 0.037229 0.012030
1.000000 0.037042 0.010951
1.000000 0.036855 0.009872
0.000000 0.147792 0.042288
0.000000 0.147605 0.041209
0.000000 0.147418 0.040129
0.000000 0.146944 0.039050
0.031298 0.144249 0.037971
0.075302 0.141554 0.036892
0.119307 0.138859 0.035813
0.163312 0.136165 0.034733
0.207316 0.133470 0.033654
0.251321 0.130775 0.032575
0.295325 0.128080 0.031496
0.339330 0.125386 0.030417
0.383335 0.122691 0.029337
0.427339 0.119996 0.028258
0.471344 0.117301 0.027179
0.515349 0.114607 0.026100
0.559353 0.111912 0.025021
0.603358 0.109217 0.023941
0.647363 0.106523 0.022862
0.691367 0.103828 0.021783
0.735372 0.101133 0.020704
0.779376 0.098438 0.019625
0.823381 0.095744 0.018545
0.867386 0.093049 0.017466
0.911390 0.090354 0.016387
0.955395 0.087659 0.015308
0.999400 0.084965 0.014229
1.000000 0.082270 0.013149
1.000000 0.079575 0.012070
1.000000 0.076880 0.010991
1.000000 0.076406 0.009912
1.000000 0.076219 0.008832
1.000000 0.076032 0.007753
0.000000 0.186969 0.040169
0.000000 0.186782 0.039090
0.000000 0.186595 0.038011
0.000000 0.186120 0.036931
0.026616 0.183426 0.035852
0.070621 0.180731 0.034773
0.114626 0.178036 0.033694
0.158630 0.175341 0.032615
0.202635 0.172647 0.031535
0.246639 0.169952 0.030456
0.290644 0.167257 0.029377
0.334649 0.164562 0.028298
0.378653 0.161868 0.027219
0.422658 0.159173 0.026139
0.466663 0.156478 0.025060
0.510667 0.153784 0.023981
0.554672 0.151089 0.022902
0.598677 0.148394 0.021823
0.642681 0.145699 0.020743
0.686686 0.143005 0.019664
0.730690 0.140310 0.018585
0.774695 0.137615 0.017506
0.818700 0.134920 0.016427
0.862704 0.132226 0.015347
0.906709 0.129531 0.014268
0.950714 0.126836 0.013189
0.994718 0.124141 0.012110
1.000000 0.121447 0.011031
1.000000 0.118752 0.009951
1.000000 0.116057 0.008872
1.000000 0.115583 0.007793
1.000000 0.115396 0.006714
1.000000 0.115209 0.005635
0.000000 0.226146 0.038050
0.000000 0.225959 0.036971
0.000000 0.225772 0.035892
0.000000 0.225297 0.034813
0.021935 0.222602 0.033734
0.065940 0.219908 0.032654
0.109944 0.217213 0.031575
0.153949 0.214518 0.030496
0.197954 0.211824 0.029417
0.241958 0.209129 0.028338
0.285963 0.206434 0.027258
0.329967 0.203739 0.026179
0.373972 0.201045 0.025100
0.417977 0.198350 0.024021
0.461981 0.195655 0.022942
0.505986 0.192960 0.021862
0.549991 0.190266 0.020783
0.593995 0.187571 0.019704
0.638000 0.184876 0.018625
0.682005 0.182181 0.017546
0.726009 0.179487 0.016466
0.770014 0.176792 0.015387
0.814018 0.174097 0.014308
0.858023 0.171402 0.013229
0.902028 0.168708 0.012149
0.946032 0.166013 0.011070
0.990037 0.163318 0.009991
1.000000 0.160623 0.008912
1.000000 0.157929 0.007833
1.000000 0.155234 0.006753
1.000000 0.154759 0.005674
1.000000 0.154572 0.004595
1.000000 0.154386 0.003516
0.000000 0.265322 0.035932
0.000000 0.265136 0.034852
0.000000 0.264949 0.033773
0.000000 0.264474 0.032694
0.017254 0.261779 0.031615
0.061258 0.259085 0.030536
0.105263 0.256390 0.029456
0.149268 0.253695 0.028377
0.193272 0.251000 0.027298
0.237277 0.248306 0.026219
0.281281 0.245611 0.025140
0.325286 0.242916 0.024060
0.369291 0.240221 0.022981
0.413295 0.237527 0.021902
0.457300 0.234832 0.020823
0.501305 0.232137 0.019744
0.545309 0.229442 0.018664
0.589314 0.226748 0.017585
0.633319 0.224053 0.016506
0.677323 0.221358 0.015427
0.721328 0.218663 0.014348
0.765332 0.215969 0.013268
0.809337 0.213274 0.012189
0.853342 0.210579 0.011110
0.897346 0.207885 0.010031
0.941351 0.205190 0.008952
0.985356 0.202495 0.007872
1.000000 0.199800 0.006793
1.000000 0.197106 0.005714
1.000000 0.194411 0.004635
1.000000 0.193936 0.003556
1.000000 0.193749 0.002476
1.000000 0.193562 0.001397
0.000000 0.304499 0.033813
0.000000 0.304312 0.032734
0.000000 0.304125 0.031655
0.000000 0.303651 0.030575
0.012572 0.300956 0.029496
0.056577 0.298261 0.028417
0.100582 0.295567 0.027338
0.144586 0.292872 0.026259
0.188591 0.290177 0.025179
0.232595 0.287482 0.024100
0.276600 0.284788 0.023021
0.320605 0.282093 0.021942
0.364609 0.279398 0.020863
0.408614 0.276703 0.019783
0.452619 0.274009 0.018704
0.496623 0.271314 0.017625
0.540628 0.268619 0.016546
0.584633 0.265924 0.015467
0.628637 0.263230 0.014387
0.672642 0.260535 0.013308
0.716646 0.257840 0.012229
0.760651 0.255146 0.011150
0.804656 0.252451 0.010071
0.848660 0.249756 0.008991
0.892665 0.247061 0.007912
0.936670 0.244367 0.006833
0.981169 0.241672 0.005754
1.000000 0.238977 0.004674
1.000000 0.236282 0.003595
1.000000 0.233588 0.002516
1.000000 0.233113 0.001437
1.000000 0.232926 0.000358
1.000000 0.232739 0.000000
0.000000 0.343676 0.031694
0.000000 0.343489 0.030615
0.000000 0.343302 0.029536
0.000000 0.342828 0.028457
0.007891 0.340133 0.027377
0.051896 0.337438 0.026298
0.095900 0.334743 0.025219
0.139905 0.332049 0.024140
0.183910 0.329354 0.023061
0.227914 0.326659 0.021981
0.271919 0.323964 0.020902
0.315923 0.321270 0.019823
0.359928 0.318575 0.018744
0.403933 0.315880 0.017665
0.447937 0.313185 0.016585
0.491942 0.310491 0.015506
0.535947 0.307796 0.014427
0.579951 0.305101 0.013348
0.623956 0.302407 0.012269
0.667961 0.299712 0.011189
0.711965 0.297017 0.010110
0.755970 0.294322 0.009031
0.799974 0.291628 0.007952
0.843979 0.288933 0.006873
0.888452 0.286238 0.005793
0.933181 0.283543 0.004714
0.977911 0.280849 0.003635
1.000000 0.278154 0.002556
1.000000 0.275459 0.001477
1.000000 0.272764 0.000397
1.000000 0.272290 0.000000
1.000000 0.272103 0.000000
1.000000 0.271916 0.000000
0.000000 0.382853 0.029576
0.000000 0.382666 0.028496
0.000000 0.382479 0.027417
0.000000 0.382004 0.026338
0.003210 0.379310 0.025259
0.047214 0.376615 0.024180
0.091219 0.373920 0.023100
0.135224 0.371225 0.022021
0.179228 0.368531 0.020942
0.223233 0.365836 0.019863
0.267237 0.363141 0.018784
0.311242 0.360446 0.017704
0.355247 0.357752 0.016625
0.399251 0.355057 0.015546
0.443256 0.352362 0.014467
0.487261 0.349668 0.013388
0.531265 0.346973 0.012308
0.575270 0.344278 0.011229
0.619275 0.341583 0.010150
0.663279 0.338889 0.009071
0.707284 0.336194 0.007991
0.751288 0.333499 0.006912
0.795734 0.330804 0.005833
0.840464 0.328110 0.004754
0.885194 0.325415 0.003675
0.929923 0.322720 0.002595
0.974653 0.320025 0.001516
1.000000 0.317331 0.000437
1.000000 0.314636 0.000000
1.000000 0.311941 0.000000
1.000000 0.311467 0.000000
1.000000 0.311280 0.000000
1.000000 0.311093 0.000000
0.000000 0.422030 0.027457
0.000000 0.421843 0.026378
0.000000 0.421656 0.025298
0.000000 0.421181 0.024219
0.000000 0.418486 0.023140
0.042533 0.415792 0.022061
0.086538 0.413097 0.020982
0.130542 0.410402 0.019902
0.174547 0.407708 0.018823
0.218552 0.405013 0.017744
0.262556 0.402318 0.016665
0.306561 0.399623 0.015586
0.350565 0.396929 0.014506
0.394570 0.394234 0.013427
0.438575 0.391539 0.012348
0.482579 0.388844 0.011269
0.526584 0.386150 0.010190
0.570589 0.383455 0.009110
0.614593 0.380760 0.008031
0.658598 0.378065 0.006952
0.703017 0.375371 0.005873
0.747747 0.372676 0.004794
0.792476 0.369981 0.003714
0.837206 0.367286 0.002635
0.881935 0.364592 0.001556
0.926665 0.361897 0.000477
0.971395 0.359202 0.000000
1.000000 0.356507 0.000000
1.000000 0.353813 0.000000
1.000000 0.351118 0.000000
1.000000 0.350643 0.000000
1.000000 0.350456 0.000000
1.000000 0.350270 0.000000
0.000000 0.461206 0.025338
0.000000 0.461020 0.024259
0.000000 0.460833 0.023180
0.000000 0.460358 0.022101
0.000000 0.457663 0.021021
0.037852 0.454969 0.019942
0.081856 0.452274 0.018863
0.125861 0.449579 0.017784
0.169866 0.446884 0.016705
0.213870 0.444190 0.015625
0.257875 0.441495 0.014546
0.301879 0.438800 0.013467
0.345884 0.436105 0.012388
0.389889 0.433411 0.011309
0.433893 0.430716 0.010229
0.477898 0.428021 0.009150
0.521903 0.425326 0.008071
0.565907 0.422632 0.006992
0.610300 0.419937 0.005913
0.655029 0.417242 0.004833
0.699759 0.414547 0.003754
0.744489 0.411853 0.002675
0.789218 0.409158 0.001596
0.833948 0.406463 0.000516
0.878677 0.403768 0.000000
0.923407 0.401074 0.000000
0.968137 0.398379 0.000000
1.000000 0.395684 0.000000
1.000000 0.392990 0.000000
1.000000 0.390295 0.000000
1.000000 0.389820 0.000000
1.000000 0.389633 0.000000
1.000000 0.389446 0.000000
0.000000 0.500383 0.023219
0.000000 0.500196 0.022140
0.000000 0.500009 0.021061
0.000000 0.499535 0.019982
0.000000 0.496840 0.018903
0.033170 0.494145 0.017823
0.077175 0.491451 0.016744
0.121180 0.488756 0.015665
0.165184 0.486061 0.014586
0.209189 0.483366 0.013507
0.253194 0.480672 0.012427
0.297198 0.477977 0.011348
0.341203 0.475282 0.010269
0.385207 0.472587 0.009190
0.429212 0.469893 0.008111
0.473217 0.467198 0.007031
0.517583 0.464503 0.005952
0.562312 0.461808 0.004873
0.607042 0.459114 0.003794
0.651771 0.456419 0.002715
0.696501 0.453724 0.001635
0.741231 0.451030 0.000556
0.785960 0.448335 0.000000
0.830690 0.445640 0.000000
0.875419 0.442945 0.000000
0.920149 0.440251 0.000000
0.964878 0.437556 0.000000
1.000000 0.434861 0.000000
1.000000 0.432166 0.000000
1.000000 0.429472 0.000000
1.000000 0.428997 0.000000
1.000000 0.428810 0.000000
1.000000 0.428623 0.000000
0.000000 0.539560 0.021101
0.000000 0.539373 0.020022
0.000000 0.539186 0.018942
0.000000 0.538712 0.017863
0.000000 0.536017 0.016784
0.028489 0.533322 0.015705
0.072494 0.530627 0.014626
0.116498 0.527933 0.013546
0.160503 0.525238 0.012467
0.204508 0.522543 0.011388
0.248512 0.519848 0.010309
0.292517 0.517154 0.009230
0.336521 0.514459 0.008150
0.380526 0.511764 0.007071
0.424865 0.509069 0.005992
0.469595 0.506375 0.004913
0.514324 0.503680 0.003834
0.559054 0.500985 0.002754
0.603784 0.498291 0.001675
0.648513 0.495596 0.000596
0.693243 0.492901 0.000000
0.737972 0.490206 0.000000
0.782702 0.487512 0.000000
0.827432 0.484817 0.000000
0.872161 0.482122 0.000000
0.916891 0.479427 0.000000
0.961620 0.476733 0.000000
1.000000 0.474038 0.000000
1.000000 0.471343 0.000000
1.000000 0.468648 0.000000
1.000000 0.468174 0.000000
1.000000 0.467987 0.000000
1.000000 0.467800 0.000000
0.000000 0.578737 0.018982
0.000000 0.578550 0.017903
0.000000 0.578363 0.016824
0.000000 0.577888 0.015744
0.000000 0.575194 0.014665
0.023808 0.572499 0.013586
0.067812 0.569804 0.012507
0.111817 0.567109 0.011428
0.155822 0.564415 0.010348
0.199826 0.561720 0.009269
0.243831 0.559025 0.008190
0.287835 0.556330 0.007111
0.332148 0.553636 0.006032
0.376878 0.550941 0.004952
0.421607 0.548246 0.003873
0.466337 0.545552 0.002794
0.511066 0.542857 0.001715
0.555796 0.540162 0.000636
0.600526 0.537467 0.000000
0.645255 0.534773 0.000000
0.689985 0.532078 0.000000
0.734714 0.529383 0.000000
0.779444 0.526688 0.000000
0.824173 0.523994 0.000000
0.868903 0.521299 0.000000
0.913633 0.518604 0.000000
0.958362 0.515909 0.000000
1.000000 0.513215 0.000000
1.000000 0.510520 0.000000
1.000000 0.507825 0.000000
1.000000 0.507351 0.000000
1.000000 0.507164 0.000000
1.000000 0.506977 0.000000
0.000000 0.617914 0.016863
0.000000 0.617727 0.015784
0.000000 0.617540 0.014705
0.000000 0.617065 0.013626
0.000000 0.614370 0.012547
0.019126 0.611676 0.011467
0.063131 0.608981 0.010388
0.107136 0.606286 0.009309
0.151140 0.603591 0.008230
0.195145 0.600897 0.007151
0.239431 0.598202 0.006071
0.284160 0.595507 0.004992
0.328890 0.592813 0.003913
0.373620 0.590118 0.002834
0.418349 0.587423 0.001755
0.463079 0.584728 0.000675
0.507808 0.582034 0.000000
0.552538 0.579339 0.000000
0.597267 0.576644 0.000000
0.641997 0.573949 0.000000
0.686727 0.571255 0.000000
0.731456 0.568560 0.000000
0.776186 0.565865 0.000000
0.820915 0.563170 0.000000
0.865645 0.560476 0.000000
0.910375 0.557781 0.000000
0.955104 0.555086 0.000000
0.999834 0.552391 0.000000
1.000000 0.549697 0.000000
1.000000 0.547002 0.000000
1.000000 0.546527 0.000000
1.000000 0.546340 0.000000
1.000000 0.546154 0.000000
0.000000 0.657090 0.014745
0.000000 0.656904 0.013665
0.000000 0.656717 0.012586
0.000000 0.656242 0.011507
0.000000 0.653547 0.010428
0.014445 0.650853 0.009349
0.058450 0.648158 0.008269
0.102454 0.645463 0.007190
0.146714 0.642768 0.006111
0.191443 0.640074 0.005032
0.236173 0.637379 0.003953
0.280902 0.634684 0.002873
0.325632 0.631989 0.001794
0.370361 0.629295 0.000715
0.415091 0.626600 0.000000
0.459821 0.623905 0.000000
0.504550 0.621210 0.000000
0.549280 0.618516 0.000000
0.594009 0.615821 0.000000
0.638739 0.613126 0.000000
0.683469 0.610431 0.000000
0.728198 0.607737 0.000000
0.772928 0.605042 0.000000
0.817657 0.602347 0.000000
0.862387 0.599653 0.000000
0.907116 0.596958 0.000000
0.951846 0.594263 0.000000
0.996576 0.591568 0.000000
1.000000 0.588874 0.000000
1.000000 0.586179 0.000000
1.000000 0.585704 0.000000
1.000000 0.585517 0.000000
1.000000 0.585330 0.000000
0.000000 0.696267 0.012626
0.000000 0.696080 0.011547
0.000000 0.695893 0.010468
0.000000 0.695419 0.009388
0.000000 0.692724 0.008309
0.009764 0.690029 0.007230
0.053996 0.687335 0.006151
0.098726 0.684640 0.005072
0.143455 0.681945 0.003992
0.188185 0.679250 0.002913
0.232915 0.676556 0.001834
0.277644 0.673861 0.000755
0.322374 0.671166 0.000000
0.367103 0.668471 0.000000
0.411833 0.665777 0.000000
0.456562 0.663082 0.000000
0.501292 0.660387 0.000000
0.546022 0.657692 0.000000
0.590751 0.654998 0.000000
0.635481 0.652303 0.000000
0.680210 0.649608 0.000000
0.724940 0.646914 0.000000
0.769670 0.644219 0.000000
0.814399 0.641524 0.000000
0.859129 0.638829 0.000000
0.903858 0.636135 0.000000
0.948588 0.633440 0.000000
0.993317 0.630745 0.000000
1.000000 0.628050 0.000000
1.000000 0.625356 0.000000
1.000000 0.624881 0.000000
1.000000 0.624694 0.000000
1.000000 0.624507 0.000000
0.000000 0.735444 0.010507
0.000000 0.735257 0.009428
0.000000 0.735070 0.008349
0.000000 0.734596 0.007270
0.000201 0.731901 0.006190
0.006009 0.729206 0.005111
0.050738 0.726511 0.004032
0.095468 0.723817 0.002953
0.140197 0.721122 0.001874
0.184927 0.718427 0.000794
0.229656 0.715732 0.000000
0.274386 0.713038 0.000000
0.319116 0.710343 0.000000
0.363845 0.707648 0.000000
0.408575 0.704953 0.000000
0.453304 0.702259 0.000000
0.498034 0.699564 0.000000
0.542764 0.696869 0.000000
0.587493 0.694175 0.000000
0.632223 0.691480 0.000000
0.676952 0.688785 0.000000
0.721682 0.686090 0.000000
0.766411 0.683396 0.000000
0.811141 0.680701 0.000000
0.855871 0.678006 0.000000
0.900600 0.675311 0.000000
0.945330 0.672617 0.000000
0.990059 0.669922 0.000000
1.000000 0.667227 0.000000
1.000000 0.664532 0.000000
1.000000 0.664058 0.000000
1.000000 0.663871 0.000000
1.000000 0.663684 0.000000
0.000000 0.774621 0.008389
0.000000 0.774434 0.007309
0.000175 0.774247 0.006230
0.000900 0.773772 0.005151
0.001624 0.771078 0.004072
0.002750 0.768383 0.002993
0.047480 0.765688 0.001913
0.092210 0.762993 0.000834
0.136939 0.760299 0.000000
0.181669 0.757604 0.000000
0.226398 0.754909 0.000000
0.271128 0.752214 0.000000
0.315858 0.749520 0.000000
0.360587 0.746825 0.000000
0.405317 0.744130 0.000000
0.450046 0.741436 0.000000
0.494776 0.738741 0.000000
0.539505 0.736046 0.000000
0.584235 0.733351 0.000000
0.628965 0.730657 0.000000
0.673694 0.727962 0.000000
0.718424 0.725267 0.000000
0.763153 0.722572 0.000000
0.807883 0.719878 0.000000
0.852613 0.717183 0.000000
0.897342 0.714488 0.000000
0.942072 0.711793 0.000000
0.986801 0.709099 0.000000
1.000000 0.706404 0.000000
1.000000 0.703709 0.000000
1.000000 0.703235 0.000000
1.000000 0.703048 0.000000
1.000000 0.702861 0.000000
0.000148 0.813798 0.006270
0.000873 0.813611 0.005191
0.001598 0.813424 0.004111
0.002323 0.812949 0.003032
0.003048 0.810254 0.001953
0.003773 0.807560 0.000874
0.044222 0.804865 0.000000
0.088952 0.802170 0.000000
0.133681 0.799475 0.000000
0.178411 0.796781 0.000000
0.223140 0.794086 0.000000
0.267870 0.791391 0.000000
0.312599 0.788697 0.000000
0.357329 0.786002 0.000000
0.402059 0.783307 0.000000
0.446788 0.780612 0.000000
0.491518 0.777918 0.000000
0.536247 0.775223 0.000000
0.580977 0.772528 0.000000
0.625707 0.769833 0.000000
0.670436 0.767139 0.000000
0.715166 0.764444 0.000000
0.759895 0.761749 0.000000
0.804625 0.759054 0.000000
0.849354 0.756360 0.000000
0.894084 0.753665 0.000000
0.938814 0.750970 0.000000
0.983543 0.748275 0.000000
1.000000 0.745581 0.000000
1.000000 0.742886 0.000000
1.000000 0.742411 0.000000
1.000000 0.742224 0.000000
1.000000 0.742038 0.000000
0.001571 0.852974 0.004151
0.002296 0.852788 0.003072
0.003021 0.852601 0.001993
0.003746 0.852126 0.000914
0.004471 0.849431 0.000000
0.005196 0.846737 0.000000
0.040964 0.844042 0.000000
0.085693 0.841347 0.000000
0.130423 0.838652 0.000000
0.175153 0.835958 0.000000
0.219882 0.833263 0.000000
0.264612 0.830568 0.000000
0.309341 0.827873 0.000000
0.354071 0.825179 0.000000
0.398800 0.822484 0.000000
0.443530 0.819789 0.000000
0.488260 0.817094 0.000000
0.532989 0.814400 0.000000
0.577719 0.811705 0.000000
0.622448 0.809010 0.000000
0.667178 0.806315 0.000000
0.711908 0.803621 0.000000
0.756637 0.800926 0.000000
0.801367 0.798231 0.000000
0.846096 0.795536 0.000000
0.890826 0.792842 0.000000
0.935555 0.790147 0.000000
0.980285 0.787452 0.000000
1.000000 0.784758 0.000000
1.000000 0.782063 0.000000
1.000000 0.781588 0.000000
1.000000 0.781401 0.000000
1.000000 0.781214 0.000000
0.002994 0.892151 0.002032
0.003719 0.891964 0.000953
0.004444 0.891777 0.000000
0.005169 0.891303 0.000000
0.005894 0.888608 0.000000
0.006619 0.885913 0.000000
0.037706 0.883219 0.000000
0.082435 0.880524 0.000000
0.127165 0.877829 0.000000
0.171894 0.875134 0.000000
0.216624 0.872440 0.000000
0.261354 0.869745 0.000000
0.306083 0.867050 0.000000
0.350813 0.864355 0.000000
0.395542 0.861661 0.000000
0.440272 0.858966 0.000000
0.485002 0.856271 0.000000
0.529731 0.853576 0.000000
0.574461 0.850882 0.000000
0.619190 0.848187 0.000000
0.663920 0.845492 0.000000
0.708649 0.842798 0.000000
0.753379 0.840103 0.000000
0.798109 0.837408 0.000000
0.842838 0.834713 0.000000
0.887568 0.832019 0.000000
0.932297 0.829324 0.000000
0.977027 0.826629 0.000000
1.000000 0.823934 0.000000
1.000000 0.821240 0.000000
1.000000 0.820765 0.000000
1.000000 0.820578 0.000000
1.000000 0.820391 0.000000
0.004418 0.931328 0.000000
0.005143 0.931141 0.000000
0.005867 0.930954 0.000000
0.006592 0.930480 0.000000
0.007317 0.927785 0.000000
0.008042 0.925090 0.000000
0.034448 0.922395 0.000000
0.079177 0.919701 0.000000
0.123907 0.917006 0.000000
0.168636 0.914311 0.000000
0.213366 0.911616 0.000000
0.258096 0.908922 0.000000
0.302825 0.906227 0.000000
0.347555 0.903532 0.000000
0.392284 0.900837 0.000000
0.437014 0.898143 0.000000
0.481743 0.895448 0.000000
0.526473 0.892753 0.000000
0.571203 0.890059 0.000000
0.615932 0.887364 0.000000
0.660662 0.884669 0.000000
0.705391 0.881974 0.000000
0.750121 0.879280 0.000000
0.794851 0.876585 0.000000
0.839580 0.873890 0.000000
0.884310 0.871195 0.000000
0.929039 0.868501 0.000000
