docs/luts/fresh-vintage-warmth.cube
TITLE "FreshLUTs??-????"
LUT_3D_SIZE 9
DOMAIN_MIN 0.0 0.0 0.0
DOMAIN_MAX 1.0 1.0 1.0
0.101040 0.081868 0.049088
0.198012 0.087841 0.055061
0.294984 0.093813 0.061033
0.391957 0.099786 0.067006
0.488929 0.105759 0.072979
0.585901 0.111731 0.078951
0.682873 0.117704 0.084924
0.779845 0.123677 0.090897
0.876817 0.129649 0.096869
0.112689 0.183922 0.060737
0.209661 0.189895 0.066710
0.306633 0.195867 0.072682
0.403606 0.201840 0.078655
0.500578 0.207813 0.084628
0.597550 0.213785 0.090600
0.694522 0.219758 0.096573
0.791494 0.225731 0.102546
0.888467 0.231704 0.108519
0.124338 0.285976 0.072386
0.221310 0.291949 0.078359
0.318282 0.297921 0.084331
0.415255 0.303894 0.090304
0.512227 0.309867 0.096277
0.609199 0.315839 0.102249
0.706171 0.321812 0.108222
0.803143 0.327785 0.114195
0.900116 0.333758 0.120168
0.135987 0.388030 0.084035
0.232959 0.394003 0.090008
0.329931 0.399975 0.095980
0.426904 0.405948 0.101953
0.523876 0.411921 0.107926
0.620848 0.417894 0.113899
0.717820 0.423866 0.119871
0.814792 0.429839 0.125844
0.911765 0.435812 0.131817
0.147636 0.490084 0.095684
0.244608 0.496057 0.101657
0.341581 0.502030 0.107630
0.438553 0.508002 0.113602
0.535525 0.513975 0.119575
0.632497 0.519948 0.125548
0.729469 0.525920 0.131520
0.826441 0.531893 0.137493
0.923414 0.537866 0.143466
0.159285 0.592138 0.107333
0.256257 0.598111 0.113306
0.353230 0.604084 0.119279
0.450202 0.610056 0.125251
0.547174 0.616029 0.131224
0.644146 0.622002 0.137197
0.741118 0.627974 0.143169
0.838090 0.633947 0.149142
0.935063 0.639920 0.155115
0.170934 0.694192 0.118982
0.267906 0.700165 0.124955
0.364879 0.706138 0.130928
0.461851 0.712110 0.136900
0.558823 0.718083 0.142873
0.655795 0.724056 0.148846
0.752767 0.730028 0.154818
0.849739 0.736001 0.160791
0.946712 0.741974 0.166764
0.182583 0.796246 0.130631
0.279555 0.802219 0.136604
0.376528 0.808192 0.142577
0.473500 0.814164 0.148549
0.570472 0.820137 0.154522
0.667444 0.826110 0.160495
0.764416 0.832082 0.166467
0.861388 0.838055 0.172440
0.958361 0.844028 0.178413
0.194232 0.898300 0.142280
0.291204 0.904273 0.148253
0.388177 0.910246 0.154226
0.485149 0.916218 0.160198
0.582121 0.922191 0.166171
0.679093 0.928164 0.172144
0.776065 0.934136 0.178116
0.873037 0.940109 0.184089
0.970010 0.946082 0.190062
0.103246 0.084074 0.139444
0.200218 0.090047 0.145417
0.297190 0.096019 0.151389
0.394163 0.101992 0.157362
0.491135 0.107965 0.163335
0.588107 0.113937 0.169307
0.685079 0.119910 0.175280
0.782051 0.125883 0.181253
0.879023 0.131855 0.187225
0.114895 0.186128 0.151093
0.211867 0.192101 0.157066
0.308839 0.198073 0.163038
0.405812 0.204046 0.169011
0.502784 0.210019 0.174984
0.599756 0.215991 0.180956
0.696728 0.221964 0.186929
0.793700 0.227937 0.192902
0.890672 0.233909 0.198874
0.126544 0.288182 0.162742
0.223516 0.294155 0.168715
0.320488 0.300127 0.174687
0.417461 0.306100 0.180660
0.514433 0.312073 0.186633
0.611405 0.318045 0.192605
0.708377 0.324018 0.198578
0.805349 0.329991 0.204551
0.902321 0.335963 0.210523
0.138193 0.390236 0.174391
0.235165 0.396209 0.180364
0.332137 0.402181 0.186336
0.429110 0.408154 0.192309
0.526082 0.414127 0.198282
0.623054 0.420099 0.204254
0.720026 0.426072 0.210227
0.816998 0.432045 0.216200
0.913970 0.438017 0.222172
0.149842 0.492290 0.186040
0.246814 0.498263 0.192013
0.343786 0.504235 0.197985
0.440759 0.510208 0.203958
0.537731 0.516181 0.209931
0.634703 0.522153 0.215903
0.731675 0.528126 0.221876
0.828647 0.534099 0.227849
0.925619 0.540071 0.233821
0.161491 0.594344 0.197689
0.258463 0.600317 0.203662
0.355435 0.606289 0.209634
0.452408 0.612262 0.215607
0.549380 0.618235 0.221580
0.646352 0.624207 0.227552
0.743324 0.630180 0.233525
0.840296 0.636153 0.239498
0.937268 0.642125 0.245470
0.173140 0.696398 0.209338
0.270112 0.702371 0.215311
0.367084 0.708343 0.221283
0.464057 0.714316 0.227256
0.561029 0.720289 0.233229
0.658001 0.726261 0.239201
0.754973 0.732234 0.245174
0.851945 0.738207 0.251147
0.948917 0.744179 0.257119
0.184789 0.798452 0.220987
0.281761 0.804425 0.226960
0.378733 0.810397 0.232932
0.475706 0.816370 0.238905
0.572678 0.822343 0.244878
0.669650 0.828315 0.250850
0.766622 0.834288 0.256823
0.863594 0.840261 0.262796
0.960566 0.846233 0.268768
0.196438 0.900506 0.232636
0.293410 0.906479 0.238609
0.390382 0.912451 0.244581
0.487355 0.918424 0.250554
0.584327 0.924397 0.256527
0.681299 0.930369 0.262499
0.778271 0.936342 0.268472
0.875243 0.942315 0.274445
0.972216 0.948288 0.280418
0.105452 0.086280 0.229800
0.202424 0.092253 0.235773
0.299396 0.098225 0.241745
0.396368 0.104198 0.247718
0.493341 0.110171 0.253691
0.590313 0.116143 0.259663
0.687285 0.122116 0.265636
0.784257 0.128089 0.271609
0.881229 0.134061 0.277581
0.117101 0.188334 0.241449
0.214073 0.194307 0.247422
0.311045 0.200279 0.253394
0.408017 0.206252 0.259367
0.504990 0.212225 0.265340
0.601962 0.218197 0.271312
0.698934 0.224170 0.277285
0.795906 0.230143 0.283258
0.892878 0.236115 0.289230
0.128750 0.290388 0.253098
0.225722 0.296361 0.259071
0.322694 0.302333 0.265043
0.419666 0.308306 0.271016
0.516639 0.314279 0.276989
0.613611 0.320251 0.282961
0.710583 0.326224 0.288934
0.807555 0.332197 0.294907
0.904527 0.338169 0.300879
0.140399 0.392442 0.264747
0.237371 0.398415 0.270720
0.334343 0.404387 0.276692
0.431315 0.410360 0.282665
0.528288 0.416333 0.288638
0.625260 0.422305 0.294610
0.722232 0.428278 0.300583
0.819204 0.434251 0.306556
0.916176 0.440223 0.312528
0.152048 0.494496 0.276396
0.249020 0.500469 0.282369
0.345992 0.506441 0.288341
0.442964 0.512414 0.294314
0.539937 0.518387 0.300287
0.636909 0.524359 0.306259
0.733881 0.530332 0.312232
0.830853 0.536305 0.318205
0.927825 0.542277 0.324177
0.163697 0.596550 0.288045
0.260669 0.602523 0.294018
0.357641 0.608495 0.299990
0.454613 0.614468 0.305963
0.551586 0.620441 0.311936
0.648558 0.626413 0.317908
0.745530 0.632386 0.323881
0.842502 0.638359 0.329854
0.939474 0.644331 0.335826
0.175346 0.698604 0.299694
0.272318 0.704577 0.305667
0.369290 0.710549 0.311639
0.466263 0.716522 0.317612
0.563235 0.722495 0.323585
0.660207 0.728467 0.329557
0.757179 0.734440 0.335530
0.854151 0.740413 0.341503
0.951123 0.746385 0.347475
0.186995 0.800658 0.311343
0.283967 0.806631 0.317316
0.380939 0.812603 0.323288
0.477912 0.818576 0.329261
0.574884 0.824549 0.335234
0.671856 0.830521 0.341206
0.768828 0.836494 0.347179
0.865800 0.842467 0.353152
0.962772 0.848439 0.359124
0.198644 0.902712 0.322992
0.295616 0.908685 0.328965
0.392588 0.914657 0.334937
0.489561 0.920630 0.340910
0.586533 0.926603 0.346883
0.683505 0.932575 0.352855
0.780477 0.938548 0.358828
0.877449 0.944521 0.364801
0.974421 0.950493 0.370773
0.107658 0.088486 0.320156
0.204630 0.094458 0.326128
0.301602 0.100431 0.332101
0.398574 0.106404 0.338074
0.495546 0.112376 0.344046
0.592519 0.118349 0.350019
0.689491 0.124322 0.355992
0.786463 0.130295 0.361965
0.883435 0.136267 0.367937
0.119307 0.190540 0.331805
0.216279 0.196512 0.337777
0.313251 0.202485 0.343750
0.410223 0.208458 0.349723
0.507196 0.214431 0.355696
0.604168 0.220403 0.361668
0.701140 0.226376 0.367641
0.798112 0.232349 0.373614
0.895084 0.238321 0.379586
0.130956 0.292594 0.343454
0.227928 0.298566 0.349426
0.324900 0.304539 0.355399
0.421872 0.310512 0.361372
0.518845 0.316485 0.367345
0.615817 0.322457 0.373317
0.712789 0.328430 0.379290
0.809761 0.334403 0.385263
0.906733 0.340375 0.391235
0.142605 0.394648 0.355103
0.239577 0.400621 0.361076
0.336549 0.406593 0.367048
0.433521 0.412566 0.373021
0.530494 0.418539 0.378994
0.627466 0.424511 0.384966
0.724438 0.430484 0.390939
0.821410 0.436457 0.396912
0.918382 0.442429 0.402884
0.154254 0.496702 0.366752
0.251226 0.502675 0.372725
0.348198 0.508647 0.378697
0.445170 0.514620 0.384670
0.542143 0.520593 0.390643
0.639115 0.526565 0.396615
0.736087 0.532538 0.402588
0.833059 0.538511 0.408561
0.930031 0.544483 0.414533
0.165903 0.598756 0.378401
0.262875 0.604729 0.384374
0.359847 0.610701 0.390346
0.456819 0.616674 0.396319
0.553792 0.622647 0.402292
0.650764 0.628619 0.408264
0.747736 0.634592 0.414237
0.844708 0.640565 0.420210
0.941680 0.646537 0.426182
0.177552 0.700810 0.390050
0.274524 0.706783 0.396023
0.371496 0.712755 0.401995
0.468468 0.718728 0.407968
0.565441 0.724701 0.413941
0.662413 0.730673 0.419913
0.759385 0.736646 0.425886
0.856357 0.742619 0.431859
0.953329 0.748591 0.437831
0.189201 0.802864 0.401699
0.286173 0.808837 0.407672
0.383145 0.814809 0.413644
0.480117 0.820782 0.419617
0.577090 0.826755 0.425590
0.674062 0.832727 0.431562
0.771034 0.838700 0.437535
0.868006 0.844673 0.443508
0.964978 0.850645 0.449480
0.200850 0.904918 0.413348
0.297822 0.910891 0.419321
0.394794 0.916863 0.425293
0.491766 0.922836 0.431266
0.588739 0.928809 0.437239
0.685711 0.934781 0.443211
0.782683 0.940754 0.449184
0.879655 0.946727 0.455157
0.976627 0.952699 0.461129
0.109864 0.090692 0.410512
0.206836 0.096664 0.416484
0.303808 0.102637 0.422457
0.400780 0.108610 0.428430
0.497752 0.114582 0.434402
0.594725 0.120555 0.440375
0.691697 0.126528 0.446348
0.788669 0.132500 0.452320
0.885641 0.138473 0.458293
0.121513 0.192746 0.422161
0.218485 0.198718 0.428133
0.315457 0.204691 0.434106
0.412429 0.210664 0.440079
0.509401 0.216636 0.446051
0.606374 0.222609 0.452024
0.703346 0.228582 0.457997
0.800318 0.234554 0.463969
0.897290 0.240527 0.469942
0.133162 0.294800 0.433810
0.230134 0.300772 0.439782
0.327106 0.306745 0.445755
0.424078 0.312718 0.451728
0.521050 0.318690 0.457700
0.618023 0.324663 0.463673
0.714995 0.330636 0.469646
0.811967 0.336608 0.475618
0.908939 0.342581 0.481591
0.144811 0.396854 0.445459
0.241783 0.402826 0.451431
0.338755 0.408799 0.457404
0.435727 0.414772 0.463377
0.532699 0.420744 0.469349
0.629672 0.426717 0.475322
0.726644 0.432690 0.481295
0.823616 0.438662 0.487267
0.920588 0.444635 0.493240
0.156460 0.498908 0.457108
0.253432 0.504880 0.463080
0.350404 0.510853 0.469053
0.447376 0.516826 0.475026
0.544348 0.522798 0.480998
0.641321 0.528771 0.486971
0.738293 0.534744 0.492944
0.835265 0.540716 0.498916
0.932237 0.546689 0.504889
0.168109 0.600962 0.468757
0.265081 0.606934 0.474729
0.362053 0.612907 0.480702
0.459025 0.618880 0.486675
0.555997 0.624852 0.492647
0.652970 0.630825 0.498620
0.749942 0.636798 0.504593
0.846914 0.642770 0.510565
0.943886 0.648743 0.516538
0.179758 0.703016 0.480406
0.276730 0.708988 0.486378
0.373702 0.714961 0.492351
0.470674 0.720934 0.498324
0.567646 0.726906 0.504296
0.664619 0.732879 0.510269
0.761591 0.738852 0.516242
0.858563 0.744825 0.522215
0.955535 0.750797 0.528187
0.191407 0.805070 0.492055
0.288379 0.811042 0.498027
0.385351 0.817015 0.504000
0.482323 0.822988 0.509973
0.579295 0.828960 0.515945
0.676268 0.834933 0.521918
0.773240 0.840906 0.527891
0.870212 0.846879 0.533864
0.967184 0.852851 0.539836
0.203056 0.907124 0.503704
0.300028 0.913096 0.509676
0.397000 0.919069 0.515649
0.493972 0.925042 0.521622
0.590945 0.931015 0.527595
0.687917 0.936987 0.533567
0.784889 0.942960 0.539540
0.881861 0.948933 0.545513
0.978833 0.954905 0.551485
0.112070 0.092898 0.500868
0.209042 0.098870 0.506840
0.306014 0.104843 0.512813
0.402986 0.110816 0.518786
0.499958 0.116788 0.524758
0.596930 0.122761 0.530731
0.693903 0.128734 0.536704
0.790875 0.134706 0.542676
0.887847 0.140679 0.548649
0.123719 0.194952 0.512517
0.220691 0.200924 0.518489
0.317663 0.206897 0.524462
0.414635 0.212870 0.530435
0.511607 0.218842 0.536407
0.608579 0.224815 0.542380
0.705552 0.230788 0.548353
0.802524 0.236760 0.554325
0.899496 0.242733 0.560298
0.135368 0.297006 0.524166
0.232340 0.302978 0.530138
0.329312 0.308951 0.536111
0.426284 0.314924 0.542084
0.523256 0.320896 0.548056
0.620228 0.326869 0.554029
0.717201 0.332842 0.560002
0.814173 0.338814 0.565974
0.911145 0.344787 0.571947
0.147017 0.399060 0.535815
0.243989 0.405032 0.541787
0.340961 0.411005 0.547760
0.437933 0.416978 0.553733
0.534905 0.422950 0.559705
0.631878 0.428923 0.565678
0.728850 0.434896 0.571651
0.825822 0.440868 0.577623
0.922794 0.446841 0.583596
0.158666 0.501114 0.547464
0.255638 0.507086 0.553436
0.352610 0.513059 0.559409
0.449582 0.519032 0.565382
0.546554 0.525004 0.571354
0.643527 0.530977 0.577327
0.740499 0.536950 0.583300
0.837471 0.542922 0.589272
0.934443 0.548895 0.595245
0.170315 0.603168 0.559113
0.267287 0.609140 0.565085
0.364259 0.615113 0.571058
0.461231 0.621086 0.577031
0.558203 0.627058 0.583003
0.655176 0.633031 0.588976
0.752148 0.639004 0.594949
0.849120 0.644976 0.600921
0.946092 0.650949 0.606894
0.181964 0.705222 0.570762
0.278936 0.711194 0.576734
0.375908 0.717167 0.582707
0.472880 0.723140 0.588680
0.569852 0.729112 0.594652
0.666825 0.735085 0.600625
0.763797 0.741058 0.606598
0.860769 0.747030 0.612570
0.957741 0.753003 0.618543
0.193613 0.807276 0.582411
0.290585 0.813248 0.588383
0.387557 0.819221 0.594356
0.484529 0.825194 0.600329
0.581501 0.831166 0.606301
0.678474 0.837139 0.612274
0.775446 0.843112 0.618247
0.872418 0.849084 0.624219
0.969390 0.855057 0.630192
0.205262 0.909330 0.594060
0.302234 0.915302 0.600032
0.399206 0.921275 0.606005
0.496178 0.927248 0.611978
0.593150 0.933220 0.617950
0.690123 0.939193 0.623923
0.787095 0.945166 0.629896
0.884067 0.951138 0.635868
0.981039 0.957111 0.641841
0.114275 0.095103 0.591223
0.211248 0.101076 0.597196
0.308220 0.107049 0.603169
0.405192 0.113022 0.609142
0.502164 0.118994 0.615114
0.599136 0.124967 0.621087
0.696109 0.130940 0.627060
0.793081 0.136912 0.633032
0.890053 0.142885 0.639005
0.125925 0.197158 0.602873
0.222897 0.203130 0.608845
0.319869 0.209103 0.614818
0.416841 0.215076 0.620791
0.513813 0.221048 0.626763
0.610785 0.227021 0.632736
0.707758 0.232994 0.638709
0.804730 0.238966 0.644681
0.901702 0.244939 0.650654
0.137574 0.299212 0.614522
0.234546 0.305184 0.620494
0.331518 0.311157 0.626467
0.428490 0.317130 0.632440
0.525462 0.323102 0.638412
0.622434 0.329075 0.644385
0.719407 0.335048 0.650358
0.816379 0.341020 0.656330
0.913351 0.346993 0.662303
0.149223 0.401266 0.626171
0.246195 0.407238 0.632143
0.343167 0.413211 0.638116
0.440139 0.419184 0.644089
0.537111 0.425156 0.650061
0.634083 0.431129 0.656034
0.731056 0.437102 0.662007
0.828028 0.443074 0.667979
0.925000 0.449047 0.673952
0.160872 0.503320 0.637820
0.257844 0.509292 0.643792
0.354816 0.515265 0.649765
0.451788 0.521238 0.655738
0.548760 0.527210 0.661710
0.645732 0.533183 0.667683
0.742705 0.539156 0.673656
0.839677 0.545128 0.679628
0.936649 0.551101 0.685601
0.172521 0.605374 0.649469
0.269493 0.611346 0.655441
0.366465 0.617319 0.661414
0.463437 0.623292 0.667387
0.560409 0.629264 0.673359
0.657381 0.635237 0.679332
0.754354 0.641210 0.685305
0.851326 0.647182 0.691277
0.948298 0.653155 0.697250
0.184170 0.707428 0.661118
0.281142 0.713400 0.667090
0.378114 0.719373 0.673063
0.475086 0.725346 0.679036
0.572058 0.731318 0.685008
0.669030 0.737291 0.690981
0.766003 0.743264 0.696954
0.862975 0.749236 0.702926
0.959947 0.755209 0.708899
0.195819 0.809482 0.672767
0.292791 0.815454 0.678739
0.389763 0.821427 0.684712
0.486735 0.827400 0.690685
0.583707 0.833372 0.696657
0.680679 0.839345 0.702630
0.777652 0.845318 0.708603
0.874624 0.851290 0.714575
0.971596 0.857263 0.720548
0.207468 0.911536 0.684416
0.304440 0.917508 0.690388
0.401412 0.923481 0.696361
0.498384 0.929454 0.702334
0.595356 0.935426 0.708306
0.692328 0.941399 0.714279
0.789301 0.947372 0.720252
0.886273 0.953344 0.726224
0.983245 0.959317 0.732197
0.116481 0.097309 0.681579
0.213454 0.103282 0.687552
0.310426 0.109255 0.693525
0.407398 0.115227 0.699497
0.504370 0.121200 0.705470
0.601342 0.127173 0.711443
0.698314 0.133145 0.717415
0.795287 0.139118 0.723388
0.892259 0.145091 0.729361
0.128130 0.199363 0.693228
0.225103 0.205336 0.699201
0.322075 0.211309 0.705174
0.419047 0.217281 0.711146
0.516019 0.223254 0.717119
0.612991 0.229227 0.723092
0.709963 0.235199 0.729064
0.806936 0.241172 0.735037
0.903908 0.247145 0.741010
0.139779 0.301417 0.704877
0.236752 0.307390 0.710850
0.333724 0.313363 0.716823
0.430696 0.319335 0.722795
0.527668 0.325308 0.728768
0.624640 0.331281 0.734741
0.721612 0.337253 0.740713
0.818585 0.343226 0.746686
0.915557 0.349199 0.752659
0.151428 0.403471 0.716526
0.248401 0.409444 0.722499
0.345373 0.415417 0.728472
0.442345 0.421389 0.734444
0.539317 0.427362 0.740417
0.636289 0.433335 0.746390
0.733261 0.439307 0.752362
0.830234 0.445280 0.758335
0.927206 0.451253 0.764308
0.163077 0.505525 0.728175
0.260050 0.511498 0.734148
0.357022 0.517471 0.740121
0.453994 0.523443 0.746093
0.550966 0.529416 0.752066
0.647938 0.535389 0.758039
0.744910 0.541361 0.764011
0.841883 0.547334 0.769984
0.938855 0.553307 0.775957
0.174726 0.607579 0.739824
0.271699 0.613552 0.745797
0.368671 0.619525 0.751770
0.465643 0.625497 0.757742
0.562615 0.631470 0.763715
0.659587 0.637443 0.769688
0.756560 0.643416 0.775661
0.853532 0.649388 0.781633
0.950504 0.655361 0.787606
0.186375 0.709633 0.751473
0.283348 0.715606 0.757446
0.380320 0.721579 0.763419
0.477292 0.727552 0.769392
0.574264 0.733524 0.775364
0.671236 0.739497 0.781337
0.768209 0.745470 0.787310
0.865181 0.751442 0.793282
0.962153 0.757415 0.799255
0.198024 0.811687 0.763122
0.294997 0.817660 0.769095
0.391969 0.823633 0.775068
0.488941 0.829606 0.781041
0.585913 0.835578 0.787013
0.682885 0.841551 0.792986
0.779858 0.847524 0.798959
0.876830 0.853496 0.804931
0.973802 0.859469 0.810904
0.209674 0.913742 0.774772
0.306646 0.919714 0.780744
0.403618 0.925687 0.786717
0.500590 0.931660 0.792690
0.597562 0.937632 0.798662
0.694534 0.943605 0.804635
0.791507 0.949578 0.810608
0.888479 0.955550 0.816580
0.985451 0.961523 0.822553
0.118687 0.099515 0.771935
0.215659 0.105488 0.777908
0.312632 0.111461 0.783881
0.409604 0.117433 0.789853
0.506576 0.123406 0.795826
0.603548 0.129379 0.801799
0.700520 0.135351 0.807771
0.797493 0.141324 0.813744
0.894465 0.147297 0.819717
0.130336 0.201569 0.783584
0.227308 0.207542 0.789557
0.324281 0.213515 0.795530
0.421253 0.219487 0.801502
0.518225 0.225460 0.807475
0.615197 0.231433 0.813448
0.712169 0.237405 0.819420
0.809142 0.243378 0.825393
0.906114 0.249351 0.831366
0.141985 0.303623 0.795233
0.238957 0.309596 0.801206
0.335930 0.315569 0.807179
0.432902 0.321541 0.813151
0.529874 0.327514 0.819124
0.626846 0.333487 0.825097
0.723818 0.339459 0.831069
0.820791 0.345432 0.837042
0.917763 0.351405 0.843015
0.153634 0.405677 0.806882
0.250607 0.411650 0.812855
0.347579 0.417623 0.818828
0.444551 0.423595 0.824800
0.541523 0.429568 0.830773
0.638495 0.435541 0.836746
0.735467 0.441513 0.842718
0.832440 0.447486 0.848691
0.929412 0.453459 0.854664
0.165283 0.507731 0.818531
0.262256 0.513704 0.824504
0.359228 0.519677 0.830477
0.456200 0.525649 0.836449
0.553172 0.531622 0.842422
0.650144 0.537595 0.848395
0.747116 0.543567 0.854367
0.844089 0.549540 0.860340
0.941061 0.555513 0.866313
0.176932 0.609785 0.830180
0.273905 0.615758 0.836153
0.370877 0.621731 0.842126
0.467849 0.627703 0.848098
0.564821 0.633676 0.854071
0.661793 0.639649 0.860044
0.758765 0.645621 0.866016
0.855738 0.651594 0.871989
0.952710 0.657567 0.877962
0.188581 0.711839 0.841829
0.285554 0.717812 0.847802
0.382526 0.723785 0.853775
0.479498 0.729757 0.859747
0.576470 0.735730 0.865720
0.673442 0.741703 0.871693
0.770414 0.747675 0.877665
0.867387 0.753648 0.883638
0.964359 0.759621 0.889611
0.200230 0.813893 0.853478
0.297203 0.819866 0.859451
0.394175 0.825839 0.865424
0.491147 0.831811 0.871396
0.588119 0.837784 0.877369
0.685091 0.843757 0.883342
0.782063 0.849729 0.889314
0.879036 0.855702 0.895287
0.976008 0.861675 0.901260
0.211879 0.915947 0.865127
0.308852 0.921920 0.871100
0.405824 0.927893 0.877073
0.502796 0.933865 0.883045
0.599768 0.939838 0.889018
0.696740 0.945811 0.894991
0.793712 0.951783 0.900963
0.890685 0.957756 0.906936
0.987657 0.963729 0.912909
