docs/luts/fresh-celluloid.cube
TITLE "FreshLUTs??-???"
LUT_3D_SIZE 9
DOMAIN_MIN 0.0 0.0 0.0
DOMAIN_MAX 1.0 1.0 1.0
0.000000 0.000000 0.040000
0.092336 0.000000 0.037997
0.223551 0.000000 0.036472
0.354765 0.000000 0.034947
0.485980 0.000000 0.033422
0.617195 0.000000 0.031897
0.748409 0.001273 0.030372
0.879624 0.004065 0.028847
0.971960 0.006379 0.026844
0.002583 0.095494 0.036419
0.094919 0.097808 0.034416
0.226134 0.100600 0.032891
0.357348 0.103391 0.031366
0.488563 0.106183 0.029841
0.619777 0.108975 0.028316
0.750992 0.111767 0.026792
0.882207 0.114559 0.025267
0.974543 0.116873 0.023263
0.005635 0.225658 0.033308
0.097971 0.227971 0.031305
0.229186 0.230763 0.029780
0.360401 0.233555 0.028255
0.491615 0.236347 0.026730
0.622830 0.239139 0.025205
0.754044 0.241931 0.023680
0.885259 0.244723 0.022155
0.978483 0.247036 0.020152
0.008688 0.355822 0.030197
0.101024 0.358135 0.028194
0.232238 0.360927 0.026669
0.363453 0.363719 0.025144
0.494668 0.366511 0.023619
0.625882 0.369303 0.022094
0.757937 0.372095 0.020569
0.890441 0.374711 0.019511
0.984066 0.375848 0.020648
0.011740 0.485985 0.027086
0.104076 0.488299 0.025083
0.235291 0.491091 0.023558
0.366505 0.493883 0.022033
0.498513 0.496675 0.020508
0.631016 0.499335 0.019335
0.763520 0.500949 0.020949
0.896023 0.502564 0.022564
0.989648 0.503700 0.023700
0.014792 0.616149 0.023975
0.107129 0.618462 0.021972
0.239089 0.621254 0.020447
0.371592 0.623958 0.019158
0.504096 0.625572 0.020772
0.636599 0.627187 0.022387
0.769102 0.628802 0.024002
0.901606 0.630416 0.025616
0.995231 0.631552 0.026752
0.018543 0.746313 0.020864
0.112168 0.748581 0.018981
0.244671 0.750196 0.020596
0.377175 0.751810 0.022210
0.509678 0.753425 0.023825
0.642182 0.755039 0.025439
0.774685 0.756654 0.027054
0.907188 0.758269 0.028669
1.000000 0.759405 0.029805
0.024126 0.875297 0.020897
0.117751 0.876433 0.022033
0.250254 0.878048 0.023648
0.382757 0.879663 0.025263
0.515261 0.881277 0.026877
0.647764 0.882892 0.028492
0.780268 0.884506 0.030106
0.912771 0.886121 0.031721
1.000000 0.887257 0.032857
0.029239 0.983480 0.023480
0.122864 0.984616 0.024616
0.255367 0.986231 0.026231
0.387870 0.987845 0.027845
0.520374 0.989460 0.029460
0.652877 0.991075 0.031075
0.785381 0.992689 0.032689
0.917884 0.994304 0.034304
1.000000 0.995440 0.035440
0.000467 0.000000 0.137670
0.092804 0.000000 0.135667
0.224018 0.000000 0.134142
0.355233 0.000000 0.132617
0.486447 0.000000 0.131092
0.617662 0.000000 0.129568
0.748877 0.002189 0.128043
0.880091 0.004981 0.126518
0.972427 0.007295 0.124514
0.003050 0.096410 0.134090
0.095386 0.098724 0.132086
0.226601 0.101516 0.130561
0.357816 0.104308 0.129037
0.489030 0.107100 0.127512
0.620245 0.109892 0.125987
0.751459 0.112683 0.124462
0.882674 0.115475 0.122937
0.975010 0.117789 0.120934
0.006103 0.226574 0.130979
0.098439 0.228888 0.128975
0.229653 0.231680 0.127450
0.360868 0.234471 0.125925
0.492083 0.237263 0.124401
0.623297 0.240055 0.122876
0.754512 0.242847 0.121351
0.885817 0.245639 0.119826
0.979442 0.247953 0.117823
0.009155 0.356738 0.127867
0.101491 0.359051 0.125864
0.232706 0.361843 0.124339
0.363920 0.364635 0.122814
0.495135 0.367427 0.121289
0.626393 0.370219 0.119765
0.758896 0.373011 0.118240
0.891399 0.375179 0.118379
0.985024 0.376315 0.119515
0.012207 0.486902 0.124756
0.104544 0.489215 0.122753
0.235758 0.492007 0.121228
0.366973 0.494799 0.119703
0.499472 0.497591 0.118178
0.631975 0.499802 0.118202
0.764479 0.501417 0.119817
0.896982 0.503031 0.121431
0.990607 0.504167 0.122567
0.015260 0.617065 0.121645
0.107596 0.619379 0.119642
0.240048 0.622171 0.118117
0.372551 0.624425 0.118025
0.505054 0.626040 0.119640
0.637558 0.627654 0.121254
0.770061 0.629269 0.122869
0.902565 0.630884 0.124484
0.996190 0.632020 0.125620
0.019502 0.747229 0.118534
0.113127 0.749048 0.117848
0.245630 0.750663 0.119463
0.378134 0.752278 0.121078
0.510637 0.753892 0.122692
0.643140 0.755507 0.124307
0.775644 0.757121 0.125921
0.908147 0.758736 0.127536
1.000000 0.759872 0.128672
0.025084 0.875765 0.119765
0.118709 0.876901 0.120901
0.251213 0.878515 0.122515
0.383716 0.880130 0.124130
0.516220 0.881745 0.125745
0.648723 0.883359 0.127359
0.781226 0.884974 0.128974
0.913730 0.886588 0.130588
1.000000 0.887725 0.131725
0.030197 0.983947 0.122347
0.123822 0.985084 0.123484
0.256326 0.986698 0.125098
0.388829 0.988313 0.126713
0.521333 0.989927 0.128327
0.653836 0.991542 0.129942
0.786339 0.993157 0.131557
0.918843 0.994771 0.133171
1.000000 0.995907 0.134307
0.001072 0.000000 0.264278
0.093408 0.000000 0.262274
0.224622 0.000000 0.260749
0.355837 0.000000 0.259224
0.487052 0.000000 0.257700
0.618266 0.000451 0.256175
0.749481 0.003242 0.254650
0.880695 0.006034 0.253125
0.973032 0.008348 0.251122
0.003654 0.097463 0.260697
0.095991 0.099777 0.258694
0.227205 0.102569 0.257169
0.358420 0.105361 0.255644
0.489634 0.108153 0.254119
0.620849 0.110945 0.252594
0.752064 0.113737 0.251069
0.883278 0.116528 0.249544
0.975614 0.118842 0.247541
0.006707 0.227627 0.257586
0.099043 0.229941 0.255582
0.230258 0.232733 0.254058
0.361472 0.235525 0.252533
0.492687 0.238316 0.251008
0.623901 0.241108 0.249483
0.755116 0.243900 0.247958
0.886912 0.246692 0.246433
0.980537 0.249006 0.244430
0.009759 0.357791 0.254475
0.102095 0.360104 0.252471
0.233310 0.362896 0.250946
0.364525 0.365688 0.249422
0.495739 0.368480 0.247897
0.627488 0.371272 0.246372
0.759992 0.374064 0.244847
0.892495 0.375783 0.246183
0.986120 0.376919 0.247319
0.012812 0.487955 0.251364
0.105148 0.490268 0.249360
0.236362 0.493060 0.247835
0.368064 0.495852 0.246310
0.500567 0.498644 0.244786
0.633071 0.500406 0.246006
0.765574 0.502021 0.247621
0.898078 0.503635 0.249235
0.991703 0.504772 0.250372
0.015864 0.618118 0.248252
0.108640 0.620432 0.246249
0.241143 0.623224 0.244724
0.373647 0.625029 0.245829
0.506150 0.626644 0.247444
0.638653 0.628259 0.249059
0.771157 0.629873 0.250673
0.903660 0.631488 0.252288
0.997285 0.632624 0.253424
0.020597 0.748282 0.245141
0.114222 0.749653 0.245653
0.246726 0.751267 0.247267
0.379229 0.752882 0.248882
0.511733 0.754496 0.250496
0.644236 0.756111 0.252111
0.776739 0.757726 0.253726
0.909243 0.759340 0.255340
1.000000 0.760476 0.256476
0.026180 0.876369 0.247569
0.119805 0.877505 0.248705
0.252308 0.879120 0.250320
0.384812 0.880734 0.251934
0.517315 0.882349 0.253549
0.649819 0.883963 0.255163
0.782322 0.885578 0.256778
0.914825 0.887193 0.258393
1.000000 0.888329 0.259529
0.031293 0.984552 0.250152
0.124918 0.985688 0.251288
0.257421 0.987302 0.252902
0.389925 0.988917 0.254517
0.522428 0.990532 0.256132
0.654932 0.992146 0.257746
0.787435 0.993761 0.259361
0.919938 0.995375 0.260975
1.000000 0.996512 0.262112
0.001676 0.000000 0.390885
0.094012 0.000000 0.388881
0.225227 0.000000 0.387357
0.356441 0.000000 0.385832
0.487656 0.000000 0.384307
0.618870 0.001504 0.382782
0.750085 0.004296 0.381257
0.881300 0.007087 0.379732
0.973636 0.009401 0.377729
0.004259 0.098517 0.387304
0.096595 0.100830 0.385301
0.227809 0.103622 0.383776
0.359024 0.106414 0.382251
0.490239 0.109206 0.380726
0.621453 0.111998 0.379201
0.752668 0.114790 0.377676
0.883882 0.117582 0.376151
0.976219 0.119895 0.374148
0.007311 0.228680 0.384193
0.099647 0.230994 0.382190
0.230862 0.233786 0.380665
0.362076 0.236578 0.379140
0.493291 0.239369 0.377615
0.624506 0.242161 0.376090
0.755720 0.244953 0.374565
0.888008 0.247745 0.373040
0.981633 0.249671 0.372071
0.010363 0.358844 0.381082
0.102700 0.361157 0.379079
0.233914 0.363949 0.377554
0.365129 0.366741 0.376029
0.496343 0.369533 0.374504
0.628584 0.372325 0.372979
0.761087 0.374773 0.372373
0.893591 0.376387 0.373987
0.987216 0.377523 0.375123
0.013416 0.489008 0.377971
0.105752 0.491321 0.375968
0.236967 0.494113 0.374443
0.369160 0.496905 0.372918
0.501663 0.499396 0.372196
0.634166 0.501010 0.373810
0.766670 0.502625 0.375425
0.899173 0.504240 0.377040
0.992798 0.505376 0.378176
0.016468 0.619171 0.374860
0.109735 0.621485 0.372856
0.242239 0.624019 0.372019
0.374742 0.625634 0.373634
0.507246 0.627248 0.375248
0.639749 0.628863 0.376863
0.772252 0.630477 0.378477
0.904756 0.632092 0.380092
0.998381 0.633228 0.381228
0.021693 0.749121 0.372321
0.115318 0.750257 0.373457
0.247821 0.751871 0.375071
0.380325 0.753486 0.376686
0.512828 0.755101 0.378301
0.645332 0.756715 0.379915
0.777835 0.758330 0.381530
0.910338 0.759944 0.383144
1.000000 0.761081 0.384281
0.027276 0.876973 0.375373
0.120901 0.878109 0.376509
0.253404 0.879724 0.378124
0.385907 0.881338 0.379738
0.518411 0.882953 0.381353
0.650914 0.884568 0.382968
0.783418 0.886182 0.384582
0.915921 0.887797 0.386197
1.000000 0.888933 0.387333
0.032389 0.985156 0.377956
0.126014 0.986292 0.379092
0.258517 0.987907 0.380707
0.391020 0.989521 0.382321
0.523524 0.991136 0.383936
0.656027 0.992750 0.385550
0.788531 0.994365 0.387165
0.921034 0.995980 0.388780
1.000000 0.997116 0.389916
0.002280 0.000000 0.517492
0.094616 0.000000 0.515489
0.225831 0.000000 0.513964
0.357045 0.000000 0.512439
0.488260 0.000000 0.510914
0.619475 0.002557 0.509389
0.750689 0.005349 0.507864
0.881904 0.008140 0.506339
0.974240 0.010454 0.504336
0.004863 0.099570 0.513911
0.097199 0.101883 0.511908
0.228414 0.104675 0.510383
0.359628 0.107467 0.508858
0.490843 0.110259 0.507333
0.622057 0.113051 0.505808
0.753272 0.115843 0.504283
0.884487 0.118635 0.502759
0.977146 0.120948 0.500755
0.007915 0.229733 0.510800
0.100251 0.232047 0.508797
0.231466 0.234839 0.507272
0.362681 0.237631 0.505747
0.493895 0.240423 0.504222
0.625110 0.243214 0.502697
0.756600 0.246006 0.501172
0.889104 0.248798 0.499647
0.982729 0.250275 0.499875
0.010968 0.359897 0.507689
0.103304 0.362211 0.505686
0.234518 0.365002 0.504161
0.365733 0.367794 0.502636
0.497176 0.370586 0.501111
0.629679 0.373378 0.499586
0.762183 0.375377 0.500177
0.894686 0.376991 0.501791
0.988311 0.378128 0.502928
0.014020 0.490061 0.504578
0.106356 0.492374 0.502575
0.237752 0.495166 0.501050
0.370255 0.497958 0.499525
0.502759 0.500000 0.500000
0.635262 0.501615 0.501615
0.767765 0.503229 0.503229
0.900269 0.504844 0.504844
0.993894 0.505980 0.505980
0.017206 0.620224 0.501467
0.110831 0.622538 0.499464
0.243334 0.624623 0.499823
0.375838 0.626238 0.501438
0.508341 0.627852 0.503052
0.640845 0.629467 0.504667
0.773348 0.631082 0.506282
0.905851 0.632696 0.507896
0.999476 0.633832 0.509032
0.022789 0.749725 0.500125
0.116414 0.750861 0.501261
0.248917 0.752476 0.502876
0.381420 0.754090 0.504490
0.513924 0.755705 0.506105
0.646427 0.757319 0.507719
0.778931 0.758934 0.509334
0.911434 0.760549 0.510949
1.000000 0.761685 0.512085
0.028371 0.877577 0.503177
0.121996 0.878713 0.504313
0.254500 0.880328 0.505928
0.387003 0.881943 0.507543
0.519506 0.883557 0.509157
0.652010 0.885172 0.510772
0.784513 0.886786 0.512386
0.917017 0.888401 0.514001
1.000000 0.889537 0.515137
0.033484 0.985760 0.505760
0.127109 0.986896 0.506896
0.259613 0.988511 0.508511
0.392116 0.990125 0.510125
0.524619 0.991740 0.511740
0.657123 0.993355 0.513355
0.789626 0.994969 0.514969
0.922129 0.996584 0.516584
1.000000 0.997720 0.517720
0.002884 0.000000 0.644099
0.095220 0.000000 0.642096
0.226435 0.000000 0.640571
0.357650 0.000000 0.639046
0.488864 0.000818 0.637521
0.620079 0.003610 0.635996
0.751293 0.006402 0.634471
0.882508 0.009194 0.632946
0.974844 0.011507 0.630943
0.005467 0.100623 0.640519
0.097803 0.102936 0.638515
0.229018 0.105728 0.636990
0.360232 0.108520 0.635465
0.491447 0.111312 0.633941
0.622662 0.114104 0.632416
0.753876 0.116896 0.630891
0.885091 0.119688 0.629366
0.978242 0.122001 0.627363
0.008519 0.230786 0.637407
0.100856 0.233100 0.635404
0.232070 0.235892 0.633879
0.363285 0.238684 0.632354
0.494499 0.241476 0.630829
0.625714 0.244268 0.629305
0.757696 0.247059 0.627780
0.890199 0.249743 0.626543
0.983824 0.250879 0.627679
0.011572 0.360950 0.634296
0.103908 0.363264 0.632293
0.235123 0.366056 0.630768
0.366337 0.368847 0.629243
0.498272 0.371639 0.627718
0.630775 0.374366 0.626366
0.763278 0.375981 0.627981
0.895782 0.377596 0.629596
0.989407 0.378732 0.630732
0.014624 0.491114 0.631185
0.106960 0.493427 0.629182
0.238847 0.496219 0.627657
0.371351 0.498990 0.626190
0.503854 0.500604 0.627804
0.636358 0.502219 0.629419
0.768861 0.503833 0.631033
0.901364 0.505448 0.632648
0.994989 0.506584 0.633784
0.018302 0.621278 0.628074
0.111927 0.623591 0.626071
0.244430 0.625227 0.627627
0.376933 0.626842 0.629242
0.509437 0.628457 0.630857
0.641940 0.630071 0.632471
0.774444 0.631686 0.634086
0.906947 0.633300 0.635700
1.000000 0.634437 0.636837
0.023884 0.750329 0.627929
0.117509 0.751465 0.629065
0.250013 0.753080 0.630680
0.382516 0.754694 0.632294
0.515019 0.756309 0.633909
0.647523 0.757924 0.635524
0.780026 0.759538 0.637138
0.912530 0.761153 0.638753
1.000000 0.762289 0.639889
0.029467 0.878181 0.630981
0.123092 0.879318 0.632118
0.255595 0.880932 0.633732
0.388099 0.882547 0.635347
0.520602 0.884161 0.636961
0.653105 0.885776 0.638576
0.785609 0.887391 0.640191
0.918112 0.889005 0.641805
1.000000 0.890141 0.642941
0.034580 0.986364 0.633564
0.128205 0.987500 0.634700
0.260708 0.989115 0.636315
0.393211 0.990730 0.637930
0.525715 0.992344 0.639544
0.658218 0.993959 0.641159
0.790722 0.995573 0.642773
0.923225 0.997188 0.644388
1.000000 0.998324 0.645524
0.003488 0.000000 0.770706
0.095825 0.000000 0.768703
0.227039 0.000000 0.767178
0.358254 0.000000 0.765653
0.489468 0.001871 0.764128
0.620683 0.004663 0.762603
0.751898 0.007455 0.761079
0.883112 0.010247 0.759554
0.975448 0.012560 0.757550
0.006071 0.101676 0.767126
0.098407 0.103989 0.765122
0.229622 0.106781 0.763598
0.360837 0.109573 0.762073
0.492051 0.112365 0.760548
0.623266 0.115157 0.759023
0.754480 0.117949 0.757498
0.885712 0.120741 0.755973
0.979337 0.123054 0.753970
0.009124 0.231839 0.764015
0.101460 0.234153 0.762011
0.232674 0.236945 0.760486
0.363889 0.239737 0.758962
0.495104 0.242529 0.757437
0.626318 0.245321 0.755912
0.758791 0.248113 0.754387
0.891295 0.250347 0.754347
0.984920 0.251484 0.755484
0.012176 0.362003 0.760904
0.104512 0.364317 0.758900
0.235727 0.367109 0.757375
0.366941 0.369901 0.755850
0.499367 0.372692 0.754325
0.631871 0.374971 0.754171
0.764374 0.376585 0.755785
0.896877 0.378200 0.757400
0.990502 0.379336 0.758536
0.015228 0.492167 0.757792
0.107565 0.494480 0.755789
0.239943 0.497272 0.754264
0.372446 0.499594 0.753994
0.504950 0.501208 0.755608
0.637453 0.502823 0.757223
0.769957 0.504438 0.758838
0.902460 0.506052 0.760452
0.996085 0.507188 0.761588
0.019397 0.622331 0.754681
0.113022 0.624217 0.753817
0.245526 0.625832 0.755432
0.378029 0.627446 0.757046
0.510532 0.629061 0.758661
0.643036 0.630675 0.760275
0.775539 0.632290 0.761890
0.908043 0.633905 0.763505
1.000000 0.635041 0.764641
0.024980 0.750933 0.755733
0.118605 0.752069 0.756869
0.251108 0.753684 0.758484
0.383612 0.755299 0.760099
0.516115 0.756913 0.761713
0.648618 0.758528 0.763328
0.781122 0.760142 0.764942
0.913625 0.761757 0.766557
1.000000 0.762893 0.767693
0.030562 0.878786 0.758786
0.124187 0.879922 0.759922
0.256691 0.881536 0.761536
0.389194 0.883151 0.763151
0.521697 0.884766 0.764766
0.654201 0.886380 0.766380
0.786704 0.887995 0.767995
0.919208 0.889609 0.769609
1.000000 0.890746 0.770746
0.035675 0.986968 0.761368
0.129300 0.988105 0.762505
0.261804 0.989719 0.764119
0.394307 0.991334 0.765734
0.526810 0.992948 0.767348
0.659314 0.994563 0.768963
0.791817 0.996178 0.770578
0.924321 0.997792 0.772192
1.000000 0.998928 0.773328
0.004093 0.000000 0.897314
0.096429 0.000000 0.895310
0.227643 0.000000 0.893785
0.358858 0.000132 0.892261
0.490073 0.002924 0.890736
0.621287 0.005716 0.889211
0.752502 0.008508 0.887686
0.883716 0.011300 0.886161
0.976053 0.013613 0.884158
0.006675 0.102729 0.893733
0.099012 0.105042 0.891730
0.230226 0.107834 0.890205
0.361441 0.110626 0.888680
0.492655 0.113418 0.887155
0.623870 0.116210 0.885630
0.755085 0.119002 0.884105
0.886808 0.121794 0.882580
0.980433 0.124107 0.880577
0.009728 0.232893 0.890622
0.102064 0.235206 0.888618
0.233279 0.237998 0.887094
0.364493 0.240790 0.885569
0.495708 0.243582 0.884044
0.627384 0.246374 0.882519
0.759887 0.249166 0.880994
0.892390 0.250952 0.882152
0.986015 0.252088 0.883288
0.012780 0.363056 0.887511
0.105116 0.365370 0.885507
0.236331 0.368162 0.883983
0.367959 0.370954 0.882458
0.500463 0.373746 0.880933
0.632966 0.375575 0.881975
0.765470 0.377189 0.883589
0.897973 0.378804 0.885204
0.991598 0.379940 0.886340
0.015833 0.493220 0.884400
0.108535 0.495533 0.882396
0.241039 0.498325 0.880871
0.373542 0.500198 0.881798
0.506045 0.501813 0.883413
0.638549 0.503427 0.885027
0.771052 0.505042 0.886642
0.903556 0.506656 0.888256
0.997181 0.507793 0.889393
0.020493 0.623384 0.881288
0.114118 0.624821 0.881621
0.246621 0.626436 0.883236
0.379125 0.628050 0.884850
0.511628 0.629665 0.886465
0.644131 0.631280 0.888080
0.776635 0.632894 0.889694
0.909138 0.634509 0.891309
1.000000 0.635645 0.892445
0.026075 0.751537 0.883537
0.119700 0.752674 0.884674
0.252204 0.754288 0.886288
0.384707 0.755903 0.887903
0.517211 0.757517 0.889517
0.649714 0.759132 0.891132
0.782217 0.760747 0.892747
0.914721 0.762361 0.894361
1.000000 0.763497 0.895497
0.031658 0.879390 0.886590
0.125283 0.880526 0.887726
0.257786 0.882141 0.889341
0.390290 0.883755 0.890955
0.522793 0.885370 0.892570
0.655296 0.886984 0.894184
0.787800 0.888599 0.895799
0.920303 0.890214 0.897414
1.000000 0.891350 0.898550
0.036771 0.987573 0.889173
0.130396 0.988709 0.890309
0.262899 0.990323 0.891923
0.395403 0.991938 0.893538
0.527906 0.993553 0.895153
0.660409 0.995167 0.896767
0.792913 0.996782 0.898382
0.925416 0.998396 0.899996
1.000000 0.999533 0.901133
0.004560 0.000000 0.994984
0.096896 0.000000 0.992981
0.228111 0.000000 0.991456
0.359325 0.001048 0.989931
0.490540 0.003840 0.988406
0.621755 0.006632 0.986881
0.752969 0.009424 0.985356
0.884184 0.012216 0.983831
0.976520 0.014530 0.981828
0.007143 0.103645 0.991403
0.099479 0.105959 0.989400
0.230694 0.108751 0.987875
0.361908 0.111542 0.986350
0.493123 0.114334 0.984825
0.624337 0.117126 0.983300
0.755552 0.119918 0.981776
0.887767 0.122710 0.980251
0.981392 0.124703 0.979103
0.010195 0.233809 0.988292
0.102531 0.236122 0.986289
0.233746 0.238914 0.984764
0.364961 0.241706 0.983239
0.496175 0.244498 0.981714
0.628342 0.247290 0.980189
0.760846 0.249804 0.979404
0.893349 0.251419 0.981019
0.986974 0.252555 0.982155
0.013248 0.363973 0.985181
0.105584 0.366286 0.983178
0.236798 0.369078 0.981653
0.368918 0.371870 0.980128
0.501422 0.374428 0.979228
0.633925 0.376042 0.980842
0.766428 0.377657 0.982457
0.898932 0.379271 0.984071
0.992557 0.380408 0.985208
0.016300 0.494136 0.982070
0.109494 0.496450 0.980067
0.241997 0.499051 0.979051
0.374501 0.500665 0.980665
0.507004 0.502280 0.982280
0.639508 0.503895 0.983895
0.772011 0.505509 0.985509
0.904514 0.507124 0.987124
0.998139 0.508260 0.988260
0.021452 0.624152 0.979352
0.115077 0.625289 0.980489
0.247580 0.626903 0.982103
0.380083 0.628518 0.983718
0.512587 0.630132 0.985332
0.645090 0.631747 0.986947
0.777593 0.633362 0.988562
0.910097 0.634976 0.990176
1.000000 0.636112 0.991312
0.027034 0.752005 0.982405
0.120659 0.753141 0.983541
0.253162 0.754756 0.985156
0.385666 0.756370 0.986770
0.518169 0.757985 0.988385
0.650673 0.759599 0.989999
0.783176 0.761214 0.991614
0.915679 0.762829 0.993229
1.000000 0.763965 0.994365
0.032617 0.879857 0.985457
0.126242 0.880993 0.986593
0.258745 0.882608 0.988208
0.391248 0.884223 0.989823
0.523752 0.885837 0.991437
0.656255 0.887452 0.993052
0.788759 0.889066 0.994666
0.921262 0.890681 0.996281
1.000000 0.891817 0.997417
0.037730 0.988040 0.988040
0.131355 0.989176 0.989176
0.263858 0.990791 0.990791
0.396361 0.992405 0.992405
0.528865 0.994020 0.994020
0.661368 0.995635 0.995635
0.793872 0.997249 0.997249
0.926375 0.998864 0.998864
1.000000 1.000000 1.000000
