docs/luts/fresh-cine-color-arrival.cube
TITLE "FreshLUTs??-?????"
LUT_3D_SIZE 5
DOMAIN_MIN 0.0 0.0 0.0
DOMAIN_MAX 1.0 1.0 1.0
0.000000 0.010000 0.055000
0.162146 0.025593 0.063529
0.396628 0.048721 0.079593
0.631109 0.071848 0.095657
0.793255 0.087441 0.104186
0.031023 0.201477 0.074210
0.193169 0.217070 0.082739
0.427650 0.240198 0.098802
0.662132 0.263326 0.114866
0.824278 0.278918 0.123395
0.071907 0.446017 0.103281
0.234054 0.461609 0.111810
0.468535 0.484737 0.127874
0.703016 0.508737 0.148737
0.865163 0.525900 0.165900
0.112792 0.690556 0.132352
0.274938 0.706963 0.145363
0.509420 0.731661 0.170061
0.743901 0.756358 0.194758
0.906047 0.773521 0.211921
0.143815 0.884360 0.164360
0.305961 0.901523 0.181523
0.540442 0.926220 0.206220
0.774924 0.950917 0.230917
0.937070 0.968080 0.248080
0.006344 0.016743 0.224650
0.168490 0.032336 0.233179
0.402972 0.055464 0.249243
0.637453 0.078591 0.265306
0.799599 0.094184 0.273835
0.037367 0.208221 0.243859
0.199513 0.223813 0.252388
0.433995 0.246941 0.268452
0.668476 0.270069 0.284516
0.830622 0.285662 0.293045
0.078252 0.452760 0.272931
0.240398 0.468352 0.281460
0.474879 0.491480 0.297523
0.709360 0.516079 0.321679
0.871507 0.533242 0.338842
0.119136 0.697299 0.302002
0.281283 0.714305 0.318305
0.515764 0.739002 0.343002
0.750245 0.763700 0.367700
0.912391 0.780862 0.384862
0.150159 0.891702 0.337302
0.312305 0.908864 0.354464
0.546787 0.933562 0.379162
0.781268 0.958259 0.403859
0.943414 0.975422 0.421022
0.013965 0.024763 0.424376
0.176111 0.040356 0.432905
0.410592 0.063484 0.448969
0.645074 0.086611 0.465033
0.807220 0.102204 0.473562
0.044988 0.216240 0.443586
0.207134 0.231833 0.452115
0.441615 0.254961 0.468179
0.676097 0.278089 0.484243
0.838243 0.294239 0.495839
0.085873 0.460780 0.472657
0.248019 0.476372 0.481186
0.482500 0.500000 0.500000
0.716981 0.524697 0.524697
0.879127 0.541860 0.541860
0.126757 0.705761 0.504161
0.288903 0.722923 0.521323
0.523385 0.747621 0.546021
0.757866 0.772318 0.570718
0.920012 0.789481 0.587881
0.157780 0.900320 0.540320
0.319926 0.917483 0.557483
0.554408 0.942180 0.582180
0.788889 0.966877 0.606877
0.951035 0.984040 0.624040
0.021586 0.032783 0.624103
0.183732 0.048376 0.632632
0.418213 0.071503 0.648696
0.652695 0.094631 0.664760
0.814841 0.110224 0.673289
0.052609 0.224260 0.643313
0.214755 0.239853 0.651842
0.449236 0.262981 0.667905
0.683717 0.286108 0.683969
0.845864 0.302858 0.698858
0.093493 0.468799 0.672384
0.255640 0.484392 0.680913
0.490121 0.508618 0.703018
0.724602 0.533316 0.727716
0.886748 0.550478 0.744878
0.134378 0.714379 0.707179
0.296524 0.731542 0.724342
0.531005 0.756239 0.749039
0.765487 0.780937 0.773737
0.927633 0.798099 0.790899
0.165401 0.908938 0.743338
0.327547 0.926101 0.760501
0.562028 0.950798 0.785198
0.796510 0.975496 0.809896
0.958656 0.992658 0.827058
0.027930 0.039526 0.793753
0.190076 0.055119 0.802282
0.424557 0.078247 0.818346
0.659039 0.101374 0.834410
0.821185 0.116967 0.842938
0.058953 0.231003 0.812963
0.221099 0.246596 0.821492
0.455580 0.269724 0.837555
0.690062 0.293037 0.854637
0.852208 0.310199 0.871799
0.099837 0.475542 0.842034
0.261984 0.491263 0.851263
0.496465 0.515960 0.875960
0.730946 0.540657 0.900657
0.893092 0.557820 0.917820
0.140722 0.721721 0.880121
0.302868 0.738883 0.897283
0.537350 0.763581 0.921981
0.771831 0.788278 0.946678
0.933977 0.805441 0.963841
0.171745 0.916280 0.916280
0.333891 0.933443 0.933443
0.568373 0.958140 0.958140
0.802854 0.982837 0.982837
0.965000 1.000000 1.000000
