docs/luts/fresh-peaky-blinders.cube
TITLE "FreshLUTs??-????"
LUT_3D_SIZE 5
DOMAIN_MIN 0.0 0.0 0.0
DOMAIN_MAX 1.0 1.0 1.0
0.000000 0.025000 0.055000
0.143879 0.034561 0.059851
0.398878 0.050041 0.070623
0.653877 0.065522 0.081394
0.832757 0.075082 0.086245
0.004197 0.217306 0.066461
0.183076 0.226867 0.071312
0.438075 0.242348 0.082084
0.693074 0.257828 0.092855
0.871953 0.267389 0.097707
0.051142 0.464161 0.085671
0.230021 0.473722 0.090522
0.485021 0.489202 0.101293
0.736965 0.506865 0.116865
0.910350 0.520350 0.130350
0.098088 0.711016 0.104880
0.274114 0.722614 0.114214
0.523619 0.742019 0.133619
0.773124 0.761424 0.153024
0.946509 0.774909 0.166509
0.129140 0.909140 0.129140
0.302525 0.922625 0.142625
0.552030 0.942030 0.162030
0.801535 0.961435 0.181435
0.974920 0.974920 0.194920
0.000000 0.029147 0.232851
0.151617 0.038707 0.237703
0.406616 0.054188 0.248474
0.661615 0.069669 0.259245
0.840494 0.079229 0.264097
0.011935 0.221453 0.244312
0.190814 0.231014 0.249164
0.445813 0.246494 0.259935
0.700812 0.261975 0.270707
0.879691 0.271536 0.275558
0.058880 0.468308 0.263522
0.237759 0.477869 0.268373
0.492758 0.493349 0.279145
0.742608 0.512508 0.298008
0.915993 0.525993 0.311493
0.105825 0.715163 0.282732
0.279757 0.728257 0.295357
0.529262 0.747662 0.314762
0.778767 0.767067 0.334167
0.952152 0.780552 0.347652
0.134783 0.914783 0.310283
0.308168 0.928268 0.323768
0.557673 0.947673 0.343173
0.807178 0.967078 0.362578
0.980563 0.980563 0.376063
0.000000 0.034547 0.450956
0.160609 0.044108 0.455808
0.415608 0.059589 0.466579
0.670607 0.075069 0.477351
0.849486 0.084630 0.482202
0.020926 0.226854 0.462418
0.199805 0.236414 0.467269
0.454805 0.251895 0.478040
0.709804 0.267376 0.488812
0.886731 0.278331 0.496731
0.067872 0.473709 0.481627
0.246751 0.483269 0.486479
0.500000 0.500000 0.500000
0.749505 0.519405 0.519405
0.922890 0.532890 0.532890
0.113269 0.721669 0.503269
0.286654 0.735154 0.516754
0.536159 0.754559 0.536159
0.785664 0.773964 0.555564
0.959049 0.787449 0.569049
0.141680 0.921680 0.531680
0.315065 0.935165 0.545165
0.564570 0.954570 0.564570
0.814075 0.973975 0.583975
0.987460 0.987460 0.597460
0.000000 0.039948 0.669062
0.169600 0.049509 0.673913
0.424600 0.064989 0.684685
0.679599 0.080470 0.695456
0.858478 0.090031 0.700307
0.029918 0.232255 0.680523
0.208797 0.241815 0.685374
0.463796 0.257296 0.696146
0.718796 0.272777 0.706917
0.893628 0.285228 0.718128
0.076864 0.479110 0.699732
0.255743 0.488670 0.704584
0.506897 0.506897 0.721397
0.756402 0.526302 0.740802
0.929787 0.539787 0.754287
0.120166 0.728566 0.724666
0.293551 0.742051 0.738151
0.543056 0.761456 0.757556
0.792561 0.780861 0.776961
0.965946 0.794346 0.790446
0.148577 0.928577 0.753077
0.321962 0.942062 0.766562
0.571467 0.961467 0.785967
0.820972 0.980872 0.805372
0.994357 0.994357 0.818857
0.000000 0.044095 0.846913
0.177338 0.053656 0.851764
0.432337 0.069136 0.862536
0.687336 0.084617 0.873307
0.866215 0.094177 0.878158
0.037656 0.236401 0.858374
0.216535 0.245962 0.863225
0.471534 0.261443 0.873997
0.725886 0.277386 0.885786
0.899271 0.290871 0.899271
0.084601 0.483256 0.877584
0.263035 0.493135 0.883135
0.512540 0.512540 0.902540
0.762045 0.531945 0.921945
0.935430 0.545430 0.935430
0.125809 0.734209 0.905809
0.299194 0.747694 0.919294
0.548699 0.767099 0.938699
0.798204 0.786504 0.958104
0.971589 0.799989 0.971589
0.154220 0.934220 0.934220
0.327605 0.947705 0.947705
0.577110 0.967110 0.967110
0.826615 0.986515 0.986515
1.000000 1.000000 1.000000
