docs/luts/fresh-severn-film.cube
TITLE "FreshLUTs??-????"
LUT_3D_SIZE 33
DOMAIN_MIN 0.0 0.0 0.0
DOMAIN_MAX 1.0 1.0 1.0
0.000000 0.000000 0.000000
0.000000 0.000000 0.000000
0.009299 0.000299 0.000000
0.041845 0.001345 0.000000
0.074392 0.002392 0.000000
0.106938 0.003439 0.000000
0.139485 0.004485 0.000000
0.172031 0.005531 0.000000
0.204578 0.006578 0.000000
0.237125 0.007624 0.000000
0.269671 0.008671 0.000000
0.302217 0.009717 0.000000
0.334764 0.010764 0.000000
0.367310 0.011811 0.000000
0.399857 0.012857 0.000000
0.432403 0.013903 0.000000
0.464950 0.014950 0.000000
0.497497 0.015996 0.000000
0.530043 0.017043 0.000000
0.562589 0.018090 0.000000
0.595136 0.019136 0.000000
0.627683 0.020182 0.000000
0.660229 0.021229 0.000000
0.692775 0.022276 0.000000
0.725322 0.023322 0.000000
0.757869 0.024368 0.001443
0.790415 0.025415 0.003373
0.822961 0.026461 0.005302
0.855508 0.027508 0.007232
0.888055 0.028554 0.009161
0.920601 0.029601 0.011091
0.929900 0.029900 0.012273
0.929900 0.029900 0.013155
0.000000 0.000000 0.000000
0.000000 0.000000 0.000000
0.009299 0.000299 0.000000
0.041845 0.001345 0.000000
0.074392 0.002392 0.000000
0.106938 0.003439 0.000000
0.139485 0.004485 0.000000
0.172031 0.005531 0.000000
0.204578 0.006578 0.000000
0.237125 0.007624 0.000000
0.269671 0.008671 0.000000
0.302217 0.009717 0.000000
0.334764 0.010764 0.000000
0.367310 0.011811 0.000000
0.399857 0.012857 0.000000
0.432403 0.013903 0.000000
0.464950 0.014950 0.000000
0.497497 0.015996 0.000000
0.530043 0.017043 0.000000
0.562589 0.018090 0.000000
0.595136 0.019136 0.000000
0.627683 0.020182 0.000000
0.660229 0.021229 0.000000
0.692775 0.022276 0.000000
0.725322 0.023322 0.001247
0.757869 0.024368 0.003177
0.790415 0.025415 0.005106
0.822961 0.026461 0.007036
0.855508 0.027508 0.008965
0.888055 0.028554 0.010895
0.920601 0.029601 0.012824
0.929900 0.029900 0.014006
0.929900 0.029900 0.014889
0.001614 0.026364 0.000000
0.001614 0.026364 0.000000
0.010913 0.026663 0.000000
0.043460 0.027710 0.000000
0.076006 0.028756 0.000000
0.108553 0.029803 0.000000
0.141099 0.030849 0.000000
0.173646 0.031896 0.000000
0.206192 0.032942 0.000000
0.238739 0.033989 0.000000
0.271285 0.035035 0.000000
0.303832 0.036082 0.000000
0.336378 0.037128 0.000000
0.368925 0.038175 0.000000
0.401471 0.039221 0.000000
0.434018 0.040268 0.000000
0.466564 0.041314 0.000000
0.499111 0.042361 0.000000
0.531657 0.043407 0.000000
0.564204 0.044454 0.000000
0.596750 0.045500 0.000000
0.629297 0.046547 0.000000
0.661843 0.047593 0.000736
0.694390 0.048640 0.002665
0.726936 0.049686 0.004595
0.759483 0.050733 0.006524
0.792029 0.051779 0.008454
0.824576 0.052826 0.010383
0.857122 0.053872 0.012313
0.889669 0.054919 0.014242
0.922215 0.055965 0.016172
0.931514 0.056264 0.017354
0.931514 0.056264 0.018237
0.003595 0.058720 0.000000
0.003595 0.058720 0.000000
0.012894 0.059019 0.000000
0.045441 0.060066 0.000000
0.077987 0.061112 0.000000
0.110534 0.062159 0.000000
0.143080 0.063205 0.000000
0.175627 0.064252 0.000000
0.208173 0.065298 0.000000
0.240720 0.066345 0.000000
0.273266 0.067391 0.000000
0.305813 0.068438 0.000000
0.338359 0.069484 0.000000
0.370906 0.070531 0.000000
0.403452 0.071577 0.000000
0.435999 0.072624 0.000000
0.468545 0.073670 0.000000
0.501092 0.074717 0.000000
0.533638 0.075763 0.000000
0.566185 0.076810 0.000000
0.598731 0.077856 0.000592
0.631278 0.078903 0.002521
0.663824 0.079949 0.004450
0.696371 0.080996 0.006380
0.728917 0.082042 0.008309
0.761464 0.083089 0.010239
0.794010 0.084135 0.012168
0.826557 0.085182 0.014098
0.859103 0.086228 0.016027
0.891650 0.087275 0.017957
0.924196 0.088321 0.019886
0.933495 0.088620 0.021068
0.933495 0.088620 0.021951
0.005576 0.091076 0.000000
0.005576 0.091076 0.000000
0.014875 0.091375 0.000000
0.047422 0.092422 0.000000
0.079968 0.093468 0.000000
0.112515 0.094515 0.000000
0.145061 0.095561 0.000000
0.177608 0.096608 0.000000
0.210154 0.097654 0.000000
0.242701 0.098701 0.000000
0.275247 0.099747 0.000000
0.307794 0.100794 0.000000
0.340340 0.101840 0.000000
0.372887 0.102887 0.000000
0.405434 0.103933 0.000000
0.437980 0.104980 0.000000
0.470527 0.106026 0.000000
0.503073 0.107073 0.000000
0.535620 0.108119 0.000447
0.568166 0.109166 0.002377
0.600712 0.110212 0.004306
0.633259 0.111259 0.006236
0.665806 0.112305 0.008165
0.698352 0.113352 0.010095
0.730899 0.114398 0.012024
0.763445 0.115445 0.013954
0.795992 0.116491 0.015883
0.828538 0.117538 0.017813
0.861085 0.118584 0.019742
0.893631 0.119631 0.021671
0.926177 0.120677 0.023601
0.935477 0.120976 0.024783
0.935477 0.120976 0.025666
0.007558 0.123433 0.000000
0.007558 0.123433 0.000000
0.016857 0.123732 0.000000
0.049403 0.124778 0.000000
0.081950 0.125825 0.000000
0.114496 0.126871 0.000000
0.147043 0.127918 0.000000
0.179589 0.128964 0.000000
0.212136 0.130011 0.000000
0.244682 0.131057 0.000000
0.277229 0.132104 0.000000
0.309775 0.133150 0.000000
0.342322 0.134197 0.000000
0.374868 0.135243 0.000000
0.407415 0.136290 0.000000
0.439961 0.137336 0.000000
0.472508 0.138383 0.000303
0.505054 0.139429 0.002232
0.537601 0.140476 0.004162
0.570147 0.141522 0.006091
0.602694 0.142569 0.008021
0.635240 0.143615 0.009950
0.667787 0.144662 0.011880
0.700333 0.145708 0.013809
0.732880 0.146755 0.015739
0.765426 0.147801 0.017668
0.797973 0.148848 0.019598
0.830519 0.149894 0.021527
0.863066 0.150941 0.023457
0.895612 0.151987 0.025386
0.928159 0.153034 0.027316
0.937458 0.153333 0.028498
0.937458 0.153333 0.029381
0.009539 0.155789 0.000000
0.009539 0.155789 0.000000
0.018838 0.156088 0.000000
0.051384 0.157134 0.000000
0.083931 0.158181 0.000000
0.116477 0.159227 0.000000
0.149024 0.160274 0.000000
0.181570 0.161320 0.000000
0.214117 0.162367 0.000000
0.246663 0.163413 0.000000
0.279210 0.164460 0.000000
0.311756 0.165506 0.000000
0.344303 0.166553 0.000000
0.376849 0.167599 0.000000
0.409396 0.168646 0.000158
0.441942 0.169692 0.002088
0.474489 0.170739 0.004017
0.507035 0.171785 0.005947
0.539582 0.172832 0.007876
0.572128 0.173878 0.009806
0.604675 0.174925 0.011735
0.637221 0.175971 0.013665
0.669768 0.177018 0.015594
0.702314 0.178064 0.017524
0.734861 0.179111 0.019453
0.767407 0.180157 0.021383
0.799954 0.181204 0.023312
0.832500 0.182250 0.025242
0.865047 0.183297 0.027171
0.897593 0.184343 0.029101
0.930140 0.185390 0.031030
0.939439 0.185689 0.032212
0.939439 0.185689 0.033095
0.011520 0.188145 0.000000
0.011520 0.188145 0.000000
0.020819 0.188444 0.000000
0.053365 0.189490 0.000000
0.085912 0.190537 0.000000
0.118458 0.191583 0.000000
0.151005 0.192630 0.000000
0.183551 0.193676 0.000000
0.216098 0.194723 0.000000
0.248644 0.195769 0.000000
0.281191 0.196816 0.000000
0.313737 0.197862 0.000000
0.346284 0.198909 0.000014
0.378830 0.199955 0.001944
0.411377 0.201002 0.003873
0.443923 0.202048 0.005803
0.476470 0.203095 0.007732
0.509016 0.204141 0.009661
0.541563 0.205188 0.011591
0.574109 0.206234 0.013520
0.606656 0.207281 0.015450
0.639202 0.208327 0.017379
0.671749 0.209374 0.019309
0.704295 0.210420 0.021238
0.736842 0.211467 0.023168
0.769388 0.212513 0.025097
0.801935 0.213560 0.027027
0.834481 0.214606 0.028956
0.867028 0.215653 0.030886
0.899574 0.216699 0.032815
0.932121 0.217746 0.034745
0.941420 0.218045 0.035927
0.941739 0.218173 0.036810
0.013501 0.220501 0.000000
0.013501 0.220501 0.000000
0.022800 0.220800 0.000000
0.055346 0.221847 0.000000
0.087893 0.222893 0.000000
0.120439 0.223939 0.000000
0.152986 0.224986 0.000000
0.185532 0.226032 0.000000
0.218079 0.227079 0.000000
0.250626 0.228125 0.000000
0.283172 0.229172 0.000000
0.315718 0.230218 0.001799
0.348265 0.231265 0.003729
0.380812 0.232311 0.005658
0.413358 0.233358 0.007588
0.445904 0.234404 0.009517
0.478451 0.235451 0.011447
0.510997 0.236497 0.013376
0.543544 0.237544 0.015306
0.576091 0.238590 0.017235
0.608637 0.239637 0.019165
0.641184 0.240683 0.021094
0.673730 0.241730 0.023024
0.706276 0.242776 0.024953
0.738823 0.243823 0.026882
0.771370 0.244869 0.028812
0.803916 0.245916 0.030741
0.836462 0.246962 0.032671
0.869009 0.248009 0.034600
0.901556 0.249055 0.036530
0.934406 0.250224 0.038459
0.944108 0.250684 0.039641
0.944511 0.250845 0.040524
0.015482 0.252857 0.000000
0.015482 0.252857 0.000000
0.024781 0.253156 0.000000
0.057328 0.254203 0.000000
0.089874 0.255249 0.000000
0.122421 0.256296 0.000000
0.154967 0.257342 0.000000
0.187514 0.258389 0.000000
0.220060 0.259435 0.000000
0.252607 0.260482 0.001655
0.285153 0.261528 0.003584
0.317700 0.262575 0.005514
0.350246 0.263621 0.007443
0.382793 0.264668 0.009373
0.415339 0.265714 0.011302
0.447886 0.266761 0.013232
0.480432 0.267807 0.015161
0.512979 0.268854 0.017091
0.545525 0.269900 0.019020
0.578072 0.270947 0.020950
0.610618 0.271993 0.022879
0.643165 0.273040 0.024809
0.675711 0.274086 0.026738
0.708258 0.275133 0.028668
0.740804 0.276179 0.030597
0.773351 0.277226 0.032527
0.805897 0.278272 0.034456
0.838444 0.279319 0.036386
0.871280 0.280481 0.038315
0.904229 0.281689 0.040245
0.937178 0.282896 0.042174
0.946880 0.283356 0.043356
0.947283 0.283517 0.044239
0.017463 0.285213 0.000000
0.017463 0.285213 0.000000
0.026762 0.285512 0.000000
0.059309 0.286559 0.000000
0.091855 0.287605 0.000000
0.124402 0.288652 0.000000
0.156948 0.289698 0.000000
0.189495 0.290745 0.001510
0.222041 0.291791 0.003440
0.254588 0.292838 0.005369
0.287134 0.293884 0.007299
0.319681 0.294931 0.009228
0.352227 0.295977 0.011158
0.384774 0.297024 0.013087
0.417320 0.298070 0.015017
0.449867 0.299117 0.016946
0.482413 0.300163 0.018876
0.514960 0.301210 0.020805
0.547506 0.302256 0.022735
0.580053 0.303303 0.024664
0.612599 0.304349 0.026594
0.645146 0.305396 0.028523
0.677692 0.306442 0.030453
0.710239 0.307489 0.032382
0.742785 0.308535 0.034312
0.775332 0.309582 0.036241
0.808153 0.310738 0.038171
0.841102 0.311946 0.040100
0.874052 0.313153 0.042030
0.907001 0.314361 0.043959
0.939950 0.315569 0.045889
0.949652 0.316029 0.047071
0.950055 0.316190 0.047363
0.019444 0.317569 0.000000
0.019444 0.317569 0.000000
0.028743 0.317868 0.000000
0.061290 0.318915 0.000000
0.093836 0.319961 0.000000
0.126383 0.321008 0.001366
0.158929 0.322054 0.003296
0.191476 0.323101 0.005225
0.224022 0.324147 0.007155
0.256569 0.325194 0.009084
0.289115 0.326240 0.011014
0.321662 0.327287 0.012943
0.354208 0.328333 0.014873
0.386755 0.329380 0.016802
0.419301 0.330426 0.018731
0.451848 0.331473 0.020661
0.484394 0.332519 0.022590
0.516941 0.333566 0.024520
0.549487 0.334612 0.026449
0.582034 0.335659 0.028379
0.614580 0.336705 0.030308
0.647127 0.337752 0.032238
0.679673 0.338798 0.034167
0.712220 0.339845 0.036097
0.745026 0.340995 0.038026
0.777976 0.342203 0.039956
0.810925 0.343411 0.041885
0.843874 0.344618 0.043815
0.876823 0.345826 0.045744
0.909773 0.347033 0.047674
0.942722 0.348241 0.049045
0.952424 0.348701 0.049344
0.952826 0.348862 0.049344
0.021425 0.349926 0.000000
0.021425 0.349926 0.000000
0.030724 0.350224 0.000000
0.063271 0.351271 0.001222
0.095817 0.352318 0.003151
0.128364 0.353364 0.005081
0.160910 0.354410 0.007010
0.193457 0.355457 0.008940
0.226003 0.356503 0.010869
0.258550 0.357550 0.012799
0.291096 0.358596 0.014728
0.323643 0.359643 0.016658
0.356189 0.360689 0.018587
0.388736 0.361736 0.020517
0.421283 0.362783 0.022446
0.453829 0.363829 0.024376
0.486376 0.364875 0.026305
0.518922 0.365922 0.028235
0.551469 0.366968 0.030164
0.584015 0.368015 0.032094
0.616561 0.369061 0.034023
0.649108 0.370108 0.035952
0.681900 0.371253 0.037882
0.714849 0.372460 0.039811
0.747798 0.373668 0.041741
0.780747 0.374875 0.043670
0.813697 0.376083 0.045600
0.846646 0.377291 0.047529
0.879595 0.378498 0.048933
0.912544 0.379706 0.049980
0.945494 0.380913 0.051026
0.955195 0.381373 0.051325
0.955598 0.381535 0.051325
0.023407 0.382282 0.000942
0.023407 0.382282 0.001825
0.032706 0.382581 0.003007
0.065252 0.383627 0.004936
0.097799 0.384674 0.006866
0.130345 0.385720 0.008795
0.162892 0.386767 0.010725
0.195438 0.387813 0.012654
0.227985 0.388860 0.014584
0.260531 0.389906 0.016513
0.293078 0.390953 0.018443
0.325624 0.391999 0.020372
0.358171 0.393046 0.022302
0.390717 0.394092 0.024231
0.423264 0.395139 0.026161
0.455810 0.396185 0.028090
0.488357 0.397232 0.030020
0.520903 0.398278 0.031949
0.553450 0.399325 0.033879
0.585996 0.400371 0.035808
0.618773 0.401510 0.037738
0.651722 0.402717 0.039667
0.684671 0.403925 0.041597
0.717621 0.405133 0.043526
0.750570 0.406340 0.045456
0.783519 0.407548 0.047385
0.816468 0.408755 0.048822
0.849418 0.409963 0.049868
0.882367 0.411171 0.050915
0.915316 0.412378 0.051961
0.948265 0.413586 0.053008
0.957967 0.414046 0.053307
0.958370 0.414207 0.053307
0.025388 0.414638 0.004657
0.025388 0.414638 0.005540
0.034687 0.414937 0.006721
0.067233 0.415983 0.008651
0.099780 0.417030 0.010580
0.132326 0.418076 0.012510
0.164873 0.419123 0.014439
0.197419 0.420169 0.016369
0.229966 0.421216 0.018298
0.262512 0.422262 0.020228
0.295059 0.423309 0.022157
0.327605 0.424355 0.024087
0.360152 0.425402 0.026016
0.392698 0.426448 0.027946
0.425245 0.427495 0.029875
0.457791 0.428541 0.031805
0.490338 0.429588 0.033734
0.522884 0.430634 0.035664
0.555646 0.431767 0.037593
0.588596 0.432975 0.039523
0.621545 0.434182 0.041452
0.654494 0.435390 0.043382
0.687443 0.436597 0.045311
0.720393 0.437805 0.047241
0.753342 0.439013 0.048710
0.786291 0.440220 0.049756
0.819240 0.441428 0.050803
0.852189 0.442635 0.051849
0.885139 0.443843 0.052896
0.918088 0.445051 0.053942
0.951037 0.446258 0.054989
0.960739 0.446718 0.055288
0.961142 0.446879 0.055288
0.027369 0.446994 0.008371
0.027369 0.446994 0.009254
0.036668 0.447293 0.010436
0.069214 0.448339 0.012366
0.101761 0.449386 0.014295
0.134307 0.450432 0.016225
0.166854 0.451479 0.018154
0.199400 0.452525 0.020084
0.231947 0.453572 0.022013
0.264493 0.454618 0.023942
0.297040 0.455665 0.025872
0.329586 0.456711 0.027801
0.362133 0.457758 0.029731
0.394679 0.458804 0.031660
0.427226 0.459851 0.033590
0.459772 0.460897 0.035519
0.492520 0.462024 0.037449
0.525469 0.463232 0.039378
0.558418 0.464439 0.041308
0.591367 0.465647 0.043237
0.624317 0.466855 0.045167
0.657266 0.468062 0.047096
0.690215 0.469270 0.048598
0.723164 0.470477 0.049644
0.756114 0.471685 0.050691
0.789063 0.472893 0.051737
0.822012 0.474100 0.052784
0.854961 0.475308 0.053830
0.887911 0.476515 0.054877
0.920860 0.477723 0.055923
0.953809 0.478931 0.056970
0.963511 0.479391 0.057269
0.963914 0.479552 0.057269
0.029350 0.479350 0.012086
0.029350 0.479350 0.012969
0.038649 0.479649 0.014151
0.071195 0.480695 0.016080
0.103742 0.481742 0.018010
0.136288 0.482789 0.019939
0.168835 0.483835 0.021869
0.201381 0.484881 0.023798
0.233928 0.485928 0.025728
0.266475 0.486974 0.027657
0.299021 0.488021 0.029587
0.331567 0.489067 0.031516
0.364114 0.490114 0.033446
0.396661 0.491160 0.035375
0.429393 0.492281 0.037305
0.462342 0.493489 0.039234
0.495291 0.494697 0.041163
0.528241 0.495904 0.043093
0.561190 0.497112 0.045022
0.594139 0.498319 0.046952
0.627088 0.499527 0.048486
0.660038 0.500735 0.049532
0.692987 0.501942 0.050579
0.725936 0.503150 0.051625
0.758885 0.504357 0.052672
0.791835 0.505565 0.053719
0.824784 0.506773 0.054765
0.857733 0.507980 0.055812
0.890682 0.509188 0.056858
0.923632 0.510395 0.057905
0.956581 0.511603 0.058951
0.966283 0.512063 0.059250
0.966685 0.512224 0.059250
0.031331 0.511706 0.015800
0.031331 0.511706 0.016683
0.040630 0.512005 0.017865
0.073177 0.513052 0.019795
0.105723 0.514098 0.021724
0.138270 0.515145 0.023654
0.170816 0.516191 0.025583
0.203363 0.517238 0.027513
0.235909 0.518284 0.029442
0.268456 0.519331 0.031372
0.301002 0.520377 0.033301
0.333549 0.521424 0.035231
0.366266 0.522539 0.037160
0.399215 0.523746 0.039090
0.432165 0.524954 0.041019
0.465114 0.526161 0.042949
0.498063 0.527369 0.044878
0.531012 0.528577 0.046808
0.563962 0.529784 0.048374
0.596911 0.530992 0.049421
0.629860 0.532199 0.050467
0.662809 0.533407 0.051514
0.695759 0.534615 0.052560
0.728708 0.535822 0.053607
0.761657 0.537030 0.054653
0.794606 0.538237 0.055700
0.827556 0.539445 0.056746
0.860505 0.540653 0.057793
0.893454 0.541860 0.058839
0.926403 0.543068 0.059886
0.959353 0.544275 0.060932
0.969054 0.544735 0.061231
0.969457 0.544897 0.061231
0.033312 0.544062 0.019515
0.033312 0.544062 0.020398
0.042611 0.544361 0.021580
0.075158 0.545408 0.023509
0.107704 0.546454 0.025439
0.140251 0.547501 0.027368
0.172797 0.548547 0.029298
0.205344 0.549594 0.031227
0.237890 0.550640 0.033157
0.270437 0.551687 0.035086
0.303140 0.552796 0.037016
0.336089 0.554003 0.038945
0.369038 0.555211 0.040875
0.401987 0.556419 0.042804
0.434936 0.557626 0.044734
0.467886 0.558834 0.046663
0.500835 0.560041 0.048262
0.533784 0.561249 0.049309
0.566733 0.562457 0.050355
0.599683 0.563664 0.051402
0.632632 0.564872 0.052448
0.665581 0.566079 0.053495
0.698530 0.567287 0.054541
0.731480 0.568495 0.055588
0.764429 0.569702 0.056634
0.797378 0.570910 0.057681
0.830327 0.572117 0.058727
0.863277 0.573325 0.059774
0.896226 0.574533 0.060820
0.929175 0.575740 0.061867
0.962124 0.576948 0.062913
0.971826 0.577408 0.063212
0.972229 0.577569 0.063212
0.035293 0.576418 0.023230
0.035293 0.576418 0.024113
0.044592 0.576717 0.025295
0.077139 0.577764 0.027224
0.109685 0.578810 0.029154
0.142232 0.579857 0.031083
0.174778 0.580903 0.033012
0.207325 0.581950 0.034942
0.240013 0.583053 0.036871
0.272962 0.584261 0.038801
0.305911 0.585468 0.040730
0.338861 0.586676 0.042660
0.371810 0.587883 0.044589
0.404759 0.589091 0.046519
0.437708 0.590299 0.048150
0.470658 0.591506 0.049197
0.503607 0.592714 0.050243
0.536556 0.593921 0.051290
0.569505 0.595129 0.052336
0.602455 0.596337 0.053383
0.635404 0.597544 0.054429
0.668353 0.598752 0.055476
0.701302 0.599959 0.056522
0.734252 0.601167 0.057569
0.767201 0.602375 0.058615
0.800150 0.603582 0.059662
0.833099 0.604790 0.060708
0.866049 0.605997 0.061755
0.898998 0.607205 0.062801
0.931947 0.608413 0.063848
0.964896 0.609620 0.064894
0.974598 0.610080 0.065193
0.975001 0.610241 0.065193
0.037274 0.608774 0.026944
0.037274 0.608774 0.027827
0.046573 0.609074 0.029009
0.079120 0.610120 0.030939
0.111666 0.611166 0.032868
0.144213 0.612213 0.034798
0.176886 0.613310 0.036727
0.209835 0.614518 0.038657
0.242785 0.615725 0.040586
0.275734 0.616933 0.042516
0.308683 0.618141 0.044445
0.341632 0.619348 0.046375
0.374582 0.620556 0.048038
0.407531 0.621763 0.049085
0.440480 0.622971 0.050131
0.473429 0.624179 0.051178
0.506379 0.625386 0.052225
0.539328 0.626594 0.053271
0.572277 0.627801 0.054317
0.605226 0.629009 0.055364
0.638176 0.630217 0.056411
0.671125 0.631424 0.057457
0.704074 0.632632 0.058503
0.737023 0.633839 0.059550
0.769973 0.635047 0.060596
0.802922 0.636255 0.061643
0.835871 0.637462 0.062689
0.868820 0.638670 0.063736
0.901770 0.639877 0.064782
0.934719 0.641085 0.065829
0.967668 0.642293 0.066875
0.977370 0.642753 0.067175
0.977773 0.642914 0.067175
0.039256 0.641131 0.030659
0.039256 0.641131 0.031542
0.048555 0.641430 0.032724
0.081101 0.642476 0.034653
0.113759 0.643567 0.036583
0.146709 0.644775 0.038512
0.179658 0.645983 0.040442
0.212607 0.647190 0.042371
0.245556 0.648398 0.044301
0.278506 0.649605 0.046230
0.311455 0.650813 0.047927
0.344404 0.652021 0.048973
0.377353 0.653228 0.050020
0.410303 0.654436 0.051066
0.443252 0.655643 0.052113
0.476201 0.656851 0.053159
0.509150 0.658059 0.054206
0.542100 0.659266 0.055252
0.575049 0.660474 0.056299
0.607998 0.661681 0.057345
0.640947 0.662889 0.058392
0.673897 0.664097 0.059438
0.706846 0.665304 0.060485
0.739795 0.666512 0.061531
0.772744 0.667719 0.062578
0.805694 0.668927 0.063624
0.838643 0.670135 0.064671
0.871592 0.671342 0.065717
0.904541 0.672550 0.066764
0.937491 0.673757 0.067810
0.970440 0.674965 0.068857
0.980142 0.675425 0.069156
0.980544 0.675586 0.069156
0.041237 0.673487 0.034373
0.041237 0.673487 0.035256
0.050633 0.673825 0.036438
0.083582 0.675032 0.038368
0.116531 0.676240 0.040297
0.149480 0.677447 0.042227
0.182430 0.678655 0.044156
0.215379 0.679863 0.046086
0.248328 0.681070 0.047815
0.281277 0.682278 0.048861
0.314227 0.683485 0.049908
0.347176 0.684693 0.050954
0.380125 0.685901 0.052001
0.413074 0.687108 0.053047
0.446024 0.688316 0.054094
0.478973 0.689523 0.055140
0.511922 0.690731 0.056187
0.544871 0.691939 0.057233
0.577821 0.693146 0.058280
0.610770 0.694354 0.059326
0.643719 0.695561 0.060373
0.676668 0.696769 0.061419
0.709618 0.697977 0.062466
0.742567 0.699184 0.063512
0.775516 0.700392 0.064559
0.808465 0.701599 0.065605
0.841415 0.702807 0.066652
0.874364 0.704015 0.067698
0.907313 0.705222 0.068745
0.940262 0.706430 0.069791
0.973212 0.707637 0.070838
0.982913 0.708097 0.071137
0.983316 0.708259 0.071137
0.043300 0.705876 0.038088
0.043703 0.706037 0.038971
0.053405 0.706497 0.040153
0.086354 0.707705 0.042082
0.119303 0.708912 0.044012
0.152252 0.710120 0.045941
0.185202 0.711327 0.047703
0.218151 0.712535 0.048749
0.251100 0.713743 0.049796
0.284049 0.714950 0.050842
0.316999 0.716158 0.051889
0.349948 0.717365 0.052935
0.382897 0.718573 0.053982
0.415846 0.719781 0.055028
0.448796 0.720988 0.056075
0.481745 0.722196 0.057121
0.514694 0.723403 0.058168
0.547643 0.724611 0.059214
0.580593 0.725819 0.060261
0.613542 0.727026 0.061307
0.646491 0.728234 0.062354
0.679440 0.729441 0.063400
0.712389 0.730649 0.064447
0.745339 0.731857 0.065493
0.778288 0.733064 0.066540
0.811237 0.734272 0.067586
0.844186 0.735479 0.068633
0.877136 0.736687 0.069679
0.910085 0.737895 0.070726
0.943034 0.739102 0.071772
0.975983 0.740310 0.072819
0.985685 0.740770 0.073118
0.986088 0.740931 0.073118
0.046072 0.738548 0.041803
0.046475 0.738709 0.042686
0.056176 0.739169 0.043868
0.089126 0.740377 0.045797
0.122075 0.741585 0.047591
0.155024 0.742792 0.048638
0.187973 0.744000 0.049684
0.220923 0.745207 0.050731
0.253872 0.746415 0.051777
0.286821 0.747623 0.052823
0.319770 0.748830 0.053870
0.352720 0.750038 0.054916
0.385669 0.751245 0.055963
0.418618 0.752453 0.057009
0.451567 0.753661 0.058056
0.484517 0.754868 0.059102
0.517466 0.756076 0.060149
0.550415 0.757283 0.061195
0.583364 0.758491 0.062242
0.616314 0.759699 0.063288
0.649263 0.760906 0.064335
0.682212 0.762114 0.065381
0.715161 0.763321 0.066428
0.748111 0.764529 0.067474
0.781060 0.765737 0.068521
0.814009 0.766944 0.069568
0.846958 0.768152 0.070614
0.879908 0.769359 0.071661
0.912857 0.770567 0.072707
0.945806 0.771775 0.073754
0.978755 0.772982 0.074800
0.988457 0.773442 0.075099
0.988860 0.773603 0.075099
0.048844 0.771221 0.045517
0.049246 0.771382 0.046400
0.058948 0.771842 0.047479
0.091897 0.773049 0.048526
0.124847 0.774257 0.049572
0.157796 0.775465 0.050619
0.190745 0.776672 0.051665
0.223694 0.777880 0.052712
0.256644 0.779087 0.053758
0.289593 0.780295 0.054805
0.322542 0.781503 0.055851
0.355491 0.782710 0.056898
0.388441 0.783918 0.057944
0.421390 0.785125 0.058991
0.454339 0.786333 0.060037
0.487288 0.787541 0.061084
0.520238 0.788748 0.062130
0.553187 0.789956 0.063177
0.586136 0.791163 0.064223
0.619085 0.792371 0.065270
0.652035 0.793579 0.066316
0.684984 0.794786 0.067363
0.717933 0.795994 0.068409
0.750882 0.797201 0.069456
0.783832 0.798409 0.070502
0.816781 0.799617 0.071549
0.849730 0.800824 0.072595
0.882679 0.802032 0.073642
0.915629 0.803239 0.074688
0.948578 0.804447 0.075735
0.981527 0.805655 0.076781
0.991229 0.806115 0.077080
0.991632 0.806276 0.077080
0.051615 0.803893 0.049161
0.052018 0.804054 0.049161
0.061720 0.804514 0.049460
0.094669 0.805722 0.050507
0.127618 0.806929 0.051553
0.160568 0.808137 0.052600
0.193517 0.809345 0.053646
0.226466 0.810552 0.054693
0.259415 0.811760 0.055739
0.292365 0.812967 0.056786
0.325314 0.814175 0.057832
0.358263 0.815383 0.058879
0.391212 0.816590 0.059925
0.424162 0.817798 0.060972
0.457111 0.819005 0.062018
0.490060 0.820213 0.063065
0.523009 0.821421 0.064111
0.555959 0.822628 0.065158
0.588908 0.823836 0.066204
0.621857 0.825043 0.067251
0.654806 0.826251 0.068297
0.687756 0.827459 0.069344
0.720705 0.828666 0.070390
0.753654 0.829874 0.071437
0.786603 0.831081 0.072483
0.819553 0.832289 0.073530
0.852502 0.833497 0.074576
