docs/luts/fresh-cinema-3.cube
TITLE "FreshLUTs??-??3"
LUT_3D_SIZE 33
DOMAIN_MIN 0.0 0.0 0.0
DOMAIN_MAX 1.0 1.0 1.0
0.000000 0.000000 0.045000
0.000000 0.000000 0.044117
0.000000 0.000000 0.043234
0.012851 0.000000 0.042351
0.051402 0.000000 0.041468
0.089954 0.000000 0.040585
0.128505 0.000000 0.039702
0.167057 0.000000 0.038819
0.205608 0.000000 0.037936
0.244160 0.000000 0.037053
0.282711 0.000000 0.036170
0.321263 0.000000 0.035287
0.359814 0.000000 0.034404
0.398366 0.000000 0.033521
0.436917 0.000000 0.032638
0.475469 0.000000 0.031755
0.514020 0.000000 0.030872
0.552571 0.000000 0.029989
0.591123 0.000000 0.029106
0.629675 0.000000 0.028223
0.668226 0.000000 0.027340
0.706778 0.000000 0.026457
0.745329 0.000000 0.025574
0.783880 0.000000 0.024691
0.822432 0.000000 0.023808
0.860983 0.000000 0.022925
0.899535 0.000000 0.022042
0.938087 0.000000 0.021159
0.976638 0.000000 0.020276
1.000000 0.000000 0.019393
1.000000 0.000000 0.018510
1.000000 0.000000 0.017627
1.000000 0.000000 0.016744
0.000000 0.000000 0.043267
0.000000 0.000000 0.042384
0.000000 0.000000 0.041501
0.012851 0.000000 0.040618
0.051402 0.000000 0.039735
0.089954 0.000000 0.038852
0.128505 0.000000 0.037969
0.167057 0.000000 0.037086
0.205608 0.000000 0.036203
0.244160 0.000000 0.035320
0.282711 0.000000 0.034437
0.321263 0.000000 0.033554
0.359814 0.000000 0.032671
0.398366 0.000000 0.031788
0.436917 0.000000 0.030905
0.475469 0.000000 0.030022
0.514020 0.000000 0.029139
0.552571 0.000000 0.028256
0.591123 0.000000 0.027373
0.629675 0.000000 0.026490
0.668226 0.000000 0.025607
0.706778 0.000000 0.024724
0.745329 0.000000 0.023841
0.783880 0.000000 0.022958
0.822432 0.000000 0.022075
0.860983 0.000000 0.021192
0.899535 0.000000 0.020309
0.938087 0.000000 0.019426
0.976638 0.000000 0.018543
1.000000 0.000000 0.017660
1.000000 0.000000 0.016777
1.000000 0.000000 0.015894
1.000000 0.000000 0.015011
0.000000 0.000000 0.041533
0.000000 0.000000 0.040650
0.000000 0.000000 0.039767
0.012851 0.000000 0.038884
0.051402 0.000000 0.038001
0.089954 0.000000 0.037118
0.128505 0.000000 0.036235
0.167057 0.000000 0.035352
0.205608 0.000000 0.034469
0.244160 0.000000 0.033586
0.282711 0.000000 0.032703
0.321263 0.000000 0.031820
0.359814 0.000000 0.030937
0.398366 0.000000 0.030054
0.436917 0.000000 0.029171
0.475469 0.000000 0.028288
0.514020 0.000000 0.027405
0.552571 0.000000 0.026522
0.591123 0.000000 0.025639
0.629675 0.000000 0.024756
0.668226 0.000000 0.023873
0.706778 0.000000 0.022990
0.745329 0.000000 0.022107
0.783880 0.000000 0.021224
0.822432 0.000000 0.020341
0.860983 0.000000 0.019458
0.899535 0.000000 0.018575
0.938087 0.000000 0.017692
0.976638 0.000000 0.016809
1.000000 0.000000 0.015926
1.000000 0.000000 0.015044
1.000000 0.000000 0.014161
1.000000 0.000000 0.013278
0.000000 0.011536 0.039800
0.000000 0.011929 0.038917
0.000000 0.012321 0.038034
0.012175 0.012564 0.037151
0.050727 0.012508 0.036268
0.089278 0.012452 0.035385
0.127830 0.012396 0.034502
0.166381 0.012340 0.033619
0.204933 0.012284 0.032736
0.243484 0.012228 0.031853
0.282036 0.012172 0.030970
0.320587 0.012116 0.030087
0.359139 0.012060 0.029204
0.397690 0.012003 0.028321
0.436242 0.011947 0.027438
0.474793 0.011891 0.026555
0.513345 0.011835 0.025672
0.551896 0.011779 0.024789
0.590448 0.011723 0.023906
0.628999 0.011667 0.023023
0.667551 0.011611 0.022140
0.706102 0.011555 0.021257
0.744654 0.011499 0.020374
0.783205 0.011443 0.019491
0.821757 0.011387 0.018608
0.860308 0.011331 0.017725
0.898860 0.011275 0.016842
0.937411 0.011219 0.015959
0.975963 0.011163 0.015076
1.000000 0.011106 0.014193
1.000000 0.011349 0.013310
1.000000 0.011742 0.012427
1.000000 0.012134 0.011544
0.000000 0.049156 0.038066
0.000000 0.049548 0.037183
0.000000 0.049940 0.036300
0.011324 0.050183 0.035417
0.049876 0.050127 0.034534
0.088427 0.050071 0.033651
0.126979 0.050015 0.032768
0.165530 0.049959 0.031885
0.204082 0.049903 0.031002
0.242633 0.049847 0.030119
0.281185 0.049791 0.029236
0.319736 0.049735 0.028353
0.358288 0.049679 0.027470
0.396839 0.049623 0.026587
0.435391 0.049567 0.025704
0.473942 0.049511 0.024821
0.512494 0.049455 0.023938
0.551045 0.049398 0.023055
0.589597 0.049342 0.022172
0.628148 0.049286 0.021289
0.666700 0.049230 0.020406
0.705251 0.049174 0.019523
0.743803 0.049118 0.018640
0.782354 0.049062 0.017757
0.820906 0.049006 0.016874
0.859457 0.048950 0.015991
0.898009 0.048894 0.015108
0.936560 0.048838 0.014225
0.975112 0.048782 0.013343
1.000000 0.048726 0.012460
1.000000 0.048969 0.011577
1.000000 0.049361 0.010694
1.000000 0.049754 0.009811
0.000000 0.086775 0.036333
0.000000 0.087167 0.035450
0.000000 0.087560 0.034567
0.010473 0.087803 0.033684
0.049025 0.087747 0.032801
0.087576 0.087691 0.031918
0.126128 0.087634 0.031035
0.164679 0.087578 0.030152
0.203231 0.087522 0.029269
0.241782 0.087466 0.028386
0.280334 0.087410 0.027503
0.318885 0.087354 0.026620
0.357437 0.087298 0.025737
0.395988 0.087242 0.024854
0.434540 0.087186 0.023971
0.473091 0.087130 0.023088
0.511643 0.087074 0.022205
0.550194 0.087018 0.021322
0.588746 0.086962 0.020439
0.627297 0.086906 0.019556
0.665849 0.086850 0.018673
0.704400 0.086794 0.017790
0.742952 0.086737 0.016907
0.781503 0.086681 0.016024
0.820055 0.086625 0.015141
0.858606 0.086569 0.014258
0.897158 0.086513 0.013375
0.935709 0.086457 0.012492
0.974261 0.086401 0.011609
1.000000 0.086345 0.010726
1.000000 0.086588 0.009843
1.000000 0.086980 0.008960
1.000000 0.087373 0.008077
0.000000 0.124394 0.034599
0.000000 0.124787 0.033716
0.000000 0.125179 0.032833
0.009622 0.125422 0.031950
0.048174 0.125366 0.031067
0.086725 0.125310 0.030184
0.125277 0.125254 0.029301
0.163828 0.125198 0.028418
0.202380 0.125142 0.027535
0.240931 0.125086 0.026652
0.279483 0.125030 0.025769
0.318034 0.124973 0.024886
0.356585 0.124917 0.024003
0.395137 0.124861 0.023120
0.433689 0.124805 0.022237
0.472240 0.124749 0.021354
0.510792 0.124693 0.020471
0.549343 0.124637 0.019588
0.587894 0.124581 0.018705
0.626446 0.124525 0.017822
0.664998 0.124469 0.016939
0.703549 0.124413 0.016056
0.742101 0.124357 0.015173
0.780652 0.124301 0.014290
0.819204 0.124245 0.013407
0.857755 0.124189 0.012524
0.896307 0.124132 0.011642
0.934858 0.124076 0.010759
0.973409 0.124020 0.009876
1.000000 0.123964 0.008993
1.000000 0.124207 0.008110
1.000000 0.124600 0.007227
1.000000 0.124992 0.006344
0.000000 0.162013 0.032866
0.000000 0.162406 0.031983
0.000000 0.162798 0.031100
0.008771 0.163041 0.030217
0.047322 0.162985 0.029334
0.085874 0.162929 0.028451
0.124425 0.162873 0.027568
0.162977 0.162817 0.026685
0.201528 0.162761 0.025802
0.240080 0.162705 0.024919
0.278631 0.162649 0.024036
0.317183 0.162593 0.023153
0.355734 0.162537 0.022270
0.394286 0.162481 0.021387
0.432837 0.162425 0.020504
0.471389 0.162368 0.019621
0.509940 0.162312 0.018738
0.548492 0.162256 0.017855
0.587043 0.162200 0.016972
0.625595 0.162144 0.016089
0.664146 0.162088 0.015206
0.702698 0.162032 0.014323
0.741249 0.161976 0.013440
0.779801 0.161920 0.012557
0.818352 0.161864 0.011674
0.856904 0.161808 0.010791
0.895455 0.161752 0.009908
0.934007 0.161696 0.009025
0.972558 0.161640 0.008142
1.000000 0.161584 0.007259
1.000000 0.161827 0.006376
1.000000 0.162219 0.005493
1.000000 0.162611 0.004610
0.000000 0.199633 0.031132
0.000000 0.200025 0.030249
0.000000 0.200418 0.029366
0.007920 0.200661 0.028483
0.046471 0.200604 0.027600
0.085023 0.200548 0.026717
0.123574 0.200492 0.025834
0.162126 0.200436 0.024951
0.200677 0.200380 0.024068
0.239229 0.200324 0.023185
0.277780 0.200268 0.022302
0.316332 0.200212 0.021419
0.354883 0.200156 0.020536
0.393435 0.200100 0.019653
0.431986 0.200044 0.018770
0.470538 0.199988 0.017887
0.509089 0.199932 0.017004
0.547641 0.199876 0.016121
0.586192 0.199820 0.015238
0.624744 0.199764 0.014355
0.663295 0.199707 0.013472
0.701847 0.199651 0.012589
0.740398 0.199595 0.011706
0.778950 0.199539 0.010823
0.817501 0.199483 0.009940
0.856053 0.199427 0.009058
0.894604 0.199371 0.008175
0.933156 0.199315 0.007292
0.971707 0.199259 0.006409
1.000000 0.199203 0.005526
1.000000 0.199446 0.004643
1.000000 0.199838 0.003760
1.000000 0.200231 0.002877
0.000000 0.237252 0.029399
0.000000 0.237644 0.028516
0.000000 0.238037 0.027633
0.007069 0.238280 0.026750
0.045620 0.238224 0.025867
0.084172 0.238168 0.024984
0.122723 0.238112 0.024101
0.161275 0.238056 0.023218
0.199826 0.237999 0.022335
0.238378 0.237943 0.021452
0.276929 0.237887 0.020569
0.315481 0.237831 0.019686
0.354032 0.237775 0.018803
0.392584 0.237719 0.017920
0.431135 0.237663 0.017037
0.469687 0.237607 0.016154
0.508238 0.237551 0.015271
0.546790 0.237495 0.014388
0.585341 0.237439 0.013505
0.623893 0.237383 0.012622
0.662444 0.237327 0.011739
0.700996 0.237271 0.010856
0.739547 0.237215 0.009973
0.778099 0.237159 0.009090
0.816650 0.237102 0.008207
0.855202 0.237046 0.007324
0.893753 0.236990 0.006441
0.932305 0.236934 0.005558
0.971261 0.236878 0.004675
1.000000 0.236822 0.003792
1.000000 0.237065 0.002909
1.000000 0.237458 0.002026
1.000000 0.237850 0.001143
0.000000 0.274871 0.027665
0.000000 0.275264 0.026782
0.000000 0.275656 0.025899
0.006217 0.275899 0.025016
0.044769 0.275843 0.024133
0.083320 0.275787 0.023250
0.121872 0.275731 0.022367
0.160423 0.275675 0.021484
0.198975 0.275619 0.020601
0.237526 0.275563 0.019718
0.276078 0.275507 0.018835
0.314629 0.275451 0.017952
0.353181 0.275395 0.017069
0.391732 0.275338 0.016186
0.430284 0.275282 0.015303
0.468835 0.275226 0.014420
0.507387 0.275170 0.013537
0.545938 0.275114 0.012654
0.584490 0.275058 0.011771
0.623041 0.275002 0.010888
0.661593 0.274946 0.010005
0.700144 0.274890 0.009122
0.738696 0.274834 0.008240
0.777247 0.274778 0.007357
0.815799 0.274722 0.006474
0.854350 0.274666 0.005591
0.893287 0.274610 0.004708
0.932402 0.274554 0.003825
0.971517 0.274498 0.002942
1.000000 0.274441 0.002059
1.000000 0.274684 0.001176
1.000000 0.275077 0.000293
1.000000 0.275207 0.000000
0.000000 0.312491 0.025932
0.000000 0.312883 0.025049
0.000000 0.313275 0.024166
0.005366 0.313518 0.023283
0.043918 0.313462 0.022400
0.082469 0.313406 0.021517
0.121021 0.313350 0.020634
0.159572 0.313294 0.019751
0.198124 0.313238 0.018868
0.236675 0.313182 0.017985
0.275227 0.313126 0.017102
0.313778 0.313070 0.016219
0.352330 0.313014 0.015336
0.390881 0.312958 0.014453
0.429433 0.312902 0.013570
0.467984 0.312846 0.012687
0.506536 0.312790 0.011804
0.545087 0.312733 0.010921
0.583639 0.312677 0.010038
0.622190 0.312621 0.009155
0.660742 0.312565 0.008272
0.699293 0.312509 0.007389
0.737845 0.312453 0.006506
0.776396 0.312397 0.005623
0.815312 0.312341 0.004740
0.854427 0.312285 0.003857
0.893542 0.312229 0.002974
0.932658 0.312173 0.002091
0.971773 0.312117 0.001208
1.000000 0.312061 0.000325
1.000000 0.312056 0.000000
1.000000 0.312056 0.000000
1.000000 0.312056 0.000000
0.000000 0.350110 0.024198
0.000000 0.350502 0.023315
0.000000 0.350895 0.022432
0.004515 0.351138 0.021549
0.043067 0.351082 0.020666
0.081618 0.351026 0.019783
0.120170 0.350969 0.018900
0.158721 0.350913 0.018017
0.197273 0.350857 0.017134
0.235824 0.350801 0.016251
0.274376 0.350745 0.015368
0.312927 0.350689 0.014485
0.351479 0.350633 0.013602
0.390030 0.350577 0.012719
0.428582 0.350521 0.011836
0.467133 0.350465 0.010953
0.505685 0.350409 0.010070
0.544236 0.350353 0.009187
0.582788 0.350297 0.008304
0.621339 0.350241 0.007421
0.659891 0.350185 0.006538
0.698442 0.350129 0.005656
0.737337 0.350072 0.004773
0.776452 0.350016 0.003890
0.815568 0.349960 0.003007
0.854683 0.349904 0.002124
0.893798 0.349848 0.001241
0.932914 0.349792 0.000358
0.972029 0.349503 0.000000
1.000000 0.349054 0.000000
1.000000 0.348905 0.000000
1.000000 0.348905 0.000000
1.000000 0.348905 0.000000
0.000000 0.387729 0.022465
0.000000 0.388122 0.021582
0.000000 0.388514 0.020699
0.003664 0.388757 0.019816
0.042215 0.388701 0.018933
0.080767 0.388645 0.018050
0.119318 0.388589 0.017167
0.157870 0.388533 0.016284
0.196421 0.388477 0.015401
0.234973 0.388421 0.014518
0.273524 0.388365 0.013635
0.312076 0.388308 0.012752
0.350627 0.388252 0.011869
0.389179 0.388196 0.010986
0.427730 0.388140 0.010103
0.466282 0.388084 0.009220
0.504833 0.388028 0.008337
0.543385 0.387972 0.007454
0.581936 0.387916 0.006571
0.620488 0.387860 0.005688
0.659362 0.387804 0.004805
0.698477 0.387748 0.003922
0.737593 0.387692 0.003039
0.776708 0.387636 0.002156
0.815823 0.387580 0.001273
0.854939 0.387524 0.000390
0.894054 0.387248 0.000000
0.933169 0.386800 0.000000
0.972285 0.386351 0.000000
1.000000 0.385903 0.000000
1.000000 0.385753 0.000000
1.000000 0.385753 0.000000
1.000000 0.385753 0.000000
0.000000 0.425348 0.020731
0.000000 0.425741 0.019848
0.000000 0.426133 0.018965
0.002813 0.426376 0.018082
0.041364 0.426320 0.017199
0.079916 0.426264 0.016316
0.118467 0.426208 0.015433
0.157019 0.426152 0.014550
0.195570 0.426096 0.013667
0.234122 0.426040 0.012784
0.272673 0.425984 0.011901
0.311225 0.425928 0.011018
0.349776 0.425872 0.010135
0.388328 0.425816 0.009252
0.426879 0.425760 0.008369
0.465431 0.425703 0.007486
0.503982 0.425647 0.006603
0.542534 0.425591 0.005720
0.581387 0.425535 0.004838
0.620502 0.425479 0.003955
0.659618 0.425423 0.003072
0.698733 0.425367 0.002189
0.737848 0.425311 0.001306
0.776964 0.425255 0.000423
0.816079 0.424994 0.000000
0.855194 0.424546 0.000000
0.894310 0.424097 0.000000
0.933425 0.423649 0.000000
0.972540 0.423200 0.000000
1.000000 0.422752 0.000000
1.000000 0.422602 0.000000
1.000000 0.422602 0.000000
1.000000 0.422602 0.000000
0.000000 0.462968 0.018998
0.000000 0.463360 0.018115
0.000000 0.463753 0.017232
0.001962 0.463996 0.016349
0.040513 0.463939 0.015466
0.079065 0.463883 0.014583
0.117616 0.463827 0.013700
0.156168 0.463771 0.012817
0.194719 0.463715 0.011934
0.233271 0.463659 0.011051
0.271822 0.463603 0.010168
0.310374 0.463547 0.009285
0.348925 0.463491 0.008402
0.387477 0.463435 0.007519
0.426028 0.463379 0.006636
0.464580 0.463323 0.005753
0.503412 0.463267 0.004870
0.542527 0.463211 0.003987
0.581643 0.463155 0.003104
0.620758 0.463099 0.002221
0.659874 0.463042 0.001338
0.698989 0.462986 0.000455
0.738104 0.462740 0.000000
0.777220 0.462292 0.000000
0.816335 0.461843 0.000000
0.855450 0.461395 0.000000
0.894566 0.460946 0.000000
0.933681 0.460498 0.000000
0.972796 0.460049 0.000000
1.000000 0.459601 0.000000
1.000000 0.459451 0.000000
1.000000 0.459451 0.000000
1.000000 0.459451 0.000000
0.000000 0.500587 0.017264
0.000000 0.500979 0.016381
0.000000 0.501372 0.015498
0.001111 0.501615 0.014615
0.039662 0.501559 0.013732
0.078214 0.501503 0.012849
0.116765 0.501447 0.011966
0.155317 0.501391 0.011083
0.193868 0.501335 0.010200
0.232419 0.501278 0.009317
0.270971 0.501222 0.008434
0.309522 0.501166 0.007551
0.348074 0.501110 0.006668
0.386626 0.501054 0.005785
0.425437 0.500998 0.004902
0.464553 0.500942 0.004019
0.503668 0.500886 0.003137
0.542783 0.500830 0.002254
0.581899 0.500774 0.001371
0.621014 0.500718 0.000488
0.660129 0.500486 0.000000
0.699245 0.500038 0.000000
0.738360 0.499589 0.000000
0.777475 0.499140 0.000000
0.816591 0.498692 0.000000
0.855706 0.498244 0.000000
0.894821 0.497795 0.000000
0.933937 0.497347 0.000000
0.973052 0.496898 0.000000
1.000000 0.496449 0.000000
1.000000 0.496300 0.000000
1.000000 0.496300 0.000000
1.000000 0.496300 0.000000
0.000000 0.538206 0.015531
0.000000 0.538599 0.014648
0.000000 0.538991 0.013765
0.000259 0.539234 0.012882
0.038811 0.539178 0.011999
0.077362 0.539122 0.011116
0.115914 0.539066 0.010233
0.154465 0.539010 0.009350
0.193017 0.538954 0.008467
0.231568 0.538898 0.007584
0.270120 0.538842 0.006701
0.308671 0.538786 0.005818
0.347462 0.538730 0.004935
0.386578 0.538673 0.004052
0.425693 0.538617 0.003169
0.464808 0.538561 0.002286
0.503924 0.538505 0.001403
0.543039 0.538449 0.000520
0.582154 0.538232 0.000000
0.621270 0.537783 0.000000
0.660385 0.537335 0.000000
0.699500 0.536886 0.000000
0.738616 0.536438 0.000000
0.777731 0.535989 0.000000
0.816847 0.535541 0.000000
0.855962 0.535092 0.000000
0.895077 0.534644 0.000000
0.934193 0.534195 0.000000
0.973308 0.533747 0.000000
1.000000 0.533298 0.000000
1.000000 0.533149 0.000000
1.000000 0.533149 0.000000
1.000000 0.533149 0.000000
0.000000 0.575826 0.013797
0.000000 0.576218 0.012914
0.000000 0.576610 0.012031
0.000000 0.576853 0.011148
0.037960 0.576797 0.010265
0.076511 0.576741 0.009382
0.115063 0.576685 0.008499
0.153614 0.576629 0.007616
0.192166 0.576573 0.006733
0.230717 0.576517 0.005850
0.269487 0.576461 0.004967
0.308603 0.576405 0.004084
0.347718 0.576349 0.003201
0.386833 0.576293 0.002318
0.425949 0.576237 0.001436
0.465064 0.576181 0.000553
0.504180 0.575978 0.000000
0.543295 0.575529 0.000000
0.582410 0.575081 0.000000
0.621526 0.574632 0.000000
0.660641 0.574184 0.000000
0.699756 0.573735 0.000000
0.738872 0.573287 0.000000
0.777987 0.572838 0.000000
0.817102 0.572390 0.000000
0.856218 0.571941 0.000000
0.895333 0.571493 0.000000
0.934448 0.571044 0.000000
0.973564 0.570596 0.000000
1.000000 0.570147 0.000000
1.000000 0.569998 0.000000
1.000000 0.569998 0.000000
1.000000 0.569998 0.000000
0.000000 0.613445 0.012064
0.000000 0.613837 0.011181
0.000000 0.614230 0.010298
0.000000 0.614473 0.009415
0.037109 0.614417 0.008532
0.075660 0.614361 0.007649
0.114212 0.614304 0.006766
0.152763 0.614248 0.005883
0.191513 0.614192 0.005000
0.230628 0.614136 0.004117
0.269743 0.614080 0.003234
0.308859 0.614024 0.002351
0.347974 0.613968 0.001468
0.387089 0.613912 0.000585
0.426205 0.613724 0.000000
0.465320 0.613275 0.000000
0.504435 0.612827 0.000000
0.543551 0.612378 0.000000
0.582666 0.611930 0.000000
0.621781 0.611481 0.000000
0.660897 0.611033 0.000000
0.700012 0.610584 0.000000
0.739127 0.610136 0.000000
0.778243 0.609687 0.000000
0.817358 0.609239 0.000000
0.856473 0.608790 0.000000
0.895589 0.608342 0.000000
0.934704 0.607893 0.000000
0.973819 0.607445 0.000000
1.000000 0.606996 0.000000
1.000000 0.606847 0.000000
1.000000 0.606847 0.000000
1.000000 0.606847 0.000000
0.000000 0.651064 0.010330
0.000000 0.651457 0.009447
0.000000 0.651849 0.008564
0.000000 0.652092 0.007681
0.036257 0.652036 0.006798
0.074809 0.651980 0.005915
0.113538 0.651924 0.005032
0.152653 0.651868 0.004149
0.191768 0.651812 0.003266
0.230884 0.651756 0.002383
0.269999 0.651700 0.001500
0.309114 0.651643 0.000617
0.348230 0.651469 0.000000
0.387345 0.651021 0.000000
0.426460 0.650572 0.000000
0.465576 0.650124 0.000000
0.504691 0.649675 0.000000
0.543806 0.649227 0.000000
0.582922 0.648778 0.000000
0.622037 0.648330 0.000000
0.661153 0.647881 0.000000
0.700268 0.647433 0.000000
0.739383 0.646984 0.000000
0.778499 0.646536 0.000000
0.817614 0.646087 0.000000
0.856729 0.645639 0.000000
0.895845 0.645190 0.000000
0.934960 0.644742 0.000000
0.974075 0.644293 0.000000
1.000000 0.643845 0.000000
1.000000 0.643695 0.000000
1.000000 0.643695 0.000000
1.000000 0.643695 0.000000
0.000000 0.688683 0.008597
0.000000 0.689076 0.007714
0.000000 0.689468 0.006831
0.000000 0.689711 0.005948
0.035563 0.689655 0.005065
0.074678 0.689599 0.004182
0.113793 0.689543 0.003299
0.152909 0.689487 0.002416
0.192024 0.689431 0.001533
0.231140 0.689375 0.000650
0.270255 0.689215 0.000000
0.309370 0.688767 0.000000
0.348486 0.688318 0.000000
0.387601 0.687870 0.000000
0.426716 0.687421 0.000000
0.465832 0.686973 0.000000
0.504947 0.686524 0.000000
0.544062 0.686076 0.000000
0.583178 0.685627 0.000000
0.622293 0.685179 0.000000
0.661408 0.684730 0.000000
0.700524 0.684282 0.000000
0.739639 0.683833 0.000000
0.778754 0.683385 0.000000
0.817870 0.682936 0.000000
0.856985 0.682488 0.000000
0.896100 0.682039 0.000000
0.935216 0.681591 0.000000
0.974331 0.681142 0.000000
1.000000 0.680694 0.000000
1.000000 0.680544 0.000000
1.000000 0.680544 0.000000
1.000000 0.680544 0.000000
0.000000 0.726303 0.006863
0.000000 0.726695 0.005980
0.000136 0.727088 0.005097
0.000700 0.727331 0.004214
0.035819 0.727274 0.003331
0.074934 0.727218 0.002448
0.114049 0.727162 0.001565
0.153165 0.727106 0.000682
0.192280 0.726961 0.000000
0.231395 0.726513 0.000000
0.270511 0.726064 0.000000
0.309626 0.725616 0.000000
0.348741 0.725167 0.000000
0.387857 0.724719 0.000000
0.426972 0.724270 0.000000
0.466087 0.723822 0.000000
0.505203 0.723373 0.000000
0.544318 0.722925 0.000000
0.583433 0.722476 0.000000
0.622549 0.722028 0.000000
0.661664 0.721579 0.000000
0.700779 0.721131 0.000000
0.739895 0.720682 0.000000
0.779010 0.720234 0.000000
0.818126 0.719785 0.000000
0.857241 0.719337 0.000000
0.896356 0.718888 0.000000
0.935472 0.718440 0.000000
0.974587 0.717991 0.000000
1.000000 0.717543 0.000000
1.000000 0.717393 0.000000
1.000000 0.717393 0.000000
1.000000 0.717393 0.000000
0.000115 0.763922 0.005130
0.000679 0.764314 0.004247
0.001243 0.764707 0.003364
0.001807 0.764950 0.002481
0.036074 0.764894 0.001598
0.075190 0.764838 0.000715
0.114305 0.764707 0.000000
0.153420 0.764258 0.000000
0.192536 0.763810 0.000000
0.231651 0.763361 0.000000
0.270766 0.762913 0.000000
0.309882 0.762464 0.000000
0.348997 0.762016 0.000000
0.388112 0.761567 0.000000
0.427228 0.761119 0.000000
0.466343 0.760670 0.000000
0.505459 0.760222 0.000000
0.544574 0.759773 0.000000
0.583689 0.759325 0.000000
0.622805 0.758876 0.000000
0.661920 0.758428 0.000000
0.701035 0.757979 0.000000
0.740151 0.757531 0.000000
0.779266 0.757082 0.000000
0.818381 0.756634 0.000000
0.857497 0.756185 0.000000
0.896612 0.755737 0.000000
0.935727 0.755288 0.000000
0.974843 0.754840 0.000000
1.000000 0.754391 0.000000
1.000000 0.754242 0.000000
1.000000 0.754242 0.000000
1.000000 0.754242 0.000000
0.001222 0.801541 0.003396
0.001786 0.801934 0.002513
0.002350 0.802326 0.001630
0.002914 0.802569 0.000747
0.036330 0.802453 0.000000
0.075446 0.802004 0.000000
0.114561 0.801556 0.000000
0.153676 0.801107 0.000000
0.192792 0.800659 0.000000
0.231907 0.800210 0.000000
0.271022 0.799762 0.000000
0.310138 0.799313 0.000000
0.349253 0.798865 0.000000
0.388368 0.798416 0.000000
0.427484 0.797968 0.000000
0.466599 0.797519 0.000000
0.505714 0.797071 0.000000
0.544830 0.796622 0.000000
0.583945 0.796174 0.000000
0.623060 0.795725 0.000000
0.662176 0.795277 0.000000
0.701291 0.794828 0.000000
0.740406 0.794380 0.000000
0.779522 0.793931 0.000000
0.818637 0.793483 0.000000
0.857752 0.793034 0.000000
0.896868 0.792586 0.000000
0.935983 0.792137 0.000000
0.975098 0.791689 0.000000
1.000000 0.791240 0.000000
1.000000 0.791091 0.000000
1.000000 0.791091 0.000000
1.000000 0.791091 0.000000
0.002329 0.839161 0.001663
0.002893 0.839553 0.000780
0.003457 0.839900 0.000000
0.004020 0.839750 0.000000
0.036586 0.839302 0.000000
0.075701 0.838853 0.000000
0.114817 0.838405 0.000000
0.153932 0.837956 0.000000
0.193047 0.837508 0.000000
0.232163 0.837059 0.000000
0.271278 0.836611 0.000000
0.310393 0.836162 0.000000
0.349509 0.835714 0.000000
0.388624 0.835265 0.000000
0.427739 0.834817 0.000000
0.466855 0.834368 0.000000
0.505970 0.833920 0.000000
0.545085 0.833471 0.000000
0.584201 0.833023 0.000000
0.623316 0.832574 0.000000
0.662432 0.832126 0.000000
0.701547 0.831677 0.000000
0.740662 0.831229 0.000000
0.779778 0.830780 0.000000
0.818893 0.830332 0.000000
0.858008 0.829883 0.000000
0.897124 0.829435 0.000000
0.936239 0.828986 0.000000
0.975354 0.828538 0.000000
1.000000 0.828089 0.000000
1.000000 0.827940 0.000000
1.000000 0.827940 0.000000
1.000000 0.827940 0.000000
0.003436 0.876749 0.000000
0.004000 0.876749 0.000000
0.004564 0.876749 0.000000
0.005127 0.876599 0.000000
0.036842 0.876151 0.000000
0.075957 0.875702 0.000000
0.115072 0.875254 0.000000
0.154188 0.874805 0.000000
0.193303 0.874356 0.000000
0.232419 0.873908 0.000000
0.271534 0.873460 0.000000
0.310649 0.873011 0.000000
0.349765 0.872563 0.000000
0.388880 0.872114 0.000000
0.427995 0.871666 0.000000
0.467111 0.871217 0.000000
0.506226 0.870769 0.000000
0.545341 0.870320 0.000000
0.584457 0.869872 0.000000
0.623572 0.869423 0.000000
0.662687 0.868974 0.000000
0.701803 0.868526 0.000000
0.740918 0.868078 0.000000
0.780033 0.867629 0.000000
0.819149 0.867181 0.000000
0.858264 0.866732 0.000000
0.897379 0.866284 0.000000
