docs/luts/fresh-wooden-gold.cube
TITLE "FreshLUTs??-????"
LUT_3D_SIZE 33
DOMAIN_MIN 0.0 0.0 0.0
DOMAIN_MAX 1.0 1.0 1.0
0.021296 0.010246 0.000000
0.021296 0.010246 0.000000
0.048024 0.010575 0.000000
0.080828 0.010978 0.000000
0.113632 0.011382 0.000000
0.146435 0.011785 0.000000
0.179239 0.012189 0.000000
0.212043 0.012593 0.000000
0.244846 0.012996 0.000000
0.277650 0.013400 0.000000
0.310454 0.013804 0.000000
0.343257 0.014207 0.000000
0.376061 0.014611 0.000000
0.408865 0.015015 0.000000
0.441668 0.015418 0.000000
0.474472 0.015822 0.000000
0.507276 0.016226 0.000000
0.540079 0.016629 0.000000
0.572883 0.017033 0.000000
0.605687 0.017437 0.000000
0.638490 0.017840 0.000000
0.671294 0.018244 0.000000
0.704098 0.018647 0.000000
0.736901 0.019051 0.000000
0.769705 0.019455 0.000866
0.802508 0.019858 0.001937
0.835312 0.020262 0.003008
0.868116 0.020666 0.004079
0.900919 0.021069 0.005149
0.933723 0.021473 0.006220
0.966527 0.021877 0.007291
0.993256 0.022206 0.008287
0.993256 0.022206 0.008954
0.021589 0.022539 0.000000
0.021589 0.022539 0.000000
0.048318 0.022868 0.000000
0.081122 0.023272 0.000000
0.113925 0.023675 0.000000
0.146729 0.024079 0.000000
0.179533 0.024483 0.000000
0.212336 0.024886 0.000000
0.245140 0.025290 0.000000
0.277944 0.025694 0.000000
0.310747 0.026097 0.000000
0.343551 0.026501 0.000000
0.376354 0.026904 0.000000
0.409158 0.027308 0.000000
0.441962 0.027712 0.000000
0.474765 0.028115 0.000000
0.507569 0.028519 0.000000
0.540373 0.028923 0.000000
0.573176 0.029326 0.000000
0.605980 0.029730 0.000000
0.638784 0.030134 0.000000
0.671587 0.030537 0.000000
0.704391 0.030941 0.000328
0.737195 0.031345 0.001399
0.769998 0.031748 0.002469
0.802802 0.032152 0.003540
0.835606 0.032556 0.004611
0.868409 0.032959 0.005682
0.901213 0.033363 0.006753
0.934017 0.033767 0.007823
0.966820 0.034170 0.008894
0.993549 0.034499 0.009890
0.993549 0.034499 0.010557
0.022352 0.054502 0.000000
0.022352 0.054502 0.000000
0.049081 0.054831 0.000000
0.081885 0.055235 0.000000
0.114688 0.055638 0.000000
0.147492 0.056042 0.000000
0.180296 0.056446 0.000000
0.213099 0.056849 0.000000
0.245903 0.057253 0.000000
0.278707 0.057657 0.000000
0.311510 0.058060 0.000000
0.344314 0.058464 0.000000
0.377118 0.058868 0.000000
0.409921 0.059271 0.000000
0.442725 0.059675 0.000000
0.475529 0.060079 0.000000
0.508332 0.060482 0.000000
0.541136 0.060886 0.000000
0.573940 0.061289 0.000000
0.606743 0.061693 0.000000
0.639547 0.062097 0.000259
0.672350 0.062500 0.001330
0.705154 0.062904 0.002401
0.737958 0.063308 0.003472
0.770761 0.063711 0.004542
0.803565 0.064115 0.005613
0.836369 0.064519 0.006684
0.869172 0.064922 0.007755
0.901976 0.065326 0.008826
0.934780 0.065730 0.009896
0.967583 0.066133 0.010967
0.994312 0.066462 0.011963
0.994312 0.066462 0.012630
0.023115 0.086465 0.000000
0.023115 0.086465 0.000000
0.049844 0.086794 0.000000
0.082648 0.087198 0.000000
0.115451 0.087602 0.000000
0.148255 0.088005 0.000000
0.181059 0.088409 0.000000
0.213862 0.088812 0.000000
0.246666 0.089216 0.000000
0.279470 0.089620 0.000000
0.312273 0.090023 0.000000
0.345077 0.090427 0.000000
0.377881 0.090831 0.000000
0.410684 0.091234 0.000000
0.443488 0.091638 0.000000
0.476292 0.092042 0.000000
0.509095 0.092445 0.000000
0.541899 0.092849 0.000000
0.574703 0.093253 0.000190
0.607506 0.093656 0.001261
0.640310 0.094060 0.002332
0.673114 0.094464 0.003403
0.705917 0.094867 0.004474
0.738721 0.095271 0.005544
0.771524 0.095675 0.006615
0.804328 0.096078 0.007686
0.837132 0.096482 0.008757
0.869935 0.096885 0.009828
0.902739 0.097289 0.010898
0.935543 0.097693 0.011969
0.968346 0.098096 0.013040
0.995075 0.098425 0.014036
0.995075 0.098425 0.014703
0.023878 0.118428 0.000000
0.023878 0.118428 0.000000
0.050607 0.118757 0.000000
0.083411 0.119161 0.000000
0.116215 0.119565 0.000000
0.149018 0.119968 0.000000
0.181822 0.120372 0.000000
0.214626 0.120776 0.000000
0.247429 0.121179 0.000000
0.280233 0.121583 0.000000
0.313036 0.121986 0.000000
0.345840 0.122390 0.000000
0.378644 0.122794 0.000000
0.411447 0.123197 0.000000
0.444251 0.123601 0.000000
0.477055 0.124005 0.000000
0.509858 0.124408 0.000122
0.542662 0.124812 0.001192
0.575466 0.125216 0.002263
0.608269 0.125619 0.003334
0.641073 0.126023 0.004405
0.673877 0.126427 0.005476
0.706680 0.126830 0.006546
0.739484 0.127234 0.007617
0.772288 0.127638 0.008688
0.805091 0.128041 0.009759
0.837895 0.128445 0.010830
0.870699 0.128849 0.011900
0.903502 0.129252 0.012971
0.936306 0.129656 0.014042
0.969110 0.130059 0.015113
0.995838 0.130388 0.016109
0.995838 0.130388 0.016776
0.024642 0.150391 0.000000
0.024642 0.150391 0.000000
0.051370 0.150720 0.000000
0.084174 0.151124 0.000000
0.116978 0.151528 0.000000
0.149781 0.151931 0.000000
0.182585 0.152335 0.000000
0.215389 0.152739 0.000000
0.248192 0.153142 0.000000
0.280996 0.153546 0.000000
0.313800 0.153950 0.000000
0.346603 0.154353 0.000000
0.379407 0.154757 0.000000
0.412211 0.155161 0.000000
0.445014 0.155564 0.000053
0.477818 0.155968 0.001124
0.510621 0.156371 0.002195
0.543425 0.156775 0.003265
0.576229 0.157179 0.004336
0.609032 0.157582 0.005407
0.641836 0.157986 0.006478
0.674640 0.158390 0.007548
0.707443 0.158793 0.008619
0.740247 0.159197 0.009690
0.773051 0.159601 0.010761
0.805854 0.160004 0.011832
0.838658 0.160408 0.012902
0.871462 0.160812 0.013973
0.904265 0.161215 0.015044
0.937069 0.161619 0.016115
0.969873 0.162023 0.017186
0.996601 0.162351 0.018182
0.996601 0.162351 0.018849
0.025405 0.182355 0.000000
0.025405 0.182355 0.000000
0.052133 0.182683 0.000000
0.084937 0.183087 0.000000
0.117741 0.183491 0.000000
0.150544 0.183894 0.000000
0.183348 0.184298 0.000000
0.216152 0.184702 0.000000
0.248955 0.185105 0.000000
0.281759 0.185509 0.000000
0.314563 0.185913 0.000000
0.347366 0.186316 0.000000
0.380170 0.186720 0.000000
0.412974 0.187124 0.001055
0.445777 0.187527 0.002126
0.478581 0.187931 0.003197
0.511385 0.188335 0.004267
0.544188 0.188738 0.005338
0.576992 0.189142 0.006409
0.609796 0.189546 0.007480
0.642599 0.189949 0.008551
0.675403 0.190353 0.009621
0.708206 0.190756 0.010692
0.741010 0.191160 0.011763
0.773814 0.191564 0.012834
0.806617 0.191967 0.013905
0.839421 0.192371 0.014975
0.872225 0.192775 0.016046
0.905028 0.193178 0.017117
0.937832 0.193582 0.018188
0.970636 0.193986 0.019258
0.997365 0.194315 0.020255
0.997365 0.194315 0.020922
0.026168 0.214318 0.000000
0.026168 0.214318 0.000000
0.052897 0.214647 0.000000
0.085700 0.215050 0.000000
0.118504 0.215454 0.000000
0.151308 0.215858 0.000000
0.184111 0.216261 0.000000
0.216915 0.216665 0.000000
0.249718 0.217068 0.000000
0.282522 0.217472 0.000000
0.315326 0.217876 0.000000
0.348129 0.218279 0.000986
0.380933 0.218683 0.002057
0.413737 0.219087 0.003128
0.446540 0.219490 0.004199
0.479344 0.219894 0.005269
0.512148 0.220298 0.006340
0.544951 0.220701 0.007411
0.577755 0.221105 0.008482
0.610559 0.221509 0.009553
0.643362 0.221912 0.010623
0.676166 0.222316 0.011694
0.708970 0.222720 0.012765
0.741773 0.223123 0.013836
0.774577 0.223527 0.014907
0.807381 0.223931 0.015977
0.840184 0.224334 0.017048
0.872988 0.224738 0.018119
0.905792 0.225141 0.019190
0.938595 0.225545 0.020261
0.971399 0.225949 0.021331
0.998128 0.226278 0.022327
0.998887 0.226712 0.022995
0.026931 0.246281 0.000000
0.026931 0.246281 0.000000
0.053660 0.246610 0.000000
0.086463 0.247013 0.000000
0.119267 0.247417 0.000000
0.152071 0.247821 0.000000
0.184874 0.248224 0.000000
0.217678 0.248628 0.000000
0.250482 0.249032 0.000000
0.283285 0.249435 0.000917
0.316089 0.249839 0.001988
0.348893 0.250243 0.003059
0.381696 0.250646 0.004130
0.414500 0.251050 0.005201
0.447303 0.251453 0.006271
0.480107 0.251857 0.007342
0.512911 0.252261 0.008413
0.545714 0.252664 0.009484
0.578518 0.253068 0.010555
0.611322 0.253472 0.011625
0.644125 0.253875 0.012696
0.676929 0.254279 0.013767
0.709733 0.254683 0.014838
0.742536 0.255086 0.015909
0.775340 0.255490 0.016979
0.808144 0.255894 0.018050
0.840947 0.256297 0.019121
0.873751 0.256701 0.020192
0.906555 0.257105 0.021263
0.939358 0.257508 0.022333
0.972886 0.258326 0.023404
1.000000 0.259203 0.024400
1.000000 0.259750 0.025067
0.027694 0.278244 0.000000
0.027694 0.278244 0.000000
0.054423 0.278573 0.000000
0.087226 0.278976 0.000000
0.120030 0.279380 0.000000
0.152834 0.279784 0.000000
0.185637 0.280187 0.000000
0.218441 0.280591 0.000849
0.251245 0.280995 0.001920
0.284048 0.281398 0.002990
0.316852 0.281802 0.004061
0.349656 0.282206 0.005132
0.382459 0.282609 0.006203
0.415263 0.283013 0.007274
0.448067 0.283417 0.008344
0.480870 0.283820 0.009415
0.513674 0.284224 0.010486
0.546478 0.284628 0.011557
0.579281 0.285031 0.012627
0.612085 0.285435 0.013698
0.644888 0.285838 0.014769
0.677692 0.286242 0.015840
0.710496 0.286646 0.016911
0.743299 0.287049 0.017981
0.776103 0.287453 0.019052
0.808907 0.287857 0.020123
0.841710 0.288260 0.021194
0.874514 0.288664 0.022265
0.908007 0.289462 0.023335
0.941769 0.290413 0.024406
0.975531 0.291364 0.025477
1.000000 0.292241 0.026473
1.000000 0.292789 0.027140
0.028457 0.310207 0.000000
0.028457 0.310207 0.000000
0.055186 0.310536 0.000000
0.087990 0.310940 0.000000
0.120793 0.311343 0.000000
0.153597 0.311747 0.000780
0.186400 0.312150 0.001851
0.219204 0.312554 0.002922
0.252008 0.312958 0.003992
0.284811 0.313361 0.005063
0.317615 0.313765 0.006134
0.350419 0.314169 0.007205
0.383222 0.314572 0.008276
0.416026 0.314976 0.009346
0.448830 0.315380 0.010417
0.481633 0.315783 0.011488
0.514437 0.316187 0.012559
0.547241 0.316591 0.013630
0.580044 0.316994 0.014700
0.612848 0.317398 0.015771
0.645652 0.317802 0.016842
0.678455 0.318205 0.017913
0.711259 0.318609 0.018984
0.744063 0.319013 0.020054
0.776866 0.319416 0.021125
0.809670 0.319820 0.022196
0.843127 0.320597 0.023267
0.876890 0.321549 0.024337
0.910652 0.322500 0.025408
0.944414 0.323451 0.026479
0.978176 0.324403 0.027550
1.000000 0.325279 0.028546
1.000000 0.325827 0.028767
0.029220 0.342170 0.000000
0.029220 0.342170 0.000000
0.055949 0.342499 0.000000
0.088753 0.342903 0.000711
0.121556 0.343306 0.001782
0.154360 0.343710 0.002853
0.187164 0.344114 0.003924
0.219967 0.344517 0.004994
0.252771 0.344921 0.006065
0.285575 0.345325 0.007136
0.318378 0.345728 0.008207
0.351182 0.346132 0.009278
0.383985 0.346535 0.010348
0.416789 0.346939 0.011419
0.449593 0.347343 0.012490
0.482396 0.347746 0.013561
0.515200 0.348150 0.014632
0.548004 0.348554 0.015702
0.580807 0.348957 0.016773
0.613611 0.349361 0.017844
0.646415 0.349765 0.018915
0.679218 0.350168 0.019986
0.712022 0.350572 0.021056
0.744826 0.350976 0.022127
0.778248 0.351733 0.023198
0.812010 0.352684 0.024269
0.845772 0.353636 0.025340
0.879535 0.354587 0.026410
0.913297 0.355538 0.027481
0.947059 0.356490 0.028552
0.980821 0.357441 0.029201
1.000000 0.358318 0.029530
1.000000 0.358866 0.029530
0.029983 0.374133 0.000050
0.029983 0.374133 0.000717
0.056712 0.374462 0.001713
0.089516 0.374866 0.002784
0.122319 0.375269 0.003855
0.155123 0.375673 0.004926
0.187927 0.376077 0.005996
0.220730 0.376480 0.007067
0.253534 0.376884 0.008138
0.286338 0.377288 0.009209
0.319141 0.377691 0.010280
0.351945 0.378095 0.011350
0.384749 0.378499 0.012421
0.417552 0.378902 0.013492
0.450356 0.379306 0.014563
0.483160 0.379710 0.015634
0.515963 0.380113 0.016704
0.548767 0.380517 0.017775
0.581570 0.380920 0.018846
0.614374 0.381324 0.019917
0.647178 0.381728 0.020988
0.679981 0.382131 0.022058
0.713369 0.382869 0.023129
0.747131 0.383820 0.024200
0.780893 0.384771 0.025271
0.814655 0.385723 0.026342
0.848417 0.386674 0.027412
0.882180 0.387625 0.028483
0.915942 0.388577 0.029157
0.949704 0.389528 0.029561
0.983466 0.390480 0.029964
1.000000 0.391356 0.030293
1.000000 0.391904 0.030293
0.030746 0.406096 0.002123
0.030746 0.406096 0.002790
0.057475 0.406425 0.003786
0.090279 0.406829 0.004857
0.123082 0.407232 0.005928
0.155886 0.407636 0.006999
0.188690 0.408040 0.008069
0.221493 0.408443 0.009140
0.254297 0.408847 0.010211
0.287101 0.409251 0.011282
0.319904 0.409654 0.012353
0.352708 0.410058 0.013423
0.385512 0.410462 0.014494
0.418315 0.410865 0.015565
0.451119 0.411269 0.016636
0.483923 0.411673 0.017706
0.516726 0.412076 0.018777
0.549530 0.412480 0.019848
0.582334 0.412884 0.020919
0.615137 0.413287 0.021990
0.648489 0.414004 0.023060
0.682251 0.414956 0.024131
0.716013 0.415907 0.025202
0.749776 0.416858 0.026273
0.783538 0.417810 0.027344
0.817300 0.418761 0.028414
0.851062 0.419712 0.029113
0.884824 0.420664 0.029516
0.918587 0.421615 0.029920
0.952349 0.422567 0.030324
0.986111 0.423518 0.030727
1.000000 0.424395 0.031056
1.000000 0.424942 0.031056
0.031509 0.438059 0.004196
0.031509 0.438059 0.004863
0.058238 0.438388 0.005859
0.091042 0.438792 0.006930
0.123846 0.439196 0.008001
0.156649 0.439599 0.009071
0.189453 0.440003 0.010142
0.222257 0.440407 0.011213
0.255060 0.440810 0.012284
0.287864 0.441214 0.013355
0.320667 0.441617 0.014425
0.353471 0.442021 0.015496
0.386275 0.442425 0.016567
0.419078 0.442828 0.017638
0.451882 0.443232 0.018709
0.484686 0.443636 0.019779
0.517489 0.444039 0.020850
0.550293 0.444443 0.021921
0.583610 0.445140 0.022992
0.617372 0.446091 0.024062
0.651134 0.447043 0.025133
0.684896 0.447994 0.026204
0.718658 0.448945 0.027275
0.752421 0.449897 0.028346
0.786183 0.450848 0.029069
0.819945 0.451800 0.029472
0.853707 0.452751 0.029876
0.887469 0.453702 0.030280
0.921232 0.454654 0.030683
0.954994 0.455605 0.031087
0.988756 0.456556 0.031490
1.000000 0.457433 0.031819
1.000000 0.457981 0.031819
0.032272 0.470023 0.006269
0.032272 0.470023 0.006936
0.059001 0.470351 0.007932
0.091805 0.470755 0.009003
0.124609 0.471159 0.010073
0.157412 0.471562 0.011144
0.190216 0.471966 0.012215
0.223020 0.472370 0.013286
0.255823 0.472773 0.014357
0.288627 0.473177 0.015427
0.321431 0.473581 0.016498
0.354234 0.473984 0.017569
0.387038 0.474388 0.018640
0.419842 0.474792 0.019711
0.452645 0.475195 0.020781
0.485449 0.475599 0.021852
0.518730 0.476275 0.022923
0.552492 0.477227 0.023994
0.586255 0.478178 0.025065
0.620017 0.479130 0.026135
0.653779 0.480081 0.027206
0.687541 0.481032 0.028277
0.721303 0.481984 0.029024
0.755065 0.482935 0.029428
0.788828 0.483887 0.029832
0.822590 0.484838 0.030235
0.856352 0.485789 0.030639
0.890114 0.486741 0.031043
0.923876 0.487692 0.031446
0.957639 0.488643 0.031850
0.991401 0.489595 0.032254
1.000000 0.490472 0.032583
1.000000 0.491019 0.032583
0.033036 0.501986 0.008342
0.033036 0.501986 0.009009
0.059764 0.502314 0.010005
0.092568 0.502718 0.011075
0.125372 0.503122 0.012146
0.158175 0.503525 0.013217
0.190979 0.503929 0.014288
0.223783 0.504333 0.015359
0.256586 0.504736 0.016429
0.289390 0.505140 0.017500
0.322194 0.505544 0.018571
0.354997 0.505947 0.019642
0.387801 0.506351 0.020713
0.420605 0.506755 0.021783
0.453851 0.507411 0.022854
0.487613 0.508362 0.023925
0.521375 0.509314 0.024996
0.555137 0.510265 0.026067
0.588899 0.511217 0.027137
0.622662 0.512168 0.028208
0.656424 0.513119 0.028980
0.690186 0.514071 0.029384
0.723948 0.515022 0.029788
0.757710 0.515974 0.030191
0.791473 0.516925 0.030595
0.825235 0.517876 0.030998
0.858997 0.518828 0.031402
0.892759 0.519779 0.031806
0.926521 0.520731 0.032209
0.960284 0.521682 0.032613
0.994046 0.522633 0.033017
1.000000 0.523510 0.033346
1.000000 0.524058 0.033346
0.033799 0.533949 0.010414
0.033799 0.533949 0.011081
0.060528 0.534278 0.012078
0.093331 0.534681 0.013148
0.126135 0.535085 0.014219
0.158939 0.535489 0.015290
0.191742 0.535892 0.016361
0.224546 0.536296 0.017432
0.257350 0.536699 0.018502
0.290153 0.537103 0.019573
0.322957 0.537507 0.020644
0.355760 0.537910 0.021715
0.388971 0.538547 0.022785
0.422733 0.539498 0.023856
0.456496 0.540450 0.024927
0.490258 0.541401 0.025998
0.524020 0.542352 0.027069
0.557782 0.543304 0.028139
0.591544 0.544255 0.028936
0.625307 0.545206 0.029340
0.659069 0.546158 0.029743
0.692831 0.547109 0.030147
0.726593 0.548061 0.030551
0.760355 0.549012 0.030954
0.794118 0.549963 0.031358
0.827880 0.550915 0.031762
0.861642 0.551866 0.032165
0.895404 0.552818 0.032569
0.929166 0.553769 0.032973
0.962928 0.554720 0.033376
0.996691 0.555672 0.033780
1.000000 0.556548 0.034109
1.000000 0.557096 0.034109
0.034562 0.565912 0.012487
0.034562 0.565912 0.013154
0.061291 0.566241 0.014150
0.094094 0.566644 0.015221
0.126898 0.567048 0.016292
0.159702 0.567452 0.017363
0.192505 0.567855 0.018434
0.225309 0.568259 0.019504
0.258113 0.568663 0.020575
0.290916 0.569066 0.021646
0.324092 0.569682 0.022717
0.357854 0.570634 0.023788
0.391616 0.571585 0.024858
0.425378 0.572537 0.025929
0.459141 0.573488 0.027000
0.492903 0.574439 0.028071
0.526665 0.575391 0.028892
0.560427 0.576342 0.029295
0.594189 0.577293 0.029699
0.627951 0.578245 0.030103
0.661714 0.579196 0.030506
0.695476 0.580148 0.030910
0.729238 0.581099 0.031314
0.763000 0.582050 0.031717
0.796762 0.583002 0.032121
0.830525 0.583953 0.032525
0.864287 0.584905 0.032928
0.898049 0.585856 0.033332
0.931811 0.586807 0.033736
0.965573 0.587759 0.034139
0.999336 0.588710 0.034543
1.000000 0.589587 0.034872
1.000000 0.590135 0.034872
0.035325 0.597875 0.014560
0.035325 0.597875 0.015227
0.062054 0.598204 0.016223
0.094857 0.598607 0.017294
0.127661 0.599011 0.018365
0.160465 0.599415 0.019436
0.193268 0.599818 0.020506
0.226072 0.600222 0.021577
0.259212 0.600818 0.022648
0.292975 0.601769 0.023719
0.326737 0.602721 0.024790
0.360499 0.603672 0.025860
0.394261 0.604624 0.026931
0.428023 0.605575 0.028002
0.461785 0.606526 0.028848
0.495548 0.607478 0.029251
0.529310 0.608429 0.029655
0.563072 0.609381 0.030059
0.596834 0.610332 0.030462
0.630596 0.611283 0.030866
0.664359 0.612235 0.031270
0.698121 0.613186 0.031673
0.731883 0.614137 0.032077
0.765645 0.615089 0.032480
0.799407 0.616040 0.032884
0.833170 0.616992 0.033288
0.866932 0.617943 0.033691
0.900694 0.618894 0.034095
0.934456 0.619846 0.034499
0.968218 0.620797 0.034902
1.000000 0.621749 0.035306
1.000000 0.622625 0.035635
1.000000 0.623173 0.035635
0.036088 0.629838 0.016633
0.036088 0.629838 0.017300
0.062817 0.630167 0.018296
0.095621 0.630571 0.019367
0.128424 0.630974 0.020438
0.161228 0.631378 0.021508
0.194333 0.631954 0.022579
0.228095 0.632905 0.023650
0.261857 0.633856 0.024721
0.295619 0.634808 0.025792
0.329382 0.635759 0.026862
0.363144 0.636711 0.027933
0.396906 0.637662 0.028803
0.430668 0.638613 0.029207
0.464430 0.639565 0.029611
0.498193 0.640516 0.030014
0.531955 0.641468 0.030418
0.565717 0.642419 0.030822
0.599479 0.643370 0.031225
0.633241 0.644322 0.031629
0.667004 0.645273 0.032033
0.700766 0.646225 0.032436
0.734528 0.647176 0.032840
0.768290 0.648127 0.033244
0.802052 0.649079 0.033647
0.835814 0.650030 0.034051
0.869577 0.650981 0.034455
0.903339 0.651933 0.034858
0.937101 0.652884 0.035262
0.970863 0.653836 0.035665
1.000000 0.654787 0.036069
1.000000 0.655664 0.036398
1.000000 0.656211 0.036398
0.036851 0.661801 0.018706
0.036851 0.661801 0.019373
0.063580 0.662130 0.020369
0.096384 0.662534 0.021440
0.129453 0.663089 0.022510
0.163216 0.664041 0.023581
0.196978 0.664992 0.024652
0.230740 0.665944 0.025723
0.264502 0.666895 0.026794
0.298264 0.667846 0.027864
0.332027 0.668798 0.028759
0.365789 0.669749 0.029163
0.399551 0.670700 0.029566
0.433313 0.671652 0.029970
0.467075 0.672603 0.030374
0.500837 0.673555 0.030777
0.534600 0.674506 0.031181
0.568362 0.675457 0.031585
0.602124 0.676409 0.031988
0.635886 0.677360 0.032392
0.669648 0.678312 0.032796
0.703411 0.679263 0.033199
0.737173 0.680214 0.033603
0.770935 0.681166 0.034007
0.804697 0.682117 0.034410
0.838459 0.683068 0.034814
0.872222 0.684020 0.035218
0.905984 0.684971 0.035621
0.939746 0.685923 0.036025
0.973508 0.686874 0.036429
1.000000 0.687825 0.036832
1.000000 0.688702 0.037161
1.000000 0.689250 0.037161
0.037614 0.693764 0.020779
0.037614 0.693764 0.021446
0.064574 0.694225 0.022442
0.098336 0.695176 0.023513
0.132098 0.696128 0.024583
0.165860 0.697079 0.025654
0.199623 0.698031 0.026725
0.233385 0.698982 0.027796
0.267147 0.699933 0.028715
0.300909 0.700885 0.029119
0.334671 0.701836 0.029522
0.368434 0.702787 0.029926
0.402196 0.703739 0.030330
0.435958 0.704690 0.030733
0.469720 0.705642 0.031137
0.503482 0.706593 0.031541
0.537245 0.707544 0.031944
0.571007 0.708496 0.032348
0.604769 0.709447 0.032752
0.638531 0.710399 0.033155
0.672293 0.711350 0.033559
0.706056 0.712301 0.033962
0.739818 0.713253 0.034366
0.773580 0.714204 0.034770
0.807342 0.715156 0.035173
0.841104 0.716107 0.035577
0.874866 0.717058 0.035981
0.908629 0.718010 0.036384
0.942391 0.718961 0.036788
0.976153 0.719912 0.037192
1.000000 0.720864 0.037595
1.000000 0.721740 0.037924
1.000000 0.722288 0.037924
0.038573 0.725839 0.022851
0.039531 0.726387 0.023519
0.067219 0.727263 0.024515
0.100981 0.728215 0.025585
0.134743 0.729166 0.026656
0.168505 0.730118 0.027727
0.202268 0.731069 0.028671
0.236030 0.732020 0.029074
0.269792 0.732972 0.029478
0.303554 0.733923 0.029882
0.337316 0.734875 0.030285
0.371079 0.735826 0.030689
0.404841 0.736777 0.031093
0.438603 0.737729 0.031496
0.472365 0.738680 0.031900
0.506127 0.739631 0.032304
0.539889 0.740583 0.032707
0.573652 0.741534 0.033111
0.607414 0.742486 0.033515
0.641176 0.743437 0.033918
0.674938 0.744388 0.034322
0.708700 0.745340 0.034726
0.742463 0.746291 0.035129
0.776225 0.747243 0.035533
0.809987 0.748194 0.035937
0.843749 0.749145 0.036340
0.877511 0.750097 0.036744
0.911274 0.751048 0.037147
0.945036 0.751999 0.037551
0.978798 0.752951 0.037955
1.000000 0.753902 0.038358
1.000000 0.754779 0.038687
1.000000 0.755327 0.038687
0.041218 0.758877 0.024924
0.042176 0.759425 0.025591
0.069864 0.760302 0.026587
0.103626 0.761253 0.027658
0.137388 0.762205 0.028627
0.171150 0.763156 0.029030
0.204913 0.764107 0.029434
0.238675 0.765059 0.029838
0.272437 0.766010 0.030241
0.306199 0.766962 0.030645
0.339961 0.767913 0.031049
0.373723 0.768864 0.031452
0.407486 0.769816 0.031856
0.441248 0.770767 0.032259
0.475010 0.771718 0.032663
0.508772 0.772670 0.033067
0.542534 0.773621 0.033470
0.576297 0.774573 0.033874
0.610059 0.775524 0.034278
0.643821 0.776475 0.034681
0.677583 0.777427 0.035085
0.711345 0.778378 0.035489
0.745108 0.779330 0.035892
0.778870 0.780281 0.036296
0.812632 0.781232 0.036700
0.846394 0.782184 0.037103
0.880156 0.783135 0.037507
0.913918 0.784087 0.037911
0.947681 0.785038 0.038314
0.981443 0.785989 0.038718
1.000000 0.786941 0.039122
1.000000 0.787817 0.039450
1.000000 0.788365 0.039450
0.043863 0.791916 0.026997
0.044821 0.792464 0.027664
0.072509 0.793340 0.028582
0.106271 0.794292 0.028986
0.140033 0.795243 0.029390
0.173795 0.796194 0.029793
0.207557 0.797146 0.030197
0.241320 0.798097 0.030601
0.275082 0.799049 0.031004
0.308844 0.800000 0.031408
0.342606 0.800951 0.031812
0.376368 0.801903 0.032215
0.410131 0.802854 0.032619
0.443893 0.803806 0.033023
0.477655 0.804757 0.033426
0.511417 0.805708 0.033830
0.545179 0.806660 0.034234
0.578942 0.807611 0.034637
0.612704 0.808562 0.035041
0.646466 0.809514 0.035444
0.680228 0.810465 0.035848
0.713990 0.811417 0.036252
0.747752 0.812368 0.036655
0.781515 0.813319 0.037059
0.815277 0.814271 0.037463
0.849039 0.815222 0.037866
0.882801 0.816174 0.038270
0.916563 0.817125 0.038674
0.950326 0.818076 0.039077
0.984088 0.819028 0.039481
1.000000 0.819979 0.039885
1.000000 0.820856 0.040214
1.000000 0.821403 0.040214
0.046508 0.824954 0.029017
0.047466 0.825502 0.029017
0.075154 0.826379 0.029346
0.108916 0.827330 0.029749
0.142678 0.828281 0.030153
0.176440 0.829233 0.030556
0.210202 0.830184 0.030960
0.243965 0.831136 0.031364
0.277727 0.832087 0.031767
0.311489 0.833038 0.032171
0.345251 0.833990 0.032575
0.379013 0.834941 0.032978
0.412775 0.835893 0.033382
0.446538 0.836844 0.033786
0.480300 0.837795 0.034189
0.514062 0.838747 0.034593
0.547824 0.839698 0.034997
0.581586 0.840649 0.035400
0.615349 0.841601 0.035804
0.649111 0.842552 0.036208
0.682873 0.843504 0.036611
0.716635 0.844455 0.037015
0.750397 0.845406 0.037419
0.784160 0.846358 0.037822
0.817922 0.847309 0.038226
0.851684 0.848261 0.038629
0.885446 0.849212 0.039033
