docs/luts/fresh-rec709-film-look.cube
TITLE "FreshLUTs??-Rec709??"
LUT_3D_SIZE 33
DOMAIN_MIN 0.0 0.0 0.0
DOMAIN_MAX 1.0 1.0 1.0
0.000000 0.000000 0.000000
0.000000 0.000000 0.000000
0.022152 0.000415 0.000000
0.054782 0.001026 0.000000
0.087412 0.001637 0.000000
0.120042 0.002248 0.000000
0.152672 0.002859 0.000000
0.185302 0.003470 0.000000
0.217931 0.004081 0.000000
0.250561 0.004692 0.000000
0.283191 0.005304 0.000000
0.315821 0.005915 0.000000
0.348451 0.006526 0.000000
0.381081 0.007137 0.000000
0.413710 0.007748 0.000000
0.446340 0.008359 0.000000
0.478970 0.008970 0.000000
0.511600 0.009581 0.000000
0.544230 0.010192 0.000000
0.576859 0.010803 0.000000
0.609489 0.011414 0.000000
0.642119 0.012025 0.000000
0.674749 0.012636 0.000000
0.707379 0.013248 0.000000
0.740009 0.013859 0.000103
0.772638 0.014470 0.001224
0.805268 0.015081 0.002345
0.837898 0.015692 0.003466
0.870528 0.016303 0.004588
0.903158 0.016914 0.005709
0.935788 0.017525 0.006830
0.957940 0.017940 0.007755
0.957940 0.017940 0.008265
0.000110 0.003048 0.000000
0.000110 0.003048 0.000000
0.022262 0.003462 0.000000
0.054892 0.004074 0.000000
0.087522 0.004685 0.000000
0.120152 0.005296 0.000000
0.152782 0.005907 0.000000
0.185412 0.006518 0.000000
0.218041 0.007129 0.000000
0.250671 0.007740 0.000000
0.283301 0.008351 0.000000
0.315931 0.008962 0.000000
0.348561 0.009573 0.000000
0.381191 0.010184 0.000000
0.413820 0.010795 0.000000
0.446450 0.011406 0.000000
0.479080 0.012018 0.000000
0.511710 0.012629 0.000000
0.544340 0.013240 0.000000
0.576970 0.013851 0.000000
0.609599 0.014462 0.000000
0.642229 0.015073 0.000000
0.674859 0.015684 0.000000
0.707489 0.016295 0.000093
0.740119 0.016906 0.001214
0.772749 0.017517 0.002336
0.805378 0.018128 0.003457
0.838008 0.018739 0.004578
0.870638 0.019351 0.005699
0.903268 0.019962 0.006821
0.935898 0.020573 0.007942
0.958050 0.020988 0.008867
0.958050 0.020988 0.009377
0.001277 0.035352 0.000000
0.001277 0.035352 0.000000
0.023429 0.035767 0.000000
0.056059 0.036378 0.000000
0.088689 0.036989 0.000000
0.121319 0.037600 0.000000
0.153948 0.038211 0.000000
0.186578 0.038822 0.000000
0.219208 0.039433 0.000000
0.251838 0.040044 0.000000
0.284468 0.040655 0.000000
0.317098 0.041266 0.000000
0.349727 0.041877 0.000000
0.382357 0.042488 0.000000
0.414987 0.043100 0.000000
0.447617 0.043711 0.000000
0.480247 0.044322 0.000000
0.512877 0.044933 0.000000
0.545506 0.045544 0.000000
0.578136 0.046155 0.000000
0.610766 0.046766 0.000000
0.643396 0.047377 0.000019
0.676026 0.047988 0.001140
0.708656 0.048599 0.002261
0.741285 0.049210 0.003383
0.773915 0.049821 0.004504
0.806545 0.050433 0.005625
0.839175 0.051044 0.006746
0.871805 0.051655 0.007868
0.904435 0.052266 0.008989
0.937064 0.052877 0.010110
0.959217 0.053292 0.011035
0.959217 0.053292 0.011545
0.002443 0.067656 0.000000
0.002443 0.067656 0.000000
0.024596 0.068071 0.000000
0.057226 0.068682 0.000000
0.089855 0.069293 0.000000
0.122485 0.069904 0.000000
0.155115 0.070515 0.000000
0.187745 0.071126 0.000000
0.220375 0.071737 0.000000
0.253005 0.072348 0.000000
0.285634 0.072959 0.000000
0.318264 0.073570 0.000000
0.350894 0.074182 0.000000
0.383524 0.074793 0.000000
0.416154 0.075404 0.000000
0.448784 0.076015 0.000000
0.481413 0.076626 0.000000
0.514043 0.077237 0.000000
0.546673 0.077848 0.000000
0.579303 0.078459 0.000000
0.611933 0.079070 0.001066
0.644563 0.079681 0.002187
0.677192 0.080292 0.003308
0.709822 0.080903 0.004430
0.742452 0.081515 0.005551
0.775082 0.082126 0.006672
0.807712 0.082737 0.007793
0.840342 0.083348 0.008915
0.872971 0.083959 0.010036
0.905601 0.084570 0.011157
0.938231 0.085181 0.012278
0.960383 0.085596 0.013203
0.960383 0.085596 0.013713
0.003610 0.099960 0.000000
0.003610 0.099960 0.000000
0.025762 0.100375 0.000000
0.058392 0.100986 0.000000
0.091022 0.101597 0.000000
0.123652 0.102208 0.000000
0.156282 0.102819 0.000000
0.188912 0.103430 0.000000
0.221541 0.104041 0.000000
0.254171 0.104652 0.000000
0.286801 0.105264 0.000000
0.319431 0.105875 0.000000
0.352061 0.106486 0.000000
0.384691 0.107097 0.000000
0.417320 0.107708 0.000000
0.449950 0.108319 0.000000
0.482580 0.108930 0.000000
0.515210 0.109541 0.000000
0.547840 0.110152 0.000992
0.580470 0.110763 0.002113
0.613099 0.111374 0.003234
0.645729 0.111985 0.004355
0.678359 0.112597 0.005477
0.710989 0.113208 0.006598
0.743619 0.113819 0.007719
0.776249 0.114430 0.008840
0.808878 0.115041 0.009962
0.841508 0.115652 0.011083
0.874138 0.116263 0.012204
0.906768 0.116874 0.013325
0.939398 0.117485 0.014447
0.961550 0.117900 0.015372
0.961550 0.117900 0.015882
0.004777 0.132264 0.000000
0.004777 0.132264 0.000000
0.026929 0.132679 0.000000
0.059559 0.133290 0.000000
0.092189 0.133901 0.000000
0.124819 0.134512 0.000000
0.157448 0.135123 0.000000
0.190078 0.135734 0.000000
0.222708 0.136346 0.000000
0.255338 0.136957 0.000000
0.287968 0.137568 0.000000
0.320598 0.138179 0.000000
0.353227 0.138790 0.000000
0.385857 0.139401 0.000000
0.418487 0.140012 0.000000
0.451117 0.140623 0.000000
0.483747 0.141234 0.000917
0.516377 0.141845 0.002039
0.549006 0.142456 0.003160
0.581636 0.143067 0.004281
0.614266 0.143679 0.005402
0.646896 0.144290 0.006524
0.679526 0.144901 0.007645
0.712156 0.145512 0.008766
0.744785 0.146123 0.009887
0.777415 0.146734 0.011009
0.810045 0.147345 0.012130
0.842675 0.147956 0.013251
0.875305 0.148567 0.014372
0.907935 0.149178 0.015494
0.940564 0.149789 0.016615
0.962717 0.150204 0.017540
0.962717 0.150204 0.018050
0.005943 0.164568 0.000000
0.005943 0.164568 0.000000
0.028096 0.164983 0.000000
0.060726 0.165594 0.000000
0.093355 0.166205 0.000000
0.125985 0.166816 0.000000
0.158615 0.167428 0.000000
0.191245 0.168039 0.000000
0.223875 0.168650 0.000000
0.256505 0.169261 0.000000
0.289134 0.169872 0.000000
0.321764 0.170483 0.000000
0.354394 0.171094 0.000000
0.387024 0.171705 0.000000
0.419654 0.172316 0.000843
0.452284 0.172927 0.001964
0.484913 0.173538 0.003085
0.517543 0.174149 0.004207
0.550173 0.174761 0.005328
0.582803 0.175372 0.006449
0.615433 0.175983 0.007570
0.648063 0.176594 0.008692
0.680692 0.177205 0.009813
0.713322 0.177816 0.010934
0.745952 0.178427 0.012055
0.778582 0.179038 0.013177
0.811212 0.179649 0.014298
0.843842 0.180260 0.015419
0.876471 0.180871 0.016540
0.909101 0.181482 0.017662
0.941731 0.182094 0.018783
0.963883 0.182508 0.019708
0.963883 0.182508 0.020218
0.007110 0.196873 0.000000
0.007110 0.196873 0.000000
0.029262 0.197287 0.000000
0.061892 0.197898 0.000000
0.094522 0.198510 0.000000
0.127152 0.199121 0.000000
0.159782 0.199732 0.000000
0.192412 0.200343 0.000000
0.225041 0.200954 0.000000
0.257671 0.201565 0.000000
0.290301 0.202176 0.000000
0.322931 0.202787 0.000000
0.355561 0.203398 0.000769
0.388191 0.204009 0.001890
0.420820 0.204620 0.003011
0.453450 0.205231 0.004132
0.486080 0.205843 0.005254
0.518710 0.206454 0.006375
0.551340 0.207065 0.007496
0.583970 0.207676 0.008617
0.616599 0.208287 0.009739
0.649229 0.208898 0.010860
0.681859 0.209509 0.011981
0.714489 0.210120 0.013102
0.747119 0.210731 0.014224
0.779749 0.211342 0.015345
0.812378 0.211953 0.016466
0.845008 0.212564 0.017587
0.877638 0.213176 0.018709
0.910268 0.213787 0.019830
0.942898 0.214398 0.020951
0.965050 0.214813 0.021876
0.965408 0.214966 0.022386
0.008277 0.229177 0.000000
0.008277 0.229177 0.000000
0.030429 0.229592 0.000000
0.063059 0.230203 0.000000
0.095689 0.230814 0.000000
0.128319 0.231425 0.000000
0.160948 0.232036 0.000000
0.193578 0.232647 0.000000
0.226208 0.233258 0.000000
0.258838 0.233869 0.000000
0.291468 0.234480 0.000694
0.324098 0.235091 0.001816
0.356727 0.235702 0.002937
0.389357 0.236313 0.004058
0.421987 0.236925 0.005179
0.454617 0.237536 0.006301
0.487247 0.238147 0.007422
0.519877 0.238758 0.008543
0.552506 0.239369 0.009664
0.585136 0.239980 0.010786
0.617766 0.240591 0.011907
0.650396 0.241202 0.013028
0.683026 0.241813 0.014149
0.715656 0.242424 0.015271
0.748285 0.243035 0.016392
0.780915 0.243646 0.017513
0.813545 0.244258 0.018634
0.846175 0.244869 0.019756
0.878805 0.245480 0.020877
0.911435 0.246091 0.021998
0.944405 0.246848 0.023119
0.967009 0.247456 0.024044
0.967460 0.247649 0.024555
0.009443 0.261481 0.000000
0.009443 0.261481 0.000000
0.031596 0.261896 0.000000
0.064226 0.262507 0.000000
0.096855 0.263118 0.000000
0.129485 0.263729 0.000000
0.162115 0.264340 0.000000
0.194745 0.264951 0.000000
0.227375 0.265562 0.000620
0.260005 0.266173 0.001741
0.292634 0.266784 0.002863
0.325264 0.267395 0.003984
0.357894 0.268007 0.005105
0.390524 0.268618 0.006226
0.423154 0.269229 0.007348
0.455784 0.269840 0.008469
0.488413 0.270451 0.009590
0.521043 0.271062 0.010711
0.553673 0.271673 0.011833
0.586303 0.272284 0.012954
0.618933 0.272895 0.014075
0.651563 0.273506 0.015196
0.684192 0.274117 0.016318
0.716822 0.274728 0.017439
0.749452 0.275340 0.018560
0.782082 0.275951 0.019681
0.814712 0.276562 0.020803
0.847342 0.277173 0.021924
0.880296 0.277923 0.023045
0.913377 0.278727 0.024166
0.946458 0.279532 0.025288
0.969061 0.280140 0.026213
0.969512 0.280333 0.026723
0.010610 0.293785 0.000000
0.010610 0.293785 0.000000
0.032762 0.294200 0.000000
0.065392 0.294811 0.000000
0.098022 0.295422 0.000000
0.130652 0.296033 0.000000
0.163282 0.296644 0.000546
0.195912 0.297255 0.001667
0.228541 0.297866 0.002788
0.261171 0.298477 0.003910
0.293801 0.299089 0.005031
0.326431 0.299700 0.006152
0.359061 0.300311 0.007273
0.391691 0.300922 0.008395
0.424320 0.301533 0.009516
0.456950 0.302144 0.010637
0.489580 0.302755 0.011758
0.522210 0.303366 0.012880
0.554840 0.303977 0.014001
0.587470 0.304588 0.015122
0.620099 0.305199 0.016243
0.652729 0.305810 0.017365
0.685359 0.306422 0.018486
0.717989 0.307033 0.019607
0.750619 0.307644 0.020728
0.783249 0.308255 0.021850
0.816186 0.308998 0.022971
0.849267 0.309802 0.024092
0.882348 0.310607 0.025213
0.915429 0.311411 0.026335
0.948510 0.312215 0.027456
0.971113 0.312824 0.028381
0.971564 0.313017 0.028550
0.011777 0.326089 0.000000
0.011777 0.326089 0.000000
0.033929 0.326504 0.000000
0.066559 0.327115 0.000000
0.099189 0.327726 0.000472
0.131819 0.328337 0.001593
0.164448 0.328948 0.002714
0.197078 0.329559 0.003835
0.229708 0.330171 0.004957
0.262338 0.330782 0.006078
0.294968 0.331393 0.007199
0.327598 0.332004 0.008320
0.360227 0.332615 0.009442
0.392857 0.333226 0.010563
0.425487 0.333837 0.011684
0.458117 0.334448 0.012805
0.490747 0.335059 0.013927
0.523377 0.335670 0.015048
0.556006 0.336281 0.016169
0.588636 0.336892 0.017290
0.621266 0.337504 0.018412
0.653896 0.338115 0.019533
0.686526 0.338726 0.020654
0.719156 0.339337 0.021775
0.752077 0.340073 0.022897
0.785157 0.340877 0.024018
0.818238 0.341681 0.025139
0.851319 0.342486 0.026260
0.884400 0.343290 0.027382
0.917481 0.344095 0.028503
0.950562 0.344899 0.029302
0.973165 0.345507 0.029717
0.973616 0.345701 0.029717
0.012943 0.358393 0.000000
0.012943 0.358393 0.000000
0.035096 0.358808 0.000397
0.067726 0.359419 0.001519
0.100355 0.360030 0.002640
0.132985 0.360641 0.003761
0.165615 0.361253 0.004882
0.198245 0.361864 0.006004
0.230875 0.362475 0.007125
0.263505 0.363086 0.008246
0.296134 0.363697 0.009367
0.328764 0.364308 0.010489
0.361394 0.364919 0.011610
0.394024 0.365530 0.012731
0.426654 0.366141 0.013852
0.459284 0.366752 0.014974
0.491913 0.367363 0.016095
0.524543 0.367974 0.017216
0.557173 0.368586 0.018337
0.589803 0.369197 0.019459
0.622433 0.369808 0.020580
0.655063 0.370419 0.021701
0.687967 0.371148 0.022822
0.721048 0.371952 0.023944
0.754129 0.372756 0.025065
0.787210 0.373561 0.026186
0.820291 0.374365 0.027307
0.853371 0.375170 0.028429
0.886452 0.375974 0.029246
0.919533 0.376778 0.029857
0.952614 0.377583 0.030468
0.975218 0.378191 0.030883
0.975669 0.378384 0.030883
0.014110 0.390698 0.001130
0.014110 0.390698 0.001641
0.036262 0.391112 0.002566
0.068892 0.391723 0.003687
0.101522 0.392335 0.004808
0.134152 0.392946 0.005929
0.166782 0.393557 0.007051
0.199412 0.394168 0.008172
0.232041 0.394779 0.009293
0.264671 0.395390 0.010414
0.297301 0.396001 0.011536
0.329931 0.396612 0.012657
0.362561 0.397223 0.013778
0.395191 0.397834 0.014899
0.427820 0.398445 0.016021
0.460450 0.399056 0.017142
0.493080 0.399668 0.018263
0.525710 0.400279 0.019384
0.558340 0.400890 0.020506
0.590970 0.401501 0.021627
0.623857 0.402222 0.022748
0.656938 0.403027 0.023869
0.690019 0.403831 0.024991
0.723100 0.404636 0.026112
0.756181 0.405440 0.027233
0.789262 0.406244 0.028354
0.822343 0.407049 0.029191
0.855424 0.407853 0.029802
0.888505 0.408658 0.030413
0.921585 0.409462 0.031024
0.954666 0.410266 0.031635
0.977270 0.410875 0.032050
0.977721 0.411068 0.032050
0.015277 0.423002 0.003299
0.015277 0.423002 0.003809
0.037429 0.423417 0.004734
0.070059 0.424028 0.005855
0.102689 0.424639 0.006976
0.135319 0.425250 0.008098
0.167948 0.425861 0.009219
0.200578 0.426472 0.010340
0.233208 0.427083 0.011461
0.265838 0.427694 0.012583
0.298468 0.428305 0.013704
0.331098 0.428916 0.014825
0.363727 0.429527 0.015946
0.396357 0.430138 0.017068
0.428987 0.430750 0.018189
0.461617 0.431361 0.019310
0.494247 0.431972 0.020431
0.526877 0.432583 0.021553
0.559748 0.433297 0.022674
0.592829 0.434102 0.023795
0.625910 0.434906 0.024916
0.658990 0.435710 0.026038
0.692071 0.436515 0.027159
0.725152 0.437319 0.028280
0.758233 0.438124 0.029135
0.791314 0.438928 0.029746
0.824395 0.439732 0.030357
0.857476 0.440537 0.030969
0.890557 0.441341 0.031580
0.923638 0.442146 0.032191
0.956719 0.442950 0.032802
0.979322 0.443558 0.033217
0.979773 0.443752 0.033217
0.016443 0.455306 0.005467
0.016443 0.455306 0.005977
0.038596 0.455721 0.006902
0.071226 0.456332 0.008023
0.103855 0.456943 0.009145
0.136485 0.457554 0.010266
0.169115 0.458165 0.011387
0.201745 0.458776 0.012508
0.234375 0.459387 0.013630
0.267005 0.459998 0.014751
0.299634 0.460609 0.015872
0.332264 0.461220 0.016993
0.364894 0.461832 0.018115
0.397524 0.462443 0.019236
0.430154 0.463054 0.020357
0.462784 0.463665 0.021478
0.495638 0.464372 0.022600
0.528719 0.465177 0.023721
0.561800 0.465981 0.024842
0.594881 0.466785 0.025963
0.627962 0.467590 0.027085
0.661043 0.468394 0.028206
0.694124 0.469199 0.029080
0.727204 0.470003 0.029691
0.760285 0.470807 0.030302
0.793366 0.471612 0.030913
0.826447 0.472416 0.031524
0.859528 0.473221 0.032135
0.892609 0.474025 0.032746
0.925690 0.474829 0.033357
0.958771 0.475634 0.033968
0.981374 0.476242 0.034383
0.981825 0.476435 0.034383
0.017610 0.487610 0.007635
0.017610 0.487610 0.008145
0.039762 0.488025 0.009070
0.072392 0.488636 0.010192
0.105022 0.489247 0.011313
0.137652 0.489858 0.012434
0.170282 0.490469 0.013555
0.202912 0.491080 0.014677
0.235541 0.491691 0.015798
0.268171 0.492302 0.016919
0.300801 0.492914 0.018040
0.333431 0.493525 0.019162
0.366061 0.494136 0.020283
0.398691 0.494747 0.021404
0.431529 0.495447 0.022525
0.464609 0.496251 0.023647
0.497690 0.497056 0.024768
0.530771 0.497860 0.025889
0.563852 0.498665 0.027010
0.596933 0.499469 0.028132
0.630014 0.500273 0.029024
0.663095 0.501078 0.029635
0.696176 0.501882 0.030246
0.729257 0.502687 0.030858
0.762338 0.503491 0.031469
0.795419 0.504295 0.032080
0.828499 0.505100 0.032691
0.861580 0.505904 0.033302
0.894661 0.506709 0.033913
0.927742 0.507513 0.034524
0.960823 0.508317 0.035135
0.983427 0.508926 0.035550
0.983878 0.509119 0.035550
0.018777 0.519914 0.009803
0.018777 0.519914 0.010314
0.040929 0.520329 0.011239
0.073559 0.520940 0.012360
0.106189 0.521551 0.013481
0.138819 0.522162 0.014602
0.171448 0.522773 0.015724
0.204078 0.523384 0.016845
0.236708 0.523996 0.017966
0.269338 0.524607 0.019087
0.301968 0.525218 0.020209
0.334598 0.525829 0.021330
0.367419 0.526522 0.022451
0.400500 0.527326 0.023572
0.433581 0.528131 0.024694
0.466662 0.528935 0.025815
0.499743 0.529740 0.026936
0.532823 0.530544 0.028057
0.565904 0.531348 0.028969
0.598985 0.532153 0.029580
0.632066 0.532957 0.030191
0.665147 0.533762 0.030802
0.698228 0.534566 0.031413
0.731309 0.535370 0.032024
0.764390 0.536175 0.032635
0.797471 0.536979 0.033246
0.830552 0.537784 0.033857
0.863633 0.538588 0.034469
0.896713 0.539392 0.035080
0.929794 0.540197 0.035691
0.962875 0.541001 0.036302
0.985479 0.541609 0.036717
0.985930 0.541803 0.036717
0.019943 0.552218 0.011972
0.019943 0.552218 0.012482
0.042096 0.552633 0.013407
0.074726 0.553244 0.014528
0.107355 0.553855 0.015649
0.139985 0.554466 0.016771
0.172615 0.555078 0.017892
0.205245 0.555689 0.019013
0.237875 0.556300 0.020134
0.270505 0.556911 0.021256
0.303309 0.557597 0.022377
0.336390 0.558401 0.023498
0.369471 0.559206 0.024619
0.402552 0.560010 0.025741
0.435633 0.560814 0.026862
0.468714 0.561619 0.027983
0.501795 0.562423 0.028913
0.534876 0.563228 0.029524
0.567957 0.564032 0.030135
0.601038 0.564836 0.030747
0.634118 0.565641 0.031358
0.667199 0.566445 0.031969
0.700280 0.567250 0.032580
0.733361 0.568054 0.033191
0.766442 0.568858 0.033802
0.799523 0.569663 0.034413
0.832604 0.570467 0.035024
0.865685 0.571272 0.035635
0.898766 0.572076 0.036246
0.931847 0.572880 0.036857
0.964928 0.573685 0.037468
0.987531 0.574293 0.037883
0.987982 0.574486 0.037883
0.021110 0.584522 0.014140
0.021110 0.584522 0.014650
0.043262 0.584937 0.015575
0.075892 0.585548 0.016696
0.108522 0.586160 0.017817
0.141152 0.586771 0.018939
0.173782 0.587382 0.020060
0.206412 0.587993 0.021181
0.239200 0.588672 0.022302
0.272281 0.589476 0.023424
0.305362 0.590281 0.024545
0.338442 0.591085 0.025666
0.371523 0.591889 0.026787
0.404604 0.592694 0.027909
0.437685 0.593498 0.028858
0.470766 0.594303 0.029469
0.503847 0.595107 0.030080
0.536928 0.595911 0.030691
0.570009 0.596716 0.031302
0.603090 0.597520 0.031913
0.636171 0.598325 0.032524
0.669252 0.599129 0.033135
0.702332 0.599933 0.033746
0.735413 0.600738 0.034358
0.768494 0.601542 0.034969
0.801575 0.602347 0.035580
0.834656 0.603151 0.036191
0.867737 0.603955 0.036802
0.900818 0.604760 0.037413
0.933899 0.605564 0.038024
0.966980 0.606369 0.038635
0.989583 0.606977 0.039050
0.990034 0.607170 0.039050
0.022277 0.616827 0.016308
0.022277 0.616827 0.016818
0.044429 0.617242 0.017743
0.077059 0.617853 0.018864
0.109689 0.618464 0.019986
0.142319 0.619075 0.021107
0.175090 0.619747 0.022228
0.208171 0.620551 0.023349
0.241252 0.621355 0.024471
0.274333 0.622160 0.025592
0.307414 0.622964 0.026713
0.340495 0.623769 0.027834
0.373576 0.624573 0.028802
0.406657 0.625377 0.029413
0.439737 0.626182 0.030024
0.472818 0.626986 0.030636
0.505899 0.627791 0.031247
0.538980 0.628595 0.031858
0.572061 0.629399 0.032469
0.605142 0.630204 0.033080
0.638223 0.631008 0.033691
0.671304 0.631813 0.034302
0.704385 0.632617 0.034913
0.737466 0.633421 0.035524
0.770547 0.634226 0.036135
0.803627 0.635030 0.036746
0.836708 0.635835 0.037357
0.869789 0.636639 0.037969
0.902870 0.637443 0.038580
0.935951 0.638248 0.039191
0.969032 0.639052 0.039802
0.991635 0.639660 0.040217
0.992086 0.639854 0.040217
0.023443 0.649131 0.018476
0.023443 0.649131 0.018986
0.045596 0.649546 0.019911
0.078226 0.650157 0.021033
0.110981 0.650822 0.022154
0.144061 0.651626 0.023275
0.177142 0.652430 0.024396
0.210223 0.653235 0.025518
0.243304 0.654039 0.026639
0.276385 0.654844 0.027760
0.309466 0.655648 0.028747
0.342547 0.656452 0.029358
0.375628 0.657257 0.029969
0.408709 0.658061 0.030580
0.441790 0.658866 0.031191
0.474871 0.659670 0.031802
0.507951 0.660474 0.032413
0.541032 0.661279 0.033024
0.574113 0.662083 0.033635
0.607194 0.662888 0.034247
0.640275 0.663692 0.034858
0.673356 0.664496 0.035469
0.706437 0.665301 0.036080
0.739518 0.666105 0.036691
0.772599 0.666910 0.037302
0.805680 0.667714 0.037913
0.838761 0.668518 0.038524
0.871841 0.669323 0.039135
0.904922 0.670127 0.039746
0.938003 0.670932 0.040357
0.971084 0.671736 0.040968
0.993688 0.672344 0.041383
0.994139 0.672537 0.041383
0.024610 0.681435 0.020644
0.024610 0.681435 0.021155
0.046871 0.681896 0.022080
0.079952 0.682701 0.023201
0.113033 0.683505 0.024322
0.146114 0.684310 0.025443
0.179195 0.685114 0.026565
0.212276 0.685918 0.027686
0.245356 0.686723 0.028691
0.278437 0.687527 0.029302
0.311518 0.688332 0.029913
0.344599 0.689136 0.030525
0.377680 0.689940 0.031136
0.410761 0.690745 0.031747
0.443842 0.691549 0.032358
0.476923 0.692354 0.032969
0.510004 0.693158 0.033580
0.543085 0.693962 0.034191
0.576165 0.694767 0.034802
0.609246 0.695571 0.035413
0.642327 0.696376 0.036024
0.675408 0.697180 0.036635
0.708489 0.697984 0.037246
0.741570 0.698789 0.037858
0.774651 0.699593 0.038469
0.807732 0.700398 0.039080
0.840813 0.701202 0.039691
0.873894 0.702006 0.040302
0.906975 0.702811 0.040913
0.940055 0.703615 0.041524
0.973136 0.704420 0.042135
0.995740 0.705028 0.042550
0.996191 0.705221 0.042550
0.025869 0.713779 0.022813
0.026320 0.713972 0.023323
0.048923 0.714580 0.024248
0.082004 0.715384 0.025369
0.115085 0.716189 0.026490
0.148166 0.716993 0.027612
0.181247 0.717798 0.028636
0.214328 0.718602 0.029247
0.247409 0.719406 0.029858
0.280490 0.720211 0.030469
0.313570 0.721015 0.031080
0.346651 0.721820 0.031691
0.379732 0.722624 0.032302
0.412813 0.723428 0.032913
0.445894 0.724233 0.033524
0.478975 0.725037 0.034136
0.512056 0.725842 0.034747
0.545137 0.726646 0.035358
0.578218 0.727450 0.035969
0.611299 0.728255 0.036580
0.644380 0.729059 0.037191
0.677460 0.729864 0.037802
0.710541 0.730668 0.038413
0.743622 0.731472 0.039024
0.776703 0.732277 0.039635
0.809784 0.733081 0.040246
0.842865 0.733886 0.040857
0.875946 0.734690 0.041469
0.909027 0.735494 0.042080
0.942108 0.736299 0.042691
0.975189 0.737103 0.043302
0.997792 0.737711 0.043717
0.998243 0.737905 0.043717
0.027921 0.746462 0.024981
0.028372 0.746656 0.025491
0.050975 0.747264 0.026416
0.084056 0.748068 0.027537
0.117137 0.748873 0.028580
0.150218 0.749677 0.029191
0.183299 0.750481 0.029802
0.216380 0.751286 0.030414
0.249461 0.752090 0.031025
0.282542 0.752895 0.031636
0.315623 0.753699 0.032247
0.348704 0.754503 0.032858
0.381784 0.755308 0.033469
0.414865 0.756112 0.034080
0.447946 0.756917 0.034691
0.481027 0.757721 0.035302
0.514108 0.758525 0.035913
0.547189 0.759330 0.036524
0.580270 0.760134 0.037135
0.613351 0.760939 0.037747
0.646432 0.761743 0.038358
0.679513 0.762547 0.038969
0.712594 0.763352 0.039580
0.745674 0.764156 0.040191
0.778755 0.764961 0.040802
0.811836 0.765765 0.041413
0.844917 0.766569 0.042024
0.877998 0.767374 0.042635
0.911079 0.768178 0.043246
0.944160 0.768983 0.043857
0.977241 0.769787 0.044468
0.999844 0.770395 0.044883
1.000000 0.770588 0.044883
0.029973 0.779146 0.027149
0.030424 0.779339 0.027659
0.053028 0.779947 0.028525
0.086109 0.780752 0.029136
0.119189 0.781556 0.029747
0.152270 0.782361 0.030358
0.185351 0.783165 0.030969
0.218432 0.783969 0.031580
0.251513 0.784774 0.032191
0.284594 0.785578 0.032802
0.317675 0.786383 0.033413
0.350756 0.787187 0.034025
0.383837 0.787991 0.034636
0.416918 0.788796 0.035247
0.449999 0.789600 0.035858
0.483079 0.790405 0.036469
0.516160 0.791209 0.037080
0.549241 0.792013 0.037691
0.582322 0.792818 0.038302
0.615403 0.793622 0.038913
0.648484 0.794427 0.039524
0.681565 0.795231 0.040135
0.714646 0.796035 0.040746
0.747727 0.796840 0.041358
0.780808 0.797644 0.041969
0.813889 0.798449 0.042580
0.846969 0.799253 0.043191
0.880050 0.800057 0.043802
0.913131 0.800862 0.044413
0.946212 0.801666 0.045024
0.979293 0.802471 0.045635
1.000000 0.803079 0.046050
1.000000 0.803272 0.046050
0.032025 0.811830 0.029277
0.032476 0.812023 0.029277
0.055080 0.812631 0.029691
0.088161 0.813436 0.030303
0.121242 0.814240 0.030914
0.154323 0.815044 0.031525
0.187403 0.815849 0.032136
0.220484 0.816653 0.032747
0.253565 0.817458 0.033358
0.286646 0.818262 0.033969
0.319727 0.819066 0.034580
0.352808 0.819871 0.035191
0.385889 0.820675 0.035802
0.418970 0.821480 0.036413
0.452051 0.822284 0.037024
0.485132 0.823088 0.037636
0.518213 0.823893 0.038247
0.551293 0.824697 0.038858
0.584374 0.825502 0.039469
0.617455 0.826306 0.040080
0.650536 0.827110 0.040691
0.683617 0.827915 0.041302
0.716698 0.828719 0.041913
0.749779 0.829524 0.042524
0.782860 0.830328 0.043135
0.815941 0.831132 0.043746
0.849022 0.831937 0.044357
