docs/luts/fresh-green-orange-cinematic.cube
TITLE "FreshLUTs??-????"
LUT_3D_SIZE 9
DOMAIN_MIN 0.0 0.0 0.0
DOMAIN_MAX 1.0 1.0 1.0
0.000000 0.035000 0.000000
0.100328 0.032253 0.000000
0.242898 0.029506 0.000000
0.385469 0.026759 0.000000
0.528040 0.024012 0.000000
0.670611 0.021265 0.000000
0.813182 0.018518 0.000000
0.955752 0.015771 0.000000
1.000000 0.013024 0.000000
0.000000 0.108376 0.000000
0.096747 0.103357 0.000000
0.239318 0.097381 0.000000
0.381888 0.091404 0.000000
0.524459 0.085428 0.000000
0.667030 0.079452 0.000000
0.809601 0.073475 0.000000
0.952172 0.067499 0.000000
1.000000 0.062480 0.000000
0.000000 0.248900 0.000000
0.090114 0.243881 0.000000
0.232685 0.237904 0.000000
0.375255 0.231928 0.000000
0.517826 0.225952 0.000000
0.660397 0.219976 0.000000
0.802968 0.213999 0.000000
0.945539 0.208023 0.000000
1.000000 0.203004 0.000000
0.000000 0.389424 0.000000
0.083481 0.384404 0.000000
0.226051 0.378428 0.000000
0.368622 0.372452 0.000000
0.511193 0.366476 0.000000
0.653764 0.360499 0.000000
0.798646 0.354523 0.000000
0.944761 0.348955 0.000000
1.000000 0.346683 0.000000
0.000000 0.529948 0.000000
0.076848 0.524928 0.000000
0.219418 0.518952 0.000000
0.361989 0.512976 0.000000
0.506741 0.507000 0.000000
0.652856 0.501331 0.000000
0.798971 0.498102 0.000000
0.945086 0.494872 0.000000
1.000000 0.492600 0.000000
0.000000 0.670472 0.000000
0.070214 0.665452 0.000000
0.214836 0.659476 0.000000
0.360951 0.653706 0.000000
0.507066 0.650477 0.000000
0.653181 0.647248 0.000000
0.799296 0.644019 0.000000
0.945411 0.640789 0.000000
1.000000 0.638517 0.000000
0.001920 0.810995 0.000000
0.069046 0.806081 0.000000
0.215161 0.802852 0.000000
0.361276 0.799623 0.000000
0.507391 0.796394 0.000000
0.653506 0.793165 0.000000
0.799621 0.789935 0.000000
0.945736 0.786706 0.000000
1.000000 0.784434 0.000000
0.008878 0.954271 0.000000
0.069371 0.951998 0.000000
0.215486 0.948769 0.000000
0.361601 0.945540 0.000000
0.507716 0.942311 0.000000
0.653831 0.939082 0.000000
0.799946 0.935852 0.000000
0.946061 0.932623 0.000000
1.000000 0.930351 0.000000
0.015836 1.000000 0.000000
0.072748 1.000000 0.000000
0.218863 1.000000 0.000000
0.364978 1.000000 0.000000
0.511093 1.000000 0.000000
0.657208 1.000000 0.000000
0.803323 1.000000 0.000000
0.949438 1.000000 0.000000
1.000000 1.000000 0.000000
0.000000 0.033953 0.121243
0.099290 0.031206 0.117475
0.241861 0.028459 0.112751
0.384432 0.025711 0.108027
0.527003 0.022964 0.103303
0.669573 0.020217 0.098578
0.812144 0.017470 0.093854
0.954715 0.014723 0.089130
1.000000 0.011976 0.085363
0.000000 0.106291 0.114727
0.095709 0.101272 0.110960
0.238280 0.095296 0.106235
0.380851 0.089319 0.101511
0.523422 0.083343 0.096787
0.665993 0.077367 0.092063
0.808564 0.071391 0.087338
0.951134 0.065414 0.082614
1.000000 0.060395 0.078847
0.000000 0.246815 0.105159
0.089076 0.241796 0.101391
0.231647 0.235820 0.096667
0.374218 0.229843 0.091943
0.516789 0.223867 0.087219
0.659360 0.217891 0.082495
0.801930 0.211915 0.077770
0.944750 0.205938 0.073046
1.000000 0.200919 0.069279
0.000000 0.387339 0.095591
0.082443 0.382320 0.091823
0.225014 0.376343 0.087099
0.367585 0.370367 0.082375
0.510156 0.364391 0.077651
0.652845 0.358415 0.072926
0.798960 0.352438 0.068202
0.945075 0.347918 0.063478
1.000000 0.345646 0.059711
0.000000 0.527863 0.086023
0.075810 0.522844 0.082255
0.218381 0.516867 0.077531
0.360952 0.510891 0.072807
0.507055 0.504915 0.068083
0.653170 0.500293 0.063358
0.799285 0.497064 0.058634
0.945400 0.493835 0.053910
1.000000 0.491563 0.050143
0.000000 0.668387 0.076454
0.069177 0.663367 0.072687
0.215150 0.657391 0.067963
0.361265 0.652669 0.063239
0.507380 0.649439 0.058514
0.653495 0.646210 0.053790
0.799610 0.642981 0.049066
0.945725 0.639752 0.044342
1.000000 0.637479 0.040574
0.003272 0.808911 0.066886
0.069360 0.805044 0.063119
0.215475 0.801815 0.058395
0.361590 0.798586 0.053671
0.507705 0.795356 0.048946
0.653820 0.792127 0.044222
0.799935 0.788898 0.039498
0.946050 0.785669 0.034774
1.000000 0.783396 0.031006
0.010230 0.953233 0.057318
0.069685 0.950961 0.053551
0.215800 0.947732 0.048827
0.361915 0.944503 0.044103
0.508030 0.941273 0.039378
0.654145 0.938044 0.034654
0.800260 0.934815 0.029930
0.946374 0.931586 0.025206
1.000000 0.929313 0.021438
0.017187 1.000000 0.050803
0.073062 1.000000 0.047035
0.219177 1.000000 0.042311
0.365292 1.000000 0.037587
0.511407 1.000000 0.032863
0.657522 1.000000 0.028138
0.803637 1.000000 0.023414
0.949752 1.000000 0.018690
1.000000 1.000000 0.014923
0.000000 0.032905 0.258548
0.098116 0.030158 0.254781
0.240687 0.027411 0.250057
0.383258 0.024664 0.245333
0.525828 0.021917 0.240608
0.668399 0.019170 0.235884
0.810970 0.016423 0.231160
0.953541 0.013676 0.226436
1.000000 0.010929 0.222668
0.000000 0.104070 0.252033
0.094535 0.099050 0.248265
0.237106 0.093074 0.243541
0.379677 0.087098 0.238817
0.522248 0.081122 0.234093
0.664818 0.075145 0.229368
0.807389 0.069169 0.224644
0.949960 0.063193 0.219920
1.000000 0.058173 0.216153
0.000000 0.244594 0.242465
0.087902 0.239574 0.238697
0.230473 0.233598 0.233973
0.373044 0.227622 0.229249
0.515615 0.221645 0.224525
0.658185 0.215669 0.219800
0.800756 0.209693 0.215076
0.944927 0.203717 0.210352
1.000000 0.198697 0.206585
0.000000 0.385118 0.232896
0.081269 0.380098 0.229129
0.223840 0.374122 0.224405
0.366411 0.368146 0.219681
0.508981 0.362169 0.214956
0.653022 0.356193 0.210232
0.799137 0.350217 0.205508
0.945252 0.346744 0.200784
1.000000 0.344471 0.197016
0.000000 0.525641 0.223328
0.074636 0.520622 0.219561
0.217207 0.514646 0.214837
0.361117 0.508669 0.210113
0.507232 0.502693 0.205388
0.653347 0.499119 0.200664
0.799462 0.495890 0.195940
0.945577 0.492661 0.191216
1.000000 0.490388 0.187448
0.000000 0.666165 0.213760
0.069212 0.661146 0.209993
0.215327 0.655170 0.205269
0.361442 0.651494 0.200545
0.507557 0.648265 0.195820
0.653672 0.645036 0.191096
0.799787 0.641807 0.186372
0.945902 0.638578 0.181648
1.000000 0.636305 0.177880
0.004623 0.806689 0.204192
0.069537 0.803870 0.200425
0.215652 0.800641 0.195701
0.361767 0.797411 0.190976
0.507882 0.794182 0.186252
0.653997 0.790953 0.181528
0.800112 0.787724 0.176804
0.946227 0.784495 0.172080
1.000000 0.782222 0.168312
0.011581 0.952059 0.194624
0.069862 0.949787 0.190857
0.215977 0.946557 0.186132
0.362092 0.943328 0.181408
0.508207 0.940099 0.176684
0.654322 0.936870 0.171960
0.800437 0.933641 0.167236
0.946552 0.930411 0.162512
1.000000 0.928139 0.158744
0.018539 1.000000 0.188108
0.073239 1.000000 0.184341
0.219354 1.000000 0.179617
0.365469 1.000000 0.174893
0.511584 1.000000 0.170168
0.657699 1.000000 0.165444
0.803814 1.000000 0.160720
0.949929 1.000000 0.155996
1.000000 1.000000 0.152228
0.000000 0.031858 0.395854
0.096942 0.029111 0.392087
0.239513 0.026364 0.387363
0.382083 0.023617 0.382638
0.524654 0.020870 0.377914
0.667225 0.018123 0.373190
0.809796 0.015375 0.368466
0.952367 0.012628 0.363742
1.000000 0.009881 0.359974
0.000000 0.101848 0.389339
0.093361 0.096829 0.385571
0.235932 0.090853 0.380847
0.378503 0.084876 0.376123
0.521073 0.078900 0.371398
0.663644 0.072924 0.366674
0.806215 0.066948 0.361950
0.948786 0.060971 0.357226
1.000000 0.055952 0.353459
0.000000 0.242372 0.379770
0.086728 0.237353 0.376003
0.229299 0.231376 0.371279
0.371870 0.225400 0.366555
0.514440 0.219424 0.361830
0.657011 0.213448 0.357106
0.799582 0.207471 0.352382
0.945104 0.201495 0.347658
1.000000 0.197380 0.343890
0.000000 0.382896 0.370202
0.080095 0.377877 0.366435
0.222666 0.371900 0.361711
0.365236 0.365924 0.356986
0.507807 0.359948 0.352262
0.653199 0.353971 0.347538
0.799314 0.348799 0.342814
0.945429 0.345570 0.338090
1.000000 0.343297 0.334322
0.000000 0.523420 0.360634
0.073462 0.518400 0.356867
0.216033 0.512424 0.352143
0.361294 0.506448 0.347418
0.507409 0.501174 0.342694
0.653524 0.497945 0.337970
0.799639 0.494716 0.333246
0.945754 0.491487 0.328522
1.000000 0.489214 0.324754
0.000000 0.663944 0.351066
0.069389 0.658924 0.347299
0.215504 0.653550 0.342574
0.361619 0.650320 0.337850
0.507734 0.647091 0.333126
0.653849 0.643862 0.328402
0.799964 0.640633 0.323678
0.946079 0.637404 0.318953
1.000000 0.635131 0.315186
0.005974 0.804968 0.341498
0.069714 0.802696 0.337731
0.215829 0.799466 0.333006
0.361944 0.796237 0.328282
0.508059 0.793008 0.323558
0.654174 0.789779 0.318834
0.800289 0.786550 0.314110
0.946404 0.783320 0.309385
1.000000 0.781048 0.305618
0.012932 0.950885 0.331930
0.070039 0.948612 0.328162
0.216154 0.945383 0.323438
0.362269 0.942154 0.318714
0.508384 0.938925 0.313990
0.654499 0.935696 0.309266
0.800614 0.932466 0.304541
0.946729 0.929237 0.299817
1.000000 0.926965 0.296050
0.019890 1.000000 0.325414
0.073416 1.000000 0.321647
0.219531 1.000000 0.316923
0.365646 1.000000 0.312198
0.511761 1.000000 0.307474
0.657876 1.000000 0.302750
0.803991 1.000000 0.298026
0.950106 1.000000 0.293302
1.000000 1.000000 0.289534
0.000000 0.030811 0.533160
0.095768 0.028063 0.529393
0.238338 0.025316 0.524668
0.380909 0.022569 0.519944
0.523480 0.019822 0.515220
0.666051 0.017075 0.510496
0.808622 0.014328 0.505772
0.951192 0.011581 0.501047
1.000000 0.008834 0.497280
0.000000 0.099627 0.526644
0.092187 0.094607 0.522877
0.234758 0.088631 0.518153
0.377329 0.082655 0.513428
0.519899 0.076678 0.508704
0.662470 0.070702 0.503980
0.805041 0.064726 0.499256
0.947612 0.058750 0.494532
1.000000 0.053730 0.490764
0.000000 0.240151 0.517076
0.085554 0.235131 0.513309
0.228125 0.229155 0.508585
0.370695 0.223179 0.503860
0.513266 0.217202 0.499136
0.655837 0.211226 0.494412
0.799166 0.205250 0.489688
0.945281 0.199274 0.484964
1.000000 0.196206 0.481196
0.000000 0.380674 0.507508
0.078921 0.375655 0.503741
0.221491 0.369679 0.499017
0.364062 0.363702 0.494292
0.507261 0.357726 0.489568
0.653376 0.351750 0.484844
0.799491 0.347625 0.480120
0.945606 0.344395 0.475395
1.000000 0.342123 0.471628
0.000000 0.521198 0.497940
0.072288 0.516179 0.494173
0.215356 0.510203 0.489448
0.361471 0.504226 0.484724
0.507586 0.500000 0.480000
0.653701 0.496771 0.475276
0.799816 0.493542 0.470552
0.945931 0.490312 0.465827
1.000000 0.488040 0.462060
0.000367 0.661722 0.488372
0.069566 0.656703 0.484604
0.215681 0.652375 0.479880
0.361796 0.649146 0.475156
0.507911 0.645917 0.470432
0.654026 0.642688 0.465708
0.800141 0.639458 0.460983
0.946256 0.636229 0.456259
1.000000 0.633957 0.452492
0.007325 0.803794 0.478804
0.069891 0.801521 0.475036
0.216006 0.798292 0.470312
0.362121 0.795063 0.465588
0.508236 0.791834 0.460864
0.654351 0.788605 0.456140
0.800466 0.785375 0.451415
0.946581 0.782146 0.446691
1.000000 0.779874 0.442924
0.014283 0.949711 0.469236
0.070216 0.947438 0.465468
0.216331 0.944209 0.460744
0.362446 0.940980 0.456020
0.508561 0.937751 0.451296
0.654676 0.934522 0.446572
0.800791 0.931292 0.441847
0.946906 0.928063 0.437123
1.000000 0.925791 0.433356
0.021241 1.000000 0.462720
0.073593 1.000000 0.458953
0.219708 1.000000 0.454228
0.365823 1.000000 0.449504
0.511938 1.000000 0.444780
0.658053 1.000000 0.440056
0.804168 1.000000 0.435332
0.950283 1.000000 0.430607
1.000000 1.000000 0.426840
0.000000 0.029763 0.670466
0.094593 0.027016 0.666698
0.237164 0.024269 0.661974
0.379735 0.021522 0.657250
0.522306 0.018775 0.652526
0.664877 0.016028 0.647802
0.807447 0.013281 0.643077
0.950018 0.010534 0.638353
1.000000 0.007787 0.634586
0.000000 0.097405 0.663950
0.091013 0.092386 0.660183
0.233583 0.086409 0.655459
0.376154 0.080433 0.650734
0.518725 0.074457 0.646010
0.661296 0.068481 0.641286
0.803867 0.062504 0.636562
0.946438 0.056528 0.631838
1.000000 0.051509 0.628070
0.000000 0.237929 0.654382
0.084380 0.232910 0.650615
0.226950 0.226933 0.645890
0.369521 0.220957 0.641166
0.512092 0.214981 0.636442
0.654663 0.209004 0.631718
0.799344 0.203028 0.626994
0.945458 0.197304 0.622269
1.000000 0.195032 0.618502
0.000000 0.378453 0.644814
0.077746 0.373433 0.641047
0.220317 0.367457 0.636322
0.362888 0.361481 0.631598
0.507438 0.355505 0.626874
0.653553 0.349680 0.622150
0.799668 0.346450 0.617426
0.945783 0.343221 0.612701
1.000000 0.340949 0.608934
0.000000 0.518977 0.635246
0.071113 0.513957 0.631478
0.215533 0.507981 0.626754
0.361648 0.502055 0.622030
0.507763 0.498826 0.617306
0.653878 0.495597 0.612582
0.799993 0.492367 0.607857
0.946108 0.489138 0.603133
1.000000 0.486866 0.599366
0.001719 0.659501 0.625678
0.069743 0.654481 0.621910
0.215858 0.651201 0.617186
0.361973 0.647972 0.612462
0.508088 0.644743 0.607738
0.654203 0.641513 0.603013
0.800318 0.638284 0.598289
0.946433 0.635055 0.593565
1.000000 0.632783 0.589798
0.008677 0.802620 0.616110
0.070068 0.800347 0.612342
0.216183 0.797118 0.607618
0.362298 0.793889 0.602894
0.508413 0.790660 0.598170
0.654528 0.787430 0.593445
0.800643 0.784201 0.588721
0.946758 0.780972 0.583997
1.000000 0.778700 0.580230
0.015635 0.948537 0.606541
0.070393 0.946264 0.602774
0.216508 0.943035 0.598050
0.362623 0.939806 0.593326
0.508738 0.936576 0.588601
0.654853 0.933347 0.583877
0.800968 0.930118 0.579153
0.947083 0.926889 0.574429
1.000000 0.924616 0.570661
0.022593 1.000000 0.600026
0.073770 1.000000 0.596258
0.219885 1.000000 0.591534
0.366000 1.000000 0.586810
0.512115 1.000000 0.582086
0.658230 1.000000 0.577362
0.804345 1.000000 0.572637
0.950460 1.000000 0.567913
1.000000 1.000000 0.564146
0.000000 0.028716 0.807772
0.093419 0.025969 0.804004
0.235990 0.023222 0.799280
0.378561 0.020475 0.794556
0.521132 0.017728 0.789832
0.663702 0.014980 0.785107
0.806273 0.012233 0.780383
0.948844 0.009486 0.775659
1.000000 0.006739 0.771892
0.000000 0.095184 0.801256
0.089838 0.090164 0.797489
0.232409 0.084188 0.792764
0.374980 0.078212 0.788040
0.517551 0.072235 0.783316
0.660122 0.066259 0.778592
0.802693 0.060283 0.773868
0.945311 0.054307 0.769143
1.000000 0.049287 0.765376
0.000000 0.235707 0.791688
0.083205 0.230688 0.787920
0.225776 0.224712 0.783196
0.368347 0.218735 0.778472
0.510918 0.212759 0.773748
0.653489 0.206783 0.769024
0.799521 0.200807 0.764299
0.945636 0.196130 0.759575
1.000000 0.193858 0.755808
0.000000 0.376231 0.782120
0.076572 0.371212 0.778352
0.219143 0.365236 0.773628
0.361714 0.359259 0.768904
0.507616 0.353283 0.764180
0.653730 0.348506 0.759456
0.799845 0.345276 0.754731
0.945960 0.342047 0.750007
1.000000 0.339775 0.746240
0.000000 0.516755 0.772552
0.069939 0.511736 0.768784
0.215710 0.505759 0.764060
0.361825 0.500881 0.759336
0.507940 0.497652 0.754612
0.654055 0.494422 0.749887
0.800170 0.491193 0.745163
0.946285 0.487964 0.740439
1.000000 0.485692 0.736672
0.003070 0.657279 0.762984
0.069920 0.653256 0.759216
0.216035 0.650027 0.754492
0.362150 0.646798 0.749768
0.508265 0.643568 0.745044
0.654380 0.640339 0.740319
0.800495 0.637110 0.735595
0.946610 0.633881 0.730871
1.000000 0.631609 0.727104
0.010028 0.801445 0.753415
0.070245 0.799173 0.749648
0.216360 0.795944 0.744924
0.362475 0.792715 0.740200
0.508590 0.789485 0.735475
0.654705 0.786256 0.730751
0.800820 0.783027 0.726027
0.946935 0.779798 0.721303
1.000000 0.777525 0.717535
0.016986 0.947362 0.743847
0.070570 0.945090 0.740080
0.216685 0.941861 0.735356
0.362800 0.938631 0.730632
0.508915 0.935402 0.725907
0.655030 0.932173 0.721183
0.801145 0.928944 0.716459
0.947260 0.925715 0.711735
1.000000 0.923442 0.707967
0.023944 1.000000 0.737332
0.073947 1.000000 0.733564
0.220062 1.000000 0.728840
0.366177 1.000000 0.724116
0.512292 1.000000 0.719392
0.658407 1.000000 0.714667
0.804522 1.000000 0.709943
0.950637 1.000000 0.705219
1.000000 1.000000 0.701452
0.000000 0.027668 0.945077
0.092245 0.024921 0.941310
0.234816 0.022174 0.936586
0.377387 0.019427 0.931862
0.519957 0.016680 0.927137
0.662528 0.013933 0.922413
0.805099 0.011186 0.917689
0.947670 0.008439 0.912965
1.000000 0.005692 0.909197
0.000000 0.092962 0.938562
0.088664 0.087943 0.934794
0.231235 0.081966 0.930070
0.373806 0.075990 0.925346
0.516377 0.070014 0.920622
0.658948 0.064038 0.915898
0.801518 0.058061 0.911173
0.945488 0.052085 0.906449
1.000000 0.047066 0.902682
0.000000 0.233486 0.928994
0.082031 0.228466 0.925226
0.224602 0.222490 0.920502
0.367173 0.216514 0.915778
0.509744 0.210538 0.911054
0.653583 0.204561 0.906329
0.799698 0.198585 0.901605
0.945813 0.194956 0.896881
1.000000 0.192684 0.893114
0.000000 0.374010 0.919425
0.075398 0.368990 0.915658
0.217969 0.363014 0.910934
0.361678 0.357038 0.906210
0.507793 0.351061 0.901486
0.653908 0.347331 0.896761
0.800023 0.344102 0.892037
0.946138 0.340873 0.887313
1.000000 0.338600 0.883545
0.000000 0.514534 0.909857
0.069773 0.509514 0.906090
0.215888 0.503538 0.901366
0.362003 0.499707 0.896642
0.508117 0.496477 0.891917
0.654232 0.493248 0.887193
0.800347 0.490019 0.882469
0.946462 0.486790 0.877745
1.000000 0.484517 0.873977
0.004421 0.655057 0.900289
0.070097 0.652082 0.896522
0.216212 0.648853 0.891798
0.362327 0.645624 0.887074
0.508442 0.642394 0.882349
0.654557 0.639165 0.877625
0.800672 0.635936 0.872901
0.946787 0.632707 0.868177
1.000000 0.630434 0.864409
0.011379 0.800271 0.890721
0.070422 0.797999 0.886954
0.216537 0.794770 0.882230
0.362652 0.791540 0.877505
0.508767 0.788311 0.872781
0.654882 0.785082 0.868057
0.800997 0.781853 0.863333
0.947112 0.778624 0.858609
1.000000 0.776351 0.854841
0.018337 0.946188 0.881153
0.070747 0.943916 0.877386
0.216862 0.940686 0.872661
0.362977 0.937457 0.867937
0.509092 0.934228 0.863213
0.655207 0.930999 0.858489
0.801322 0.927770 0.853765
0.947437 0.924540 0.849040
1.000000 0.922268 0.845273
0.025295 1.000000 0.874637
0.074124 1.000000 0.870870
0.220239 1.000000 0.866146
0.366354 1.000000 0.861422
0.512469 1.000000 0.856697
0.658584 1.000000 0.851973
0.804699 1.000000 0.847249
0.950814 1.000000 0.842525
1.000000 1.000000 0.838757
0.000000 0.026621 0.995440
0.091208 0.023874 0.993945
0.233778 0.021127 0.992450
0.376349 0.018380 0.990955
0.518920 0.015633 0.989460
0.661491 0.012886 0.987965
0.804062 0.010139 0.986470
0.946632 0.007392 0.984975
1.000000 0.004645 0.983480
0.000000 0.090877 0.992505
0.087627 0.085858 0.991010
0.230198 0.079882 0.989515
0.372769 0.073905 0.988020
0.515339 0.067929 0.986525
0.657910 0.061953 0.985030
0.800481 0.055976 0.983535
0.945802 0.050000 0.982040
1.000000 0.045729 0.980545
0.000000 0.231401 0.989570
0.080994 0.226382 0.988075
0.223565 0.220405 0.986580
0.366135 0.214429 0.985085
0.508706 0.208453 0.983590
0.653897 0.202477 0.982095
0.800012 0.197148 0.980600
0.946127 0.193919 0.979105
1.000000 0.191646 0.977610
0.000000 0.371925 0.986635
0.074361 0.366905 0.985140
0.216931 0.360929 0.983645
0.361992 0.354953 0.982150
0.508107 0.349523 0.980655
0.654221 0.346294 0.979160
0.800336 0.343065 0.977665
0.946451 0.339836 0.976170
1.000000 0.337563 0.974675
0.000000 0.512449 0.983700
0.070086 0.507429 0.982205
0.216201 0.501898 0.980710
0.362316 0.498669 0.979215
0.508431 0.495440 0.977720
0.654546 0.492211 0.976225
0.800661 0.488982 0.974730
0.946776 0.485752 0.973235
1.000000 0.483480 0.971740
0.005773 0.653317 0.980765
0.070411 0.651045 0.979270
0.216526 0.647815 0.977775
0.362641 0.644586 0.976280
0.508756 0.641357 0.974785
0.654871 0.638128 0.973290
0.800986 0.634899 0.971795
0.947101 0.631669 0.970300
1.000000 0.629397 0.968805
0.012731 0.799234 0.977830
0.070736 0.796961 0.976335
0.216851 0.793732 0.974840
0.362966 0.790503 0.973345
0.509081 0.787274 0.971850
0.655196 0.784045 0.970355
0.801311 0.780815 0.968860
0.947426 0.777586 0.967365
1.000000 0.775314 0.965870
0.019689 0.945151 0.974895
0.071061 0.942878 0.973400
0.217176 0.939649 0.971905
0.363291 0.936420 0.970410
0.509406 0.933191 0.968915
0.655521 0.929961 0.967420
0.801636 0.926732 0.965925
0.947751 0.923503 0.964430
1.000000 0.921231 0.962935
0.026647 1.000000 0.971960
0.074438 1.000000 0.970465
0.220553 1.000000 0.968970
0.366668 1.000000 0.967475
0.512783 1.000000 0.965980
0.658898 1.000000 0.964485
0.805013 1.000000 0.962990
0.951128 1.000000 0.961495
1.000000 1.000000 0.960000
