docs/luts/fresh-powerful-cold.cube
TITLE "FreshLUTs??-???"
LUT_3D_SIZE 9
DOMAIN_MIN 0.0 0.0 0.0
DOMAIN_MAX 1.0 1.0 1.0
0.000000 0.006000 0.108000
0.030898 0.008224 0.103552
0.162291 0.011943 0.100600
0.293685 0.015661 0.097647
0.425078 0.019380 0.094694
0.556471 0.023099 0.091742
0.687864 0.026818 0.088789
0.819257 0.030537 0.085837
0.904156 0.032760 0.081389
0.000000 0.096306 0.099709
0.043409 0.098530 0.095261
0.174802 0.102249 0.092308
0.306195 0.105967 0.089356
0.437588 0.109686 0.086403
0.568981 0.113405 0.083450
0.700375 0.117124 0.080498
0.831768 0.120843 0.077545
0.916666 0.123067 0.073098
0.000000 0.224960 0.093765
0.058267 0.227184 0.089318
0.189660 0.230903 0.086365
0.321053 0.234622 0.083412
0.452447 0.238340 0.080460
0.583840 0.242059 0.077507
0.715233 0.245778 0.074554
0.846626 0.249497 0.071602
0.931524 0.251721 0.067154
0.000000 0.353614 0.087822
0.073125 0.355838 0.083374
0.204519 0.359557 0.080422
0.335912 0.363276 0.077469
0.467305 0.366994 0.074516
0.598698 0.370713 0.071564
0.730091 0.374432 0.068611
0.860959 0.378209 0.066709
0.942326 0.380825 0.069325
0.003086 0.482268 0.081878
0.087984 0.484492 0.077431
0.219377 0.488211 0.074478
0.350770 0.491930 0.071526
0.482164 0.495648 0.068573
0.613161 0.499411 0.066411
0.741023 0.503522 0.070522
0.868884 0.507634 0.074634
0.950250 0.510250 0.077250
0.017944 0.610922 0.075935
0.102842 0.613146 0.071487
0.234236 0.616865 0.068535
0.365363 0.620613 0.066113
0.493224 0.624725 0.070225
0.621086 0.628836 0.074336
0.748947 0.632947 0.078447
0.876808 0.637058 0.082558
0.958175 0.639675 0.085175
0.032803 0.739576 0.069992
0.117565 0.741815 0.065815
0.245426 0.745927 0.069926
0.373288 0.750038 0.074038
0.501149 0.754149 0.078149
0.629010 0.758260 0.082260
0.756872 0.762371 0.086372
0.884733 0.766483 0.090483
0.966099 0.769099 0.093099
0.044123 0.868624 0.071123
0.125490 0.871240 0.073740
0.253351 0.875351 0.077851
0.381212 0.879462 0.081962
0.509073 0.883574 0.086074
0.636935 0.887685 0.090185
0.764796 0.891796 0.094296
0.892657 0.895907 0.098407
0.974024 0.898524 0.101024
0.049700 0.959700 0.076700
0.131066 0.962316 0.079316
0.258927 0.966427 0.083427
0.386789 0.970539 0.087539
0.514650 0.974650 0.091650
0.642511 0.978761 0.095761
0.770373 0.982873 0.099873
0.898234 0.986984 0.103984
0.979600 0.989600 0.106600
0.000000 0.006420 0.150877
0.032815 0.008644 0.146429
0.164208 0.012363 0.143477
0.295601 0.016082 0.140524
0.426994 0.019801 0.137571
0.558388 0.023519 0.134619
0.689781 0.027238 0.131666
0.821174 0.030957 0.128713
0.906072 0.033181 0.124266
0.000000 0.096726 0.142585
0.045325 0.098950 0.138138
0.176718 0.102669 0.135185
0.308112 0.106388 0.132233
0.439505 0.110107 0.129280
0.570898 0.113825 0.126327
0.702291 0.117544 0.123375
0.833684 0.121263 0.120422
0.918583 0.123487 0.115974
0.000000 0.225380 0.136642
0.060184 0.227604 0.132194
0.191577 0.231323 0.129242
0.322970 0.235042 0.126289
0.454363 0.238761 0.123337
0.585756 0.242480 0.120384
0.717150 0.246198 0.117431
0.848543 0.249917 0.114479
0.933441 0.252141 0.110031
0.000000 0.354035 0.130699
0.075042 0.356258 0.126251
0.206435 0.359977 0.123298
0.337828 0.363696 0.120346
0.469222 0.367415 0.117393
0.600615 0.371134 0.114441
0.732008 0.374852 0.111488
0.861529 0.378779 0.112279
0.942895 0.381395 0.114896
0.005002 0.482689 0.124755
0.089901 0.484912 0.120308
0.221294 0.488631 0.117355
0.352687 0.492350 0.114402
0.484080 0.496069 0.111450
0.613731 0.499981 0.111981
0.741592 0.504092 0.116093
0.869454 0.508204 0.120204
0.950820 0.510820 0.122820
0.019861 0.611343 0.118812
0.104759 0.613566 0.114364
0.236152 0.617285 0.111412
0.365933 0.621183 0.111683
0.493795 0.625294 0.115795
0.621656 0.629406 0.119906
0.749517 0.633517 0.124017
0.877378 0.637628 0.128128
0.958744 0.640244 0.130745
0.034719 0.739997 0.112869
0.118135 0.742385 0.111385
0.245996 0.746497 0.115497
0.373858 0.750608 0.119608
0.501719 0.754719 0.123719
0.629580 0.758830 0.127830
0.757441 0.762942 0.131942
0.885303 0.767053 0.136053
0.966669 0.769669 0.138669
0.044694 0.869194 0.116694
0.126060 0.871810 0.119310
0.253921 0.875921 0.123421
0.381782 0.880032 0.127532
0.509644 0.884144 0.131643
0.637505 0.888255 0.135755
0.765366 0.892366 0.139866
0.893227 0.896477 0.143977
0.974594 0.899093 0.146594
0.050270 0.960270 0.122270
0.131636 0.962886 0.124886
0.259497 0.966998 0.128997
0.387359 0.971109 0.133109
0.515220 0.975220 0.137220
0.643081 0.979331 0.141331
0.770942 0.983442 0.145443
0.898804 0.987554 0.149554
0.980170 0.990170 0.152170
0.000000 0.007981 0.284894
0.035871 0.010205 0.280446
0.167265 0.013923 0.277493
0.298658 0.017642 0.274541
0.430051 0.021361 0.271588
0.561444 0.025080 0.268635
0.692837 0.028799 0.265683
0.824231 0.032517 0.262730
0.909129 0.034741 0.258282
0.000000 0.098287 0.276602
0.048382 0.100511 0.272155
0.179775 0.104229 0.269202
0.311168 0.107948 0.266249
0.442561 0.111667 0.263297
0.573955 0.115386 0.260344
0.705348 0.119105 0.257391
0.836741 0.122823 0.254439
0.921639 0.125047 0.249991
0.000000 0.226941 0.270659
0.063240 0.229165 0.266211
0.194633 0.232883 0.263259
0.326027 0.236602 0.260306
0.457420 0.240321 0.257353
0.588813 0.244040 0.254401
0.720206 0.247759 0.251448
0.851599 0.251478 0.248495
0.936498 0.253701 0.244048
0.000000 0.355595 0.264715
0.078099 0.357819 0.260268
0.209492 0.361538 0.257315
0.340885 0.365256 0.254362
0.472278 0.368975 0.251410
0.603671 0.372694 0.248457
0.735065 0.376413 0.245505
0.863239 0.380489 0.248989
0.944605 0.383105 0.251606
0.008059 0.484249 0.258772
0.092957 0.486473 0.254324
0.224350 0.490192 0.251372
0.355744 0.493910 0.248419
0.487137 0.497629 0.245467
0.615441 0.501691 0.248691
0.743302 0.505803 0.252803
0.871164 0.509914 0.256914
0.952530 0.512530 0.259530
0.022917 0.612903 0.252829
0.107816 0.615127 0.248381
0.239209 0.618846 0.245428
0.367643 0.622893 0.248393
0.495505 0.627004 0.252505
0.623366 0.631116 0.256616
0.751227 0.635227 0.260727
0.879088 0.639338 0.264838
0.960454 0.641954 0.267455
0.037776 0.741557 0.246885
0.119845 0.744095 0.248095
0.247706 0.748206 0.252207
0.375568 0.752318 0.256318
0.503429 0.756429 0.260429
0.631290 0.760540 0.264540
0.759151 0.764652 0.268651
0.887013 0.768763 0.272763
0.968379 0.771379 0.275379
0.046403 0.870904 0.253404
0.127770 0.873520 0.256020
0.255631 0.877631 0.260131
0.383492 0.881742 0.264242
0.511354 0.885854 0.268353
0.639215 0.889965 0.272465
0.767076 0.894076 0.276576
0.894937 0.898187 0.280687
0.976303 0.900803 0.283304
0.051980 0.961980 0.258980
0.133346 0.964596 0.261596
0.261207 0.968707 0.265708
0.389069 0.972819 0.269819
0.516930 0.976930 0.273930
0.644791 0.981041 0.278041
0.772652 0.985152 0.282153
0.900514 0.989264 0.286264
0.981880 0.991880 0.288880
0.000000 0.009541 0.418910
0.038928 0.011765 0.414463
0.170321 0.015484 0.411510
0.301714 0.019203 0.408557
0.433108 0.022921 0.405605
0.564501 0.026640 0.402652
0.695894 0.030359 0.399699
0.827287 0.034078 0.396747
0.912185 0.036302 0.392299
0.000000 0.099847 0.410619
0.051438 0.102071 0.406171
0.182832 0.105790 0.403219
0.314225 0.109509 0.400266
0.445618 0.113227 0.397313
0.577011 0.116946 0.394361
0.708404 0.120665 0.391408
0.839798 0.124384 0.388455
0.924696 0.126608 0.384008
0.000000 0.228501 0.404675
0.066297 0.230725 0.400228
0.197690 0.234444 0.397275
0.329083 0.238163 0.394323
0.460477 0.241881 0.391370
0.591870 0.245600 0.388417
0.723263 0.249319 0.385465
0.854656 0.253038 0.382512
0.938391 0.255391 0.380391
0.000000 0.357155 0.398732
0.081155 0.359379 0.394284
0.212549 0.363098 0.391332
0.343942 0.366817 0.388379
0.475335 0.370536 0.385427
0.606728 0.374254 0.382474
0.737088 0.378088 0.381588
0.864949 0.382199 0.385699
0.946315 0.384815 0.388316
0.011116 0.485809 0.392789
0.096014 0.488033 0.388341
0.227407 0.491752 0.385388
0.358800 0.495471 0.382436
0.489290 0.499290 0.381290
0.617151 0.503401 0.385401
0.745012 0.507513 0.389512
0.872874 0.511624 0.393624
0.954240 0.514240 0.396240
0.025974 0.614463 0.386845
0.110872 0.616687 0.382398
0.241492 0.620492 0.380992
0.369353 0.624603 0.385103
0.497215 0.628714 0.389215
0.625076 0.632826 0.393326
0.752937 0.636937 0.397437
0.880798 0.641048 0.401548
0.962164 0.643664 0.404164
0.040189 0.743189 0.382189
0.121555 0.745805 0.384805
0.249416 0.749916 0.388916
0.377278 0.754028 0.393028
0.505139 0.758139 0.397139
0.633000 0.762250 0.401250
0.760861 0.766362 0.405361
0.888723 0.770473 0.409473
0.970089 0.773089 0.412089
0.048114 0.872614 0.390114
0.129480 0.875230 0.392730
0.257341 0.879341 0.396841
0.385202 0.883452 0.400952
0.513064 0.887564 0.405063
0.640925 0.891675 0.409175
0.768786 0.895786 0.413286
0.896647 0.899897 0.417397
0.978013 0.902514 0.420013
0.053690 0.963690 0.395690
0.135056 0.966306 0.398306
0.262917 0.970418 0.402417
0.390779 0.974529 0.406529
0.518640 0.978640 0.410640
0.646501 0.982751 0.414751
0.774362 0.986862 0.418862
0.902224 0.990974 0.422974
0.983590 0.993590 0.425590
0.000000 0.011101 0.552927
0.041985 0.013325 0.548479
0.173378 0.017044 0.545527
0.304771 0.020763 0.542574
0.436164 0.024482 0.539621
0.567557 0.028201 0.536669
0.698951 0.031919 0.533716
0.830344 0.035638 0.530764
0.915242 0.037862 0.526316
0.000000 0.101408 0.544636
0.054495 0.103631 0.540188
0.185888 0.107350 0.537235
0.317281 0.111069 0.534283
0.448675 0.114788 0.531330
0.580068 0.118507 0.528378
0.711461 0.122225 0.525425
0.842854 0.125944 0.522472
0.927752 0.128168 0.518025
0.000000 0.230062 0.538692
0.069354 0.232285 0.534245
0.200747 0.236004 0.531292
0.332140 0.239723 0.528339
0.463533 0.243442 0.525387
0.594926 0.247161 0.522434
0.726320 0.250879 0.519482
0.857713 0.254598 0.516529
0.940101 0.257101 0.517101
0.000000 0.358716 0.532749
0.084212 0.360939 0.528301
0.215605 0.364658 0.525349
0.346998 0.368377 0.522396
0.478392 0.372096 0.519443
0.609785 0.375815 0.516491
0.738798 0.379798 0.518298
0.866659 0.383909 0.522409
0.948026 0.386525 0.525026
0.014172 0.487370 0.526806
0.099070 0.489594 0.522358
0.230464 0.493312 0.519405
0.361857 0.497031 0.516453
0.491000 0.501000 0.518000
0.618861 0.505111 0.522111
0.746723 0.509223 0.526223
0.874584 0.513334 0.530334
0.955950 0.515950 0.532950
0.029031 0.616024 0.520862
0.113929 0.618248 0.516414
0.243202 0.622202 0.517702
0.371063 0.626313 0.521813
0.498924 0.630425 0.525925
0.626786 0.634536 0.530036
0.754647 0.638647 0.534147
0.882508 0.642758 0.538258
0.963874 0.645375 0.540875
0.041899 0.744899 0.518899
0.123265 0.747515 0.521515
0.251126 0.751627 0.525626
0.378988 0.755738 0.529738
0.506849 0.759849 0.533849
0.634710 0.763960 0.537960
0.762572 0.768072 0.542072
0.890433 0.772183 0.546183
0.971799 0.774799 0.548799
0.049824 0.874324 0.526824
0.131190 0.876940 0.529440
0.259051 0.881051 0.533551
0.386912 0.885162 0.537662
0.514773 0.889274 0.541774
0.642635 0.893385 0.545885
0.770496 0.897496 0.549996
0.898357 0.901607 0.554107
0.979723 0.904224 0.556724
0.055400 0.965400 0.532400
0.136766 0.968016 0.535016
0.264627 0.972128 0.539127
0.392489 0.976239 0.543239
0.520350 0.980350 0.547350
0.648211 0.984461 0.551461
0.776073 0.988572 0.555573
0.903934 0.992684 0.559684
0.985300 0.995300 0.562300
0.000000 0.012662 0.686944
0.045041 0.014886 0.682496
0.176434 0.018604 0.679544
0.307828 0.022323 0.676591
0.439221 0.026042 0.673638
0.570614 0.029761 0.670686
0.702007 0.033480 0.667733
0.833400 0.037199 0.664780
0.918299 0.039422 0.660333
0.000000 0.102968 0.678652
0.057552 0.105192 0.674205
0.188945 0.108911 0.671252
0.320338 0.112629 0.668299
0.451731 0.116348 0.665347
0.583125 0.120067 0.662394
0.714518 0.123786 0.659442
0.845911 0.127505 0.656489
0.930809 0.129728 0.652041
0.000000 0.231622 0.672709
0.072410 0.233846 0.668261
0.203803 0.237565 0.665309
0.335197 0.241283 0.662356
0.466590 0.245002 0.659404
0.597983 0.248721 0.656451
0.729376 0.252440 0.653498
0.860445 0.256195 0.651195
0.941811 0.258811 0.653811
0.002370 0.360276 0.666766
0.087269 0.362500 0.662318
0.218662 0.366219 0.659365
0.350055 0.369937 0.656413
0.481448 0.373656 0.653460
0.612647 0.377397 0.650897
0.740508 0.381508 0.655008
0.868369 0.385619 0.659119
0.949735 0.388235 0.661736
0.017229 0.488930 0.660822
0.102127 0.491154 0.656375
0.233520 0.494873 0.653422
0.364849 0.498599 0.650599
0.492710 0.502710 0.654710
0.620571 0.506821 0.658821
0.748432 0.510933 0.662933
0.876294 0.515044 0.667044
0.957660 0.517660 0.669660
0.032087 0.617584 0.654879
0.116985 0.619808 0.650431
0.244912 0.623912 0.654412
0.372773 0.628023 0.658523
0.500634 0.632135 0.662635
0.628496 0.636246 0.666746
0.756357 0.640357 0.670857
0.884218 0.644468 0.674968
0.965584 0.647085 0.677585
0.043609 0.746609 0.655609
0.124975 0.749225 0.658225
0.252836 0.753336 0.662336
0.380698 0.757448 0.666448
0.508559 0.761559 0.670559
0.636420 0.765670 0.674670
0.764281 0.769782 0.678782
0.892143 0.773893 0.682893
0.973509 0.776509 0.685509
0.051534 0.876034 0.663533
0.132900 0.878650 0.666150
0.260761 0.882761 0.670261
0.388622 0.886872 0.674372
0.516483 0.890984 0.678484
0.644345 0.895095 0.682595
0.772206 0.899206 0.686706
0.900067 0.903317 0.690817
0.981433 0.905934 0.693434
0.057110 0.967110 0.669110
0.138476 0.969726 0.671726
0.266337 0.973838 0.675838
0.394199 0.977949 0.679949
0.522060 0.982060 0.684060
0.649921 0.986171 0.688171
0.777783 0.990282 0.692283
0.905644 0.994394 0.696394
0.987010 0.997010 0.699010
0.000000 0.014222 0.820961
0.048098 0.016446 0.816513
0.179491 0.020165 0.813560
0.310884 0.023884 0.810608
0.442277 0.027603 0.807655
0.573671 0.031321 0.804702
0.705064 0.035040 0.801750
0.836457 0.038759 0.798797
0.921355 0.040983 0.794350
0.000000 0.104528 0.812669
0.060608 0.106752 0.808222
0.192002 0.110471 0.805269
0.323395 0.114190 0.802316
0.454788 0.117909 0.799364
0.586181 0.121627 0.796411
0.717574 0.125346 0.793458
0.848968 0.129065 0.790506
0.933866 0.131289 0.786058
0.000000 0.233182 0.806726
0.075467 0.235406 0.802278
0.206860 0.239125 0.799325
0.338253 0.242844 0.796373
0.469646 0.246563 0.793420
0.601040 0.250281 0.790468
0.732433 0.254000 0.787515
0.862155 0.257905 0.787905
0.943521 0.260521 0.790521
0.005427 0.361836 0.800782
0.090325 0.364060 0.796335
0.221718 0.367779 0.793382
0.353112 0.371498 0.790430
0.484505 0.375217 0.787477
0.614357 0.379107 0.787607
0.742218 0.383218 0.791718
0.870079 0.387329 0.795829
0.951446 0.389945 0.798446
0.020286 0.490490 0.794839
0.105184 0.492714 0.790391
0.236577 0.496433 0.787439
0.366559 0.500309 0.787309
0.494420 0.504420 0.791420
0.622281 0.508531 0.795531
0.750143 0.512643 0.799643
0.878004 0.516754 0.803754
0.959370 0.519370 0.806370
0.035144 0.619145 0.788896
0.118761 0.621511 0.787011
0.246622 0.625622 0.791122
0.374483 0.629733 0.795233
0.502344 0.633845 0.799345
0.630206 0.637956 0.803456
0.758067 0.642067 0.807567
0.885928 0.646178 0.811678
0.967295 0.648795 0.814295
0.045319 0.748319 0.792319
0.126685 0.750935 0.794935
0.254546 0.755047 0.799047
0.382408 0.759158 0.803158
0.510269 0.763269 0.807269
0.638130 0.767380 0.811380
0.765992 0.771491 0.815492
0.893853 0.775603 0.819603
0.975219 0.778219 0.822219
0.053244 0.877744 0.800244
0.134610 0.880360 0.802860
0.262471 0.884471 0.806971
0.390332 0.888582 0.811082
0.518193 0.892694 0.815194
0.646055 0.896805 0.819305
0.773916 0.900916 0.823416
0.901777 0.905027 0.827527
0.983143 0.907644 0.830144
0.058820 0.968820 0.805820
0.140186 0.971436 0.808436
0.268047 0.975548 0.812548
0.395909 0.979659 0.816659
0.523770 0.983770 0.820770
0.651631 0.987881 0.824881
0.779493 0.991992 0.828993
0.907354 0.996104 0.833104
0.988720 0.998720 0.835720
0.000000 0.015783 0.954977
0.051155 0.018006 0.950530
0.182548 0.021725 0.947577
0.313941 0.025444 0.944624
0.445334 0.029163 0.941672
0.576727 0.032882 0.938719
0.708120 0.036600 0.935766
0.839514 0.040319 0.932814
0.924412 0.042543 0.928366
0.000000 0.106089 0.946686
0.063665 0.108312 0.942238
0.195058 0.112031 0.939286
0.326451 0.115750 0.936333
0.457845 0.119469 0.933380
0.589238 0.123188 0.930428
0.720631 0.126907 0.927475
0.852024 0.130625 0.924523
0.936922 0.132849 0.920075
0.000000 0.234743 0.940743
0.078523 0.236967 0.936295
0.209917 0.240685 0.933342
0.341310 0.244404 0.930390
0.472703 0.248123 0.927437
0.604096 0.251842 0.924484
0.735489 0.255561 0.921532
0.863865 0.259615 0.924615
0.945231 0.262231 0.927231
0.008484 0.363397 0.934799
0.093382 0.365621 0.930351
0.224775 0.369339 0.927399
0.356168 0.373058 0.924446
0.487561 0.376777 0.921494
0.616067 0.380817 0.924317
0.743928 0.384928 0.928428
0.871789 0.389039 0.932539
0.953155 0.391655 0.935156
0.023342 0.492051 0.928856
0.108240 0.494275 0.924408
0.239633 0.497993 0.921455
0.368269 0.502019 0.924019
0.496130 0.506130 0.928130
0.623991 0.510241 0.932241
0.751853 0.514352 0.936352
0.879714 0.518464 0.940464
0.961080 0.521080 0.943080
0.038201 0.620705 0.922912
0.120471 0.623221 0.923721
0.248332 0.627332 0.927832
0.376193 0.631443 0.931943
0.504054 0.635555 0.936055
0.631916 0.639666 0.940166
0.759777 0.643777 0.944277
0.887638 0.647888 0.948388
0.969004 0.650505 0.951005
0.047029 0.750029 0.929029
0.128395 0.752645 0.931645
0.256256 0.756757 0.935756
0.384118 0.760868 0.939868
0.511979 0.764979 0.943979
0.639840 0.769090 0.948090
0.767702 0.773201 0.952201
0.895563 0.777313 0.956313
0.976929 0.779929 0.958929
0.054953 0.879453 0.936953
0.136320 0.882070 0.939570
0.264181 0.886181 0.943681
0.392042 0.890292 0.947792
0.519903 0.894404 0.951904
0.647765 0.898515 0.956015
0.775626 0.902626 0.960126
0.903487 0.906737 0.964237
0.984853 0.909354 0.966854
0.060530 0.970530 0.942530
0.141896 0.973146 0.945146
0.269757 0.977258 0.949257
0.397619 0.981369 0.953369
0.525480 0.985480 0.957480
0.653341 0.989591 0.961591
0.781203 0.993703 0.965702
0.909064 0.997814 0.969814
0.990430 1.000000 0.972430
0.000000 0.016203 0.997854
0.053071 0.018427 0.993406
0.184464 0.022146 0.990454
0.315858 0.025864 0.987501
0.447251 0.029583 0.984549
0.578644 0.033302 0.981596
0.710037 0.037021 0.978643
0.841430 0.040740 0.975691
0.926328 0.042964 0.971243
0.000000 0.106509 0.989563
0.065582 0.108733 0.985115
0.196975 0.112452 0.982162
0.328368 0.116170 0.979210
0.459761 0.119889 0.976257
0.591154 0.123608 0.973304
0.722548 0.127327 0.970352
0.853941 0.131046 0.967399
0.937877 0.133376 0.964877
0.000000 0.235163 0.983619
0.080440 0.237387 0.979172
0.211833 0.241106 0.976219
0.343226 0.244825 0.973266
0.474620 0.248543 0.970314
0.606013 0.252262 0.967361
0.736573 0.256073 0.966074
0.864435 0.260185 0.970185
0.945801 0.262801 0.972801
0.010400 0.363817 0.977676
0.095298 0.366041 0.973228
0.226692 0.369760 0.970276
0.358085 0.373479 0.967323
0.488775 0.377275 0.965776
0.616637 0.381387 0.969887
0.744498 0.385498 0.973998
0.872359 0.389609 0.978109
0.953726 0.392226 0.980726
0.025259 0.492471 0.971732
0.110157 0.494695 0.967285
0.240977 0.498478 0.965477
0.368839 0.502589 0.969589
0.496700 0.506700 0.973700
0.624561 0.510811 0.977811
0.752422 0.514922 0.981923
0.880284 0.519034 0.986034
0.961650 0.521650 0.988650
0.039675 0.621175 0.966675
0.121041 0.623791 0.969291
0.248902 0.627902 0.973402
0.376763 0.632013 0.977513
0.504625 0.636124 0.981625
0.632486 0.640236 0.985736
0.760347 0.644347 0.989847
0.888208 0.648458 0.993958
0.969575 0.651075 0.996575
0.047599 0.750599 0.974599
0.128965 0.753215 0.977215
0.256826 0.757327 0.981326
0.384688 0.761438 0.985438
0.512549 0.765549 0.989549
0.640410 0.769660 0.993660
0.768271 0.773772 0.997772
0.896133 0.777883 1.000000
0.977499 0.780499 1.000000
0.055523 0.880024 0.982524
0.136890 0.882640 0.985140
0.264751 0.886751 0.989251
0.392612 0.890862 0.993362
0.520473 0.894973 0.997474
0.648335 0.899085 1.000000
0.776196 0.903196 1.000000
0.904057 0.907307 1.000000
0.985424 0.909923 1.000000
0.061100 0.971100 0.988100
0.142466 0.973716 0.990716
0.270327 0.977827 0.994827
0.398189 0.981939 0.998939
0.526050 0.986050 1.000000
0.653911 0.990161 1.000000
0.781772 0.994273 1.000000
0.909634 0.998384 1.000000
0.991000 1.000000 1.000000
