docs/luts/fresh-teal-orange-flog.cube
TITLE "FreshLUTs??-FLog??"
LUT_3D_SIZE 33
DOMAIN_MIN 0.0 0.0 0.0
DOMAIN_MAX 1.0 1.0 1.0
0.000000 0.021998 0.065000
0.009182 0.021615 0.063725
0.042478 0.020996 0.062449
0.075775 0.020377 0.061174
0.109072 0.019759 0.059898
0.142368 0.019140 0.058623
0.175665 0.018521 0.057347
0.208962 0.017903 0.056072
0.242259 0.017284 0.054797
0.275555 0.016665 0.053521
0.308852 0.016046 0.052246
0.342149 0.015428 0.050970
0.375446 0.014809 0.049695
0.408742 0.014190 0.048420
0.442039 0.013572 0.047144
0.475336 0.012953 0.045869
0.508633 0.012334 0.044593
0.541929 0.011715 0.043318
0.575226 0.011097 0.042042
0.608523 0.010478 0.040767
0.641820 0.009859 0.039492
0.675116 0.009240 0.038216
0.708413 0.008622 0.036941
0.741710 0.008003 0.035665
0.775006 0.007384 0.034390
0.808303 0.006766 0.033114
0.841600 0.006147 0.031839
0.874897 0.005643 0.030564
0.908193 0.005407 0.029288
0.941490 0.005172 0.028013
0.974787 0.004936 0.026737
0.992949 0.004701 0.025462
0.993302 0.004465 0.024186
0.000000 0.043550 0.062496
0.009366 0.043167 0.061221
0.042663 0.042548 0.059945
0.075960 0.041929 0.058670
0.109257 0.041310 0.057394
0.142553 0.040692 0.056119
0.175850 0.040073 0.054844
0.209147 0.039454 0.053568
0.242444 0.038836 0.052293
0.275740 0.038217 0.051017
0.309037 0.037598 0.049742
0.342334 0.036979 0.048466
0.375631 0.036361 0.047191
0.408927 0.035742 0.045916
0.442224 0.035123 0.044640
0.475521 0.034505 0.043365
0.508817 0.033886 0.042089
0.542114 0.033267 0.040814
0.575411 0.032648 0.039538
0.608708 0.032030 0.038263
0.642004 0.031411 0.036988
0.675301 0.030792 0.035712
0.708598 0.030174 0.034437
0.741895 0.029555 0.033161
0.775191 0.028936 0.031886
0.808488 0.028317 0.030611
0.841785 0.027699 0.029335
0.875082 0.027080 0.028060
0.908378 0.026461 0.026784
0.941675 0.025842 0.025509
0.974972 0.025224 0.024233
0.993642 0.024605 0.022958
0.993996 0.024222 0.021683
0.000000 0.075165 0.059992
0.009319 0.074782 0.058717
0.042616 0.074163 0.057441
0.075912 0.073544 0.056166
0.109209 0.072926 0.054890
0.142506 0.072307 0.053615
0.175803 0.071688 0.052340
0.209099 0.071070 0.051064
0.242396 0.070451 0.049789
0.275693 0.069832 0.048513
0.308990 0.069213 0.047238
0.342286 0.068595 0.045963
0.375583 0.067976 0.044687
0.408880 0.067357 0.043412
0.442176 0.066739 0.042136
0.475473 0.066120 0.040861
0.508770 0.065501 0.039585
0.542067 0.064882 0.038310
0.575363 0.064264 0.037035
0.608660 0.063645 0.035759
0.641957 0.063026 0.034484
0.675254 0.062408 0.033208
0.708550 0.061789 0.031933
0.741847 0.061170 0.030657
0.775144 0.060551 0.029382
0.808441 0.059933 0.028107
0.841737 0.059314 0.026831
0.875034 0.058695 0.025556
0.908331 0.058076 0.024280
0.941628 0.057458 0.023005
0.974924 0.056839 0.021730
0.994336 0.056220 0.020454
0.994689 0.055837 0.019179
0.000000 0.106780 0.057488
0.009271 0.106397 0.056213
0.042568 0.105779 0.054937
0.075865 0.105160 0.053662
0.109162 0.104541 0.052387
0.142458 0.103922 0.051111
0.175755 0.103304 0.049836
0.209052 0.102685 0.048560
0.242349 0.102066 0.047285
0.275645 0.101447 0.046009
0.308942 0.100829 0.044734
0.342239 0.100210 0.043459
0.375535 0.099591 0.042183
0.408832 0.098973 0.040908
0.442129 0.098354 0.039632
0.475426 0.097735 0.038357
0.508722 0.097116 0.037081
0.542019 0.096498 0.035806
0.575316 0.095879 0.034531
0.608613 0.095260 0.033255
0.641909 0.094642 0.031980
0.675206 0.094023 0.030704
0.708503 0.093404 0.029429
0.741800 0.092785 0.028154
0.775096 0.092167 0.026878
0.808393 0.091548 0.025603
0.841690 0.090929 0.024327
0.874986 0.090310 0.023052
0.908283 0.089692 0.021776
0.941580 0.089073 0.020501
0.974877 0.088454 0.019226
0.995029 0.087836 0.017950
0.995382 0.087453 0.016675
0.000000 0.138395 0.054984
0.009224 0.138013 0.053709
0.042521 0.137394 0.052433
0.075817 0.136775 0.051158
0.109114 0.136156 0.049883
0.142411 0.135538 0.048607
0.175707 0.134919 0.047332
0.209004 0.134300 0.046056
0.242301 0.133681 0.044781
0.275598 0.133063 0.043506
0.308894 0.132444 0.042230
0.342191 0.131825 0.040955
0.375488 0.131207 0.039679
0.408785 0.130588 0.038404
0.442081 0.129969 0.037128
0.475378 0.129350 0.035853
0.508675 0.128732 0.034578
0.541972 0.128113 0.033302
0.575268 0.127494 0.032027
0.608565 0.126876 0.030751
0.641862 0.126257 0.029476
0.675159 0.125638 0.028200
0.708455 0.125019 0.026925
0.741752 0.124401 0.025650
0.775049 0.123782 0.024374
0.808345 0.123163 0.023099
0.841642 0.122545 0.021823
0.874939 0.121926 0.020548
0.908236 0.121307 0.019273
0.941532 0.120688 0.017997
0.974829 0.120070 0.016722
0.995723 0.119451 0.015446
0.996076 0.119068 0.014171
0.000000 0.170011 0.052480
0.009176 0.169628 0.051205
0.042473 0.169009 0.049930
0.075770 0.168390 0.048654
0.109066 0.167772 0.047379
0.142363 0.167153 0.046103
0.175660 0.166534 0.044828
0.208957 0.165916 0.043552
0.242253 0.165297 0.042277
0.275550 0.164678 0.041002
0.308847 0.164059 0.039726
0.342144 0.163441 0.038451
0.375440 0.162822 0.037175
0.408737 0.162203 0.035900
0.442034 0.161584 0.034624
0.475331 0.160966 0.033349
0.508627 0.160347 0.032074
0.541924 0.159728 0.030798
0.575221 0.159110 0.029523
0.608518 0.158491 0.028247
0.641814 0.157872 0.026972
0.675111 0.157253 0.025697
0.708408 0.156635 0.024421
0.741704 0.156016 0.023146
0.775001 0.155397 0.021870
0.808298 0.154779 0.020595
0.841595 0.154160 0.019319
0.874891 0.153541 0.018044
0.908188 0.152922 0.016769
0.941485 0.152304 0.015493
0.974782 0.151685 0.014218
0.996416 0.151066 0.012942
0.996769 0.150683 0.011667
0.000000 0.201626 0.049976
0.009129 0.201243 0.048701
0.042425 0.200624 0.047426
0.075722 0.200006 0.046150
0.109019 0.199387 0.044875
0.142316 0.198768 0.043599
0.175612 0.198150 0.042324
0.208909 0.197531 0.041049
0.242206 0.196912 0.039773
0.275503 0.196293 0.038498
0.308799 0.195675 0.037222
0.342096 0.195056 0.035947
0.375393 0.194437 0.034671
0.408690 0.193818 0.033396
0.441986 0.193200 0.032121
0.475283 0.192581 0.030845
0.508580 0.191962 0.029570
0.541876 0.191344 0.028294
0.575173 0.190725 0.027019
0.608470 0.190106 0.025743
0.641767 0.189487 0.024468
0.675063 0.188869 0.023193
0.708360 0.188250 0.021917
0.741657 0.187631 0.020642
0.774954 0.187013 0.019366
0.808250 0.186394 0.018091
0.841547 0.185775 0.016816
0.874844 0.185156 0.015540
0.908141 0.184538 0.014265
0.941437 0.183919 0.012989
0.974734 0.183300 0.011714
0.997109 0.182682 0.010438
0.997463 0.182299 0.009163
0.000000 0.233241 0.047473
0.009081 0.232858 0.046197
0.042378 0.232240 0.044922
0.075675 0.231621 0.043646
0.108971 0.231002 0.042371
0.142268 0.230384 0.041095
0.175565 0.229765 0.039820
0.208862 0.229146 0.038545
0.242158 0.228527 0.037269
0.275455 0.227909 0.035994
0.308752 0.227290 0.034718
0.342049 0.226671 0.033443
0.375345 0.226052 0.032167
0.408642 0.225434 0.030892
0.441939 0.224815 0.029617
0.475235 0.224196 0.028341
0.508532 0.223578 0.027066
0.541829 0.222959 0.025790
0.575126 0.222340 0.024515
0.608422 0.221721 0.023240
0.641719 0.221103 0.021964
0.675016 0.220484 0.020689
0.708313 0.219865 0.019413
0.741609 0.219247 0.018138
0.774906 0.218628 0.016862
0.808203 0.218009 0.015587
0.841500 0.217390 0.014312
0.874796 0.216772 0.013036
0.908093 0.216153 0.011761
0.941390 0.215534 0.010485
0.974687 0.214916 0.009210
0.997803 0.214297 0.007934
0.998922 0.213914 0.006276
0.000000 0.264857 0.044969
0.009034 0.264474 0.043693
0.042330 0.263855 0.042418
0.075627 0.263236 0.041142
0.108924 0.262618 0.039867
0.142221 0.261999 0.038592
0.175517 0.261380 0.037316
0.208814 0.260761 0.036041
0.242111 0.260143 0.034765
0.275408 0.259524 0.033490
0.308704 0.258905 0.032214
0.342001 0.258287 0.030939
0.375298 0.257668 0.029664
0.408594 0.257049 0.028388
0.441891 0.256430 0.027113
0.475188 0.255812 0.025837
0.508485 0.255193 0.024562
0.541781 0.254574 0.023286
0.575078 0.253955 0.022011
0.608375 0.253337 0.020736
0.641672 0.252718 0.019460
0.674968 0.252099 0.018185
0.708265 0.251481 0.016909
0.741562 0.250862 0.015634
0.774859 0.250243 0.014358
0.808155 0.249624 0.013083
0.841452 0.249006 0.011808
0.874749 0.248387 0.010532
0.908045 0.247768 0.009257
0.941342 0.247150 0.007981
0.975370 0.246531 0.006341
1.000000 0.245912 0.004582
1.000000 0.245529 0.002823
0.000000 0.296472 0.042465
0.008986 0.296089 0.041189
0.042283 0.295470 0.039914
0.075580 0.294852 0.038638
0.108876 0.294233 0.037363
0.142173 0.293614 0.036088
0.175470 0.292995 0.034812
0.208766 0.292377 0.033537
0.242063 0.291758 0.032261
0.275360 0.291139 0.030986
0.308657 0.290521 0.029710
0.341953 0.289902 0.028435
0.375250 0.289283 0.027160
0.408547 0.288664 0.025884
0.441844 0.288046 0.024609
0.475140 0.287427 0.023333
0.508437 0.286808 0.022058
0.541734 0.286189 0.020783
0.575031 0.285571 0.019507
0.608327 0.284952 0.018232
0.641624 0.284333 0.016956
0.674921 0.283715 0.015681
0.708218 0.283096 0.014405
0.741514 0.282477 0.013130
0.774811 0.281858 0.011855
0.808108 0.281240 0.010579
0.841404 0.280621 0.009304
0.874701 0.280002 0.008028
0.908693 0.279384 0.006405
0.942956 0.278765 0.004647
0.977220 0.278146 0.002888
1.000000 0.277527 0.001129
1.000000 0.277145 0.000000
0.000000 0.328087 0.039961
0.008939 0.327704 0.038685
0.042235 0.327086 0.037410
0.075532 0.326467 0.036135
0.108829 0.325848 0.034859
0.142125 0.325229 0.033584
0.175422 0.324611 0.032308
0.208719 0.323992 0.031033
0.242016 0.323373 0.029757
0.275312 0.322755 0.028482
0.308609 0.322136 0.027207
0.341906 0.321517 0.025931
0.375203 0.320898 0.024656
0.408499 0.320280 0.023380
0.441796 0.319661 0.022105
0.475093 0.319042 0.020829
0.508390 0.318423 0.019554
0.541686 0.317805 0.018279
0.574983 0.317186 0.017003
0.608280 0.316567 0.015728
0.641577 0.315949 0.014452
0.674873 0.315330 0.013177
0.708170 0.314711 0.011902
0.741467 0.314092 0.010626
0.774763 0.313474 0.009351
0.808060 0.312855 0.008075
0.842016 0.312236 0.006470
0.876280 0.311618 0.004711
0.910543 0.310999 0.002953
0.944806 0.310380 0.001194
0.979070 0.309761 0.000000
1.000000 0.309143 0.000000
1.000000 0.308917 0.000000
0.000000 0.359702 0.037457
0.008891 0.359320 0.036181
0.042188 0.358701 0.034906
0.075484 0.358082 0.033631
0.108781 0.357463 0.032355
0.142078 0.356845 0.031080
0.175375 0.356226 0.029804
0.208671 0.355607 0.028529
0.241968 0.354989 0.027253
0.275265 0.354370 0.025978
0.308562 0.353751 0.024703
0.341858 0.353132 0.023427
0.375155 0.352514 0.022152
0.408452 0.351895 0.020876
0.441749 0.351276 0.019601
0.475045 0.350658 0.018326
0.508342 0.350039 0.017050
0.541639 0.349420 0.015775
0.574935 0.348801 0.014499
0.608232 0.348183 0.013224
0.641529 0.347564 0.011948
0.674826 0.346945 0.010673
0.708122 0.346326 0.009398
0.741419 0.345708 0.008122
0.775340 0.345089 0.006535
0.809603 0.344470 0.004776
0.843866 0.343852 0.003017
0.878130 0.343233 0.001259
0.912393 0.342614 0.000000
0.946656 0.341995 0.000000
0.980697 0.341525 0.000000
1.000000 0.341142 0.000000
1.000000 0.340995 0.000000
0.000000 0.391318 0.034953
0.008843 0.390935 0.033678
0.042140 0.390316 0.032402
0.075437 0.389697 0.031127
0.108734 0.389079 0.029851
0.142030 0.388460 0.028576
0.175327 0.387841 0.027300
0.208624 0.387223 0.026025
0.241921 0.386604 0.024750
0.275217 0.385985 0.023474
0.308514 0.385366 0.022199
0.341811 0.384748 0.020923
0.375108 0.384129 0.019648
0.408404 0.383510 0.018372
0.441701 0.382892 0.017097
0.474998 0.382273 0.015822
0.508294 0.381654 0.014546
0.541591 0.381035 0.013271
0.574888 0.380417 0.011995
0.608185 0.379798 0.010720
0.641481 0.379179 0.009444
0.674778 0.378560 0.008169
0.708663 0.377942 0.006599
0.742927 0.377323 0.004841
0.777190 0.376704 0.003082
0.811453 0.376086 0.001323
0.845717 0.375467 0.000000
0.879980 0.374848 0.000000
0.914033 0.374370 0.000000
0.947943 0.373986 0.000000
0.981853 0.373603 0.000000
1.000000 0.373220 0.000000
1.000000 0.373072 0.000000
0.000000 0.422933 0.032449
0.008796 0.422550 0.031174
0.042093 0.421931 0.029898
0.075389 0.421313 0.028623
0.108686 0.420694 0.027347
0.141983 0.420075 0.026072
0.175280 0.419457 0.024796
0.208576 0.418838 0.023521
0.241873 0.418219 0.022246
0.275170 0.417600 0.020970
0.308467 0.416982 0.019695
0.341763 0.416363 0.018419
0.375060 0.415744 0.017144
0.408357 0.415126 0.015869
0.441653 0.414507 0.014593
0.474950 0.413888 0.013318
0.508247 0.413269 0.012042
0.541544 0.412651 0.010767
0.574840 0.412032 0.009491
0.608137 0.411413 0.008216
0.641987 0.410795 0.006664
0.676250 0.410176 0.004905
0.710513 0.409557 0.003147
0.744777 0.408938 0.001388
0.779040 0.408320 0.000000
0.813303 0.407701 0.000000
0.847369 0.407214 0.000000
0.881280 0.406830 0.000000
0.915190 0.406447 0.000000
0.949100 0.406064 0.000000
0.983010 0.405681 0.000000
1.000000 0.405297 0.000000
1.000000 0.405150 0.000000
0.000000 0.454548 0.029945
0.008748 0.454165 0.028670
0.042045 0.453547 0.027394
0.075342 0.452928 0.026119
0.108639 0.452309 0.024843
0.141935 0.451691 0.023568
0.175232 0.451072 0.022293
0.208529 0.450453 0.021017
0.241825 0.449834 0.019742
0.275122 0.449216 0.018466
0.308419 0.448597 0.017191
0.341716 0.447978 0.015915
0.375012 0.447360 0.014640
0.408309 0.446741 0.013365
0.441606 0.446122 0.012089
0.474903 0.445503 0.010814
0.508199 0.444885 0.009538
0.541496 0.444266 0.008263
0.575310 0.443647 0.006729
0.609573 0.443029 0.004970
0.643837 0.442410 0.003211
0.678100 0.441791 0.001453
0.712363 0.441172 0.000000
0.746627 0.440554 0.000000
0.780706 0.440058 0.000000
0.814616 0.439674 0.000000
0.848526 0.439291 0.000000
0.882436 0.438908 0.000000
0.916346 0.438525 0.000000
0.950257 0.438141 0.000000
0.984167 0.437758 0.000000
1.000000 0.437375 0.000000
1.000000 0.437227 0.000000
0.000000 0.486164 0.027441
0.008701 0.485781 0.026166
0.041998 0.485162 0.024890
0.075294 0.484543 0.023615
0.108591 0.483925 0.022339
0.141888 0.483306 0.021064
0.175184 0.482687 0.019789
0.208481 0.482068 0.018513
0.241778 0.481450 0.017238
0.275075 0.480831 0.015962
0.308371 0.480212 0.014687
0.341668 0.479594 0.013412
0.374965 0.478975 0.012136
0.408262 0.478356 0.010861
0.441558 0.477737 0.009585
0.474855 0.477119 0.008310
0.508634 0.476500 0.006794
0.542897 0.475881 0.005035
0.577160 0.475263 0.003276
0.611423 0.474644 0.001517
0.645687 0.474025 0.000000
0.679950 0.473406 0.000000
0.714042 0.472902 0.000000
0.747952 0.472519 0.000000
0.781863 0.472135 0.000000
0.815773 0.471752 0.000000
0.849683 0.471369 0.000000
0.883593 0.470985 0.000000
0.917503 0.470602 0.000000
0.951413 0.470219 0.000000
0.985323 0.469836 0.000000
1.000000 0.469452 0.000000
1.000000 0.469305 0.000000
0.000000 0.517779 0.024937
0.008653 0.517396 0.023662
0.041950 0.516777 0.022386
0.075247 0.516159 0.021111
0.108543 0.515540 0.019836
0.141840 0.514921 0.018560
0.175137 0.514302 0.017285
0.208434 0.513684 0.016009
0.241730 0.513065 0.014734
0.275027 0.512446 0.013458
0.308324 0.511828 0.012183
0.341621 0.511209 0.010908
0.374917 0.510590 0.009632
0.408214 0.509971 0.008357
0.441957 0.509353 0.006858
0.476220 0.508734 0.005100
0.510484 0.508115 0.003341
0.544747 0.507497 0.001582
0.579010 0.506878 0.000000
0.613274 0.506259 0.000000
0.647379 0.505746 0.000000
0.681289 0.505363 0.000000
0.715199 0.504979 0.000000
0.749109 0.504596 0.000000
0.783019 0.504213 0.000000
0.816929 0.503830 0.000000
0.850840 0.503446 0.000000
0.884750 0.503063 0.000000
0.918660 0.502680 0.000000
0.952570 0.502297 0.000000
0.986480 0.501913 0.000000
1.000000 0.501530 0.000000
1.000000 0.501383 0.000000
0.000000 0.549394 0.022433
0.008606 0.549011 0.021158
0.041902 0.548393 0.019882
0.075199 0.547774 0.018607
0.108496 0.547155 0.017332
0.141793 0.546537 0.016056
0.175089 0.545918 0.014781
0.208386 0.545299 0.013505
0.241683 0.544680 0.012230
0.274980 0.544062 0.010955
0.308276 0.543443 0.009679
0.341573 0.542824 0.008404
0.375280 0.542205 0.006923
0.409544 0.541587 0.005164
0.443807 0.540968 0.003406
0.478070 0.540349 0.001647
0.512334 0.539731 0.000000
0.546597 0.539112 0.000000
0.580715 0.538590 0.000000
0.614625 0.538207 0.000000
0.648535 0.537823 0.000000
0.682446 0.537440 0.000000
0.716356 0.537057 0.000000
0.750266 0.536674 0.000000
0.784176 0.536290 0.000000
0.818086 0.535907 0.000000
0.851996 0.535524 0.000000
0.885906 0.535141 0.000000
0.919817 0.534757 0.000000
0.953727 0.534374 0.000000
0.987637 0.533991 0.000000
1.000000 0.533608 0.000000
1.000000 0.533460 0.000000
0.000000 0.581010 0.019929
0.008558 0.580627 0.018654
0.041855 0.580008 0.017379
0.075152 0.579389 0.016103
0.108448 0.578771 0.014828
0.141745 0.578152 0.013552
0.175042 0.577533 0.012277
0.208339 0.576914 0.011001
0.241635 0.576296 0.009726
0.274932 0.575677 0.008451
0.308604 0.575058 0.006988
0.342867 0.574439 0.005229
0.377130 0.573821 0.003470
0.411394 0.573202 0.001712
0.445657 0.572583 0.000000
0.479920 0.571965 0.000000
0.514052 0.571434 0.000000
0.547962 0.571051 0.000000
0.581872 0.570667 0.000000
0.615782 0.570284 0.000000
0.649692 0.569901 0.000000
0.683602 0.569518 0.000000
0.717512 0.569134 0.000000
0.751423 0.568751 0.000000
0.785333 0.568368 0.000000
0.819243 0.567985 0.000000
0.853153 0.567601 0.000000
0.887063 0.567218 0.000000
0.920973 0.566835 0.000000
0.954883 0.566452 0.000000
0.988793 0.566068 0.000000
1.000000 0.565685 0.000000
1.000000 0.565538 0.000000
0.000000 0.612625 0.017425
0.008511 0.612242 0.016150
0.041807 0.611623 0.014875
0.075104 0.611005 0.013599
0.108401 0.610386 0.012324
0.141698 0.609767 0.011048
0.174994 0.609148 0.009773
0.208291 0.608530 0.008498
0.241927 0.607911 0.007052
0.276191 0.607292 0.005294
0.310454 0.606673 0.003535
0.344717 0.606055 0.001776
0.378981 0.605436 0.000018
0.413244 0.604817 0.000000
0.447388 0.604278 0.000000
0.481298 0.603895 0.000000
0.515208 0.603512 0.000000
0.549118 0.603128 0.000000
0.583029 0.602745 0.000000
0.616939 0.602362 0.000000
0.650849 0.601979 0.000000
0.684759 0.601595 0.000000
0.718669 0.601212 0.000000
0.752579 0.600829 0.000000
0.786489 0.600445 0.000000
0.820399 0.600062 0.000000
0.854310 0.599679 0.000000
0.888220 0.599296 0.000000
0.922130 0.598912 0.000000
0.956040 0.598529 0.000000
0.989950 0.598146 0.000000
1.000000 0.597763 0.000000
1.000000 0.597615 0.000000
0.000000 0.644240 0.014922
0.008463 0.643857 0.013646
0.041760 0.643239 0.012371
0.075057 0.642620 0.011095
0.108353 0.642001 0.009820
0.141650 0.641382 0.008544
0.175251 0.640764 0.007117
0.209514 0.640145 0.005358
0.243777 0.639526 0.003600
0.278041 0.638908 0.001841
0.312304 0.638289 0.000082
0.346567 0.637670 0.000000
0.380724 0.637122 0.000000
0.414635 0.636739 0.000000
0.448545 0.636356 0.000000
0.482455 0.635972 0.000000
0.516365 0.635589 0.000000
0.550275 0.635206 0.000000
0.584185 0.634823 0.000000
0.618095 0.634439 0.000000
0.652005 0.634056 0.000000
0.685916 0.633673 0.000000
0.719826 0.633290 0.000000
0.753736 0.632906 0.000000
0.787646 0.632523 0.000000
0.821556 0.632140 0.000000
0.855466 0.631757 0.000000
0.889376 0.631373 0.000000
0.923287 0.630990 0.000000
0.957197 0.630607 0.000000
0.991107 0.630224 0.000000
1.000000 0.629840 0.000000
1.000000 0.629693 0.000000
0.000000 0.675855 0.012418
0.008416 0.675473 0.011142
0.041712 0.674854 0.009867
0.075009 0.674235 0.008591
0.108574 0.673616 0.007182
0.142837 0.672998 0.005423
0.177101 0.672379 0.003664
0.211364 0.671760 0.001906
0.245627 0.671142 0.000147
0.279891 0.670523 0.000000
0.314061 0.669966 0.000000
0.347971 0.669583 0.000000
0.381881 0.669200 0.000000
0.415791 0.668816 0.000000
0.449701 0.668433 0.000000
0.483611 0.668050 0.000000
0.517522 0.667667 0.000000
0.551432 0.667283 0.000000
0.585342 0.666900 0.000000
0.619252 0.666517 0.000000
0.653162 0.666134 0.000000
0.687072 0.665750 0.000000
0.720982 0.665367 0.000000
0.754893 0.664984 0.000000
0.788803 0.664601 0.000000
0.822713 0.664217 0.000000
0.856623 0.663834 0.000000
0.890533 0.663451 0.000000
0.924443 0.663068 0.000000
0.958353 0.662684 0.000000
0.992264 0.662301 0.000000
1.000000 0.661918 0.000000
1.000000 0.661770 0.000000
0.000000 0.707471 0.009914
0.008368 0.707088 0.008638
0.041897 0.706469 0.007246
0.076161 0.705850 0.005488
0.110424 0.705232 0.003729
0.144687 0.704613 0.001970
0.178951 0.703994 0.000212
0.213214 0.703376 0.000000
0.247397 0.702810 0.000000
0.281307 0.702427 0.000000
0.315218 0.702044 0.000000
0.349128 0.701661 0.000000
0.383038 0.701277 0.000000
0.416948 0.700894 0.000000
0.450858 0.700511 0.000000
0.484768 0.700127 0.000000
0.518678 0.699744 0.000000
0.552588 0.699361 0.000000
0.586499 0.698978 0.000000
0.620409 0.698594 0.000000
0.654319 0.698211 0.000000
0.688229 0.697828 0.000000
0.722139 0.697445 0.000000
0.756049 0.697061 0.000000
0.789959 0.696678 0.000000
0.823870 0.696295 0.000000
0.857780 0.695912 0.000000
0.891690 0.695528 0.000000
0.925600 0.695145 0.000000
0.959510 0.694762 0.000000
0.993420 0.694379 0.000000
1.000000 0.693995 0.000000
1.000000 0.693848 0.000000
0.000000 0.739086 0.007311
0.009484 0.738703 0.005552
0.043748 0.738084 0.003794
0.078011 0.737466 0.002035
0.112274 0.736847 0.000276
0.146538 0.736228 0.000000
0.180734 0.735654 0.000000
0.214644 0.735271 0.000000
0.248554 0.734888 0.000000
0.282464 0.734505 0.000000
0.316374 0.734121 0.000000
0.350284 0.733738 0.000000
0.384194 0.733355 0.000000
0.418105 0.732972 0.000000
0.452015 0.732588 0.000000
0.485925 0.732205 0.000000
0.519835 0.731822 0.000000
0.553745 0.731439 0.000000
0.587655 0.731055 0.000000
0.621565 0.730672 0.000000
0.655476 0.730289 0.000000
0.689386 0.729906 0.000000
0.723296 0.729522 0.000000
0.757206 0.729139 0.000000
0.791116 0.728756 0.000000
0.825026 0.728372 0.000000
0.858936 0.727989 0.000000
0.892847 0.727606 0.000000
0.926757 0.727223 0.000000
0.960667 0.726839 0.000000
0.994577 0.726456 0.000000
1.000000 0.726073 0.000000
1.000000 0.725926 0.000000
0.000736 0.770701 0.003858
0.011334 0.770318 0.002100
0.045598 0.769700 0.000341
0.079861 0.769081 0.000000
0.114070 0.768498 0.000000
0.147980 0.768115 0.000000
0.181890 0.767732 0.000000
0.215800 0.767349 0.000000
0.249711 0.766965 0.000000
0.283621 0.766582 0.000000
0.317531 0.766199 0.000000
0.351441 0.765816 0.000000
0.385351 0.765432 0.000000
0.419261 0.765049 0.000000
0.453171 0.764666 0.000000
0.487082 0.764283 0.000000
0.520992 0.763899 0.000000
0.554902 0.763516 0.000000
0.588812 0.763133 0.000000
0.622722 0.762750 0.000000
0.656632 0.762366 0.000000
0.690542 0.761983 0.000000
0.724453 0.761600 0.000000
0.758363 0.761217 0.000000
0.792273 0.760833 0.000000
0.826183 0.760450 0.000000
0.860093 0.760067 0.000000
0.894003 0.759684 0.000000
0.927913 0.759300 0.000000
0.961823 0.758917 0.000000
0.995734 0.758534 0.000000
1.000000 0.758150 0.000000
1.000000 0.758003 0.000000
0.003327 0.802317 0.000406
0.013184 0.801934 0.000000
0.047406 0.801343 0.000000
0.081317 0.800959 0.000000
0.115227 0.800576 0.000000
0.149137 0.800193 0.000000
0.183047 0.799809 0.000000
0.216957 0.799426 0.000000
0.250867 0.799043 0.000000
0.284777 0.798660 0.000000
0.318688 0.798276 0.000000
0.352598 0.797893 0.000000
0.386508 0.797510 0.000000
0.420418 0.797127 0.000000
0.454328 0.796743 0.000000
0.488238 0.796360 0.000000
0.522148 0.795977 0.000000
0.556059 0.795594 0.000000
0.589969 0.795210 0.000000
0.623879 0.794827 0.000000
0.657789 0.794444 0.000000
0.691699 0.794061 0.000000
0.725609 0.793677 0.000000
0.759519 0.793294 0.000000
0.793429 0.792911 0.000000
0.827340 0.792528 0.000000
0.861250 0.792144 0.000000
0.895160 0.791761 0.000000
0.929070 0.791378 0.000000
0.962980 0.790995 0.000000
0.996890 0.790611 0.000000
1.000000 0.790228 0.000000
1.000000 0.790081 0.000000
0.005890 0.833951 0.000000
0.014653 0.833803 0.000000
0.048563 0.833420 0.000000
0.082473 0.833037 0.000000
0.116383 0.832654 0.000000
0.150294 0.832270 0.000000
0.184204 0.831887 0.000000
0.218114 0.831504 0.000000
0.252024 0.831121 0.000000
0.285934 0.830737 0.000000
0.319844 0.830354 0.000000
0.353754 0.829971 0.000000
0.387665 0.829588 0.000000
0.421575 0.829204 0.000000
0.455485 0.828821 0.000000
0.489395 0.828438 0.000000
0.523305 0.828054 0.000000
0.557215 0.827671 0.000000
0.591125 0.827288 0.000000
0.625035 0.826905 0.000000
0.658946 0.826521 0.000000
0.692856 0.826138 0.000000
0.726766 0.825755 0.000000
0.760676 0.825372 0.000000
0.794586 0.824988 0.000000
0.828496 0.824605 0.000000
0.862406 0.824222 0.000000
