docs/luts/fresh-filmlook-bmp4k.cube
TITLE "FreshLUTs??-BMP4K??"
LUT_3D_SIZE 5
DOMAIN_MIN 0.0 0.0 0.0
DOMAIN_MAX 1.0 1.0 1.0
0.000000 0.000000 0.030000
0.210652 0.003252 0.033543
0.457940 0.012940 0.038522
0.705228 0.022628 0.043500
0.915880 0.030880 0.047043
0.017082 0.225482 0.037836
0.227734 0.233734 0.041380
0.475022 0.243422 0.046358
0.722309 0.253109 0.051336
0.934072 0.261362 0.054879
0.035220 0.470220 0.046729
0.245872 0.478472 0.050273
0.494151 0.488160 0.055251
0.744661 0.497848 0.062848
0.958535 0.506100 0.071100
0.054231 0.714958 0.055623
0.268106 0.723211 0.061611
0.518615 0.732898 0.071298
0.769125 0.742586 0.080986
0.982999 0.750838 0.089238
0.077638 0.945440 0.070440
0.291513 0.953692 0.078692
0.542022 0.963380 0.088380
0.792532 0.973068 0.098068
1.000000 0.981320 0.106320
0.003249 0.000000 0.240453
0.213901 0.006501 0.243997
0.461189 0.016189 0.248975
0.708477 0.025877 0.253953
0.919129 0.034129 0.257496
0.020331 0.228731 0.248290
0.230983 0.236983 0.251833
0.478271 0.246671 0.256811
0.725558 0.256358 0.261790
0.938549 0.264611 0.265333
0.038469 0.473469 0.257183
0.249121 0.481721 0.260726
0.498629 0.491409 0.265705
0.749138 0.501097 0.275097
0.963013 0.509349 0.283349
0.058709 0.718207 0.266076
0.272583 0.726460 0.273860
0.523093 0.736147 0.283547
0.773602 0.745835 0.293235
0.987477 0.754087 0.301487
0.082116 0.948689 0.282689
0.295990 0.956941 0.290941
0.546500 0.966629 0.300629
0.797009 0.976317 0.310317
1.000000 0.984569 0.318569
0.006840 0.001840 0.473249
0.217492 0.010092 0.476792
0.464780 0.019780 0.481770
0.712068 0.029468 0.486749
0.922720 0.037720 0.490292
0.023922 0.232322 0.481085
0.234574 0.240574 0.484629
0.481862 0.250262 0.489607
0.729494 0.259949 0.494585
0.943369 0.268202 0.499802
0.042060 0.477060 0.489978
0.252939 0.485312 0.493522
0.503448 0.495000 0.500000
0.753958 0.504688 0.509688
0.967832 0.512940 0.517940
0.063528 0.721798 0.500198
0.277402 0.730051 0.508451
0.527912 0.739738 0.518138
0.778422 0.749426 0.527826
0.992296 0.757678 0.536078
0.086935 0.952280 0.517280
0.300810 0.960532 0.525532
0.551319 0.970220 0.535220
0.801829 0.979908 0.544908
1.000000 0.988160 0.553160
0.010431 0.005431 0.706044
0.221083 0.013683 0.709588
0.468371 0.023371 0.714566
0.715659 0.033059 0.719544
0.926311 0.041311 0.723087
0.027513 0.235913 0.713881
0.238165 0.244165 0.717424
0.485453 0.253853 0.722402
0.734314 0.263540 0.727381
0.948188 0.271793 0.734393
0.045651 0.480651 0.722774
0.257758 0.488903 0.726317
0.508268 0.498591 0.734591
0.758777 0.508279 0.744279
0.972652 0.516531 0.752531
0.068347 0.725389 0.734789
0.282222 0.733642 0.743042
0.532731 0.743329 0.752729
0.783241 0.753017 0.762417
0.997115 0.761269 0.770669
0.091755 0.955871 0.751871
0.305629 0.964123 0.760123
0.556139 0.973811 0.769811
0.806648 0.983499 0.779499
1.000000 0.991751 0.787751
0.013680 0.008680 0.916498
0.224332 0.016932 0.920041
0.471620 0.026620 0.925019
0.718908 0.036308 0.929998
0.929560 0.044560 0.933541
0.030762 0.239162 0.924334
0.241414 0.247414 0.927878
0.488702 0.257102 0.932856
0.738791 0.266789 0.938389
0.952665 0.275042 0.946642
0.048900 0.483900 0.933227
0.262236 0.492152 0.937152
0.512745 0.501840 0.946840
0.763255 0.511528 0.956528
0.977129 0.519780 0.964780
0.072825 0.728638 0.947038
0.286699 0.736891 0.955291
0.537209 0.746578 0.964978
0.787718 0.756266 0.974666
1.000000 0.764518 0.982918
0.096232 0.959120 0.964120
0.310106 0.967372 0.972372
0.560616 0.977060 0.982060
0.811126 0.986748 0.991748
1.000000 0.995000 1.000000
