docs/luts/fresh-drone-mavic-standard.cube
TITLE "FreshLUTs??-Mavic????"
LUT_3D_SIZE 5
DOMAIN_MIN 0.0 0.0 0.0
DOMAIN_MAX 1.0 1.0 1.0
0.000000 0.016000 0.000000
0.234845 0.016000 0.000000
0.508532 0.016000 0.000000
0.782218 0.016000 0.000000
0.997023 0.016000 0.000000
0.000000 0.249800 0.000000
0.231910 0.246989 0.000000
0.505597 0.243820 0.000000
0.779283 0.240650 0.000000
0.999489 0.237840 0.001110
0.000000 0.524260 0.000000
0.228036 0.521449 0.000000
0.501722 0.518280 0.000991
0.774711 0.515111 0.004213
1.000000 0.512300 0.007435
0.000000 0.798720 0.000873
0.223510 0.795910 0.004095
0.495940 0.792740 0.007317
0.768371 0.789571 0.010539
1.000000 0.786760 0.013761
0.000000 1.000000 0.007198
0.218109 1.000000 0.010420
0.490540 1.000000 0.013642
0.762971 1.000000 0.016864
1.000000 1.000000 0.020086
0.000000 0.016000 0.232974
0.234298 0.016000 0.230163
0.507984 0.016000 0.226994
0.781671 0.016000 0.223825
0.997502 0.016000 0.221014
0.000000 0.248774 0.227574
0.231363 0.245963 0.224763
0.505049 0.242794 0.221594
0.778736 0.239624 0.218424
0.999967 0.236814 0.217952
0.000000 0.523234 0.221234
0.227489 0.520423 0.218423
0.501175 0.517254 0.217474
0.773685 0.514085 0.217526
1.000000 0.511274 0.217938
0.000000 0.797694 0.216996
0.222484 0.794884 0.217407
0.494914 0.791714 0.217460
0.767345 0.788545 0.217512
1.000000 0.785734 0.217924
0.000000 1.000000 0.217921
0.217083 1.000000 0.218332
0.489514 1.000000 0.218385
0.761945 1.000000 0.218437
1.000000 1.000000 0.218849
0.000000 0.016000 0.517720
0.233523 0.016000 0.514909
0.507209 0.016000 0.511740
0.780896 0.016000 0.508571
0.997981 0.016000 0.505760
0.000000 0.247520 0.512320
0.230588 0.244709 0.509509
0.504274 0.241540 0.506340
0.777961 0.238370 0.503515
1.000000 0.235560 0.503926
0.000000 0.521980 0.505980
0.226714 0.519169 0.503396
0.500000 0.516000 0.503448
0.772431 0.512831 0.503501
1.000000 0.510020 0.503912
0.000000 0.796440 0.502970
0.221230 0.793630 0.503382
0.493660 0.790460 0.503434
0.766091 0.787291 0.503487
1.000000 0.784480 0.503898
0.000000 1.000000 0.503895
0.215829 1.000000 0.504307
0.488260 1.000000 0.504359
0.760691 1.000000 0.504412
1.000000 1.000000 0.504823
0.000000 0.016000 0.802466
0.232748 0.016000 0.799655
0.506434 0.016000 0.796486
0.780120 0.016000 0.793317
0.998460 0.016000 0.790506
0.000000 0.246266 0.797066
0.229813 0.243455 0.794255
0.503499 0.240286 0.791086
0.777185 0.237116 0.789489
1.000000 0.234306 0.789901
0.000000 0.520726 0.790726
0.225938 0.517915 0.789370
0.498746 0.514746 0.789423
0.771177 0.511577 0.789475
1.000000 0.508766 0.789887
0.000000 0.795186 0.788945
0.219976 0.792376 0.789356
0.492406 0.789206 0.789409
0.764837 0.786037 0.789461
1.000000 0.783226 0.789873
0.000000 1.000000 0.789870
0.214575 1.000000 0.790281
0.487006 1.000000 0.790334
0.759437 1.000000 0.790386
1.000000 1.000000 0.790798
0.000000 0.016000 1.000000
0.232200 0.016000 1.000000
0.505887 0.016000 1.000000
0.779573 0.016000 1.000000
0.998938 0.016000 1.000000
0.000000 0.245240 1.000000
0.229265 0.242429 1.000000
0.502952 0.239260 1.000000
0.776490 0.236090 1.000000
1.000000 0.233280 1.000000
0.000000 0.519700 1.000000
0.225289 0.516889 1.000000
0.497720 0.513720 1.000000
0.770151 0.510551 1.000000
1.000000 0.507740 1.000000
0.000000 0.794160 1.000000
0.218950 0.791350 1.000000
0.491380 0.788180 1.000000
0.763811 0.785011 1.000000
1.000000 0.782200 1.000000
0.000000 1.000000 1.000000
0.213549 1.000000 1.000000
0.485980 1.000000 1.000000
0.758411 1.000000 1.000000
1.000000 1.000000 1.000000
