docs/luts/fresh-cinestill-800t.cube
TITLE "FreshLUTs??-CineStill800T"
LUT_3D_SIZE 9
DOMAIN_MIN 0.0 0.0 0.0
DOMAIN_MAX 1.0 1.0 1.0
0.000000 0.000000 0.075000
0.076566 0.000000 0.069113
0.227057 0.000000 0.063227
0.377549 0.000000 0.057340
0.528040 0.000000 0.051454
0.678531 0.000000 0.045567
0.829023 0.000000 0.039681
0.979514 0.000000 0.033794
1.000000 0.000000 0.027907
0.000000 0.105175 0.063443
0.071400 0.104226 0.057557
0.221892 0.101602 0.051670
0.372383 0.098978 0.045784
0.522874 0.096355 0.039897
0.673366 0.093731 0.034011
0.823857 0.091107 0.028124
0.974349 0.088484 0.022238
1.000000 0.087534 0.016351
0.000000 0.241011 0.051887
0.065295 0.240062 0.046000
0.215787 0.237438 0.040114
0.366278 0.234815 0.034227
0.516770 0.232191 0.028341
0.667261 0.229567 0.022454
0.817752 0.226943 0.016567
0.968244 0.224320 0.010681
1.000000 0.223370 0.004794
0.000000 0.376847 0.040330
0.059191 0.375898 0.034444
0.209682 0.373274 0.028557
0.360173 0.370651 0.022671
0.510665 0.368027 0.016784
0.661156 0.365403 0.010897
0.814800 0.362779 0.005011
0.970124 0.360039 0.000000
1.000000 0.358305 0.000000
0.000000 0.512683 0.028774
0.053086 0.511734 0.022887
0.203577 0.509110 0.017001
0.354069 0.506487 0.011114
0.507534 0.503863 0.005228
0.662859 0.501151 0.000000
0.818183 0.497743 0.000000
0.973507 0.494334 0.000000
1.000000 0.492600 0.000000
0.000000 0.648520 0.017217
0.046981 0.647570 0.011331
0.200269 0.644947 0.005444
0.355593 0.642264 0.000000
0.510917 0.638855 0.000000
0.666242 0.635447 0.000000
0.821566 0.632038 0.000000
0.976891 0.628629 0.000000
1.000000 0.626895 0.000000
0.002619 0.784356 0.005661
0.048328 0.783376 0.000000
0.203652 0.779968 0.000000
0.358976 0.776559 0.000000
0.514301 0.773150 0.000000
0.669625 0.769742 0.000000
0.824950 0.766333 0.000000
0.980274 0.762925 0.000000
1.000000 0.761190 0.000000
0.012107 0.919406 0.000000
0.051711 0.917671 0.000000
0.207035 0.914263 0.000000
0.362360 0.910854 0.000000
0.517684 0.907446 0.000000
0.673009 0.904037 0.000000
0.828333 0.900628 0.000000
0.983657 0.897220 0.000000
1.000000 0.895486 0.000000
0.021595 1.000000 0.000000
0.056034 1.000000 0.000000
0.211358 1.000000 0.000000
0.366682 1.000000 0.000000
0.522007 1.000000 0.000000
0.677331 1.000000 0.000000
0.832655 1.000000 0.000000
0.987980 1.000000 0.000000
1.000000 1.000000 0.000000
0.000000 0.000000 0.142363
0.075973 0.000000 0.134742
0.226464 0.000000 0.125447
0.376956 0.000000 0.116152
0.527447 0.000000 0.106857
0.677939 0.000000 0.097561
0.828430 0.000000 0.088266
0.978921 0.000000 0.078971
1.000000 0.000000 0.071350
0.000000 0.104882 0.125641
0.070807 0.103932 0.118020
0.221299 0.101309 0.108725
0.371790 0.098685 0.099430
0.522282 0.096061 0.090134
0.672773 0.093437 0.080839
0.823264 0.090814 0.071544
0.973756 0.088190 0.062249
1.000000 0.087241 0.054628
0.000000 0.240718 0.107979
0.064703 0.239768 0.100359
0.215194 0.237145 0.091063
0.365685 0.234521 0.081768
0.516177 0.231897 0.072473
0.666668 0.229274 0.063178
0.817160 0.226650 0.053883
0.967990 0.224026 0.044588
1.000000 0.223077 0.036967
0.000000 0.376554 0.090318
0.058598 0.375605 0.082697
0.209089 0.372981 0.073402
0.359581 0.370357 0.064107
0.510072 0.367733 0.054812
0.660725 0.365110 0.045517
0.816049 0.362486 0.036221
0.971374 0.359446 0.030046
1.000000 0.357712 0.028312
0.000000 0.512390 0.072657
0.052493 0.511441 0.065036
0.202984 0.508817 0.055741
0.353476 0.506193 0.046445
0.508784 0.503569 0.037150
0.664108 0.500559 0.030759
0.819433 0.497150 0.027350
0.974757 0.493741 0.023941
1.000000 0.492007 0.022207
0.000000 0.648226 0.054995
0.046388 0.647277 0.047374
0.201519 0.644653 0.038079
0.356843 0.641671 0.031471
0.512167 0.638262 0.028062
0.667492 0.634854 0.024654
0.822816 0.631445 0.021245
0.978140 0.628037 0.017837
1.000000 0.626302 0.016102
0.004461 0.784062 0.037334
0.049578 0.782783 0.032183
0.204902 0.779375 0.028775
0.360226 0.775966 0.025366
0.515551 0.772558 0.021958
0.670875 0.769149 0.018549
0.826199 0.765740 0.015140
0.981524 0.762332 0.011732
1.000000 0.760598 0.009998
0.013949 0.918813 0.027813
0.052961 0.917079 0.026079
0.208285 0.913670 0.022670
0.363610 0.910261 0.019261
0.518934 0.906853 0.015853
0.674258 0.903444 0.012444
0.829583 0.900036 0.009036
0.984907 0.896627 0.005627
1.000000 0.894893 0.003893
0.023437 1.000000 0.022647
0.057283 1.000000 0.020913
0.212608 1.000000 0.017504
0.367932 1.000000 0.014096
0.523257 1.000000 0.010687
0.678581 1.000000 0.007279
0.833905 1.000000 0.003870
0.989230 1.000000 0.000461
1.000000 1.000000 0.000000
0.000000 0.000000 0.295396
0.074651 0.000000 0.287775
0.225142 0.000000 0.278480
0.375633 0.000000 0.269185
0.526125 0.000000 0.259890
0.676616 0.000000 0.250595
0.827108 0.000000 0.241299
0.977599 0.000000 0.232004
1.000000 0.000000 0.224384
0.000000 0.103859 0.278674
0.069485 0.102909 0.271053
0.219976 0.100286 0.261758
0.370468 0.097662 0.252463
0.520959 0.095038 0.243168
0.671451 0.092414 0.233872
0.821942 0.089791 0.224577
0.972433 0.087167 0.215282
1.000000 0.086218 0.207661
0.000000 0.239695 0.261013
0.063380 0.238745 0.253392
0.213872 0.236122 0.244097
0.364363 0.233498 0.234801
0.514854 0.230874 0.225506
0.665346 0.228250 0.216211
0.815837 0.225627 0.206916
0.968511 0.223003 0.197621
1.000000 0.222054 0.190000
0.000000 0.375531 0.243351
0.057275 0.374581 0.235730
0.207767 0.371958 0.226435
0.358258 0.369334 0.217140
0.508750 0.366710 0.207845
0.661245 0.364086 0.198550
0.816570 0.361463 0.189255
0.971894 0.358124 0.185324
1.000000 0.356390 0.183590
0.000000 0.511367 0.225690
0.051171 0.510417 0.218069
0.201662 0.507794 0.208774
0.353980 0.505170 0.199479
0.509304 0.502546 0.190184
0.664629 0.499236 0.186036
0.819953 0.495828 0.182628
0.975277 0.492419 0.179219
1.000000 0.490685 0.177485
0.000000 0.647203 0.208028
0.046715 0.646254 0.200408
0.202039 0.643630 0.191113
0.357363 0.640349 0.186749
0.512688 0.636940 0.183340
0.668012 0.633531 0.179931
0.823336 0.630123 0.176523
0.978661 0.626714 0.173114
1.000000 0.624980 0.171380
0.006304 0.783039 0.190367
0.050098 0.781461 0.187461
0.205422 0.778052 0.184052
0.360747 0.774644 0.180644
0.516071 0.771235 0.177235
0.671395 0.767827 0.173827
0.826720 0.764418 0.170418
0.982044 0.761009 0.167009
1.000000 0.759275 0.165275
0.015792 0.917490 0.183090
0.053481 0.915756 0.181356
0.208806 0.912348 0.177948
0.364130 0.908939 0.174539
0.519454 0.905530 0.171130
0.674779 0.902122 0.167722
0.830103 0.898713 0.164313
0.985427 0.895305 0.160905
1.000000 0.893570 0.159170
0.025280 1.000000 0.177925
0.057804 1.000000 0.176191
0.213128 1.000000 0.172782
0.368452 1.000000 0.169373
0.523777 1.000000 0.165965
0.679101 1.000000 0.162556
0.834426 1.000000 0.159148
0.989750 1.000000 0.155739
1.000000 1.000000 0.154005
0.000000 0.000000 0.448429
0.073328 0.000000 0.440809
0.223820 0.000000 0.431513
0.374311 0.000000 0.422218
0.524802 0.000000 0.412923
0.675294 0.000000 0.403628
0.825785 0.000000 0.394333
0.976277 0.000000 0.385038
1.000000 0.000000 0.377417
0.000000 0.102835 0.431707
0.068163 0.101886 0.424086
0.218654 0.099262 0.414791
0.369145 0.096639 0.405496
0.519637 0.094015 0.396201
0.670128 0.091391 0.386906
0.820620 0.088767 0.377611
0.971111 0.086144 0.368315
1.000000 0.085194 0.360695
0.000000 0.238671 0.414046
0.062058 0.237722 0.406425
0.212549 0.235098 0.397130
0.363041 0.232475 0.387835
0.513532 0.229851 0.378539
0.664023 0.227227 0.369244
0.814515 0.224604 0.359949
0.969031 0.221980 0.350654
1.000000 0.220772 0.344972
0.000000 0.374508 0.396384
0.055953 0.373558 0.388764
0.206444 0.370935 0.379468
0.356936 0.368311 0.370173
0.507427 0.365687 0.360878
0.661766 0.363063 0.351583
0.817090 0.360210 0.344010
0.972414 0.356801 0.340601
1.000000 0.355067 0.338867
0.000000 0.510344 0.378723
0.049848 0.509394 0.371102
0.200340 0.506771 0.361807
0.354500 0.504147 0.352512
0.509825 0.501322 0.344722
0.665149 0.497914 0.341314
0.820473 0.494505 0.337905
0.975798 0.491097 0.334497
1.000000 0.489362 0.332762
0.000000 0.646180 0.361062
0.047235 0.645230 0.353441
0.202559 0.642435 0.345435
0.357884 0.639026 0.342026
0.513208 0.635618 0.338618
0.668532 0.632209 0.335209
0.823857 0.628800 0.331800
0.979181 0.625392 0.328392
1.000000 0.623658 0.326658
0.008147 0.781873 0.344473
0.050618 0.780139 0.342739
0.205943 0.776730 0.339330
0.361267 0.773321 0.335921
0.516591 0.769913 0.332513
0.671916 0.766504 0.329104
0.827240 0.763096 0.325696
0.982564 0.759687 0.322287
1.000000 0.757953 0.320553
0.017635 0.916168 0.338368
0.054001 0.914434 0.336634
0.209326 0.911025 0.333225
0.364650 0.907617 0.329817
0.519975 0.904208 0.326408
0.675299 0.900799 0.322999
0.830623 0.897391 0.319591
0.985948 0.893982 0.316182
1.000000 0.892248 0.314448
0.027123 1.000000 0.333202
0.058324 1.000000 0.331468
0.213648 1.000000 0.328060
0.368973 1.000000 0.324651
0.524297 1.000000 0.321242
0.679622 1.000000 0.317834
0.834946 1.000000 0.314425
0.990270 1.000000 0.311017
1.000000 1.000000 0.309282
0.000000 0.000000 0.601463
0.072006 0.000000 0.593842
0.222497 0.000000 0.584547
0.372989 0.000000 0.575251
0.523480 0.000000 0.565956
0.673971 0.000000 0.556661
0.824463 0.000000 0.547366
0.974954 0.000000 0.538071
1.000000 0.000000 0.530450
0.000000 0.101812 0.584740
0.066840 0.100863 0.577120
0.217332 0.098239 0.567824
0.367823 0.095615 0.558529
0.518314 0.092992 0.549234
0.668806 0.090368 0.539939
0.819297 0.087744 0.530644
0.969789 0.085121 0.521349
1.000000 0.084171 0.513728
0.000000 0.237648 0.567079
0.060735 0.236699 0.559458
0.211227 0.234075 0.550163
0.361718 0.231452 0.540868
0.512210 0.228828 0.531573
0.662701 0.226204 0.522278
0.814227 0.223580 0.512982
0.969551 0.220957 0.503687
1.000000 0.219450 0.500250
0.000000 0.373484 0.549418
0.054631 0.372535 0.541797
0.205122 0.369911 0.532502
0.355613 0.367288 0.523207
0.506961 0.364664 0.513911
0.662286 0.362040 0.504616
0.817610 0.358888 0.499288
0.972935 0.355479 0.495879
1.000000 0.353745 0.494145
0.000000 0.509320 0.531756
0.048526 0.508371 0.524135
0.199696 0.505747 0.514840
0.355020 0.503124 0.505545
0.510345 0.500000 0.500000
0.665669 0.496591 0.496591
0.820994 0.493183 0.493183
0.976318 0.489774 0.489774
1.000000 0.488040 0.488040
0.000501 0.645157 0.514095
0.047755 0.644207 0.506474
0.203079 0.641112 0.500712
0.358404 0.637704 0.497304
0.513728 0.634295 0.493895
0.669053 0.630887 0.490487
0.824377 0.627478 0.487078
0.979701 0.624069 0.483669
1.000000 0.622335 0.481935
0.009989 0.780550 0.499750
0.051138 0.778816 0.498016
0.206463 0.775408 0.494608
0.361787 0.771999 0.491199
0.517112 0.768590 0.487790
0.672436 0.765182 0.484382
0.827760 0.761773 0.480973
0.983085 0.758365 0.477565
1.000000 0.756630 0.475830
0.019477 0.914846 0.493646
0.054522 0.913111 0.491911
0.209846 0.909703 0.488503
0.365170 0.906294 0.485094
0.520495 0.902886 0.481686
0.675819 0.899477 0.478277
0.831144 0.896068 0.474868
0.986468 0.892660 0.471460
1.000000 0.890926 0.469726
0.028966 1.000000 0.488480
0.058844 1.000000 0.486746
0.214169 1.000000 0.483337
0.369493 1.000000 0.479929
0.524817 1.000000 0.476520
0.680142 1.000000 0.473111
0.835466 1.000000 0.469703
0.990791 1.000000 0.466294
1.000000 1.000000 0.464560
0.000000 0.000000 0.754496
0.070683 0.000000 0.746875
0.221175 0.000000 0.737580
0.371666 0.000000 0.728285
0.522158 0.000000 0.718989
0.672649 0.000000 0.709694
0.823140 0.000000 0.700399
0.973632 0.000000 0.691104
1.000000 0.000000 0.683483
0.000000 0.100789 0.737774
0.065518 0.099840 0.730153
0.216009 0.097216 0.720858
0.366501 0.094592 0.711562
0.516992 0.091969 0.702267
0.667483 0.089345 0.692972
0.817975 0.086721 0.683677
0.968466 0.084097 0.674382
1.000000 0.083148 0.666761
0.000000 0.236625 0.720112
0.059413 0.235676 0.712491
0.209904 0.233052 0.703196
0.360396 0.230428 0.693901
0.510887 0.227805 0.684606
0.661379 0.225181 0.675311
0.814747 0.222557 0.666016
0.970072 0.219861 0.657261
1.000000 0.218127 0.655527
0.000000 0.372461 0.702451
0.053308 0.371512 0.694830
0.203800 0.368888 0.685535
0.354291 0.366264 0.676240
0.507482 0.363641 0.666945
0.662806 0.360974 0.657974
0.818131 0.357565 0.654565
0.973455 0.354157 0.651157
1.000000 0.352422 0.649422
0.000000 0.508297 0.684789
0.047203 0.507348 0.677169
0.200216 0.504724 0.667874
0.355541 0.502086 0.658686
0.510865 0.498678 0.655278
0.666189 0.495269 0.651869
0.821514 0.491860 0.648460
0.976838 0.488452 0.645052
1.000000 0.486718 0.643318
0.002344 0.644133 0.667128
0.048275 0.643184 0.659507
0.203600 0.639790 0.655990
0.358924 0.636381 0.652581
0.514248 0.632973 0.649173
0.669573 0.629564 0.645764
0.824897 0.626156 0.642356
0.980222 0.622747 0.638947
1.000000 0.621013 0.637213
0.011832 0.779228 0.655028
0.051659 0.777494 0.653294
0.206983 0.774085 0.649885
0.362307 0.770677 0.646477
0.517632 0.767268 0.643068
0.672956 0.763859 0.639659
0.828281 0.760451 0.636251
0.983605 0.757042 0.632842
1.000000 0.755308 0.631108
0.021320 0.913523 0.648923
0.055042 0.911789 0.647189
0.210366 0.908380 0.643780
0.365691 0.904972 0.640372
0.521015 0.901563 0.636963
0.676340 0.898155 0.633555
0.831664 0.894746 0.630146
0.986988 0.891337 0.626737
1.000000 0.889603 0.625003
0.030808 1.000000 0.643758
0.059365 1.000000 0.642023
0.214689 1.000000 0.638615
0.370013 1.000000 0.635206
0.525338 1.000000 0.631798
0.680662 1.000000 0.628389
0.835986 1.000000 0.624980
0.991311 1.000000 0.621572
1.000000 1.000000 0.619838
0.000000 0.000000 0.907529
0.069361 0.000000 0.899908
0.219852 0.000000 0.890613
0.370344 0.000000 0.881318
0.520835 0.000000 0.872023
0.671327 0.000000 0.862728
0.821818 0.000000 0.853432
0.972309 0.000000 0.844137
1.000000 0.000000 0.836516
0.000000 0.099766 0.890807
0.064195 0.098817 0.883186
0.214687 0.096193 0.873891
0.365178 0.093569 0.864596
0.515670 0.090945 0.855301
0.666161 0.088322 0.846005
0.816652 0.085698 0.836710
0.967208 0.083074 0.827415
1.000000 0.082125 0.819794
0.000000 0.235602 0.873145
0.058091 0.234653 0.865525
0.208582 0.232029 0.856230
0.359073 0.229405 0.846934
0.509565 0.226782 0.837639
0.660056 0.224158 0.828344
0.815267 0.221534 0.819049
0.970592 0.218539 0.812539
1.000000 0.216805 0.810805
0.000000 0.371438 0.855484
0.051986 0.370489 0.847863
0.202477 0.367865 0.838568
0.352969 0.365241 0.829273
0.508002 0.362618 0.819978
0.663326 0.359651 0.813251
0.818651 0.356243 0.809843
0.973975 0.352834 0.806434
1.000000 0.351100 0.804700
0.000000 0.507274 0.837823
0.045881 0.506325 0.830202
0.200737 0.503701 0.820907
0.356061 0.500764 0.813964
0.511385 0.497355 0.810555
0.666710 0.493947 0.807147
0.822034 0.490538 0.803738
0.977358 0.487129 0.800329
1.000000 0.485395 0.798595
0.004186 0.643110 0.820161
0.048796 0.641876 0.814676
0.204120 0.638468 0.811268
0.359444 0.635059 0.807859
0.514769 0.631650 0.804450
0.670093 0.628242 0.801042
0.825417 0.624833 0.797633
0.980742 0.621425 0.794225
1.000000 0.619690 0.792490
0.013675 0.777906 0.810306
0.052179 0.776171 0.808571
0.207503 0.772763 0.805163
0.362828 0.769354 0.801754
0.518152 0.765946 0.798346
0.673476 0.762537 0.794937
0.828801 0.759128 0.791528
0.984125 0.755720 0.788120
1.000000 0.753986 0.786386
0.023163 0.912201 0.804201
0.055562 0.910467 0.802467
0.210887 0.907058 0.799058
0.366211 0.903649 0.795649
0.521535 0.900241 0.792241
0.676860 0.896832 0.788832
0.832184 0.893424 0.785424
0.987509 0.890015 0.782015
1.000000 0.888281 0.780281
0.032651 1.000000 0.799035
0.059885 1.000000 0.797301
0.215209 1.000000 0.793892
0.370534 1.000000 0.790484
0.525858 1.000000 0.787075
0.681182 1.000000 0.783667
0.836507 1.000000 0.780258
0.991831 1.000000 0.776849
1.000000 1.000000 0.775115
0.000000 0.000000 1.000000
0.068039 0.000000 1.000000
0.218530 0.000000 1.000000
0.369021 0.000000 1.000000
0.519513 0.000000 1.000000
0.670004 0.000000 1.000000
0.820496 0.000000 1.000000
0.970987 0.000000 0.997170
1.000000 0.000000 0.989550
0.000000 0.098743 1.000000
0.062873 0.097793 1.000000
0.213364 0.095170 1.000000
0.363856 0.092546 1.000000
0.514347 0.089922 1.000000
0.664839 0.087299 0.999039
0.815330 0.084675 0.989743
0.967729 0.082051 0.980448
1.000000 0.081102 0.972828
0.000000 0.234579 1.000000
0.056768 0.233630 1.000000
0.207260 0.231006 1.000000
0.357751 0.228382 0.999968
0.508242 0.225758 0.990672
0.660463 0.223135 0.981377
0.815788 0.220511 0.972082
0.971112 0.217217 0.967817
1.000000 0.215482 0.966082
0.000000 0.370415 1.000000
0.050663 0.369466 1.000000
0.201155 0.366842 0.991601
0.353198 0.364218 0.982306
0.508522 0.361594 0.973011
0.663847 0.358329 0.968529
0.819171 0.354920 0.965120
0.974495 0.351512 0.961712
1.000000 0.349778 0.959978
0.000000 0.506251 0.990856
0.045933 0.505302 0.983235
0.201257 0.502678 0.973940
0.356581 0.499441 0.969241
0.511906 0.496033 0.965833
0.667230 0.492624 0.962424
0.822554 0.489216 0.959016
0.977879 0.485807 0.955607
1.000000 0.484073 0.953873
0.006029 0.642087 0.973195
0.049316 0.640554 0.969954
0.204640 0.637145 0.966545
0.359965 0.633737 0.963137
0.515289 0.630328 0.959728
0.670613 0.626919 0.956319
0.825938 0.623511 0.952911
0.981262 0.620102 0.949502
1.000000 0.618368 0.947768
0.015517 0.776583 0.965583
0.052699 0.774849 0.963849
0.208024 0.771440 0.960440
0.363348 0.768032 0.957032
0.518672 0.764623 0.953623
0.673997 0.761215 0.950215
0.829321 0.757806 0.946806
0.984645 0.754397 0.943397
1.000000 0.752663 0.941663
0.025005 0.910878 0.959478
0.056083 0.909144 0.957744
0.211407 0.905736 0.954336
0.366731 0.902327 0.950927
0.522056 0.898918 0.947518
0.677380 0.895510 0.944110
0.832704 0.892101 0.940701
0.988029 0.888693 0.937293
1.000000 0.886958 0.935558
0.034494 1.000000 0.954313
0.060405 1.000000 0.952579
0.215729 1.000000 0.949170
0.371054 1.000000 0.945761
0.526378 1.000000 0.942353
0.681703 1.000000 0.938944
0.837027 1.000000 0.935536
0.992351 1.000000 0.932127
1.000000 1.000000 0.930393
0.000000 0.000000 1.000000
0.067446 0.000000 1.000000
0.217937 0.000000 1.000000
0.368429 0.000000 1.000000
0.518920 0.000000 1.000000
0.669411 0.000000 1.000000
0.819903 0.000000 1.000000
0.970394 0.000000 1.000000
1.000000 0.000000 1.000000
0.000000 0.098449 1.000000
0.062280 0.097500 1.000000
0.212772 0.094876 1.000000
0.363263 0.092252 1.000000
0.513754 0.089629 1.000000
0.664246 0.087005 1.000000
0.814737 0.084381 1.000000
0.968979 0.081758 1.000000
1.000000 0.080594 1.000000
0.000000 0.234285 1.000000
0.056175 0.233336 1.000000
0.206667 0.230712 1.000000
0.357158 0.228089 1.000000
0.507650 0.225465 1.000000
0.661713 0.222841 1.000000
0.817038 0.220032 1.000000
0.972362 0.216624 1.000000
1.000000 0.214890 1.000000
0.000000 0.370121 1.000000
0.050071 0.369172 1.000000
0.200562 0.366548 1.000000
0.354448 0.363925 1.000000
0.509772 0.361145 1.000000
0.665097 0.357736 1.000000
0.820421 0.354328 1.000000
0.975745 0.350919 1.000000
1.000000 0.349185 1.000000
0.000000 0.505957 1.000000
0.047182 0.505008 1.000000
0.202507 0.502257 1.000000
0.357831 0.498849 1.000000
0.513156 0.495440 1.000000
0.668480 0.492031 1.000000
0.823804 0.488623 1.000000
0.979129 0.485214 1.000000
1.000000 0.483480 1.000000
0.007872 0.641695 1.000000
0.050566 0.639961 1.000000
0.205890 0.636552 1.000000
0.361214 0.633144 1.000000
0.516539 0.629735 1.000000
0.671863 0.626327 1.000000
0.827188 0.622918 1.000000
0.982512 0.619509 1.000000
1.000000 0.617775 1.000000
0.017360 0.775990 1.000000
0.053949 0.774256 1.000000
0.209273 0.770848 1.000000
0.364598 0.767439 1.000000
0.519922 0.764030 1.000000
0.675247 0.760622 1.000000
0.830571 0.757213 1.000000
0.985895 0.753805 1.000000
1.000000 0.752070 1.000000
0.026848 0.910286 1.000000
0.057332 0.908551 1.000000
0.212657 0.905143 1.000000
0.367981 0.901734 1.000000
0.523306 0.898326 1.000000
0.678630 0.894917 1.000000
0.833954 0.891508 1.000000
0.989279 0.888100 1.000000
1.000000 0.886366 1.000000
0.036336 1.000000 1.000000
0.061655 1.000000 1.000000
0.216979 1.000000 1.000000
0.372304 1.000000 1.000000
0.527628 1.000000 1.000000
0.682952 1.000000 1.000000
0.838277 1.000000 1.000000
0.993601 1.000000 1.000000
1.000000 1.000000 1.000000
