docs/luts/fresh-cinematic-green.cube
TITLE "FreshLUTs??-????"
LUT_3D_SIZE 5
DOMAIN_MIN 0.0 0.0 0.0
DOMAIN_MAX 1.0 1.0 1.0
0.000000 0.068750 0.000000
0.183683 0.063555 0.000000
0.449713 0.058958 0.000000
0.715744 0.054361 0.000000
0.943176 0.049166 0.002508
0.000000 0.267257 0.000000
0.200926 0.262062 0.000000
0.466956 0.257465 0.001375
0.732987 0.252868 0.008550
0.960420 0.247673 0.015129
0.000000 0.524526 0.002002
0.219930 0.519331 0.008580
0.485960 0.514733 0.015756
0.748937 0.514937 0.021187
0.970875 0.518375 0.024625
0.011501 0.781794 0.016383
0.236081 0.781082 0.021332
0.496618 0.785118 0.025368
0.757154 0.789155 0.029405
0.979093 0.792593 0.032843
0.020600 0.993100 0.024350
0.242539 0.996539 0.027788
0.503075 1.000000 0.031825
0.763611 1.000000 0.035861
0.985550 1.000000 0.039300
0.000000 0.066841 0.207954
0.187160 0.061645 0.214532
0.453190 0.057048 0.221708
0.719221 0.052451 0.228884
0.946654 0.047256 0.235462
0.000000 0.265348 0.220575
0.204403 0.260153 0.227153
0.470433 0.255556 0.234329
0.736464 0.250958 0.241505
0.963897 0.245763 0.248083
0.000000 0.522616 0.234956
0.223407 0.517421 0.241534
0.489438 0.512824 0.248710
0.750319 0.516319 0.252944
0.972257 0.519757 0.256382
0.014978 0.779885 0.249338
0.237464 0.782464 0.253089
0.498000 0.786500 0.257125
0.758537 0.790537 0.261162
0.980475 0.793975 0.264600
0.021982 0.994482 0.256107
0.243921 0.997921 0.259546
0.504457 1.000000 0.263582
0.764994 1.000000 0.267619
0.986932 1.000000 0.271057
0.000000 0.065017 0.455244
0.190722 0.059821 0.461822
0.456753 0.055224 0.468998
0.722783 0.050627 0.476174
0.950216 0.045432 0.482752
0.000000 0.263524 0.467865
0.207965 0.258329 0.474442
0.473996 0.253732 0.481619
0.740027 0.249134 0.488795
0.965507 0.247007 0.494257
0.000000 0.520792 0.482246
0.226969 0.515597 0.488824
0.491250 0.513750 0.495000
0.751786 0.517787 0.499036
0.973725 0.521225 0.502475
0.016993 0.780493 0.495743
0.238931 0.783932 0.499182
0.499468 0.787968 0.503218
0.760004 0.792005 0.507255
0.981943 0.795443 0.510693
0.023450 0.995950 0.502200
0.245388 0.999389 0.505638
0.505925 1.000000 0.509675
0.766462 1.000000 0.513711
0.988400 1.000000 0.517150
0.000000 0.063193 0.702534
0.194285 0.057997 0.709112
0.460315 0.053400 0.716288
0.726346 0.048803 0.723464
0.953778 0.043608 0.730042
0.000000 0.261700 0.715154
0.211528 0.256505 0.721732
0.477558 0.251908 0.728908
0.743589 0.247310 0.736084
0.966975 0.248475 0.740350
0.003099 0.518968 0.729536
0.230532 0.513773 0.736114
0.492718 0.515218 0.741093
0.753254 0.519254 0.745129
0.975193 0.522693 0.748568
0.018461 0.781961 0.741836
0.240399 0.785399 0.745274
0.500936 0.789436 0.749311
0.761472 0.793472 0.753347
0.983411 0.796911 0.756786
0.024918 0.997418 0.748293
0.246856 1.000000 0.751731
0.507393 1.000000 0.755768
0.767929 1.000000 0.759804
0.989868 1.000000 0.763243
0.000000 0.061283 0.935488
0.197762 0.056088 0.942066
0.463792 0.051491 0.949242
0.729823 0.046894 0.956418
0.957256 0.041698 0.962996
0.000000 0.259790 0.948108
0.215005 0.254595 0.954687
0.481035 0.249998 0.961862
0.746418 0.246418 0.968668
0.968357 0.249857 0.972107
0.006576 0.517059 0.962490
0.233563 0.512564 0.968813
0.494100 0.516600 0.972850
0.754636 0.520637 0.976886
0.976575 0.524075 0.980325
0.019843 0.783343 0.973593
0.241782 0.786782 0.977031
0.502318 0.790818 0.981068
0.762854 0.794855 0.985104
0.984793 0.798293 0.988543
0.026300 0.998800 0.980050
0.248238 1.000000 0.983488
0.508775 1.000000 0.987525
0.769311 1.000000 0.991561
0.991250 1.000000 0.995000
