docs/luts/fresh-cinematic-flog.cube
TITLE "FreshLUTs??-FLog??"
LUT_3D_SIZE 33
DOMAIN_MIN 0.0 0.0 0.0
DOMAIN_MAX 1.0 1.0 1.0
0.017777 0.020017 0.040497
0.038656 0.020274 0.039969
0.069080 0.020648 0.039559
0.099503 0.021023 0.039148
0.129927 0.021397 0.038738
0.160350 0.021771 0.038327
0.190774 0.022146 0.037917
0.221197 0.022520 0.037506
0.251621 0.022894 0.037095
0.282044 0.023269 0.036685
0.312468 0.023643 0.036274
0.342892 0.024018 0.035864
0.373315 0.024392 0.035453
0.403739 0.024766 0.035043
0.434162 0.025141 0.034632
0.464586 0.025515 0.034222
0.495009 0.025889 0.033811
0.525433 0.026264 0.033401
0.555857 0.026638 0.032990
0.586280 0.027012 0.032580
0.616704 0.027387 0.032169
0.647127 0.027761 0.031759
0.677551 0.028136 0.031348
0.707974 0.028510 0.030938
0.738398 0.028884 0.030527
0.768821 0.029259 0.030117
0.799245 0.029633 0.029706
0.829669 0.030007 0.029296
0.860092 0.030382 0.028885
0.890516 0.030756 0.028475
0.920939 0.031130 0.028064
0.951363 0.031505 0.027654
0.972242 0.031762 0.027126
0.018502 0.050382 0.039681
0.039381 0.050639 0.039153
0.069804 0.051013 0.038743
0.100228 0.051388 0.038332
0.130652 0.051762 0.037922
0.161075 0.052136 0.037511
0.191499 0.052511 0.037101
0.221922 0.052885 0.036690
0.252346 0.053259 0.036280
0.282769 0.053634 0.035869
0.313193 0.054008 0.035459
0.343617 0.054383 0.035048
0.374040 0.054757 0.034638
0.404464 0.055131 0.034227
0.434887 0.055506 0.033816
0.465311 0.055880 0.033406
0.495734 0.056254 0.032995
0.526158 0.056629 0.032585
0.556581 0.057003 0.032174
0.587005 0.057377 0.031764
0.617429 0.057752 0.031353
0.647852 0.058126 0.030943
0.678276 0.058501 0.030532
0.708699 0.058875 0.030122
0.739123 0.059249 0.029711
0.769546 0.059624 0.029301
0.799970 0.059998 0.028890
0.830394 0.060372 0.028480
0.860817 0.060747 0.028069
0.891241 0.061121 0.027659
0.921664 0.061495 0.027248
0.952088 0.061870 0.026838
0.972967 0.062127 0.026310
0.019227 0.080747 0.038865
0.040106 0.081004 0.038337
0.070529 0.081378 0.037927
0.100953 0.081753 0.037516
0.131377 0.082127 0.037106
0.161800 0.082501 0.036695
0.192224 0.082876 0.036285
0.222647 0.083250 0.035874
0.253071 0.083624 0.035464
0.283494 0.083999 0.035053
0.313918 0.084373 0.034643
0.344341 0.084747 0.034232
0.374765 0.085122 0.033822
0.405189 0.085496 0.033411
0.435612 0.085871 0.033001
0.466036 0.086245 0.032590
0.496459 0.086619 0.032180
0.526883 0.086994 0.031769
0.557306 0.087368 0.031359
0.587730 0.087742 0.030948
0.618154 0.088117 0.030537
0.648577 0.088491 0.030127
0.679001 0.088865 0.029716
0.709424 0.089240 0.029306
0.739848 0.089614 0.028895
0.770271 0.089989 0.028485
0.800695 0.090363 0.028074
0.831118 0.090737 0.027664
0.861542 0.091112 0.027253
0.891966 0.091486 0.026843
0.922389 0.091860 0.026432
0.952813 0.092235 0.026022
0.973692 0.092492 0.025494
0.019952 0.111112 0.038049
0.040831 0.111369 0.037521
0.071254 0.111743 0.037111
0.101678 0.112118 0.036700
0.132101 0.112492 0.036290
0.162525 0.112866 0.035879
0.192949 0.113241 0.035469
0.223372 0.113615 0.035058
0.253796 0.113989 0.034648
0.284219 0.114364 0.034237
0.314643 0.114738 0.033827
0.345066 0.115112 0.033416
0.375490 0.115487 0.033006
0.405914 0.115861 0.032595
0.436337 0.116236 0.032185
0.466761 0.116610 0.031774
0.497184 0.116984 0.031364
0.527608 0.117359 0.030953
0.558031 0.117733 0.030543
0.588455 0.118107 0.030132
0.618878 0.118482 0.029722
0.649302 0.118856 0.029311
0.679726 0.119230 0.028901
0.710149 0.119605 0.028490
0.740573 0.119979 0.028080
0.770996 0.120354 0.027669
0.801420 0.120728 0.027258
0.831843 0.121102 0.026848
0.862267 0.121477 0.026437
0.892691 0.121851 0.026027
0.923114 0.122225 0.025616
0.953538 0.122600 0.025206
0.974417 0.122857 0.024678
0.020677 0.141477 0.037233
0.041556 0.141734 0.036705
0.071979 0.142108 0.036295
0.102403 0.142482 0.035884
0.132826 0.142857 0.035474
0.163250 0.143231 0.035063
0.193674 0.143606 0.034653
0.224097 0.143980 0.034242
0.254521 0.144354 0.033832
0.284944 0.144729 0.033421
0.315368 0.145103 0.033011
0.345791 0.145477 0.032600
0.376215 0.145852 0.032190
0.406638 0.146226 0.031779
0.437062 0.146600 0.031369
0.467486 0.146975 0.030958
0.497909 0.147349 0.030548
0.528333 0.147724 0.030137
0.558756 0.148098 0.029727
0.589180 0.148472 0.029316
0.619603 0.148847 0.028906
0.650027 0.149221 0.028495
0.680451 0.149595 0.028085
0.710874 0.149970 0.027674
0.741298 0.150344 0.027264
0.771721 0.150718 0.026853
0.802145 0.151093 0.026443
0.832568 0.151467 0.026032
0.862992 0.151842 0.025622
0.893415 0.152216 0.025211
0.923839 0.152590 0.024801
0.954263 0.152965 0.024390
0.975142 0.153222 0.023862
0.021402 0.171842 0.036417
0.042281 0.172099 0.035889
0.072704 0.172473 0.035479
0.103128 0.172847 0.035068
0.133551 0.173222 0.034658
0.163975 0.173596 0.034247
0.194398 0.173970 0.033837
0.224822 0.174345 0.033426
0.255246 0.174719 0.033016
0.285669 0.175094 0.032605
0.316093 0.175468 0.032195
0.346516 0.175842 0.031784
0.376940 0.176217 0.031374
0.407363 0.176591 0.030963
0.437787 0.176965 0.030553
0.468211 0.177340 0.030142
0.498634 0.177714 0.029732
0.529058 0.178088 0.029321
0.559481 0.178463 0.028911
0.589905 0.178837 0.028500
0.620328 0.179212 0.028090
0.650752 0.179586 0.027679
0.681176 0.179960 0.027269
0.711599 0.180335 0.026858
0.742023 0.180709 0.026448
0.772446 0.181083 0.026037
0.802870 0.181458 0.025627
0.833293 0.181832 0.025216
0.863717 0.182206 0.024806
0.894140 0.182581 0.024395
0.924564 0.182955 0.023985
0.954988 0.183330 0.023574
0.975866 0.183586 0.023046
0.022127 0.202207 0.035601
0.043006 0.202464 0.035074
0.073429 0.202838 0.034663
0.103853 0.203212 0.034252
0.134276 0.203587 0.033842
0.164700 0.203961 0.033431
0.195123 0.204335 0.033021
0.225547 0.204710 0.032610
0.255971 0.205084 0.032200
0.286394 0.205459 0.031789
0.316818 0.205833 0.031379
0.347241 0.206207 0.030968
0.377665 0.206582 0.030558
0.408088 0.206956 0.030147
0.438512 0.207330 0.029737
0.468936 0.207705 0.029326
0.499359 0.208079 0.028916
0.529783 0.208453 0.028505
0.560206 0.208828 0.028095
0.590630 0.209202 0.027684
0.621053 0.209577 0.027274
0.651477 0.209951 0.026863
0.681900 0.210325 0.026453
0.712324 0.210700 0.026042
0.742748 0.211074 0.025632
0.773171 0.211448 0.025221
0.803595 0.211823 0.024811
0.834018 0.212197 0.024400
0.864442 0.212571 0.023990
0.894865 0.212946 0.023579
0.925289 0.213320 0.023169
0.955713 0.213695 0.022758
0.976591 0.213951 0.022230
0.022852 0.232572 0.034786
0.043731 0.232829 0.034258
0.074154 0.233203 0.033847
0.104578 0.233577 0.033437
0.135001 0.233952 0.033026
0.165425 0.234326 0.032616
0.195848 0.234700 0.032205
0.226272 0.235075 0.031794
0.256696 0.235449 0.031384
0.287119 0.235823 0.030973
0.317543 0.236198 0.030563
0.347966 0.236572 0.030152
0.378390 0.236947 0.029742
0.408813 0.237321 0.029331
0.439237 0.237695 0.028921
0.469660 0.238070 0.028510
0.500084 0.238444 0.028100
0.530508 0.238818 0.027689
0.560931 0.239193 0.027279
0.591355 0.239567 0.026868
0.621778 0.239941 0.026458
0.652202 0.240316 0.026047
0.682625 0.240690 0.025637
0.713049 0.241065 0.025226
0.743473 0.241439 0.024816
0.773896 0.241813 0.024405
0.804320 0.242188 0.023995
0.834743 0.242562 0.023584
0.865167 0.242936 0.023174
0.895590 0.243311 0.022763
0.926014 0.243685 0.022353
0.956437 0.244059 0.021942
0.977546 0.244316 0.021414
0.023577 0.262937 0.033970
0.044456 0.263194 0.033442
0.074879 0.263568 0.033031
0.105303 0.263942 0.032621
0.135726 0.264317 0.032210
0.166150 0.264691 0.031800
0.196573 0.265065 0.031389
0.226997 0.265440 0.030979
0.257420 0.265814 0.030568
0.287844 0.266188 0.030158
0.318268 0.266563 0.029747
0.348691 0.266937 0.029337
0.379115 0.267312 0.028926
0.409538 0.267686 0.028515
0.439962 0.268060 0.028105
0.470385 0.268435 0.027694
0.500809 0.268809 0.027284
0.531233 0.269183 0.026873
0.561656 0.269558 0.026463
0.592080 0.269932 0.026052
0.622503 0.270306 0.025642
0.652927 0.270681 0.025231
0.683350 0.271055 0.024821
0.713774 0.271430 0.024410
0.744197 0.271804 0.024000
0.774621 0.272178 0.023589
0.805045 0.272553 0.023179
0.835468 0.272927 0.022768
0.865892 0.273301 0.022358
0.896315 0.273676 0.021947
0.926958 0.274050 0.021537
0.957672 0.274424 0.021126
0.978840 0.274681 0.020598
0.024302 0.293302 0.033154
0.045180 0.293558 0.032626
0.075604 0.293933 0.032215
0.106028 0.294307 0.031805
0.136451 0.294682 0.031394
0.166875 0.295056 0.030984
0.197298 0.295430 0.030573
0.227722 0.295805 0.030163
0.258145 0.296179 0.029752
0.288569 0.296553 0.029342
0.318993 0.296928 0.028931
0.349416 0.297302 0.028521
0.379840 0.297676 0.028110
0.410263 0.298051 0.027700
0.440687 0.298425 0.027289
0.471110 0.298800 0.026879
0.501534 0.299174 0.026468
0.531957 0.299548 0.026058
0.562381 0.299923 0.025647
0.592805 0.300297 0.025236
0.623228 0.300671 0.024826
0.653652 0.301046 0.024415
0.684075 0.301420 0.024005
0.714499 0.301794 0.023594
0.744922 0.302169 0.023184
0.775346 0.302543 0.022773
0.805770 0.302918 0.022363
0.836193 0.303292 0.021952
0.866825 0.303666 0.021542
0.897539 0.304041 0.021131
0.928252 0.304415 0.020721
0.958966 0.304789 0.020310
0.980135 0.305046 0.019782
0.025026 0.323666 0.032338
0.045905 0.323923 0.031810
0.076329 0.324298 0.031399
0.106753 0.324672 0.030989
0.137176 0.325046 0.030578
0.167600 0.325421 0.030168
0.198023 0.325795 0.029757
0.228447 0.326170 0.029347
0.258870 0.326544 0.028936
0.289294 0.326918 0.028526
0.319717 0.327293 0.028115
0.350141 0.327667 0.027705
0.380565 0.328041 0.027294
0.410988 0.328416 0.026884
0.441412 0.328790 0.026473
0.471835 0.329164 0.026063
0.502259 0.329539 0.025652
0.532682 0.329913 0.025242
0.563106 0.330288 0.024831
0.593530 0.330662 0.024421
0.623953 0.331036 0.024010
0.654377 0.331411 0.023600
0.684800 0.331785 0.023189
0.715224 0.332159 0.022779
0.745647 0.332534 0.022368
0.776071 0.332908 0.021957
0.806692 0.333282 0.021547
0.837406 0.333657 0.021136
0.868119 0.334031 0.020726
0.898833 0.334406 0.020315
0.929546 0.334780 0.019905
0.960260 0.335154 0.019494
0.981429 0.335411 0.019491
0.025751 0.354031 0.031522
0.046630 0.354288 0.030994
0.077054 0.354663 0.030583
0.107477 0.355037 0.030173
0.137901 0.355411 0.029762
0.168325 0.355786 0.029352
0.198748 0.356160 0.028941
0.229172 0.356535 0.028531
0.259595 0.356909 0.028120
0.290019 0.357283 0.027710
0.320442 0.357658 0.027299
0.350866 0.358032 0.026889
0.381290 0.358406 0.026478
0.411713 0.358781 0.026068
0.442137 0.359155 0.025657
0.472560 0.359529 0.025247
0.502984 0.359904 0.024836
0.533407 0.360278 0.024426
0.563831 0.360653 0.024015
0.594254 0.361027 0.023605
0.624678 0.361401 0.023194
0.655102 0.361776 0.022784
0.685525 0.362150 0.022373
0.715949 0.362524 0.021963
0.746559 0.362899 0.021552
0.777273 0.363273 0.021142
0.807987 0.363647 0.020731
0.838700 0.364022 0.020321
0.869414 0.364396 0.019910
0.900127 0.364771 0.019500
0.930841 0.365145 0.019585
0.961554 0.365519 0.019959
0.982723 0.365776 0.020216
0.026476 0.384396 0.030706
0.047355 0.384653 0.030178
0.077779 0.385028 0.029767
0.108202 0.385402 0.029357
0.138626 0.385776 0.028946
0.169050 0.386151 0.028536
0.199473 0.386525 0.028125
0.229897 0.386899 0.027715
0.260320 0.387274 0.027304
0.290744 0.387648 0.026894
0.321167 0.388023 0.026483
0.351591 0.388397 0.026073
0.382014 0.388771 0.025662
0.412438 0.389146 0.025252
0.442862 0.389520 0.024841
0.473285 0.389894 0.024431
0.503709 0.390269 0.024020
0.534132 0.390643 0.023610
0.564556 0.391017 0.023199
0.594979 0.391392 0.022789
0.625403 0.391766 0.022378
0.655827 0.392141 0.021968
0.686427 0.392515 0.021557
0.717140 0.392889 0.021147
0.747854 0.393264 0.020736
0.778567 0.393638 0.020326
0.809281 0.394012 0.019915
0.839994 0.394387 0.019505
0.870708 0.394761 0.019561
0.901421 0.395135 0.019935
0.932135 0.395510 0.020310
0.962848 0.395884 0.020684
0.984017 0.396141 0.020941
0.027201 0.414761 0.029890
0.048080 0.415018 0.029362
0.078504 0.415393 0.028951
0.108927 0.415767 0.028541
0.139351 0.416141 0.028130
0.169774 0.416516 0.027720
0.200198 0.416890 0.027309
0.230622 0.417264 0.026899
0.261045 0.417639 0.026488
0.291469 0.418013 0.026078
0.321892 0.418388 0.025667
0.352316 0.418762 0.025257
0.382739 0.419136 0.024846
0.413163 0.419511 0.024436
0.443587 0.419885 0.024025
0.474010 0.420259 0.023615
0.504434 0.420634 0.023204
0.534857 0.421008 0.022794
0.565281 0.421382 0.022383
0.595704 0.421757 0.021973
0.626294 0.422131 0.021562
0.657007 0.422505 0.021152
0.687721 0.422880 0.020741
0.718434 0.423254 0.020331
0.749148 0.423629 0.019920
0.779861 0.424003 0.019510
0.810575 0.424377 0.019537
0.841289 0.424752 0.019912
0.872002 0.425126 0.020286
0.902716 0.425500 0.020660
0.933429 0.425875 0.021035
0.964143 0.426249 0.021409
0.985312 0.426506 0.021666
0.027926 0.445126 0.029074
0.048805 0.445383 0.028546
0.079229 0.445758 0.028136
0.109652 0.446132 0.027725
0.140076 0.446506 0.027315
0.170499 0.446881 0.026904
0.200923 0.447255 0.026494
0.231347 0.447629 0.026083
0.261770 0.448004 0.025672
0.292194 0.448378 0.025262
0.322617 0.448752 0.024851
0.353041 0.449127 0.024441
0.383464 0.449501 0.024030
0.413888 0.449876 0.023620
0.444312 0.450250 0.023209
0.474735 0.450624 0.022799
0.505159 0.450999 0.022388
0.535582 0.451373 0.021978
0.566161 0.451747 0.021567
0.596874 0.452122 0.021157
0.627588 0.452496 0.020746
0.658302 0.452870 0.020336
0.689015 0.453245 0.019925
0.719729 0.453619 0.019515
0.750442 0.453994 0.019514
0.781156 0.454368 0.019888
0.811869 0.454742 0.020262
0.842583 0.455117 0.020637
0.873296 0.455491 0.021011
0.904010 0.455865 0.021385
0.934723 0.456240 0.021760
0.965437 0.456614 0.022134
0.986606 0.456871 0.022391
0.028651 0.475491 0.028258
0.049530 0.475748 0.027730
0.079954 0.476122 0.027320
0.110377 0.476497 0.026909
0.140801 0.476871 0.026499
0.171224 0.477246 0.026088
0.201648 0.477620 0.025678
0.232072 0.477994 0.025267
0.262495 0.478369 0.024857
0.292919 0.478743 0.024446
0.323342 0.479117 0.024036
0.353766 0.479492 0.023625
0.384189 0.479866 0.023214
0.414613 0.480240 0.022804
0.445036 0.480615 0.022393
0.475460 0.480989 0.021983
0.506028 0.481364 0.021572
0.536742 0.481738 0.021162
0.567455 0.482112 0.020751
0.598169 0.482487 0.020341
0.628882 0.482861 0.019930
0.659596 0.483235 0.019520
0.690309 0.483610 0.019490
0.721023 0.483984 0.019864
0.751736 0.484358 0.020238
0.782450 0.484733 0.020613
0.813163 0.485107 0.020987
0.843877 0.485482 0.021362
0.874591 0.485856 0.021736
0.905304 0.486230 0.022110
0.936018 0.486605 0.022485
0.966731 0.486979 0.022859
0.987900 0.487236 0.023116
0.029376 0.505856 0.027442
0.050255 0.506113 0.026914
0.080679 0.506487 0.026504
0.111102 0.506862 0.026093
0.141526 0.507236 0.025683
0.171949 0.507611 0.025272
0.202373 0.507985 0.024862
0.232796 0.508359 0.024451
0.263220 0.508734 0.024041
0.293644 0.509108 0.023630
0.324067 0.509482 0.023220
0.354491 0.509857 0.022809
0.384914 0.510231 0.022399
0.415338 0.510605 0.021988
0.445895 0.510980 0.021578
0.476609 0.511354 0.021167
0.507322 0.511729 0.020757
0.538036 0.512103 0.020346
0.568749 0.512477 0.019935
0.599463 0.512852 0.019525
0.630176 0.513226 0.019466
0.660890 0.513600 0.019840
0.691604 0.513975 0.020215
0.722317 0.514349 0.020589
0.753031 0.514723 0.020963
0.783744 0.515098 0.021338
0.814458 0.515472 0.021712
0.845171 0.515847 0.022087
0.875885 0.516221 0.022461
0.906598 0.516595 0.022835
0.937312 0.516970 0.023210
0.968025 0.517344 0.023584
0.989194 0.517601 0.023841
0.030101 0.536221 0.026626
0.050980 0.536478 0.026098
0.081404 0.536852 0.025688
0.111827 0.537227 0.025277
0.142251 0.537601 0.024867
0.172674 0.537975 0.024456
0.203098 0.538350 0.024046
0.233521 0.538724 0.023635
0.263945 0.539099 0.023225
0.294369 0.539473 0.022814
0.324792 0.539847 0.022404
0.355216 0.540222 0.021993
0.385762 0.540596 0.021583
0.416476 0.540970 0.021172
0.447189 0.541345 0.020762
0.477903 0.541719 0.020351
0.508617 0.542093 0.019941
0.539330 0.542468 0.019530
0.570044 0.542842 0.019442
0.600757 0.543217 0.019817
0.631471 0.543591 0.020191
0.662184 0.543965 0.020565
0.692898 0.544340 0.020940
0.723611 0.544714 0.021314
0.754325 0.545088 0.021688
0.785038 0.545463 0.022063
0.815752 0.545837 0.022437
0.846466 0.546211 0.022811
0.877179 0.546586 0.023186
0.907893 0.546960 0.023560
0.938606 0.547335 0.023935
0.969320 0.547709 0.024309
0.990489 0.547966 0.024566
0.030826 0.566586 0.025810
0.051705 0.566843 0.025282
0.082129 0.567217 0.024872
0.112552 0.567592 0.024461
0.142976 0.567966 0.024051
0.173399 0.568340 0.023640
0.203823 0.568715 0.023230
0.234246 0.569089 0.022819
0.264670 0.569464 0.022409
0.295093 0.569838 0.021998
0.325630 0.570212 0.021588
0.356343 0.570587 0.021177
0.387057 0.570961 0.020767
0.417770 0.571335 0.020356
0.448484 0.571710 0.019946
0.479197 0.572084 0.019535
0.509911 0.572458 0.019418
0.540624 0.572833 0.019793
0.571338 0.573207 0.020167
0.602051 0.573581 0.020541
0.632765 0.573956 0.020916
0.663478 0.574330 0.021290
0.694192 0.574705 0.021665
0.724906 0.575079 0.022039
0.755619 0.575453 0.022413
0.786333 0.575828 0.022788
0.817046 0.576202 0.023162
0.847760 0.576576 0.023536
0.878473 0.576951 0.023911
0.909187 0.577325 0.024285
0.939900 0.577699 0.024659
0.970614 0.578074 0.025034
0.991783 0.578331 0.025291
0.031551 0.596951 0.024994
0.052430 0.597208 0.024466
0.082853 0.597582 0.024056
0.113277 0.597957 0.023645
0.143701 0.598331 0.023235
0.174124 0.598705 0.022824
0.204548 0.599080 0.022414
0.234971 0.599454 0.022003
0.265497 0.599828 0.021593
0.296210 0.600203 0.021182
0.326924 0.600577 0.020772
0.357637 0.600952 0.020361
0.388351 0.601326 0.019951
0.419064 0.601700 0.019540
0.449778 0.602075 0.019395
0.480491 0.602449 0.019769
0.511205 0.602823 0.020143
0.541919 0.603198 0.020518
0.572632 0.603572 0.020892
0.603346 0.603946 0.021266
0.634059 0.604321 0.021641
0.664773 0.604695 0.022015
0.695486 0.605070 0.022390
0.726200 0.605444 0.022764
0.756913 0.605818 0.023138
0.787627 0.606193 0.023513
0.818340 0.606567 0.023887
0.849054 0.606941 0.024261
0.879768 0.607316 0.024636
0.910481 0.607690 0.025010
0.941195 0.608064 0.025384
0.971908 0.608439 0.025759
0.993077 0.608696 0.026016
0.032276 0.627316 0.024178
0.053155 0.627573 0.023650
0.083578 0.627947 0.023240
0.114002 0.628322 0.022829
0.144426 0.628696 0.022419
0.174849 0.629070 0.022008
0.205364 0.629445 0.021598
0.236077 0.629819 0.021187
0.266791 0.630193 0.020777
0.297504 0.630568 0.020366
0.328218 0.630942 0.019956
0.358932 0.631316 0.019545
0.389645 0.631691 0.019371
0.420359 0.632065 0.019745
0.451072 0.632440 0.020120
0.481786 0.632814 0.020494
0.512499 0.633188 0.020868
0.543213 0.633563 0.021243
0.573926 0.633937 0.021617
0.604640 0.634311 0.021991
0.635353 0.634686 0.022366
0.666067 0.635060 0.022740
0.696780 0.635434 0.023114
0.727494 0.635809 0.023489
0.758208 0.636183 0.023863
0.788921 0.636558 0.024238
0.819635 0.636932 0.024612
0.850348 0.637306 0.024986
0.881062 0.637681 0.025361
0.911775 0.638055 0.025735
0.942489 0.638429 0.026109
0.973202 0.638804 0.026484
0.994371 0.639061 0.026741
0.033001 0.657681 0.023363
0.053880 0.657938 0.022835
0.084303 0.658312 0.022424
0.114727 0.658687 0.022014
0.145231 0.659061 0.021603
0.175945 0.659435 0.021193
0.206658 0.659810 0.020782
0.237372 0.660184 0.020371
0.268085 0.660558 0.019961
0.298799 0.660933 0.019550
0.329512 0.661307 0.019347
0.360226 0.661681 0.019721
0.390939 0.662056 0.020096
0.421653 0.662430 0.020470
0.452366 0.662805 0.020845
0.483080 0.663179 0.021219
0.513793 0.663553 0.021593
0.544507 0.663928 0.021968
0.575221 0.664302 0.022342
0.605934 0.664676 0.022716
0.636648 0.665051 0.023091
0.667361 0.665425 0.023465
0.698075 0.665799 0.023839
0.728788 0.666174 0.024214
0.759502 0.666548 0.024588
0.790215 0.666923 0.024963
0.820929 0.667297 0.025337
0.851642 0.667671 0.025711
0.882356 0.668046 0.026086
0.913070 0.668420 0.026460
0.943783 0.668794 0.026834
0.974497 0.669169 0.027209
0.995665 0.669426 0.027466
0.033726 0.688046 0.022547
0.054605 0.688303 0.022019
0.085098 0.688677 0.021608
0.115812 0.689051 0.021198
0.146525 0.689426 0.020787
0.177239 0.689800 0.020377
0.207952 0.690175 0.019966
0.238666 0.690549 0.019556
0.269379 0.690923 0.019323
0.300093 0.691298 0.019698
0.330806 0.691672 0.020072
0.361520 0.692046 0.020446
0.392234 0.692421 0.020821
0.422947 0.692795 0.021195
0.453661 0.693169 0.021569
0.484374 0.693544 0.021944
0.515088 0.693918 0.022318
0.545801 0.694293 0.022693
0.576515 0.694667 0.023067
0.607228 0.695041 0.023441
0.637942 0.695416 0.023816
0.668655 0.695790 0.024190
0.699369 0.696164 0.024564
0.730083 0.696539 0.024939
0.760796 0.696913 0.025313
0.791510 0.697287 0.025687
0.822223 0.697662 0.026062
0.852937 0.698036 0.026436
0.883650 0.698411 0.026811
0.914364 0.698785 0.027185
0.945077 0.699159 0.027559
0.975791 0.699534 0.027934
0.996960 0.699791 0.028191
0.034510 0.718411 0.021731
0.055679 0.718668 0.021203
0.086392 0.719042 0.020792
0.117106 0.719416 0.020382
0.147819 0.719791 0.019971
0.178533 0.720165 0.019561
0.209247 0.720540 0.019300
0.239960 0.720914 0.019674
0.270674 0.721288 0.020048
0.301387 0.721663 0.020423
0.332101 0.722037 0.020797
0.362814 0.722411 0.021171
0.393528 0.722786 0.021546
0.424241 0.723160 0.021920
0.454955 0.723534 0.022294
0.485668 0.723909 0.022669
0.516382 0.724283 0.023043
0.547095 0.724657 0.023417
0.577809 0.725032 0.023792
0.608523 0.725406 0.024166
0.639236 0.725781 0.024541
0.669950 0.726155 0.024915
0.700663 0.726529 0.025289
0.731377 0.726904 0.025664
0.762090 0.727278 0.026038
0.792804 0.727652 0.026412
0.823517 0.728027 0.026787
0.854231 0.728401 0.027161
0.884944 0.728775 0.027535
0.915658 0.729150 0.027910
0.946372 0.729524 0.028284
0.977085 0.729899 0.028659
0.998254 0.730155 0.028915
0.035804 0.748776 0.020915
0.056973 0.749033 0.020387
0.087687 0.749407 0.019976
0.118400 0.749781 0.019566
0.149114 0.750156 0.019276
0.179827 0.750530 0.019650
0.210541 0.750904 0.020024
0.241254 0.751279 0.020399
0.271968 0.751653 0.020773
0.302681 0.752028 0.021148
0.333395 0.752402 0.021522
0.364108 0.752776 0.021896
0.394822 0.753151 0.022271
0.425536 0.753525 0.022645
0.456249 0.753899 0.023019
0.486963 0.754274 0.023394
0.517676 0.754648 0.023768
0.548390 0.755022 0.024142
0.579103 0.755397 0.024517
0.609817 0.755771 0.024891
0.640530 0.756146 0.025266
0.671244 0.756520 0.025640
0.701957 0.756894 0.026014
0.732671 0.757269 0.026389
0.763385 0.757643 0.026763
0.794098 0.758017 0.027137
0.824812 0.758392 0.027512
0.855525 0.758766 0.027886
0.886239 0.759140 0.028260
0.916952 0.759515 0.028635
0.947666 0.759889 0.029009
0.978379 0.760264 0.029384
0.999548 0.760520 0.029640
0.037098 0.779141 0.020099
0.058267 0.779398 0.019571
0.088981 0.779772 0.019252
0.119694 0.780146 0.019626
0.150408 0.780521 0.020001
0.181121 0.780895 0.020375
0.211835 0.781269 0.020749
0.242549 0.781644 0.021124
0.273262 0.782018 0.021498
0.303976 0.782392 0.021872
0.334689 0.782767 0.022247
0.365403 0.783141 0.022621
0.396116 0.783516 0.022996
0.426830 0.783890 0.023370
0.457543 0.784264 0.023744
0.488257 0.784639 0.024119
0.518970 0.785013 0.024493
0.549684 0.785387 0.024867
0.580398 0.785762 0.025242
0.611111 0.786136 0.025616
0.641825 0.786510 0.025990
0.672538 0.786885 0.026365
0.703252 0.787259 0.026739
0.733965 0.787634 0.027114
0.764679 0.788008 0.027488
0.795392 0.788382 0.027862
0.826106 0.788757 0.028237
0.856819 0.789131 0.028611
0.887533 0.789505 0.028985
0.918246 0.789880 0.029360
0.948960 0.790254 0.029734
0.979674 0.790628 0.030108
1.000000 0.790885 0.030365
0.038393 0.809506 0.019346
0.059562 0.809763 0.019603
0.090275 0.810137 0.019977
0.120989 0.810511 0.020351
0.151702 0.810886 0.020726
0.182416 0.811260 0.021100
0.213129 0.811634 0.021474
0.243843 0.812009 0.021849
0.274556 0.812383 0.022223
0.305270 0.812757 0.022597
0.335983 0.813132 0.022972
0.366697 0.813506 0.023346
0.397410 0.813881 0.023721
0.428124 0.814255 0.024095
0.458838 0.814629 0.024469
0.489551 0.815004 0.024844
0.520265 0.815378 0.025218
0.550978 0.815752 0.025592
0.581692 0.816127 0.025967
0.612405 0.816501 0.026341
0.643119 0.816875 0.026715
0.673832 0.817250 0.027090
0.704546 0.817624 0.027464
0.735259 0.817999 0.027839
0.765973 0.818373 0.028213
0.796687 0.818747 0.028587
0.827400 0.819122 0.028962
