docs/luts/fresh-green-nature.cube
TITLE "FreshLUTs??-????"
LUT_3D_SIZE 9
DOMAIN_MIN 0.0 0.0 0.0
DOMAIN_MAX 1.0 1.0 1.0
0.000000 0.068750 0.000000
0.088362 0.064433 0.000000
0.224181 0.060116 0.000000
0.359630 0.055800 0.000000
0.494709 0.051483 0.000000
0.629419 0.047166 0.000000
0.763759 0.042849 0.000000
0.897729 0.038532 0.000000
0.993055 0.034216 0.000000
0.000000 0.126303 0.000000
0.095799 0.120581 0.000000
0.230892 0.114740 0.000000
0.365615 0.108898 0.000000
0.499969 0.103056 0.000000
0.633953 0.097214 0.000000
0.767568 0.091373 0.000000
0.900812 0.085531 0.000000
0.996939 0.079809 0.000000
0.000000 0.265224 0.000000
0.099933 0.259502 0.000000
0.234300 0.253660 0.000000
0.368298 0.247818 0.000000
0.501926 0.241977 0.000000
0.635184 0.236135 0.000000
0.768073 0.230293 0.000000
0.900592 0.224452 0.000000
0.999398 0.218729 0.000000
0.000000 0.404145 0.000000
0.102642 0.398422 0.000000
0.236284 0.392581 0.000000
0.369556 0.386739 0.000000
0.502458 0.380897 0.000000
0.634991 0.375056 0.000000
0.767154 0.369214 0.000000
0.898864 0.364014 0.000000
1.000000 0.362609 0.000000
0.000000 0.543065 0.000000
0.103927 0.537343 0.000000
0.236843 0.531501 0.000000
0.369389 0.525660 0.000000
0.501566 0.519818 0.000000
0.633309 0.514460 0.000000
0.764385 0.512935 0.000000
0.895460 0.511410 0.000000
1.000000 0.510004 0.000000
0.000000 0.681986 0.000000
0.103787 0.676264 0.000000
0.235977 0.670422 0.000000
0.367755 0.664905 0.000000
0.498830 0.663380 0.000000
0.629905 0.661855 0.000000
0.760980 0.660330 0.000000
0.892055 0.658805 0.000000
1.000000 0.657400 0.000000
0.000000 0.820906 0.000000
0.102200 0.815350 0.000000
0.233275 0.813825 0.000000
0.364350 0.812300 0.000000
0.495425 0.810775 0.000000
0.626500 0.809250 0.000000
0.757575 0.807725 0.000000
0.888651 0.806201 0.000000
1.000000 0.804795 0.000000
0.000000 0.964151 0.000000
0.098795 0.962745 0.000000
0.229870 0.961220 0.000000
0.360945 0.959695 0.000000
0.492021 0.958171 0.000000
0.623096 0.956646 0.000000
0.754171 0.955121 0.000000
0.885246 0.953596 0.000000
1.000000 0.952191 0.000000
0.000000 1.000000 0.000000
0.097269 1.000000 0.000000
0.228344 1.000000 0.000000
0.359419 1.000000 0.000000
0.490494 1.000000 0.000000
0.621569 1.000000 0.000000
0.752645 1.000000 0.000000
0.883720 1.000000 0.000000
1.000000 1.000000 0.000000
0.000000 0.067104 0.094493
0.089656 0.062787 0.095835
0.225333 0.058470 0.097057
0.360641 0.054154 0.098279
0.495580 0.049837 0.099501
0.630149 0.045520 0.100724
0.764348 0.041203 0.101946
0.898177 0.036886 0.103168
0.993921 0.032570 0.104510
0.000000 0.124099 0.098360
0.096816 0.118377 0.099702
0.231768 0.112535 0.100924
0.366350 0.106693 0.102146
0.500563 0.100852 0.103368
0.634406 0.095010 0.104590
0.767880 0.089168 0.105813
0.900984 0.083327 0.107035
0.997528 0.077604 0.108377
0.000000 0.263020 0.100348
0.100673 0.257297 0.101690
0.234899 0.251456 0.102912
0.368756 0.245614 0.104135
0.502243 0.239772 0.105357
0.635361 0.233931 0.106579
0.768109 0.228089 0.107801
0.900487 0.222247 0.109023
0.999710 0.216525 0.110365
0.000000 0.401940 0.102337
0.103106 0.396218 0.103679
0.236606 0.390376 0.104901
0.369737 0.384535 0.106123
0.502499 0.378693 0.107345
0.634891 0.372851 0.108567
0.766913 0.367009 0.109790
0.898306 0.363456 0.109556
1.000000 0.362050 0.108150
0.000000 0.540861 0.104325
0.104114 0.535139 0.105667
0.236889 0.529297 0.106889
0.369294 0.523455 0.108112
0.501330 0.517613 0.109334
0.632751 0.513901 0.109201
0.763826 0.512376 0.107676
0.894901 0.510851 0.106151
1.000000 0.509446 0.104746
0.000000 0.679781 0.106314
0.103697 0.674059 0.107656
0.235746 0.668217 0.108878
0.367196 0.664346 0.108846
0.498271 0.662821 0.107321
0.629346 0.661296 0.105796
0.760421 0.659771 0.104271
0.891497 0.658247 0.102746
1.000000 0.656841 0.101341
0.000000 0.818702 0.108302
0.101641 0.814791 0.108491
0.232716 0.813266 0.106966
0.363791 0.811742 0.105441
0.494867 0.810217 0.103917
0.625942 0.808692 0.102392
0.757017 0.807167 0.100867
0.888092 0.805642 0.099342
1.000000 0.804237 0.097937
0.000000 0.963592 0.106492
0.098237 0.962187 0.105087
0.229312 0.960662 0.103562
0.360387 0.959137 0.102037
0.491462 0.957612 0.100512
0.622537 0.956087 0.098987
0.753612 0.954562 0.097462
0.884687 0.953037 0.095937
1.000000 0.951632 0.094532
0.000000 1.000000 0.104966
0.096711 1.000000 0.103560
0.227786 1.000000 0.102036
0.358861 1.000000 0.100511
0.489936 1.000000 0.098986
0.621011 1.000000 0.097461
0.752086 1.000000 0.095936
0.883161 1.000000 0.094411
1.000000 1.000000 0.093006
0.000000 0.065458 0.222382
0.090896 0.061141 0.223724
0.226432 0.056825 0.224946
0.361599 0.052508 0.226168
0.496397 0.048191 0.227390
0.630825 0.043874 0.228612
0.764883 0.039557 0.229835
0.898572 0.035241 0.231057
0.994733 0.030924 0.232398
0.000000 0.121894 0.226249
0.097779 0.116172 0.227591
0.232590 0.110331 0.228813
0.367032 0.104489 0.230035
0.501103 0.098647 0.231257
0.634806 0.092805 0.232479
0.768138 0.086964 0.233701
0.901101 0.081122 0.234924
0.998063 0.075400 0.236265
0.000000 0.260815 0.228237
0.101359 0.255093 0.229579
0.235445 0.249251 0.230801
0.369161 0.243409 0.232023
0.502507 0.237568 0.233246
0.635484 0.231726 0.234468
0.768091 0.225884 0.235690
0.900328 0.220043 0.236912
0.999969 0.214321 0.238254
0.000000 0.399736 0.230226
0.103515 0.394014 0.231567
0.236875 0.388172 0.232790
0.369865 0.382330 0.234012
0.502486 0.376488 0.235234
0.634737 0.370647 0.236456
0.766618 0.364805 0.237678
0.897747 0.362897 0.236397
1.000000 0.361492 0.234992
0.000000 0.538656 0.232214
0.104247 0.532934 0.233556
0.236881 0.527092 0.234778
0.369145 0.521251 0.236000
0.501040 0.515409 0.237222
0.632192 0.513342 0.236042
0.763267 0.511817 0.234517
0.894343 0.510293 0.232992
1.000000 0.508887 0.231587
0.000000 0.677577 0.234203
0.103553 0.671855 0.235544
0.235462 0.666013 0.236767
0.366638 0.663788 0.235687
0.497713 0.662263 0.234163
0.628788 0.660738 0.232638
0.759863 0.659213 0.231113
0.890938 0.657688 0.229588
1.000000 0.656283 0.228183
0.000000 0.816497 0.236191
0.101083 0.814233 0.235333
0.232158 0.812708 0.233808
0.363233 0.811183 0.232283
0.494308 0.809658 0.230758
0.625383 0.808133 0.229233
0.756458 0.806608 0.227708
0.887533 0.805083 0.226183
1.000000 0.803678 0.224778
0.000000 0.963033 0.233333
0.097678 0.961628 0.231928
0.228753 0.960103 0.230403
0.359828 0.958578 0.228878
0.490903 0.957053 0.227353
0.621978 0.955529 0.225829
0.753054 0.954004 0.224304
0.884129 0.952479 0.222779
1.000000 0.951073 0.221373
0.000000 1.000000 0.231807
0.096152 1.000000 0.230402
0.227227 1.000000 0.228877
0.358302 1.000000 0.227352
0.489377 1.000000 0.225827
0.620452 1.000000 0.224302
0.751527 1.000000 0.222777
0.882603 1.000000 0.221252
1.000000 1.000000 0.219847
0.000000 0.063812 0.350271
0.092082 0.059496 0.351612
0.227477 0.055179 0.352835
0.362504 0.050862 0.354057
0.497160 0.046545 0.355279
0.631447 0.042228 0.356501
0.765365 0.037911 0.357723
0.898912 0.033595 0.358945
0.995491 0.029278 0.360287
0.000000 0.119690 0.354138
0.098688 0.113968 0.355479
0.233359 0.108126 0.356702
0.367659 0.102284 0.357924
0.501590 0.096443 0.359146
0.635151 0.090601 0.360368
0.768343 0.084759 0.361590
0.901165 0.078918 0.362812
0.998545 0.073195 0.364154
0.000000 0.258611 0.356126
0.101992 0.252888 0.357468
0.235937 0.247047 0.358690
0.369512 0.241205 0.359912
0.502717 0.235363 0.361134
0.635553 0.229522 0.362356
0.768019 0.223680 0.363579
0.900115 0.217838 0.364801
1.000000 0.213538 0.365238
0.000000 0.397531 0.358115
0.103871 0.391809 0.359456
0.237090 0.385967 0.360678
0.369940 0.380126 0.361901
0.502419 0.374284 0.363123
0.634529 0.368442 0.364345
0.766113 0.363863 0.364763
0.897189 0.362338 0.363239
1.000000 0.360933 0.361833
0.000000 0.536452 0.360103
0.104326 0.530730 0.361445
0.236819 0.524888 0.362667
0.368943 0.519046 0.363889
0.500559 0.514309 0.364409
0.631634 0.512784 0.362884
0.762709 0.511259 0.361359
0.893784 0.509734 0.359834
1.000000 0.508329 0.358429
0.000000 0.675372 0.362091
0.103356 0.669650 0.363433
0.235004 0.664754 0.364054
0.366079 0.663229 0.362529
0.497154 0.661704 0.361004
0.628229 0.660179 0.359479
0.759304 0.658654 0.357954
0.890379 0.657129 0.356429
1.000000 0.655724 0.355024
0.000000 0.815079 0.363579
0.100524 0.813674 0.362174
0.231599 0.812149 0.360649
0.362674 0.810624 0.359124
0.493749 0.809099 0.357599
0.624824 0.807575 0.356075
0.755900 0.806050 0.354550
0.886975 0.804525 0.353025
1.000000 0.803119 0.351619
0.000000 0.962475 0.360175
0.097119 0.961069 0.358770
0.228195 0.959545 0.357245
0.359270 0.958020 0.355720
0.490345 0.956495 0.354195
0.621420 0.954970 0.352670
0.752495 0.953445 0.351145
0.883570 0.951920 0.349620
1.000000 0.950515 0.348215
0.000000 1.000000 0.358649
0.095593 1.000000 0.357243
0.226668 1.000000 0.355718
0.357743 1.000000 0.354193
0.488819 1.000000 0.352669
0.619894 1.000000 0.351144
0.750969 1.000000 0.349619
0.882044 1.000000 0.348094
1.000000 1.000000 0.346689
0.000000 0.062167 0.478160
0.093214 0.057850 0.479501
0.228469 0.053533 0.480723
0.363354 0.049216 0.481946
0.497870 0.044899 0.483168
0.632016 0.040582 0.484390
0.765792 0.036266 0.485612
0.899199 0.031949 0.486834
0.996196 0.027632 0.488176
0.000000 0.117485 0.482026
0.099544 0.111763 0.483368
0.234073 0.105922 0.484590
0.368233 0.100080 0.485812
0.502023 0.094238 0.487035
0.635443 0.088397 0.488257
0.768494 0.082555 0.489479
0.901175 0.076713 0.490701
0.998973 0.070991 0.492043
0.000000 0.256406 0.484015
0.102571 0.250684 0.485357
0.236375 0.244842 0.486579
0.369809 0.239001 0.487801
0.502873 0.233159 0.489023
0.635568 0.227317 0.490245
0.767893 0.221475 0.491467
0.899849 0.215634 0.492690
1.000000 0.212979 0.492079
0.000000 0.395327 0.486003
0.104174 0.389605 0.487345
0.237252 0.383763 0.488567
0.369960 0.377921 0.489789
0.502299 0.372079 0.491012
0.634268 0.366238 0.492234
0.765555 0.363305 0.491605
0.896630 0.361780 0.490080
1.000000 0.360375 0.488675
0.000000 0.534247 0.487992
0.104352 0.528525 0.489334
0.236704 0.522683 0.490556
0.368687 0.516842 0.491778
0.500000 0.513750 0.491250
0.631075 0.512225 0.489725
0.762150 0.510700 0.488200
0.893225 0.509175 0.486675
1.000000 0.507770 0.485270
0.000000 0.673168 0.489980
0.103105 0.667446 0.491322
0.234445 0.664195 0.490895
0.365520 0.662670 0.489370
0.496595 0.661145 0.487845
0.627670 0.659621 0.486320
0.758746 0.658096 0.484796
0.889821 0.656571 0.483271
1.000000 0.655165 0.481865
0.000000 0.814521 0.490421
0.099965 0.813116 0.489015
0.231041 0.811591 0.487491
0.362116 0.810066 0.485966
0.493191 0.808541 0.484441
0.624266 0.807016 0.482916
0.755341 0.805491 0.481391
0.886416 0.803966 0.479866
1.000000 0.802561 0.478461
0.000000 0.961916 0.487016
0.096561 0.960511 0.485611
0.227636 0.958986 0.484086
0.358711 0.957461 0.482561
0.489786 0.955936 0.481036
0.620861 0.954411 0.479511
0.751936 0.952886 0.477986
0.883012 0.951361 0.476461
1.000000 0.949956 0.475056
0.000000 1.000000 0.485490
0.095035 1.000000 0.484085
0.226110 1.000000 0.482560
0.357185 1.000000 0.481035
0.488260 1.000000 0.479510
0.619335 1.000000 0.477985
0.750410 1.000000 0.476460
0.881485 1.000000 0.474935
1.000000 1.000000 0.473530
0.000000 0.060521 0.606048
0.094293 0.056204 0.607390
0.229407 0.051887 0.608612
0.364151 0.047570 0.609834
0.498526 0.043253 0.611057
0.632531 0.038937 0.612279
0.766166 0.034620 0.613501
0.899432 0.030303 0.614723
0.996847 0.025986 0.616065
0.000000 0.115281 0.609915
0.100346 0.109559 0.611257
0.234734 0.103717 0.612479
0.368753 0.097875 0.613701
0.502402 0.092034 0.614923
0.635682 0.086192 0.616146
0.768592 0.080350 0.617368
0.901132 0.074509 0.618590
0.999347 0.068787 0.619932
0.000000 0.254202 0.611904
0.103097 0.248479 0.613245
0.236759 0.242638 0.614468
0.370052 0.236796 0.615690
0.502976 0.230954 0.616912
0.635530 0.225113 0.618134
0.767714 0.219271 0.619356
0.899476 0.213826 0.620326
1.000000 0.212421 0.618921
0.000000 0.393122 0.613892
0.104422 0.387400 0.615234
0.237360 0.381558 0.616456
0.369927 0.375717 0.617678
0.502125 0.369875 0.618900
0.633921 0.364271 0.619971
0.764996 0.362746 0.618446
0.896071 0.361221 0.616921
1.000000 0.359816 0.615516
0.000000 0.532043 0.615881
0.104324 0.526321 0.617222
0.236535 0.520479 0.618444
0.368366 0.514716 0.619616
0.499441 0.513191 0.618091
0.630516 0.511667 0.616567
0.761592 0.510142 0.615042
0.892667 0.508617 0.613517
1.000000 0.507211 0.612111
0.000000 0.670963 0.617869
0.102801 0.665241 0.619211
0.233887 0.663637 0.617737
0.364962 0.662112 0.616212
0.496037 0.660587 0.614687
0.627112 0.659062 0.613162
0.758187 0.657537 0.611637
0.889262 0.656012 0.610112
1.000000 0.654607 0.608707
0.000000 0.813962 0.617262
0.099407 0.812557 0.615857
0.230482 0.811032 0.614332
0.361557 0.809507 0.612807
0.492632 0.807982 0.611282
0.623707 0.806457 0.609757
0.754782 0.804932 0.608232
0.885858 0.803408 0.606707
1.000000 0.802002 0.605302
0.000000 0.961358 0.613858
0.096002 0.959952 0.612452
0.227077 0.958427 0.610927
0.358152 0.956902 0.609403
0.489228 0.955378 0.607878
0.620303 0.953853 0.606353
0.751378 0.952328 0.604828
0.882453 0.950803 0.603303
1.000000 0.949398 0.601898
0.000000 1.000000 0.612331
0.094476 1.000000 0.610926
0.225551 1.000000 0.609401
0.356626 1.000000 0.607876
0.487701 1.000000 0.606351
0.618776 1.000000 0.604827
0.749852 1.000000 0.603302
0.880927 1.000000 0.601777
1.000000 1.000000 0.600371
0.000000 0.058875 0.733937
0.095318 0.054558 0.735279
0.230291 0.050241 0.736501
0.364894 0.045924 0.737723
0.499128 0.041607 0.738945
0.632992 0.037291 0.740167
0.766487 0.032974 0.741390
0.899611 0.028657 0.742612
0.997444 0.024340 0.743954
0.000000 0.113077 0.737804
0.101094 0.107354 0.739146
0.235342 0.101513 0.740368
0.369220 0.095671 0.741590
0.502728 0.089829 0.742812
0.635866 0.083988 0.744034
0.768635 0.078146 0.745256
0.901034 0.072304 0.746479
0.999667 0.066582 0.747820
0.000000 0.251997 0.739792
0.103568 0.246275 0.741134
0.237090 0.240433 0.742356
0.370242 0.234592 0.743578
0.503025 0.228750 0.744801
0.635437 0.222908 0.746023
0.767481 0.217066 0.747245
0.898917 0.213267 0.747167
1.000000 0.211862 0.745762
0.000000 0.390918 0.741781
0.104617 0.385196 0.743123
0.237414 0.379354 0.744345
0.369840 0.373512 0.745567
0.501897 0.367670 0.746789
0.633362 0.363712 0.746812
0.764438 0.362188 0.745288
0.895513 0.360663 0.743763
1.000000 0.359257 0.742357
0.000000 0.529838 0.743769
0.104242 0.524116 0.745111
0.236313 0.518274 0.746333
0.367808 0.514158 0.746458
0.498883 0.512633 0.744933
0.629958 0.511108 0.743408
0.761033 0.509583 0.741883
0.892108 0.508058 0.740358
1.000000 0.506653 0.738953
0.000000 0.668759 0.745758
0.102253 0.664603 0.746103
0.233328 0.663078 0.744578
0.364403 0.661553 0.743053
0.495478 0.660028 0.741528
0.626553 0.658503 0.740003
0.757628 0.656978 0.738478
0.888704 0.655454 0.736953
1.000000 0.654048 0.735548
0.000000 0.813404 0.744104
0.098848 0.811998 0.742698
0.229923 0.810473 0.741173
0.360998 0.808949 0.739648
0.492074 0.807424 0.738124
0.623149 0.805899 0.736599
0.754224 0.804374 0.735074
0.885299 0.802849 0.733549
1.000000 0.801444 0.732144
0.000000 0.960799 0.740699
0.095444 0.959394 0.739294
0.226519 0.957869 0.737769
0.357594 0.956344 0.736244
0.488669 0.954819 0.734719
0.619744 0.953294 0.733194
0.750819 0.951769 0.731669
0.881894 0.950244 0.730144
1.000000 0.948839 0.728739
0.000000 1.000000 0.739173
0.093917 1.000000 0.737767
0.224993 1.000000 0.736243
0.356068 1.000000 0.734718
0.487143 1.000000 0.733193
0.618218 1.000000 0.731668
0.749293 1.000000 0.730143
0.880368 1.000000 0.728618
1.000000 1.000000 0.727213
0.000000 0.057229 0.861826
0.096289 0.052912 0.863168
0.231121 0.048595 0.864390
0.365583 0.044278 0.865612
0.499676 0.039962 0.866834
0.633399 0.035645 0.868056
0.766753 0.031328 0.869278
0.899737 0.027011 0.870501
0.997987 0.022694 0.871842
0.000000 0.110872 0.865693
0.101789 0.105150 0.867034
0.235895 0.099308 0.868257
0.369632 0.093467 0.869479
0.502999 0.087625 0.870701
0.635997 0.081783 0.871923
0.768625 0.075941 0.873145
0.900883 0.070100 0.874367
0.999934 0.064378 0.875709
0.000000 0.249793 0.867681
0.103986 0.244071 0.869023
0.237367 0.238229 0.870245
0.370378 0.232387 0.871467
0.503020 0.226545 0.872689
0.635292 0.220704 0.873912
0.767194 0.214862 0.875134
0.898359 0.212709 0.874009
1.000000 0.211303 0.872603
0.000000 0.388713 0.869670
0.104759 0.382991 0.871011
0.237414 0.377149 0.872234
0.369699 0.371308 0.873456
0.501615 0.365466 0.874678
0.632804 0.363154 0.873654
0.763879 0.361629 0.872129
0.894954 0.360104 0.870604
1.000000 0.358699 0.869199
0.000000 0.527634 0.871658
0.104107 0.521912 0.873000
0.236036 0.516070 0.874222
0.367249 0.513599 0.873299
0.498324 0.512074 0.871774
0.629399 0.510549 0.870249
0.760474 0.509024 0.868724
0.891550 0.507499 0.867199
1.000000 0.506094 0.865794
0.000000 0.666554 0.873647
0.101694 0.664044 0.872944
0.232769 0.662519 0.871419
0.363845 0.660995 0.869894
0.494920 0.659470 0.868370
0.625995 0.657945 0.866845
0.757070 0.656420 0.865320
0.888145 0.654895 0.863795
1.000000 0.653490 0.862390
0.000000 0.812845 0.870945
0.098290 0.811440 0.869540
0.229365 0.809915 0.868015
0.360440 0.808390 0.866490
0.491515 0.806865 0.864965
0.622590 0.805340 0.863440
0.753665 0.803815 0.861915
0.884740 0.802290 0.860390
1.000000 0.800885 0.858985
0.000000 0.960240 0.867540
0.094885 0.958835 0.866135
0.225960 0.957310 0.864610
0.357035 0.955785 0.863085
0.488110 0.954260 0.861560
0.619185 0.952735 0.860035
0.750261 0.951211 0.858511
0.881336 0.949686 0.856986
1.000000 0.948280 0.855580
0.000000 1.000000 0.866014
0.093359 1.000000 0.864609
0.224434 1.000000 0.863084
0.355509 1.000000 0.861559
0.486584 1.000000 0.860034
0.617659 1.000000 0.858509
0.748734 1.000000 0.856984
0.879810 1.000000 0.855459
1.000000 1.000000 0.854054
0.000000 0.055583 0.964629
0.097206 0.051266 0.967376
0.231897 0.046949 0.970123
0.366219 0.042633 0.972870
0.500171 0.038316 0.975617
0.633753 0.033999 0.978364
0.766966 0.029682 0.981111
0.899809 0.025365 0.983858
0.998476 0.021049 0.986606
0.000000 0.108668 0.970022
0.102430 0.102945 0.972769
0.236395 0.097104 0.975516
0.369991 0.091262 0.978263
0.503217 0.085420 0.981010
0.636074 0.079579 0.983757
0.768561 0.073737 0.986504
0.900679 0.067895 0.989251
1.000000 0.063349 0.991250
0.000000 0.247588 0.975415
0.104350 0.241866 0.978162
0.237590 0.236024 0.980909
0.370460 0.230183 0.983656
0.502961 0.224341 0.986403
0.635092 0.218499 0.989150
0.766725 0.213675 0.991250
0.897800 0.212150 0.991250
1.000000 0.210745 0.991250
0.000000 0.386509 0.980808
0.104846 0.380787 0.983555
0.237360 0.374945 0.986302
0.369505 0.369103 0.989049
0.501170 0.364120 0.991250
0.632245 0.362595 0.991250
0.763320 0.361070 0.991250
0.894396 0.359545 0.991250
1.000000 0.358140 0.991250
0.000000 0.525429 0.986201
0.103917 0.519707 0.988948
0.235615 0.514565 0.991250
0.366691 0.513041 0.991250
0.497766 0.511516 0.991250
0.628841 0.509991 0.991250
0.759916 0.508466 0.991250
0.890991 0.506941 0.991250
1.000000 0.505536 0.991250
0.000000 0.664891 0.991250
0.101136 0.663486 0.991250
0.232211 0.661961 0.991250
0.363286 0.660436 0.991250
0.494361 0.658911 0.991250
0.625436 0.657386 0.991250
0.756511 0.655861 0.991250
0.887586 0.654336 0.990636
1.000000 0.652931 0.989231
0.000000 0.812286 0.991250
0.097731 0.810881 0.991250
0.228806 0.809356 0.991250
0.359881 0.807831 0.991250
0.490956 0.806306 0.991250
0.622031 0.804782 0.990281
0.753107 0.803257 0.988757
0.884182 0.801732 0.987232
1.000000 0.800326 0.985826
0.000000 0.959682 0.991250
0.094326 0.958276 0.991250
0.225402 0.956752 0.991250
0.356477 0.955227 0.989927
0.487552 0.953702 0.988402
0.618627 0.952177 0.986877
0.749702 0.950652 0.985352
0.880777 0.949127 0.983827
1.000000 0.947722 0.982422
0.000000 1.000000 0.991250
0.092800 1.000000 0.991250
0.223875 1.000000 0.989925
0.354951 1.000000 0.988401
0.486026 1.000000 0.986876
0.617101 1.000000 0.985351
0.748176 1.000000 0.983826
0.879251 1.000000 0.982301
1.000000 1.000000 0.980896
