docs/luts/fresh-rec709-film-look.cube
TITLE "FreshLUTs??-Rec709??"
LUT_3D_SIZE 9
DOMAIN_MIN 0.0 0.0 0.0
DOMAIN_MAX 1.0 1.0 1.0
0.000000 0.000000 0.000000
0.087412 0.001637 0.000000
0.217931 0.004081 0.000000
0.348451 0.006526 0.000000
0.478970 0.008970 0.000000
0.609489 0.011414 0.000000
0.740009 0.013859 0.000103
0.870528 0.016303 0.004588
0.957940 0.017940 0.008265
0.003610 0.099960 0.000000
0.091022 0.101597 0.000000
0.221541 0.104041 0.000000
0.352061 0.106486 0.000000
0.482580 0.108930 0.000000
0.613099 0.111374 0.003234
0.743619 0.113819 0.007719
0.874138 0.116263 0.012204
0.961550 0.117900 0.015882
0.008277 0.229177 0.000000
0.095689 0.230814 0.000000
0.226208 0.233258 0.000000
0.356727 0.235702 0.002937
0.487247 0.238147 0.007422
0.617766 0.240591 0.011907
0.748285 0.243035 0.016392
0.878805 0.245480 0.020877
0.967460 0.247649 0.024555
0.012943 0.358393 0.000000
0.100355 0.360030 0.002640
0.230875 0.362475 0.007125
0.361394 0.364919 0.011610
0.491913 0.367363 0.016095
0.622433 0.369808 0.020580
0.754129 0.372756 0.025065
0.886452 0.375974 0.029246
0.975669 0.378384 0.030883
0.017610 0.487610 0.007635
0.105022 0.489247 0.011313
0.235541 0.491691 0.015798
0.366061 0.494136 0.020283
0.497690 0.497056 0.024768
0.630014 0.500273 0.029024
0.762338 0.503491 0.031469
0.894661 0.506709 0.033913
0.983878 0.509119 0.035550
0.022277 0.616827 0.016308
0.109689 0.618464 0.019986
0.241252 0.621355 0.024471
0.373576 0.624573 0.028802
0.505899 0.627791 0.031247
0.638223 0.631008 0.033691
0.770547 0.634226 0.036135
0.902870 0.637443 0.038580
0.992086 0.639854 0.040217
0.027921 0.746462 0.024981
0.117137 0.748873 0.028580
0.249461 0.752090 0.031025
0.381784 0.755308 0.033469
0.514108 0.758525 0.035913
0.646432 0.761743 0.038358
0.778755 0.764961 0.040802
0.911079 0.768178 0.043246
1.000000 0.770588 0.044883
0.036130 0.877197 0.031610
0.125346 0.879607 0.033247
0.257670 0.882825 0.035691
0.389993 0.886043 0.038136
0.522317 0.889260 0.040580
0.654641 0.892478 0.043024
0.786964 0.895695 0.045469
0.919288 0.898913 0.047913
1.000000 0.901323 0.049550
0.043282 0.978675 0.035220
0.132498 0.981085 0.036857
0.264822 0.984303 0.039301
0.397146 0.987521 0.041746
0.529469 0.990738 0.044190
0.661793 0.993956 0.046634
0.794117 0.997173 0.049079
0.926440 1.000000 0.051523
1.000000 1.000000 0.053160
0.000752 0.000752 0.078930
0.088164 0.002389 0.082608
0.218684 0.004834 0.087093
0.349203 0.007278 0.091578
0.479722 0.009722 0.096063
0.610242 0.012167 0.100548
0.740761 0.014611 0.105033
0.871280 0.017055 0.109518
0.958692 0.018692 0.113196
0.004362 0.100712 0.086547
0.091774 0.102349 0.090224
0.222294 0.104794 0.094709
0.352813 0.107238 0.099194
0.483332 0.109682 0.103679
0.613852 0.112127 0.108164
0.744371 0.114571 0.112649
0.874890 0.117015 0.117134
0.962302 0.118652 0.120812
0.009029 0.229929 0.095220
0.096441 0.231566 0.098897
0.226960 0.234010 0.103382
0.357480 0.236455 0.107867
0.487999 0.238899 0.112352
0.618518 0.241343 0.116837
0.749038 0.243788 0.121322
0.879684 0.246286 0.125807
0.968900 0.248697 0.129485
0.013696 0.359146 0.103893
0.101108 0.360783 0.107570
0.231627 0.363227 0.112055
0.362146 0.365671 0.116540
0.492666 0.368116 0.121025
0.623245 0.370586 0.125510
0.755569 0.373804 0.129995
0.887893 0.377021 0.133399
0.977109 0.379431 0.135036
0.018362 0.488362 0.112566
0.105774 0.489999 0.116243
0.236294 0.492444 0.120728
0.366813 0.494888 0.125213
0.499131 0.498103 0.129698
0.631454 0.501321 0.133177
0.763778 0.504538 0.135621
0.896102 0.507756 0.138065
0.985318 0.510166 0.139702
0.023029 0.617579 0.121238
0.110441 0.619216 0.124916
0.242692 0.622403 0.129401
0.375016 0.625620 0.132955
0.507340 0.628838 0.135399
0.639663 0.632055 0.137843
0.771987 0.635273 0.140288
0.904310 0.638491 0.142732
0.993527 0.640901 0.144369
0.029361 0.747509 0.129911
0.118578 0.749920 0.132733
0.250901 0.753137 0.135177
0.383225 0.756355 0.137621
0.515548 0.759573 0.140066
0.647872 0.762790 0.142510
0.780196 0.766008 0.144954
0.912519 0.769225 0.147399
1.000000 0.771636 0.149036
0.037570 0.878244 0.135762
0.126786 0.880655 0.137399
0.259110 0.883872 0.139844
0.391434 0.887090 0.142288
0.523757 0.890307 0.144732
0.656081 0.893525 0.147177
0.788405 0.896743 0.149621
0.920728 0.899960 0.152065
1.000000 0.902370 0.153702
0.044722 0.979722 0.139372
0.133939 0.982133 0.141009
0.266262 0.985350 0.143454
0.398586 0.988568 0.145898
0.530910 0.991786 0.148342
0.663233 0.995003 0.150787
0.795557 0.998221 0.153231
0.927881 1.000000 0.155675
1.000000 1.000000 0.157312
0.001642 0.001642 0.202798
0.089054 0.003279 0.206475
0.219573 0.005723 0.210960
0.350092 0.008167 0.215445
0.480612 0.010612 0.219930
0.611131 0.013056 0.224415
0.741650 0.015500 0.228900
0.872170 0.017945 0.233385
0.959582 0.019582 0.237063
0.005252 0.101602 0.210414
0.092664 0.103239 0.214092
0.223183 0.105683 0.218577
0.353702 0.108127 0.223062
0.484222 0.110572 0.227547
0.614741 0.113016 0.232032
0.745260 0.115460 0.236517
0.875780 0.117905 0.241002
0.963192 0.119542 0.244679
0.009918 0.230818 0.219087
0.097330 0.232455 0.222765
0.227850 0.234900 0.227250
0.358369 0.237344 0.231735
0.488888 0.239788 0.236220
0.619408 0.242233 0.240705
0.749927 0.244677 0.245190
0.881261 0.247470 0.249675
0.970477 0.249881 0.253352
0.014585 0.360035 0.227760
0.101997 0.361672 0.231438
0.232516 0.364116 0.235923
0.363036 0.366561 0.240408
0.493555 0.369005 0.244893
0.624823 0.371770 0.249378
0.757146 0.374988 0.253863
0.889470 0.378205 0.256488
0.978686 0.380615 0.258125
0.019252 0.489252 0.236433
0.106664 0.490889 0.240111
0.237183 0.493333 0.244595
0.368384 0.496070 0.249081
0.500708 0.499287 0.253565
0.633031 0.502505 0.256266
0.765355 0.505722 0.258710
0.897679 0.508940 0.261155
0.986895 0.511350 0.262792
0.023918 0.618468 0.245106
0.111946 0.620369 0.248783
0.244269 0.623587 0.253268
0.376593 0.626804 0.256044
0.508917 0.630022 0.258488
0.641240 0.633239 0.260933
0.773564 0.636457 0.263377
0.905888 0.639675 0.265821
0.995104 0.642085 0.267458
0.030938 0.748694 0.253779
0.120155 0.751104 0.255822
0.252478 0.754321 0.258266
0.384802 0.757539 0.260711
0.517126 0.760757 0.263155
0.649449 0.763974 0.265599
0.781773 0.767192 0.268044
0.914096 0.770409 0.270488
1.000000 0.772820 0.272125
0.039147 0.879428 0.258852
0.128364 0.881839 0.260489
0.260687 0.885056 0.262933
0.393011 0.888274 0.265377
0.525334 0.891491 0.267822
0.657658 0.894709 0.270266
0.789982 0.897927 0.272710
0.922305 0.901144 0.275155
1.000000 0.903554 0.276792
0.046300 0.980906 0.262462
0.135516 0.983317 0.264099
0.267840 0.986534 0.266543
0.400163 0.989752 0.268987
0.532487 0.992970 0.271432
0.664810 0.996187 0.273876
0.797134 0.999405 0.276320
0.929458 1.000000 0.278765
1.000000 1.000000 0.280402
0.002531 0.002531 0.326665
0.089943 0.004168 0.330343
0.220462 0.006612 0.334828
0.350981 0.009056 0.339313
0.481501 0.011501 0.343798
0.612020 0.013945 0.348283
0.742539 0.016389 0.352768
0.873059 0.018834 0.357253
0.960471 0.020471 0.360930
0.006141 0.102491 0.334281
0.093553 0.104128 0.337959
0.224072 0.106572 0.342444
0.354592 0.109017 0.346929
0.485111 0.111461 0.351414
0.615630 0.113905 0.355899
0.746150 0.116349 0.360384
0.876669 0.118794 0.364869
0.964081 0.120431 0.368547
0.010807 0.231707 0.342954
0.098220 0.233345 0.346632
0.228739 0.235789 0.351117
0.359258 0.238233 0.355602
0.489777 0.240677 0.360087
0.620297 0.243122 0.364572
0.750816 0.245566 0.369057
0.882838 0.248654 0.373542
0.972054 0.251065 0.376547
0.015474 0.360924 0.351627
0.102886 0.362561 0.355305
0.233405 0.365005 0.359790
0.363925 0.367450 0.364275
0.494444 0.369894 0.368760
0.626400 0.372954 0.373245
0.758723 0.376172 0.377133
0.891047 0.379389 0.379577
0.980263 0.381799 0.381214
0.020141 0.490141 0.360300
0.107553 0.491778 0.363978
0.238072 0.494222 0.368463
0.369961 0.497254 0.372948
0.502285 0.500471 0.376911
0.634609 0.503689 0.379355
0.766932 0.506906 0.381799
0.899256 0.510124 0.384244
0.988472 0.512534 0.385881
0.024807 0.619357 0.368973
0.113523 0.621553 0.372651
0.245847 0.624771 0.376689
0.378170 0.627988 0.379133
0.510494 0.631206 0.381577
0.642817 0.634423 0.384022
0.775141 0.637641 0.386466
0.907465 0.640859 0.388910
0.996681 0.643269 0.390547
0.032515 0.749878 0.377274
0.121732 0.752288 0.378911
0.254055 0.755505 0.381355
0.386379 0.758723 0.383800
0.518703 0.761941 0.386244
0.651026 0.765158 0.388688
0.783350 0.768376 0.391133
0.915674 0.771593 0.393577
1.000000 0.774004 0.395214
0.040724 0.880612 0.381941
0.129941 0.883023 0.383578
0.262264 0.886240 0.386022
0.394588 0.889458 0.388466
0.526912 0.892675 0.390911
0.659235 0.895893 0.393355
0.791559 0.899111 0.395799
0.923883 0.902328 0.398244
1.000000 0.904739 0.399881
0.047877 0.982090 0.385551
0.137093 0.984501 0.387188
0.269417 0.987718 0.389632
0.401740 0.990936 0.392076
0.534064 0.994154 0.394521
0.666388 0.997371 0.396965
0.798711 1.000000 0.399409
0.931035 1.000000 0.401854
1.000000 1.000000 0.403491
0.003420 0.003420 0.450532
0.090832 0.005057 0.454210
0.221351 0.007501 0.458695
0.351871 0.009946 0.463180
0.482390 0.012390 0.467665
0.612909 0.014834 0.472150
0.743429 0.017279 0.476635
0.873948 0.019723 0.481120
0.961360 0.021360 0.484798
0.007030 0.103380 0.458149
0.094442 0.105017 0.461826
0.224961 0.107461 0.466311
0.355481 0.109906 0.470796
0.486000 0.112350 0.475281
0.616519 0.114794 0.479766
0.747039 0.117239 0.484251
0.877558 0.119683 0.488736
0.965423 0.121514 0.492414
0.011697 0.232597 0.466821
0.099109 0.234234 0.470499
0.229628 0.236678 0.474984
0.360147 0.239122 0.479469
0.490667 0.241567 0.483954
0.621186 0.244011 0.488439
0.752092 0.246621 0.492924
0.884415 0.249838 0.497409
0.973632 0.252249 0.499637
0.016363 0.361813 0.475494
0.103775 0.363450 0.479172
0.234295 0.365895 0.483657
0.364814 0.368339 0.488142
0.495653 0.370920 0.492627
0.627977 0.374138 0.497112
0.760300 0.377356 0.500222
0.892624 0.380573 0.502666
0.981840 0.382984 0.504303
0.021030 0.491030 0.484167
0.108442 0.492667 0.487845
0.239215 0.495220 0.492330
0.371538 0.498438 0.496815
0.503862 0.501655 0.500000
0.636186 0.504873 0.502444
0.768509 0.508090 0.504889
0.900833 0.511308 0.507333
0.990049 0.513718 0.508970
0.025884 0.620327 0.492840
0.115100 0.622737 0.496518
0.247424 0.625955 0.499778
0.379747 0.629172 0.502222
0.512071 0.632390 0.504667
0.644395 0.635608 0.507111
0.776718 0.638825 0.509555
0.909042 0.642043 0.512000
0.998258 0.644453 0.513637
0.034093 0.751062 0.500363
0.123309 0.753472 0.502000
0.255633 0.756689 0.504445
0.387956 0.759907 0.506889
0.520280 0.763125 0.509333
0.652603 0.766342 0.511778
0.784927 0.769560 0.514222
0.917251 0.772777 0.516666
1.000000 0.775188 0.518303
0.042302 0.881796 0.505030
0.131518 0.884207 0.506667
0.263841 0.887424 0.509111
0.396165 0.890642 0.511556
0.528489 0.893859 0.514000
0.660812 0.897077 0.516444
0.793136 0.900295 0.518889
0.925460 0.903512 0.521333
1.000000 0.905923 0.522970
0.049454 0.983274 0.508640
0.138670 0.985685 0.510277
0.270994 0.988902 0.512721
0.403317 0.992120 0.515166
0.535641 0.995338 0.517610
0.667965 0.998555 0.520054
0.800288 1.000000 0.522499
0.932612 1.000000 0.524943
1.000000 1.000000 0.526580
0.004309 0.004309 0.574399
0.091721 0.005946 0.578077
0.222241 0.008391 0.582562
0.352760 0.010835 0.587047
0.483279 0.013279 0.591532
0.613799 0.015724 0.596017
0.744318 0.018168 0.600502
0.874837 0.020612 0.604987
0.962249 0.022249 0.608665
0.007919 0.104269 0.582016
0.095331 0.105906 0.585693
0.225851 0.108351 0.590178
0.356370 0.110795 0.594663
0.486889 0.113239 0.599148
0.617409 0.115684 0.603633
0.747928 0.118128 0.608118
0.878447 0.120572 0.612603
0.967000 0.122698 0.616281
0.012586 0.233486 0.590689
0.099998 0.235123 0.594366
0.230517 0.237567 0.598851
0.361037 0.240012 0.603336
0.491556 0.242456 0.607821
0.622075 0.244900 0.612306
0.753669 0.247805 0.616791
0.885992 0.251022 0.621089
0.975209 0.253433 0.622726
0.017253 0.362703 0.599362
0.104665 0.364340 0.603039
0.235184 0.366784 0.607524
0.365703 0.369228 0.612009
0.497230 0.372104 0.616494
0.629554 0.375322 0.620867
0.761878 0.378540 0.623311
0.894201 0.381757 0.625756
0.983418 0.384168 0.627393
0.021919 0.491919 0.608035
0.109331 0.493556 0.611712
0.240792 0.496404 0.616197
0.373116 0.499622 0.620645
0.505439 0.502839 0.623089
0.637763 0.506057 0.625534
0.770086 0.509274 0.627978
0.902410 0.512492 0.630422
0.991626 0.514902 0.632059
0.027461 0.621511 0.616707
0.116677 0.623921 0.620385
0.249001 0.627139 0.622867
0.381324 0.630356 0.625312
0.513648 0.633574 0.627756
0.645972 0.636792 0.630200
0.778295 0.640009 0.632645
0.910619 0.643227 0.635089
0.999835 0.645637 0.636726
0.035670 0.752246 0.623452
0.124886 0.754656 0.625090
0.257210 0.757874 0.627534
0.389533 0.761091 0.629978
0.521857 0.764309 0.632422
0.654181 0.767526 0.634867
0.786504 0.770744 0.637311
0.918828 0.773962 0.639755
1.000000 0.776372 0.641393
0.043879 0.882980 0.628119
0.133095 0.885391 0.629756
0.265419 0.888608 0.632200
0.397742 0.891826 0.634645
0.530066 0.895043 0.637089
0.662390 0.898261 0.639533
0.794713 0.901479 0.641978
0.927037 0.904696 0.644422
1.000000 0.907107 0.646059
0.051031 0.984459 0.631729
0.140247 0.986869 0.633366
0.272571 0.990086 0.635811
0.404895 0.993304 0.638255
0.537218 0.996522 0.640699
0.669542 0.999739 0.643144
0.801865 1.000000 0.645588
0.934189 1.000000 0.648032
1.000000 1.000000 0.649669
0.005198 0.005198 0.698267
0.092610 0.006835 0.701944
0.223130 0.009280 0.706429
0.353649 0.011724 0.710914
0.484168 0.014168 0.715399
0.614688 0.016613 0.719884
0.745207 0.019057 0.724369
0.875726 0.021501 0.728854
0.963138 0.023138 0.732532
0.008808 0.105158 0.705883
0.096220 0.106795 0.709561
0.226740 0.109240 0.714046
0.357259 0.111684 0.718531
0.487778 0.114128 0.723016
0.618298 0.116573 0.727501
0.748817 0.119017 0.731986
0.879361 0.121472 0.736471
0.968577 0.123882 0.740148
0.013475 0.234375 0.714556
0.100887 0.236012 0.718234
0.231406 0.238456 0.722719
0.361926 0.240901 0.727204
0.492445 0.243345 0.731689
0.622964 0.245789 0.736174
0.755246 0.248989 0.740659
0.887569 0.252207 0.744178
0.976786 0.254617 0.745815
0.018142 0.363592 0.723229
0.105554 0.365229 0.726907
0.236073 0.367673 0.731392
0.366592 0.370117 0.735877
0.498807 0.373288 0.740362
0.631131 0.376506 0.743956
0.763455 0.379724 0.746400
0.895778 0.382941 0.748845
0.984995 0.385352 0.750482
0.022808 0.492808 0.731902
0.110220 0.494445 0.735580
0.242369 0.497588 0.740065
0.374693 0.500806 0.743734
0.507016 0.504023 0.746178
0.639340 0.507241 0.748623
0.771664 0.510458 0.751067
0.903987 0.513676 0.753511
0.993204 0.516086 0.755148
0.029038 0.622695 0.740575
0.118254 0.625105 0.743512
0.250578 0.628323 0.745956
0.382902 0.631540 0.748401
0.515225 0.634758 0.750845
0.647549 0.637976 0.753289
0.779872 0.641193 0.755734
0.912196 0.644411 0.758178
1.000000 0.646821 0.759815
0.037247 0.753430 0.746542
0.126463 0.755840 0.748179
0.258787 0.759058 0.750623
0.391110 0.762275 0.753067
0.523434 0.765493 0.755512
0.655758 0.768710 0.757956
0.788081 0.771928 0.760400
0.920405 0.775146 0.762845
1.000000 0.777556 0.764482
0.045456 0.884164 0.751208
0.134672 0.886575 0.752845
0.266996 0.889792 0.755290
0.399319 0.893010 0.757734
0.531643 0.896227 0.760178
0.663967 0.899445 0.762623
0.796290 0.902663 0.765067
0.928614 0.905880 0.767511
1.000000 0.908291 0.769148
0.052608 0.985643 0.754818
0.141824 0.988053 0.756455
0.274148 0.991270 0.758900
0.406472 0.994488 0.761344
0.538795 0.997706 0.763788
0.671119 1.000000 0.766233
0.803443 1.000000 0.768677
0.935766 1.000000 0.771121
1.000000 1.000000 0.772758
0.006088 0.006088 0.822134
0.093500 0.007725 0.825812
0.224019 0.010169 0.830297
0.354538 0.012613 0.834782
0.485058 0.015058 0.839267
0.615577 0.017502 0.843752
0.746096 0.019946 0.848237
0.876616 0.022391 0.852722
0.964028 0.024028 0.856399
0.009698 0.106048 0.829750
0.097110 0.107685 0.833428
0.227629 0.110129 0.837913
0.358148 0.112573 0.842398
0.488668 0.115018 0.846883
0.619187 0.117462 0.851368
0.749706 0.119906 0.855853
0.880938 0.122656 0.860338
0.970154 0.125066 0.864016
0.014364 0.235264 0.838423
0.101776 0.236901 0.842101
0.232296 0.239346 0.846586
0.362815 0.241790 0.851071
0.493334 0.244234 0.855556
0.624499 0.246955 0.860041
0.756823 0.250173 0.864526
0.889147 0.253391 0.867267
0.978363 0.255801 0.868904
0.019031 0.364481 0.847096
0.106443 0.366118 0.850774
0.236962 0.368562 0.855259
0.368061 0.371255 0.859744
0.500385 0.374473 0.864229
0.632708 0.377690 0.867045
0.765032 0.380908 0.869490
0.897355 0.384125 0.871934
0.986572 0.386536 0.873571
0.023698 0.493698 0.855769
0.111623 0.495554 0.859447
0.243946 0.498772 0.863932
0.376270 0.501990 0.866823
0.508593 0.505207 0.869268
0.640917 0.508425 0.871712
0.773241 0.511642 0.874156
0.905564 0.514860 0.876601
0.994781 0.517270 0.878238
0.030615 0.623879 0.864442
0.119831 0.626289 0.866601
0.252155 0.629507 0.869046
0.384479 0.632724 0.871490
0.516802 0.635942 0.873934
0.649126 0.639160 0.876379
0.781450 0.642377 0.878823
0.913773 0.645595 0.881267
1.000000 0.648005 0.882904
0.038824 0.754614 0.869631
0.128040 0.757024 0.871268
0.260364 0.760242 0.873712
0.392688 0.763459 0.876157
0.525011 0.766677 0.878601
0.657335 0.769894 0.881045
0.789659 0.773112 0.883490
0.921982 0.776330 0.885934
1.000000 0.778740 0.887571
0.047033 0.885348 0.874298
0.136249 0.887759 0.875935
0.268573 0.890976 0.878379
0.400897 0.894194 0.880823
0.533220 0.897412 0.883268
0.665544 0.900629 0.885712
0.797867 0.903847 0.888156
0.930191 0.907064 0.890601
1.000000 0.909475 0.892238
0.054185 0.986827 0.877908
0.143402 0.989237 0.879545
0.275725 0.992454 0.881989
0.408049 0.995672 0.884433
0.540372 0.998890 0.886878
0.672696 1.000000 0.889322
0.805020 1.000000 0.891766
0.937343 1.000000 0.894211
1.000000 1.000000 0.895848
0.006840 0.006840 0.927064
0.094252 0.008477 0.930742
0.224771 0.010921 0.935227
0.355291 0.013366 0.939712
0.485810 0.015810 0.944197
0.616329 0.018254 0.948682
0.746849 0.020699 0.953167
0.877368 0.023143 0.957652
0.964780 0.024780 0.961330
0.010450 0.106800 0.934681
0.097862 0.108437 0.938358
0.228381 0.110881 0.942843
0.358901 0.113326 0.947328
0.489420 0.115770 0.951813
0.619939 0.118214 0.956298
0.750459 0.120659 0.960783
0.882378 0.123703 0.965268
0.971594 0.126113 0.968390
0.015117 0.236017 0.943354
0.102529 0.237654 0.947031
0.233048 0.240098 0.951516
0.363567 0.242542 0.956001
0.494087 0.244987 0.960486
0.625940 0.248003 0.964971
0.758263 0.251220 0.968975
0.890587 0.254438 0.971420
0.979803 0.256848 0.973057
0.019783 0.365233 0.952027
0.107195 0.366870 0.955704
0.237715 0.369315 0.960189
0.369501 0.372302 0.964674
0.501825 0.375520 0.968753
0.634149 0.378737 0.971198
0.766472 0.381955 0.973642
0.898796 0.385173 0.976086
0.988012 0.387583 0.977723
0.024450 0.494450 0.960699
0.113063 0.496602 0.964377
0.245387 0.499819 0.968531
0.377710 0.503037 0.970976
0.510034 0.506254 0.973420
0.642357 0.509472 0.975864
0.774681 0.512690 0.978309
0.907005 0.515907 0.980753
0.996221 0.518318 0.982390
0.032055 0.624926 0.969117
0.121272 0.627336 0.970754
0.253595 0.630554 0.973198
0.385919 0.633772 0.975642
0.518243 0.636989 0.978087
0.650566 0.640207 0.980531
0.782890 0.643424 0.982975
0.915214 0.646642 0.985420
1.000000 0.649052 0.987057
0.040264 0.755661 0.973783
0.129481 0.758071 0.975420
0.261804 0.761289 0.977865
0.394128 0.764506 0.980309
0.526452 0.767724 0.982753
0.658775 0.770942 0.985198
0.791099 0.774159 0.987642
0.923422 0.777377 0.990086
1.000000 0.779787 0.991723
0.048473 0.886396 0.978450
0.137690 0.888806 0.980087
0.270013 0.892024 0.982531
0.402337 0.895241 0.984976
0.534660 0.898459 0.987420
0.666984 0.901676 0.989864
0.799308 0.904894 0.992309
0.931631 0.908112 0.994753
1.000000 0.910522 0.996390
0.055626 0.987874 0.982060
0.144842 0.990284 0.983697
0.277165 0.993502 0.986141
0.409489 0.996719 0.988586
0.541813 0.999937 0.991030
0.674136 1.000000 0.993474
0.806460 1.000000 0.995919
0.938784 1.000000 0.998363
1.000000 1.000000 1.000000
