docs/luts/fresh-drone-mavic-standard.cube
TITLE "FreshLUTs??-Mavic????"
LUT_3D_SIZE 9
DOMAIN_MIN 0.0 0.0 0.0
DOMAIN_MAX 1.0 1.0 1.0
0.000000 0.016000 0.000000
0.098002 0.016000 0.000000
0.234845 0.016000 0.000000
0.371688 0.016000 0.000000
0.508532 0.016000 0.000000
0.645375 0.016000 0.000000
0.782218 0.016000 0.000000
0.919061 0.016000 0.000000
0.997023 0.016000 0.000000
0.000000 0.112569 0.000000
0.097004 0.111343 0.000000
0.233847 0.109759 0.000000
0.370691 0.108174 0.000000
0.507534 0.106589 0.000000
0.644377 0.105005 0.000000
0.781220 0.103420 0.000000
0.918063 0.101835 0.000000
0.998256 0.100609 0.000000
0.000000 0.249800 0.000000
0.095067 0.248574 0.000000
0.231910 0.246989 0.000000
0.368753 0.245404 0.000000
0.505597 0.243820 0.000000
0.642440 0.242235 0.000000
0.779283 0.240650 0.000000
0.916126 0.239065 0.000000
0.999489 0.237840 0.001110
0.000000 0.387030 0.000000
0.093130 0.385804 0.000000
0.229973 0.384219 0.000000
0.366816 0.382634 0.000000
0.503660 0.381050 0.000000
0.640503 0.379465 0.000000
0.777346 0.377880 0.001051
0.914096 0.376296 0.002662
1.000000 0.375070 0.004273
0.000000 0.524260 0.000000
0.091193 0.523034 0.000000
0.228036 0.521449 0.000000
0.364879 0.519865 0.000000
0.501722 0.518280 0.000991
0.638495 0.516695 0.002602
0.774711 0.515111 0.004213
0.910926 0.513526 0.005824
1.000000 0.512300 0.007435
0.000000 0.661490 0.000000
0.089256 0.660264 0.000000
0.226099 0.658680 0.000932
0.362895 0.657095 0.002543
0.499110 0.655510 0.004154
0.635326 0.653926 0.005765
0.771541 0.652341 0.007376
0.907756 0.650756 0.008987
1.000000 0.649530 0.010598
0.000000 0.798720 0.000873
0.087294 0.797494 0.002484
0.223510 0.795910 0.004095
0.359725 0.794325 0.005706
0.495940 0.792740 0.007317
0.632156 0.791156 0.008928
0.768371 0.789571 0.010539
0.904586 0.787986 0.012150
1.000000 0.786760 0.013761
0.000000 0.935951 0.004036
0.084125 0.934725 0.005647
0.220340 0.933140 0.007258
0.356555 0.931555 0.008869
0.492771 0.929971 0.010480
0.628986 0.928386 0.012091
0.765201 0.926801 0.013702
0.901416 0.925216 0.015313
1.000000 0.923991 0.016923
0.000000 1.000000 0.007198
0.081894 1.000000 0.008809
0.218109 1.000000 0.010420
0.354325 1.000000 0.012031
0.490540 1.000000 0.013642
0.626755 1.000000 0.015253
0.762971 1.000000 0.016864
0.899186 1.000000 0.018475
1.000000 1.000000 0.020086
0.000000 0.016000 0.090601
0.097842 0.016000 0.089375
0.234686 0.016000 0.087790
0.371529 0.016000 0.086206
0.508372 0.016000 0.084621
0.645215 0.016000 0.083036
0.782058 0.016000 0.081452
0.918902 0.016000 0.079867
0.997263 0.016000 0.078641
0.000000 0.112170 0.088370
0.096844 0.110944 0.087144
0.233688 0.109360 0.085560
0.370531 0.107775 0.083975
0.507374 0.106190 0.082390
0.644217 0.104606 0.080806
0.781061 0.103021 0.079221
0.917904 0.101436 0.077636
0.998495 0.100210 0.076410
0.000000 0.249401 0.085201
0.094907 0.248175 0.083975
0.231751 0.246590 0.082390
0.368594 0.245005 0.080805
0.505437 0.243421 0.079221
0.642280 0.241836 0.077636
0.779123 0.240251 0.076051
0.915967 0.238667 0.074580
0.999728 0.237441 0.074965
0.000000 0.386631 0.082031
0.092970 0.385405 0.080805
0.229814 0.383820 0.079220
0.366657 0.382236 0.077635
0.503500 0.380651 0.076051
0.640343 0.379066 0.074520
0.777186 0.377481 0.074546
0.913697 0.375897 0.074573
1.000000 0.374671 0.074958
0.000000 0.523861 0.078861
0.091033 0.522635 0.077635
0.227876 0.521050 0.076050
0.364720 0.519466 0.074466
0.501563 0.517881 0.074487
0.638096 0.516296 0.074513
0.774312 0.514712 0.074539
0.910527 0.513127 0.074565
1.000000 0.511901 0.074951
0.000000 0.661091 0.075691
0.089096 0.659865 0.074465
0.225939 0.658281 0.074427
0.362496 0.656696 0.074453
0.498711 0.655111 0.074480
0.634927 0.653527 0.074506
0.771142 0.651942 0.074532
0.907357 0.650357 0.074558
1.000000 0.649131 0.074943
0.000000 0.798321 0.074008
0.086895 0.797096 0.074394
0.223111 0.795511 0.074420
0.359326 0.793926 0.074446
0.495541 0.792341 0.074472
0.631757 0.790757 0.074499
0.767972 0.789172 0.074525
0.904187 0.787587 0.074551
1.000000 0.786361 0.074936
0.000000 0.935552 0.074001
0.083726 0.934326 0.074386
0.219941 0.932741 0.074413
0.356156 0.931156 0.074439
0.492372 0.929572 0.074465
0.628587 0.927987 0.074492
0.764802 0.926402 0.074518
0.901018 0.924818 0.074544
1.000000 0.923592 0.074929
0.000000 1.000000 0.074933
0.081495 1.000000 0.075319
0.217710 1.000000 0.075345
0.353926 1.000000 0.075371
0.490141 1.000000 0.075397
0.626356 1.000000 0.075424
0.762572 1.000000 0.075450
0.898787 1.000000 0.075476
1.000000 1.000000 0.075861
0.000000 0.016000 0.232974
0.097455 0.016000 0.231748
0.234298 0.016000 0.230163
0.371141 0.016000 0.228579
0.507984 0.016000 0.226994
0.644828 0.016000 0.225409
0.781671 0.016000 0.223825
0.918514 0.016000 0.222240
0.997502 0.016000 0.221014
0.000000 0.111543 0.230743
0.096457 0.110317 0.229517
0.233300 0.108733 0.227933
0.370143 0.107148 0.226348
0.506987 0.105563 0.224763
0.643830 0.103979 0.223179
0.780673 0.102394 0.221594
0.917516 0.100809 0.220009
0.998735 0.099583 0.218783
0.000000 0.248774 0.227574
0.094520 0.247548 0.226348
0.231363 0.245963 0.224763
0.368206 0.244378 0.223178
0.505049 0.242794 0.221594
0.641893 0.241209 0.220009
0.778736 0.239624 0.218424
0.915579 0.238039 0.217567
0.999967 0.236814 0.217952
0.000000 0.386004 0.224404
0.092583 0.384778 0.223178
0.229426 0.383193 0.221593
0.366269 0.381609 0.220008
0.503112 0.380024 0.218424
0.639956 0.378439 0.217507
0.776799 0.376854 0.217533
0.913070 0.375270 0.217560
1.000000 0.374044 0.217945
0.000000 0.523234 0.221234
0.090646 0.522008 0.220008
0.227489 0.520423 0.218423
0.364332 0.518839 0.217448
0.501175 0.517254 0.217474
0.637469 0.515669 0.217500
0.773685 0.514085 0.217526
0.909900 0.512500 0.217553
1.000000 0.511274 0.217938
0.000000 0.660464 0.218064
0.088708 0.659238 0.217388
0.225552 0.657654 0.217414
0.361869 0.656069 0.217440
0.498084 0.654484 0.217467
0.634300 0.652900 0.217493
0.770515 0.651315 0.217519
0.906730 0.649730 0.217546
1.000000 0.648504 0.217931
0.000000 0.797694 0.216996
0.086268 0.796469 0.217381
0.222484 0.794884 0.217407
0.358699 0.793299 0.217433
0.494914 0.791714 0.217460
0.631130 0.790130 0.217486
0.767345 0.788545 0.217512
0.903560 0.786960 0.217539
1.000000 0.785734 0.217924
0.000000 0.934925 0.216989
0.083099 0.933699 0.217374
0.219314 0.932114 0.217400
0.355529 0.930529 0.217426
0.491745 0.928945 0.217453
0.627960 0.927360 0.217479
0.764175 0.925775 0.217505
0.900390 0.924191 0.217531
1.000000 0.922965 0.217917
0.000000 1.000000 0.217921
0.080868 1.000000 0.218306
0.217083 1.000000 0.218332
0.353299 1.000000 0.218358
0.489514 1.000000 0.218385
0.625729 1.000000 0.218411
0.761945 1.000000 0.218437
0.898160 1.000000 0.218464
1.000000 1.000000 0.218849
0.000000 0.016000 0.375347
0.097067 0.016000 0.374121
0.233910 0.016000 0.372536
0.370754 0.016000 0.370952
0.507597 0.016000 0.369367
0.644440 0.016000 0.367782
0.781283 0.016000 0.366198
0.918126 0.016000 0.364613
0.997741 0.016000 0.363387
0.000000 0.110916 0.373116
0.096069 0.109690 0.371891
0.232912 0.108106 0.370306
0.369756 0.106521 0.368721
0.506599 0.104936 0.367136
0.643442 0.103352 0.365552
0.780285 0.101767 0.363967
0.917128 0.100182 0.362382
0.998974 0.098956 0.361156
0.000000 0.248147 0.369947
0.094132 0.246921 0.368721
0.230975 0.245336 0.367136
0.367819 0.243751 0.365551
0.504662 0.242167 0.363967
0.641505 0.240582 0.362382
0.778348 0.238997 0.360797
0.915191 0.237412 0.360554
1.000000 0.236187 0.360939
0.000000 0.385377 0.366777
0.092195 0.384151 0.365551
0.229038 0.382566 0.363966
0.365882 0.380982 0.362381
0.502725 0.379397 0.360797
0.639568 0.377812 0.360494
0.776227 0.376227 0.360521
0.912443 0.374643 0.360547
1.000000 0.373417 0.360932
0.000000 0.522607 0.363607
0.090258 0.521381 0.362381
0.227101 0.519796 0.360796
0.363944 0.518212 0.360435
0.500627 0.516627 0.360461
0.636842 0.515042 0.360487
0.773058 0.513458 0.360514
0.909273 0.511873 0.360540
1.000000 0.510647 0.360925
0.000000 0.659837 0.360437
0.088321 0.658611 0.360375
0.225027 0.657027 0.360401
0.361242 0.655442 0.360428
0.497457 0.653857 0.360454
0.633673 0.652273 0.360480
0.769888 0.650688 0.360507
0.906103 0.649103 0.360533
1.000000 0.647877 0.360918
0.000000 0.797067 0.359983
0.085641 0.795842 0.360368
0.221857 0.794257 0.360394
0.358072 0.792672 0.360421
0.494287 0.791087 0.360447
0.630503 0.789503 0.360473
0.766718 0.787918 0.360499
0.902933 0.786333 0.360526
1.000000 0.785107 0.360911
0.000000 0.934298 0.359976
0.082472 0.933072 0.360361
0.218687 0.931487 0.360387
0.354902 0.929902 0.360414
0.491118 0.928318 0.360440
0.627333 0.926733 0.360466
0.763548 0.925148 0.360492
0.899763 0.923564 0.360519
1.000000 0.922338 0.360904
0.000000 1.000000 0.360908
0.080241 1.000000 0.361293
0.216456 1.000000 0.361319
0.352672 1.000000 0.361346
0.488887 1.000000 0.361372
0.625102 1.000000 0.361398
0.761318 1.000000 0.361424
0.897533 1.000000 0.361451
1.000000 1.000000 0.361836
0.000000 0.016000 0.517720
0.096680 0.016000 0.516494
0.233523 0.016000 0.514909
0.370366 0.016000 0.513325
0.507209 0.016000 0.511740
0.644052 0.016000 0.510155
0.780896 0.016000 0.508571
0.917739 0.016000 0.506986
0.997981 0.016000 0.505760
0.000000 0.110289 0.515489
0.095682 0.109063 0.514264
0.232525 0.107479 0.512679
0.369368 0.105894 0.511094
0.506211 0.104309 0.509509
0.643055 0.102725 0.507925
0.779898 0.101140 0.506340
0.916741 0.099555 0.504755
0.999213 0.098329 0.503933
0.000000 0.247520 0.512320
0.093745 0.246294 0.511094
0.230588 0.244709 0.509509
0.367431 0.243124 0.507924
0.504274 0.241540 0.506340
0.641117 0.239955 0.504755
0.777961 0.238370 0.503515
0.914804 0.236785 0.503541
1.000000 0.235560 0.503926
0.000000 0.384750 0.509150
0.091807 0.383524 0.507924
0.228651 0.381939 0.506339
0.365494 0.380354 0.504754
0.502337 0.378770 0.503455
0.639180 0.377185 0.503482
0.775600 0.375600 0.503508
0.911816 0.374016 0.503534
1.000000 0.372790 0.503919
0.000000 0.521980 0.505980
0.089870 0.520754 0.504754
0.226714 0.519169 0.503396
0.363557 0.517585 0.503422
0.500000 0.516000 0.503448
0.636215 0.514415 0.503475
0.772431 0.512831 0.503501
0.908646 0.511246 0.503527
1.000000 0.510020 0.503912
0.000000 0.659210 0.502977
0.087933 0.657984 0.503362
0.224400 0.656400 0.503389
0.360615 0.654815 0.503415
0.496830 0.653230 0.503441
0.633046 0.651645 0.503467
0.769261 0.650061 0.503494
0.905476 0.648476 0.503520
1.000000 0.647250 0.503905
0.000000 0.796440 0.502970
0.085014 0.795215 0.503355
0.221230 0.793630 0.503382
0.357445 0.792045 0.503408
0.493660 0.790460 0.503434
0.629876 0.788876 0.503460
0.766091 0.787291 0.503487
0.902306 0.785706 0.503513
1.000000 0.784480 0.503898
0.000000 0.933671 0.502963
0.081845 0.932445 0.503348
0.218060 0.930860 0.503374
0.354275 0.929275 0.503401
0.490491 0.927691 0.503427
0.626706 0.926106 0.503453
0.762921 0.924521 0.503480
0.899137 0.922937 0.503506
1.000000 0.921711 0.503891
0.000000 1.000000 0.503895
0.079614 1.000000 0.504280
0.215829 1.000000 0.504307
0.352045 1.000000 0.504333
0.488260 1.000000 0.504359
0.624475 1.000000 0.504385
0.760691 1.000000 0.504412
0.896906 1.000000 0.504438
1.000000 1.000000 0.504823
0.000000 0.016000 0.660093
0.096292 0.016000 0.658867
0.233135 0.016000 0.657282
0.369978 0.016000 0.655698
0.506822 0.016000 0.654113
0.643665 0.016000 0.652528
0.780508 0.016000 0.650944
0.917351 0.016000 0.649359
0.998220 0.016000 0.648133
0.000000 0.109662 0.657862
0.095294 0.108436 0.656636
0.232137 0.106852 0.655052
0.368981 0.105267 0.653467
0.505824 0.103682 0.651882
0.642667 0.102098 0.650298
0.779510 0.100513 0.648713
0.916353 0.098928 0.647128
0.999453 0.097702 0.646921
0.000000 0.246893 0.654693
0.093357 0.245667 0.653467
0.230200 0.244082 0.651882
0.367043 0.242497 0.650297
0.503887 0.240913 0.648713
0.640730 0.239328 0.647128
0.777573 0.237743 0.646502
0.914358 0.236158 0.646529
1.000000 0.234933 0.646914
0.000000 0.384123 0.651523
0.091420 0.382897 0.650297
0.228263 0.381312 0.648712
0.365106 0.379727 0.647127
0.501950 0.378143 0.646443
0.638758 0.376558 0.646469
0.774973 0.374973 0.646495
0.911189 0.373389 0.646521
1.000000 0.372163 0.646907
0.000000 0.521353 0.648353
0.089483 0.520127 0.647127
0.226326 0.518542 0.646383
0.363158 0.516958 0.646409
0.499373 0.515373 0.646435
0.635588 0.513788 0.646462
0.771804 0.512204 0.646488
0.908019 0.510619 0.646514
1.000000 0.509393 0.646899
0.000000 0.658583 0.645964
0.087546 0.657357 0.646350
0.223773 0.655773 0.646376
0.359988 0.654188 0.646402
0.496203 0.652603 0.646428
0.632419 0.651019 0.646455
0.768634 0.649434 0.646481
0.904849 0.647849 0.646507
1.000000 0.646623 0.646892
0.000000 0.795813 0.645957
0.084387 0.794588 0.646342
0.220603 0.793003 0.646369
0.356818 0.791418 0.646395
0.493033 0.789833 0.646421
0.629249 0.788249 0.646448
0.765464 0.786664 0.646474
0.901679 0.785079 0.646500
1.000000 0.783853 0.646885
0.000000 0.933044 0.645950
0.081218 0.931818 0.646335
0.217433 0.930233 0.646362
0.353648 0.928648 0.646388
0.489864 0.927064 0.646414
0.626079 0.925479 0.646441
0.762294 0.923894 0.646467
0.898509 0.922310 0.646493
1.000000 0.921084 0.646878
0.000000 1.000000 0.646882
0.078987 1.000000 0.647267
0.215202 1.000000 0.647294
0.351418 1.000000 0.647320
0.487633 1.000000 0.647346
0.623848 1.000000 0.647373
0.760064 1.000000 0.647399
0.896279 1.000000 0.647425
1.000000 1.000000 0.647810
0.000000 0.016000 0.802466
0.095904 0.016000 0.801240
0.232748 0.016000 0.799655
0.369591 0.016000 0.798071
0.506434 0.016000 0.796486
0.643277 0.016000 0.794901
0.780120 0.016000 0.793317
0.916964 0.016000 0.791732
0.998460 0.016000 0.790506
0.000000 0.109035 0.800235
0.094906 0.107809 0.799009
0.231750 0.106225 0.797425
0.368593 0.104640 0.795840
0.505436 0.103055 0.794255
0.642279 0.101471 0.792671
0.779122 0.099886 0.791086
0.915966 0.098301 0.789523
0.999692 0.097075 0.789908
0.000000 0.246266 0.797066
0.092969 0.245040 0.795840
0.229813 0.243455 0.794255
0.366656 0.241870 0.792670
0.503499 0.240286 0.791086
0.640342 0.238701 0.789501
0.777185 0.237116 0.789489
0.913731 0.235532 0.789516
1.000000 0.234306 0.789901
0.000000 0.383496 0.793896
0.091032 0.382270 0.792670
0.227875 0.380685 0.791085
0.364719 0.379101 0.789501
0.501562 0.377516 0.789430
0.638131 0.375931 0.789456
0.774346 0.374346 0.789482
0.910562 0.372762 0.789509
1.000000 0.371536 0.789894
0.000000 0.520726 0.790726
0.089095 0.519500 0.789500
0.225938 0.517915 0.789370
0.362531 0.516331 0.789396
0.498746 0.514746 0.789423
0.634961 0.513161 0.789449
0.771177 0.511577 0.789475
0.907392 0.509992 0.789502
1.000000 0.508766 0.789887
0.000000 0.657956 0.788952
0.086930 0.656730 0.789337
0.223146 0.655146 0.789363
0.359361 0.653561 0.789389
0.495576 0.651976 0.789416
0.631792 0.650392 0.789442
0.768007 0.648807 0.789468
0.904222 0.647222 0.789495
1.000000 0.645996 0.789880
0.000000 0.795186 0.788945
0.083760 0.793961 0.789330
0.219976 0.792376 0.789356
0.356191 0.790791 0.789382
0.492406 0.789206 0.789409
0.628622 0.787622 0.789435
0.764837 0.786037 0.789461
0.901052 0.784452 0.789487
1.000000 0.783226 0.789873
0.000000 0.932417 0.788938
0.080591 0.931191 0.789323
0.216806 0.929606 0.789349
0.353021 0.928021 0.789375
0.489237 0.926437 0.789401
0.625452 0.924852 0.789428
0.761667 0.923267 0.789454
0.897882 0.921683 0.789480
1.000000 0.920457 0.789865
0.000000 1.000000 0.789870
0.078360 1.000000 0.790255
0.214575 1.000000 0.790281
0.350791 1.000000 0.790307
0.487006 1.000000 0.790334
0.623221 1.000000 0.790360
0.759437 1.000000 0.790386
0.895652 1.000000 0.790412
1.000000 1.000000 0.790798
0.000000 0.016000 0.944839
0.095517 0.016000 0.943613
0.232360 0.016000 0.942028
0.369203 0.016000 0.940444
0.506046 0.016000 0.938859
0.642890 0.016000 0.937274
0.779733 0.016000 0.935690
0.916576 0.016000 0.934105
0.998699 0.016000 0.932879
0.000000 0.108408 0.942608
0.094519 0.107182 0.941383
0.231362 0.105598 0.939798
0.368205 0.104013 0.938213
0.505049 0.102428 0.936628
0.641892 0.100844 0.935044
0.778735 0.099259 0.933459
0.915578 0.097674 0.932510
0.999932 0.096448 0.932895
0.000000 0.245639 0.939439
0.092582 0.244413 0.938213
0.229425 0.242828 0.936628
0.366268 0.241243 0.935043
0.503111 0.239659 0.933459
0.639955 0.238074 0.932450
0.776798 0.236489 0.932477
0.913104 0.234904 0.932503
1.000000 0.233679 0.932888
0.000000 0.382869 0.936269
0.090645 0.381643 0.935043
0.227488 0.380058 0.933458
0.364331 0.378474 0.932391
0.501174 0.376889 0.932417
0.637504 0.375304 0.932443
0.773719 0.373719 0.932470
0.909935 0.372135 0.932496
1.000000 0.370909 0.932881
0.000000 0.520099 0.933099
0.088708 0.518873 0.932331
0.225551 0.517288 0.932357
0.361904 0.515704 0.932384
0.498119 0.514119 0.932410
0.634334 0.512534 0.932436
0.770550 0.510950 0.932463
0.906765 0.509365 0.932489
1.000000 0.508139 0.932874
0.000000 0.657329 0.931939
0.086303 0.656103 0.932324
0.222519 0.654519 0.932350
0.358734 0.652934 0.932377
0.494949 0.651349 0.932403
0.631165 0.649765 0.932429
0.767380 0.648180 0.932455
0.903595 0.646595 0.932482
1.000000 0.645369 0.932867
0.000000 0.794559 0.931932
0.083133 0.793334 0.932317
0.219349 0.791749 0.932343
0.355564 0.790164 0.932369
0.491779 0.788579 0.932396
0.627995 0.786995 0.932422
0.764210 0.785410 0.932448
0.900425 0.783825 0.932475
1.000000 0.782599 0.932860
0.000000 0.931790 0.931925
0.079964 0.930564 0.932310
0.216179 0.928979 0.932336
0.352394 0.927394 0.932362
0.488610 0.925810 0.932389
0.624825 0.924225 0.932415
0.761040 0.922640 0.932441
0.897255 0.921056 0.932468
1.000000 0.919830 0.932853
0.000000 1.000000 0.932857
0.077733 1.000000 0.933242
0.213948 1.000000 0.933268
0.350164 1.000000 0.933295
0.486379 1.000000 0.933321
0.622594 1.000000 0.933347
0.758810 1.000000 0.933373
0.895025 1.000000 0.933400
1.000000 1.000000 0.933785
0.000000 0.016000 1.000000
0.095357 0.016000 1.000000
0.232200 0.016000 1.000000
0.369044 0.016000 1.000000
0.505887 0.016000 1.000000
0.642730 0.016000 1.000000
0.779573 0.016000 1.000000
0.916416 0.016000 1.000000
0.998938 0.016000 1.000000
0.000000 0.108009 1.000000
0.094359 0.106783 1.000000
0.231202 0.105199 1.000000
0.368046 0.103614 1.000000
0.504889 0.102029 1.000000
0.641732 0.100445 1.000000
0.778575 0.098860 1.000000
0.915418 0.097275 1.000000
1.000000 0.096049 1.000000
0.000000 0.245240 1.000000
0.092422 0.244014 1.000000
0.229265 0.242429 1.000000
0.366109 0.240844 1.000000
0.502952 0.239260 1.000000
0.639795 0.237675 1.000000
0.776490 0.236090 1.000000
0.912705 0.234505 1.000000
1.000000 0.233280 1.000000
0.000000 0.382470 1.000000
0.090485 0.381244 1.000000
0.227328 0.379659 1.000000
0.364172 0.378074 1.000000
0.500890 0.376490 1.000000
0.637105 0.374905 1.000000
0.773320 0.373320 1.000000
0.909536 0.371736 1.000000
1.000000 0.370510 1.000000
0.000000 0.519700 1.000000
0.088548 0.518474 1.000000
0.225289 0.516889 1.000000
0.361505 0.515305 1.000000
0.497720 0.513720 1.000000
0.633935 0.512135 1.000000
0.770151 0.510551 1.000000
0.906366 0.508966 1.000000
1.000000 0.507740 1.000000
0.000000 0.656930 1.000000
0.085904 0.655704 1.000000
0.222120 0.654120 1.000000
0.358335 0.652535 1.000000
0.494550 0.650950 1.000000
0.630766 0.649366 1.000000
0.766981 0.647781 1.000000
0.903196 0.646196 1.000000
1.000000 0.644970 1.000000
0.000000 0.794160 1.000000
0.082734 0.792935 1.000000
0.218950 0.791350 1.000000
0.355165 0.789765 1.000000
0.491380 0.788180 1.000000
0.627596 0.786596 1.000000
0.763811 0.785011 1.000000
0.900026 0.783426 1.000000
1.000000 0.782200 1.000000
0.000000 0.931391 1.000000
0.079565 0.930165 1.000000
0.215780 0.928580 1.000000
0.351995 0.926995 1.000000
0.488211 0.925411 1.000000
0.624426 0.923826 1.000000
0.760641 0.922241 1.000000
0.896856 0.920656 1.000000
1.000000 0.919431 1.000000
0.000000 1.000000 1.000000
0.077334 1.000000 1.000000
0.213549 1.000000 1.000000
0.349765 1.000000 1.000000
0.485980 1.000000 1.000000
0.622195 1.000000 1.000000
0.758411 1.000000 1.000000
0.894626 1.000000 1.000000
1.000000 1.000000 1.000000
