docs/luts/fresh-cinestill-800t.cube
TITLE "FreshLUTs??-CineStill800T"
LUT_3D_SIZE 5
DOMAIN_MIN 0.0 0.0 0.0
DOMAIN_MAX 1.0 1.0 1.0
0.000000 0.000000 0.075000
0.227057 0.000000 0.063227
0.528040 0.000000 0.051454
0.829023 0.000000 0.039681
1.000000 0.000000 0.027907
0.000000 0.241011 0.051887
0.215787 0.237438 0.040114
0.516770 0.232191 0.028341
0.817752 0.226943 0.016567
1.000000 0.223370 0.004794
0.000000 0.512683 0.028774
0.203577 0.509110 0.017001
0.507534 0.503863 0.005228
0.818183 0.497743 0.000000
1.000000 0.492600 0.000000
0.002619 0.784356 0.005661
0.203652 0.779968 0.000000
0.514301 0.773150 0.000000
0.824950 0.766333 0.000000
1.000000 0.761190 0.000000
0.021595 1.000000 0.000000
0.211358 1.000000 0.000000
0.522007 1.000000 0.000000
0.832655 1.000000 0.000000
1.000000 1.000000 0.000000
0.000000 0.000000 0.295396
0.225142 0.000000 0.278480
0.526125 0.000000 0.259890
0.827108 0.000000 0.241299
1.000000 0.000000 0.224384
0.000000 0.239695 0.261013
0.213872 0.236122 0.244097
0.514854 0.230874 0.225506
0.815837 0.225627 0.206916
1.000000 0.222054 0.190000
0.000000 0.511367 0.225690
0.201662 0.507794 0.208774
0.509304 0.502546 0.190184
0.819953 0.495828 0.182628
1.000000 0.490685 0.177485
0.006304 0.783039 0.190367
0.205422 0.778052 0.184052
0.516071 0.771235 0.177235
0.826720 0.764418 0.170418
1.000000 0.759275 0.165275
0.025280 1.000000 0.177925
0.213128 1.000000 0.172782
0.523777 1.000000 0.165965
0.834426 1.000000 0.159148
1.000000 1.000000 0.154005
0.000000 0.000000 0.601463
0.222497 0.000000 0.584547
0.523480 0.000000 0.565956
0.824463 0.000000 0.547366
1.000000 0.000000 0.530450
0.000000 0.237648 0.567079
0.211227 0.234075 0.550163
0.512210 0.228828 0.531573
0.814227 0.223580 0.512982
1.000000 0.219450 0.500250
0.000000 0.509320 0.531756
0.199696 0.505747 0.514840
0.510345 0.500000 0.500000
0.820994 0.493183 0.493183
1.000000 0.488040 0.488040
0.009989 0.780550 0.499750
0.206463 0.775408 0.494608
0.517112 0.768590 0.487790
0.827760 0.761773 0.480973
1.000000 0.756630 0.475830
0.028966 1.000000 0.488480
0.214169 1.000000 0.483337
0.524817 1.000000 0.476520
0.835466 1.000000 0.469703
1.000000 1.000000 0.464560
0.000000 0.000000 0.907529
0.219852 0.000000 0.890613
0.520835 0.000000 0.872023
0.821818 0.000000 0.853432
1.000000 0.000000 0.836516
0.000000 0.235602 0.873145
0.208582 0.232029 0.856230
0.509565 0.226782 0.837639
0.815267 0.221534 0.819049
1.000000 0.216805 0.810805
0.000000 0.507274 0.837823
0.200737 0.503701 0.820907
0.511385 0.497355 0.810555
0.822034 0.490538 0.803738
1.000000 0.485395 0.798595
0.013675 0.777906 0.810306
0.207503 0.772763 0.805163
0.518152 0.765946 0.798346
0.828801 0.759128 0.791528
1.000000 0.753986 0.786386
0.032651 1.000000 0.799035
0.215209 1.000000 0.793892
0.525858 1.000000 0.787075
0.836507 1.000000 0.780258
1.000000 1.000000 0.775115
0.000000 0.000000 1.000000
0.217937 0.000000 1.000000
0.518920 0.000000 1.000000
0.819903 0.000000 1.000000
1.000000 0.000000 1.000000
0.000000 0.234285 1.000000
0.206667 0.230712 1.000000
0.507650 0.225465 1.000000
0.817038 0.220032 1.000000
1.000000 0.214890 1.000000
0.000000 0.505957 1.000000
0.202507 0.502257 1.000000
0.513156 0.495440 1.000000
0.823804 0.488623 1.000000
1.000000 0.483480 1.000000
0.017360 0.775990 1.000000
0.209273 0.770848 1.000000
0.519922 0.764030 1.000000
0.830571 0.757213 1.000000
1.000000 0.752070 1.000000
0.036336 1.000000 1.000000
0.216979 1.000000 1.000000
0.527628 1.000000 1.000000
0.838277 1.000000 1.000000
1.000000 1.000000 1.000000
