docs/luts/fresh-hong-kong-1.cube
TITLE "FreshLUTs??-??1"
LUT_3D_SIZE 5
DOMAIN_MIN 0.0 0.0 0.0
DOMAIN_MAX 1.0 1.0 1.0
0.000000 0.000000 0.036000
0.247760 0.000000 0.030349
0.563090 0.000000 0.024698
0.878420 0.000000 0.019047
1.000000 0.000000 0.013396
0.000000 0.239098 0.024906
0.223458 0.227258 0.019255
0.538788 0.212188 0.013603
0.854119 0.197119 0.007952
1.000000 0.185278 0.002301
0.000000 0.529170 0.013811
0.194930 0.517330 0.008160
0.512322 0.502260 0.002509
0.834354 0.487190 0.000000
1.000000 0.475350 0.000000
0.001816 0.819242 0.002717
0.174919 0.807401 0.000000
0.496951 0.792332 0.000000
0.818983 0.777262 0.000000
1.000000 0.765422 0.000000
0.014972 0.992000 0.000000
0.163774 0.992000 0.000000
0.485806 0.992000 0.000000
0.807838 0.992000 0.000000
1.000000 0.992000 0.000000
0.000000 0.000000 0.294728
0.243143 0.000000 0.277237
0.558473 0.000000 0.256516
0.873803 0.000000 0.235795
1.000000 0.000000 0.218304
0.000000 0.234481 0.259332
0.218841 0.222641 0.241841
0.534171 0.207571 0.221120
0.849502 0.192502 0.200399
1.000000 0.180661 0.182908
0.000000 0.524553 0.219710
0.190313 0.512713 0.202218
0.510260 0.497643 0.181498
0.832292 0.482573 0.166073
1.000000 0.470733 0.154233
0.004371 0.814625 0.180087
0.172857 0.802784 0.167684
0.494889 0.787715 0.152615
0.816921 0.772645 0.137545
1.000000 0.760805 0.125705
0.017528 0.992000 0.155223
0.161712 0.992000 0.143383
0.483744 0.992000 0.128313
0.805776 0.992000 0.113243
1.000000 0.992000 0.101403
0.000000 0.000000 0.611431
0.237500 0.000000 0.593939
0.552830 0.000000 0.573219
0.868160 0.000000 0.552498
1.000000 0.000000 0.535006
0.000000 0.228838 0.576035
0.213198 0.216998 0.558543
0.528528 0.201928 0.537822
0.844576 0.186859 0.517102
1.000000 0.175018 0.501618
0.000000 0.518910 0.536412
0.185140 0.507070 0.518921
0.507172 0.492000 0.500000
0.829205 0.476930 0.484930
1.000000 0.465090 0.473090
0.006926 0.808982 0.498382
0.169769 0.797141 0.486541
0.491801 0.782072 0.471472
0.813833 0.767002 0.456402
1.000000 0.755162 0.444562
0.020083 0.992000 0.474080
0.158624 0.992000 0.462240
0.480656 0.992000 0.447170
0.802688 0.992000 0.432100
1.000000 0.992000 0.420260
0.000000 0.000000 0.928133
0.231857 0.000000 0.910642
0.547187 0.000000 0.889921
0.862517 0.000000 0.869200
1.000000 0.000000 0.851709
0.000000 0.223195 0.892737
0.207555 0.211355 0.875246
0.522885 0.196285 0.854525
0.841488 0.181216 0.833804
1.000000 0.169375 0.820475
0.000000 0.513267 0.853115
0.182052 0.501427 0.835623
0.504085 0.486357 0.818857
0.826117 0.471287 0.803787
1.000000 0.459447 0.791947
0.009481 0.803339 0.817239
0.166681 0.791498 0.805398
0.488713 0.776429 0.790329
0.810745 0.761359 0.775259
1.000000 0.749519 0.763419
0.022638 0.992000 0.792937
0.155536 0.992000 0.781097
0.477568 0.992000 0.766027
0.799601 0.992000 0.750957
1.000000 0.992000 0.739117
0.000000 0.000000 1.000000
0.227240 0.000000 1.000000
0.542570 0.000000 1.000000
0.857900 0.000000 1.000000
1.000000 0.000000 1.000000
0.000000 0.218578 1.000000
0.202938 0.206738 1.000000
0.518268 0.191668 1.000000
0.839426 0.176599 1.000000
1.000000 0.164758 1.000000
0.000000 0.508650 1.000000
0.179991 0.496810 1.000000
0.502023 0.481740 1.000000
0.824055 0.466670 1.000000
1.000000 0.454830 1.000000
0.012036 0.798722 1.000000
0.164619 0.786881 1.000000
0.486651 0.771812 1.000000
0.808684 0.756742 1.000000
1.000000 0.744902 1.000000
0.025193 0.992000 1.000000
0.153474 0.992000 1.000000
0.475507 0.992000 1.000000
0.797539 0.992000 1.000000
1.000000 0.992000 1.000000
