docs/luts/fresh-serpent.cube
TITLE "FreshLUTs??-????"
LUT_3D_SIZE 33
DOMAIN_MIN 0.0 0.0 0.0
DOMAIN_MAX 1.0 1.0 1.0
0.000000 0.060000 0.000000
0.000000 0.058823 0.000000
0.000000 0.057757 0.000112
0.000618 0.056786 0.000318
0.035590 0.055814 0.000523
0.070562 0.054842 0.000729
0.105535 0.053870 0.000934
0.140507 0.052899 0.001140
0.175479 0.051927 0.001345
0.210451 0.050955 0.001551
0.245424 0.049983 0.001757
0.280396 0.049012 0.001962
0.315368 0.048040 0.002168
0.350340 0.047068 0.002373
0.385313 0.046097 0.002579
0.420285 0.045125 0.002784
0.455257 0.044153 0.002990
0.490230 0.043181 0.003196
0.525202 0.042210 0.003401
0.560174 0.041238 0.003607
0.595146 0.040266 0.003812
0.630119 0.039294 0.004018
0.665091 0.038323 0.004223
0.700063 0.037351 0.004429
0.735035 0.036379 0.004635
0.770008 0.035407 0.004840
0.804980 0.034435 0.005046
0.839952 0.033464 0.005251
0.874924 0.032492 0.005457
0.909897 0.031520 0.005662
0.944869 0.030549 0.005868
0.964435 0.029483 0.005980
0.965515 0.028306 0.005980
0.000000 0.057689 0.000000
0.000000 0.056511 0.000000
0.000000 0.055446 0.000112
0.002736 0.054474 0.000318
0.037709 0.053503 0.000523
0.072681 0.052531 0.000729
0.107653 0.051559 0.000934
0.142626 0.050587 0.001140
0.177598 0.049616 0.001345
0.212570 0.048644 0.001551
0.247542 0.047672 0.001757
0.282515 0.046700 0.001962
0.317487 0.045729 0.002168
0.352459 0.044757 0.002373
0.387431 0.043785 0.002579
0.422404 0.042813 0.002784
0.457376 0.041842 0.002990
0.492348 0.040870 0.003196
0.527320 0.039898 0.003401
0.562293 0.038926 0.003607
0.597265 0.037955 0.003812
0.632237 0.036983 0.004018
0.667210 0.036011 0.004223
0.702182 0.035039 0.004429
0.737154 0.034068 0.004635
0.772126 0.033096 0.004840
0.807099 0.032124 0.005046
0.842071 0.031152 0.005251
0.877043 0.030181 0.005457
0.912015 0.029209 0.005662
0.946988 0.028237 0.005868
0.966554 0.027172 0.005980
0.967633 0.025995 0.005980
0.000000 0.055377 0.000000
0.000000 0.054200 0.000000
0.000000 0.053135 0.000112
0.004855 0.052163 0.000318
0.039827 0.051191 0.000523
0.074800 0.050220 0.000729
0.109772 0.049248 0.000934
0.144744 0.048276 0.001140
0.179717 0.047304 0.001345
0.214689 0.046333 0.001551
0.249661 0.045361 0.001757
0.284633 0.044389 0.001962
0.319606 0.043417 0.002168
0.354578 0.042446 0.002373
0.389550 0.041474 0.002579
0.424522 0.040502 0.002784
0.459495 0.039530 0.002990
0.494467 0.038559 0.003196
0.529439 0.037587 0.003401
0.564411 0.036615 0.003607
0.599384 0.035643 0.003812
0.634356 0.034672 0.004018
0.669328 0.033700 0.004223
0.704301 0.032728 0.004429
0.739273 0.031756 0.004635
0.774245 0.030785 0.004840
0.809217 0.029813 0.005046
0.844190 0.028841 0.005251
0.879162 0.027869 0.005457
0.914134 0.026898 0.005662
0.949106 0.025926 0.005868
0.968673 0.024861 0.005980
0.969752 0.023683 0.005980
0.000000 0.073521 0.000242
0.000000 0.072343 0.000242
0.000000 0.071278 0.000354
0.007216 0.070306 0.000560
0.042188 0.069335 0.000765
0.077161 0.068363 0.000971
0.112133 0.067391 0.001177
0.147105 0.066419 0.001382
0.182077 0.065448 0.001588
0.217050 0.064476 0.001793
0.252022 0.063504 0.001999
0.286994 0.062532 0.002204
0.321966 0.061561 0.002410
0.356939 0.060589 0.002615
0.391911 0.059617 0.002821
0.426883 0.058645 0.003027
0.461855 0.057674 0.003232
0.496828 0.056702 0.003438
0.531800 0.055730 0.003643
0.566772 0.054758 0.003849
0.601745 0.053787 0.004054
0.636717 0.052815 0.004260
0.671689 0.051843 0.004466
0.706661 0.050871 0.004671
0.741634 0.049900 0.004877
0.776606 0.048928 0.005082
0.811578 0.047956 0.005288
0.846550 0.046984 0.005493
0.881523 0.046013 0.005699
0.916495 0.045041 0.005904
0.951467 0.044069 0.006110
0.971034 0.043004 0.006222
0.972113 0.041827 0.006222
0.000000 0.107780 0.000675
0.000000 0.106602 0.000675
0.000000 0.105537 0.000787
0.009768 0.104566 0.000993
0.044740 0.103594 0.001198
0.079712 0.102622 0.001404
0.114684 0.101650 0.001609
0.149657 0.100679 0.001815
0.184629 0.099707 0.002021
0.219601 0.098735 0.002226
0.254574 0.097763 0.002432
0.289546 0.096792 0.002637
0.324518 0.095820 0.002843
0.359490 0.094848 0.003048
0.394463 0.093876 0.003254
0.429435 0.092905 0.003459
0.464407 0.091933 0.003665
0.499379 0.090961 0.003871
0.534352 0.089989 0.004076
0.569324 0.089018 0.004282
0.604296 0.088046 0.004487
0.639268 0.087074 0.004693
0.674241 0.086102 0.004898
0.709213 0.085131 0.005104
0.744185 0.084159 0.005310
0.779158 0.083187 0.005515
0.814130 0.082215 0.005721
0.849102 0.081244 0.005926
0.884074 0.080272 0.006132
0.919047 0.079300 0.006337
0.954019 0.078328 0.006543
0.973585 0.077263 0.006655
0.974664 0.076086 0.006655
0.000000 0.142039 0.001108
0.000000 0.140862 0.001108
0.000000 0.139796 0.001220
0.012319 0.138825 0.001426
0.047292 0.137853 0.001631
0.082264 0.136881 0.001837
0.117236 0.135909 0.002042
0.152208 0.134938 0.002248
0.187181 0.133966 0.002453
0.222153 0.132994 0.002659
0.257125 0.132022 0.002865
0.292097 0.131051 0.003070
0.327070 0.130079 0.003276
0.362042 0.129107 0.003481
0.397014 0.128135 0.003687
0.431986 0.127164 0.003892
0.466959 0.126192 0.004098
0.501931 0.125220 0.004304
0.536903 0.124248 0.004509
0.571876 0.123277 0.004715
0.606848 0.122305 0.004920
0.641820 0.121333 0.005126
0.676792 0.120361 0.005331
0.711765 0.119390 0.005537
0.746737 0.118418 0.005742
0.781709 0.117446 0.005948
0.816681 0.116474 0.006154
0.851654 0.115503 0.006359
0.886626 0.114531 0.006565
0.921598 0.113559 0.006770
0.956570 0.112587 0.006976
0.976137 0.111522 0.007088
0.977216 0.110345 0.007088
0.000000 0.176298 0.001541
0.000000 0.175121 0.001541
0.000000 0.174056 0.001653
0.014871 0.173084 0.001859
0.049843 0.172112 0.002064
0.084815 0.171140 0.002270
0.119788 0.170169 0.002475
0.154760 0.169197 0.002681
0.189732 0.168225 0.002886
0.224704 0.167253 0.003092
0.259677 0.166282 0.003298
0.294649 0.165310 0.003503
0.329621 0.164338 0.003709
0.364594 0.163366 0.003914
0.399566 0.162395 0.004120
0.434538 0.161423 0.004325
0.469510 0.160451 0.004531
0.504483 0.159479 0.004736
0.539455 0.158508 0.004942
0.574427 0.157536 0.005148
0.609399 0.156564 0.005353
0.644372 0.155592 0.005559
0.679344 0.154621 0.005764
0.714316 0.153649 0.005970
0.749288 0.152677 0.006175
0.784261 0.151705 0.006381
0.819233 0.150734 0.006586
0.854205 0.149762 0.006792
0.889178 0.148790 0.006998
0.924150 0.147818 0.007203
0.959122 0.146847 0.007409
0.978688 0.145781 0.007521
0.979768 0.144604 0.007521
0.000000 0.210557 0.001974
0.000000 0.209380 0.001974
0.000000 0.208315 0.002086
0.017423 0.207343 0.002291
0.052395 0.206371 0.002497
0.087367 0.205399 0.002703
0.122339 0.204428 0.002908
0.157312 0.203456 0.003114
0.192284 0.202484 0.003319
0.227256 0.201512 0.003525
0.262228 0.200541 0.003730
0.297201 0.199569 0.003936
0.332173 0.198597 0.004142
0.367145 0.197625 0.004347
0.402117 0.196654 0.004553
0.437090 0.195682 0.004758
0.472062 0.194710 0.004964
0.507034 0.193738 0.005169
0.542006 0.192767 0.005375
0.576979 0.191795 0.005580
0.611951 0.190823 0.005786
0.646923 0.189851 0.005992
0.681896 0.188880 0.006197
0.716868 0.187908 0.006403
0.751840 0.186936 0.006608
0.786812 0.185964 0.006814
0.821785 0.184993 0.007019
0.856757 0.184021 0.007225
0.891729 0.183049 0.007431
0.926701 0.182077 0.007636
0.961674 0.181106 0.007842
0.981240 0.180040 0.007954
0.982319 0.178863 0.008209
0.000000 0.244816 0.002407
0.000000 0.243639 0.002407
0.000000 0.242574 0.002519
0.019974 0.241602 0.002724
0.054946 0.240630 0.002930
0.089919 0.239658 0.003136
0.124891 0.238687 0.003341
0.159863 0.237715 0.003547
0.194835 0.236743 0.003752
0.229808 0.235771 0.003958
0.264780 0.234800 0.004163
0.299752 0.233828 0.004369
0.334725 0.232856 0.004574
0.369697 0.231884 0.004780
0.404669 0.230913 0.004986
0.439641 0.229941 0.005191
0.474614 0.228969 0.005397
0.509586 0.227997 0.005602
0.544558 0.227026 0.005808
0.579530 0.226054 0.006013
0.614503 0.225082 0.006219
0.649475 0.224110 0.006425
0.684447 0.223139 0.006630
0.719419 0.222167 0.006836
0.754392 0.221195 0.007041
0.789364 0.220223 0.007247
0.824336 0.219252 0.007452
0.859308 0.218280 0.007658
0.894281 0.217308 0.007863
0.929253 0.216336 0.008069
0.964225 0.215365 0.008518
0.983792 0.214300 0.008952
0.984871 0.213122 0.009275
0.000000 0.279075 0.002840
0.000000 0.277898 0.002840
0.000000 0.276833 0.002952
0.022526 0.275861 0.003157
0.057498 0.274889 0.003363
0.092470 0.273918 0.003568
0.127443 0.272946 0.003774
0.162415 0.271974 0.003980
0.197387 0.271002 0.004185
0.232359 0.270031 0.004391
0.267332 0.269059 0.004596
0.302304 0.268087 0.004802
0.337276 0.267115 0.005007
0.372248 0.266144 0.005213
0.407221 0.265172 0.005418
0.442193 0.264200 0.005624
0.477165 0.263228 0.005830
0.512137 0.262257 0.006035
0.547110 0.261285 0.006241
0.582082 0.260313 0.006446
0.617054 0.259341 0.006652
0.652027 0.258370 0.006857
0.686999 0.257398 0.007063
0.721971 0.256426 0.007269
0.756943 0.255454 0.007474
0.791916 0.254483 0.007680
0.826888 0.253511 0.007885
0.861860 0.252539 0.008091
0.896832 0.251567 0.008528
0.931805 0.250596 0.009056
0.966777 0.249624 0.009584
0.986343 0.248559 0.010018
0.987422 0.247381 0.010340
0.000000 0.313334 0.003273
0.000000 0.312157 0.003273
0.000000 0.311092 0.003385
0.025077 0.310120 0.003590
0.060050 0.309148 0.003796
0.095022 0.308177 0.004001
0.129994 0.307205 0.004207
0.164966 0.306233 0.004412
0.199939 0.305261 0.004618
0.234911 0.304290 0.004824
0.269883 0.303318 0.005029
0.304855 0.302346 0.005235
0.339828 0.301374 0.005440
0.374800 0.300403 0.005646
0.409772 0.299431 0.005851
0.444745 0.298459 0.006057
0.479717 0.297487 0.006263
0.514689 0.296516 0.006468
0.549661 0.295544 0.006674
0.584634 0.294572 0.006879
0.619606 0.293600 0.007085
0.654578 0.292629 0.007290
0.689550 0.291657 0.007496
0.724523 0.290685 0.007701
0.759495 0.289713 0.007907
0.794467 0.288742 0.008113
0.829439 0.287770 0.008538
0.864412 0.286798 0.009066
0.899384 0.285826 0.009593
0.934356 0.284855 0.010121
0.969329 0.283883 0.010649
0.988895 0.282818 0.011083
0.989253 0.282428 0.011406
0.000000 0.347594 0.003705
0.000000 0.346416 0.003705
0.000000 0.345351 0.003818
0.027629 0.344379 0.004023
0.062601 0.343408 0.004229
0.097573 0.342436 0.004434
0.132546 0.341464 0.004640
0.167518 0.340492 0.004845
0.202490 0.339521 0.005051
0.237463 0.338549 0.005256
0.272435 0.337577 0.005462
0.307407 0.336605 0.005668
0.342379 0.335634 0.005873
0.377352 0.334662 0.006079
0.412324 0.333690 0.006284
0.447296 0.332718 0.006490
0.482268 0.331747 0.006695
0.517241 0.330775 0.006901
0.552213 0.329803 0.007107
0.587185 0.328831 0.007312
0.622157 0.327860 0.007518
0.657130 0.326888 0.007723
0.692102 0.325916 0.007929
0.727074 0.324944 0.008134
0.762047 0.323973 0.008548
0.797019 0.323001 0.009076
0.831991 0.322029 0.009603
0.866963 0.321057 0.010131
0.901936 0.320086 0.010659
0.936908 0.319114 0.011187
0.971198 0.318886 0.011714
0.989685 0.318998 0.012149
0.989685 0.318998 0.012471
0.000000 0.381853 0.004138
0.000000 0.380675 0.004138
0.000000 0.379610 0.004250
0.030181 0.378638 0.004456
0.065153 0.377667 0.004662
0.100125 0.376695 0.004867
0.135097 0.375723 0.005073
0.170070 0.374751 0.005278
0.205042 0.373780 0.005484
0.240014 0.372808 0.005689
0.274986 0.371836 0.005895
0.309959 0.370864 0.006101
0.344931 0.369893 0.006306
0.379903 0.368921 0.006512
0.414876 0.367949 0.006717
0.449848 0.366977 0.006923
0.484820 0.366006 0.007128
0.519792 0.365034 0.007334
0.554765 0.364062 0.007539
0.589737 0.363090 0.007745
0.624709 0.362119 0.007951
0.659681 0.361147 0.008156
0.694654 0.360175 0.008558
0.729626 0.359203 0.009086
0.764598 0.358232 0.009613
0.799570 0.357260 0.010141
0.834543 0.356288 0.010669
0.869515 0.355316 0.011197
0.903845 0.355045 0.011724
0.937738 0.355251 0.012252
0.971631 0.355456 0.012780
0.990118 0.355568 0.013214
0.990118 0.355568 0.013536
0.000000 0.416112 0.004571
0.000000 0.414934 0.004571
0.000000 0.413869 0.004683
0.032732 0.412897 0.004889
0.067704 0.411926 0.005095
0.102677 0.410954 0.005300
0.137649 0.409982 0.005506
0.172621 0.409010 0.005711
0.207594 0.408039 0.005917
0.242566 0.407067 0.006122
0.277538 0.406095 0.006328
0.312510 0.405123 0.006533
0.347483 0.404152 0.006739
0.382455 0.403180 0.006945
0.417427 0.402208 0.007150
0.452399 0.401236 0.007356
0.487372 0.400265 0.007561
0.522344 0.399293 0.007767
0.557316 0.398321 0.007972
0.592288 0.397349 0.008178
0.627261 0.396378 0.008568
0.662233 0.395406 0.009096
0.697205 0.394434 0.009623
0.732178 0.393462 0.010151
0.767150 0.392491 0.010679
0.802122 0.391519 0.011207
0.836492 0.391204 0.011734
0.870385 0.391410 0.012262
0.904278 0.391616 0.012790
0.938171 0.391821 0.013318
0.972064 0.392027 0.013845
0.990551 0.392139 0.014280
0.990551 0.392139 0.014602
0.000000 0.450371 0.005004
0.000000 0.449193 0.005004
0.000312 0.448128 0.005116
0.035284 0.447157 0.005322
0.070256 0.446185 0.005527
0.105228 0.445213 0.005733
0.140201 0.444241 0.005939
0.175173 0.443270 0.006144
0.210145 0.442298 0.006350
0.245117 0.441326 0.006555
0.280090 0.440354 0.006761
0.315062 0.439383 0.006966
0.350034 0.438411 0.007172
0.385006 0.437439 0.007377
0.419979 0.436467 0.007583
0.454951 0.435496 0.007789
0.489923 0.434524 0.007994
0.524896 0.433552 0.008200
0.559868 0.432580 0.008578
0.594840 0.431609 0.009105
0.629812 0.430637 0.009633
0.664785 0.429665 0.010161
0.699757 0.428693 0.010689
0.734729 0.427722 0.011217
0.769139 0.427364 0.011744
0.803032 0.427569 0.012272
0.836925 0.427775 0.012800
0.870818 0.427980 0.013328
0.904711 0.428186 0.013855
0.938604 0.428391 0.014383
0.972497 0.428597 0.014911
0.990984 0.428709 0.015345
0.990984 0.428709 0.015667
0.000000 0.484630 0.005437
0.000000 0.483453 0.005437
0.002863 0.482387 0.005549
0.037835 0.481416 0.005755
0.072808 0.480444 0.005960
0.107780 0.479472 0.006166
0.142752 0.478500 0.006371
0.177724 0.477529 0.006577
0.212697 0.476557 0.006783
0.247669 0.475585 0.006988
0.282641 0.474613 0.007194
0.317614 0.473642 0.007399
0.352586 0.472670 0.007605
0.387558 0.471698 0.007810
0.422530 0.470726 0.008016
0.457503 0.469755 0.008222
0.492475 0.468783 0.008588
0.527447 0.467811 0.009115
0.562419 0.466839 0.009643
0.597392 0.465868 0.010171
0.632364 0.464896 0.010699
0.667336 0.463924 0.011226
0.701785 0.463523 0.011754
0.735679 0.463729 0.012282
0.769572 0.463934 0.012810
0.803465 0.464140 0.013337
0.837358 0.464345 0.013865
0.871251 0.464551 0.014393
0.905144 0.464756 0.014921
0.939037 0.464962 0.015449
0.972930 0.465167 0.015976
0.991417 0.465280 0.016411
0.991417 0.465280 0.016733
0.000000 0.518889 0.005870
0.000000 0.517712 0.005870
0.005415 0.516647 0.005982
0.040387 0.515675 0.006188
0.075359 0.514703 0.006393
0.110332 0.513731 0.006599
0.145304 0.512759 0.006804
0.180276 0.511788 0.007010
0.215248 0.510816 0.007215
0.250221 0.509844 0.007421
0.285193 0.508872 0.007627
0.320165 0.507901 0.007832
0.355137 0.506929 0.008038
0.390110 0.505957 0.008243
0.425082 0.504985 0.008598
0.460054 0.504014 0.009125
0.495026 0.503042 0.009653
0.529999 0.502070 0.010181
0.564971 0.501099 0.010709
0.599943 0.500127 0.011236
0.634432 0.499682 0.011764
0.668325 0.499888 0.012292
0.702218 0.500093 0.012820
0.736111 0.500299 0.013347
0.770004 0.500505 0.013875
0.803898 0.500710 0.014403
0.837791 0.500916 0.014931
0.871684 0.501121 0.015458
0.905577 0.501327 0.015986
0.939470 0.501532 0.016514
0.973363 0.501738 0.017042
0.991850 0.501850 0.017476
0.991850 0.501850 0.017798
0.000000 0.553148 0.006303
0.000000 0.551971 0.006303
0.007966 0.550906 0.006415
0.042939 0.549934 0.006621
0.077911 0.548962 0.006826
0.112883 0.547990 0.007032
0.147855 0.547019 0.007237
0.182828 0.546047 0.007443
0.217800 0.545075 0.007648
0.252772 0.544103 0.007854
0.287745 0.543132 0.008060
0.322717 0.542160 0.008265
0.357689 0.541188 0.008608
0.392661 0.540216 0.009135
0.427634 0.539245 0.009663
0.462606 0.538273 0.010191
0.497578 0.537301 0.010719
0.532550 0.536329 0.011246
0.567079 0.535842 0.011774
0.600972 0.536047 0.012302
0.634865 0.536253 0.012830
0.668758 0.536458 0.013357
0.702651 0.536664 0.013885
0.736544 0.536869 0.014413
0.770437 0.537075 0.014941
0.804330 0.537280 0.015468
0.838224 0.537486 0.015996
0.872117 0.537692 0.016524
0.906010 0.537897 0.017052
0.939903 0.538103 0.017579
0.973796 0.538308 0.018107
0.992283 0.538420 0.018542
0.992283 0.538420 0.018864
0.000000 0.587407 0.006736
0.000000 0.586230 0.006736
0.010518 0.585165 0.006848
0.045490 0.584193 0.007054
0.080463 0.583221 0.007259
0.115435 0.582249 0.007465
0.150407 0.581278 0.007670
0.185379 0.580306 0.007876
0.220352 0.579334 0.008081
0.255324 0.578362 0.008287
0.290296 0.577391 0.008617
0.325268 0.576419 0.009145
0.360241 0.575447 0.009673
0.395213 0.574475 0.010201
0.430185 0.573504 0.010728
0.465157 0.572532 0.011256
0.499726 0.572001 0.011784
0.533619 0.572206 0.012312
0.567512 0.572412 0.012840
0.601405 0.572618 0.013367
0.635298 0.572823 0.013895
0.669191 0.573029 0.014423
0.703084 0.573234 0.014951
0.736977 0.573440 0.015478
0.770870 0.573645 0.016006
0.804763 0.573851 0.016534
0.838656 0.574056 0.017062
0.872550 0.574262 0.017589
0.906443 0.574468 0.018117
0.940336 0.574673 0.018645
0.974229 0.574879 0.019173
0.992716 0.574991 0.019607
0.992716 0.574991 0.019929
0.000000 0.621666 0.007169
0.000000 0.620489 0.007169
0.013070 0.619424 0.007281
0.048042 0.618452 0.007486
0.083014 0.617480 0.007692
0.117986 0.616509 0.007898
0.152959 0.615537 0.008103
0.187931 0.614565 0.008309
0.222903 0.613593 0.008627
0.257875 0.612622 0.009155
0.292848 0.611650 0.009683
0.327820 0.610678 0.010211
0.362792 0.609706 0.010738
0.397765 0.608735 0.011266
0.432373 0.608160 0.011794
0.466266 0.608366 0.012322
0.500159 0.608571 0.012849
0.534052 0.608777 0.013377
0.567945 0.608982 0.013905
0.601838 0.609188 0.014433
0.635731 0.609393 0.014961
0.669624 0.609599 0.015488
0.703517 0.609805 0.016016
0.737410 0.610010 0.016544
0.771303 0.610216 0.017072
0.805196 0.610421 0.017599
0.839089 0.610627 0.018127
0.872982 0.610832 0.018655
0.906875 0.611038 0.019183
0.940769 0.611244 0.019710
0.974662 0.611449 0.020238
0.993149 0.611561 0.020672
0.993149 0.611561 0.020995
0.000000 0.655925 0.007602
0.000000 0.654748 0.007602
0.015621 0.653683 0.007714
0.050594 0.652711 0.007919
0.085566 0.651739 0.008125
0.120538 0.650768 0.008330
0.155510 0.649796 0.008637
0.190483 0.648824 0.009165
0.225455 0.647852 0.009693
0.260427 0.646881 0.010221
0.295399 0.645909 0.010748
0.330372 0.644937 0.011276
0.365019 0.644319 0.011804
0.398912 0.644525 0.012332
0.432806 0.644731 0.012859
0.466699 0.644936 0.013387
0.500592 0.645142 0.013915
0.534485 0.645347 0.014443
0.568378 0.645553 0.014970
0.602271 0.645758 0.015498
0.636164 0.645964 0.016026
0.670057 0.646169 0.016554
0.703950 0.646375 0.017081
0.737843 0.646581 0.017609
0.771736 0.646786 0.018137
0.805629 0.646992 0.018665
0.839522 0.647197 0.019193
0.873415 0.647403 0.019720
0.907308 0.647608 0.020248
0.941201 0.647814 0.020776
0.975095 0.648020 0.021304
0.993582 0.648132 0.021738
0.993582 0.648132 0.022060
0.000000 0.690184 0.008035
0.000000 0.689007 0.008035
0.018173 0.687942 0.008147
0.053145 0.686970 0.008352
0.088117 0.685998 0.008647
0.123090 0.685027 0.009175
0.158062 0.684055 0.009703
0.193034 0.683083 0.010231
0.228006 0.682111 0.010758
0.262979 0.681140 0.011286
0.297666 0.680479 0.011814
0.331559 0.680684 0.012342
0.365452 0.680890 0.012869
0.399345 0.681095 0.013397
0.433238 0.681301 0.013925
0.467132 0.681507 0.014453
0.501025 0.681712 0.014980
0.534918 0.681918 0.015508
0.568811 0.682123 0.016036
0.602704 0.682329 0.016564
0.636597 0.682534 0.017091
0.670490 0.682740 0.017619
0.704383 0.682945 0.018147
0.738276 0.683151 0.018675
0.772169 0.683357 0.019202
0.806062 0.683562 0.019730
0.839955 0.683768 0.020258
0.873848 0.683973 0.020786
0.907741 0.684179 0.021314
0.941634 0.684384 0.021841
0.975527 0.684590 0.022369
0.994015 0.684702 0.022803
0.994015 0.684702 0.023126
0.000079 0.724444 0.008467
0.001158 0.723266 0.008467
0.020724 0.722201 0.008657
0.055697 0.721229 0.009185
0.090669 0.720258 0.009713
0.125641 0.719286 0.010240
0.160614 0.718314 0.010768
0.195586 0.717342 0.011296
0.230313 0.716638 0.011824
0.264206 0.716844 0.012352
0.298099 0.717049 0.012879
0.331992 0.717255 0.013407
0.365885 0.717460 0.013935
0.399778 0.717666 0.014463
0.433671 0.717871 0.014990
0.467564 0.718077 0.015518
0.501457 0.718282 0.016046
0.535351 0.718488 0.016574
0.569244 0.718694 0.017101
0.603137 0.718899 0.017629
0.637030 0.719105 0.018157
0.670923 0.719310 0.018685
0.704816 0.719516 0.019212
0.738709 0.719721 0.019740
0.772602 0.719927 0.020268
0.806495 0.720133 0.020796
0.840388 0.720338 0.021323
0.874281 0.720544 0.021851
0.908174 0.720749 0.022379
0.942067 0.720955 0.022907
0.975960 0.721160 0.023434
0.994447 0.721272 0.023869
0.994447 0.721272 0.024191
0.002631 0.758703 0.008966
0.003710 0.757525 0.009288
0.023276 0.756460 0.009723
0.058248 0.755488 0.010250
0.093221 0.754517 0.010778
0.128193 0.753545 0.011306
0.162960 0.752797 0.011834
0.196853 0.753003 0.012361
0.230746 0.753208 0.012889
0.264639 0.753414 0.013417
0.298532 0.753620 0.013945
0.332425 0.753825 0.014472
0.366318 0.754031 0.015000
0.400211 0.754236 0.015528
0.434104 0.754442 0.016056
0.467997 0.754647 0.016584
0.501890 0.754853 0.017111
0.535783 0.755058 0.017639
0.569677 0.755264 0.018167
0.603570 0.755470 0.018695
0.637463 0.755675 0.019222
0.671356 0.755881 0.019750
0.705249 0.756086 0.020278
0.739142 0.756292 0.020806
0.773035 0.756497 0.021333
0.806928 0.756703 0.021861
0.840821 0.756909 0.022389
0.874714 0.757114 0.022917
0.908607 0.757320 0.023444
0.942500 0.757525 0.023972
0.976393 0.757731 0.024500
0.994880 0.757843 0.024934
0.994880 0.757843 0.025256
0.005182 0.792962 0.010032
0.006261 0.791784 0.010354
0.025828 0.790719 0.010788
0.060800 0.789748 0.011316
0.095607 0.788957 0.011844
0.129500 0.789162 0.012371
0.163393 0.789368 0.012899
0.197286 0.789573 0.013427
0.231179 0.789779 0.013955
0.265072 0.789984 0.014482
0.298965 0.790190 0.015010
0.332858 0.790395 0.015538
0.366751 0.790601 0.016066
0.400644 0.790807 0.016593
0.434537 0.791012 0.017121
0.468430 0.791218 0.017649
0.502323 0.791423 0.018177
0.536216 0.791629 0.018705
0.570109 0.791834 0.019232
0.604002 0.792040 0.019760
0.637896 0.792246 0.020288
0.671789 0.792451 0.020816
0.705682 0.792657 0.021343
0.739575 0.792862 0.021871
0.773468 0.793068 0.022399
0.807361 0.793273 0.022927
0.841254 0.793479 0.023454
0.875147 0.793684 0.023982
0.909040 0.793890 0.024510
0.942933 0.794096 0.025038
0.976826 0.794301 0.025565
0.995313 0.794413 0.026000
0.995313 0.794413 0.026322
0.007734 0.827221 0.011097
0.008813 0.826044 0.011419
0.028253 0.825116 0.011854
0.062146 0.825321 0.012381
0.096039 0.825527 0.012909
0.129933 0.825733 0.013437
0.163826 0.825938 0.013965
0.197719 0.826144 0.014492
0.231612 0.826349 0.015020
0.265505 0.826555 0.015548
0.299398 0.826760 0.016076
0.333291 0.826966 0.016603
0.367184 0.827171 0.017131
0.401077 0.827377 0.017659
0.434970 0.827583 0.018187
0.468863 0.827788 0.018714
0.502756 0.827994 0.019242
0.536649 0.828199 0.019770
0.570542 0.828405 0.020298
0.604435 0.828610 0.020825
0.638328 0.828816 0.021353
0.672222 0.829022 0.021881
0.706115 0.829227 0.022409
0.740008 0.829433 0.022937
0.773901 0.829638 0.023464
0.807794 0.829844 0.023992
0.841687 0.830049 0.024520
0.875580 0.830255 0.025048
0.909473 0.830460 0.025575
0.943366 0.830666 0.026103
0.977259 0.830872 0.026631
0.995746 0.830984 0.027065
0.995746 0.830984 0.027387
0.010199 0.861574 0.012162
0.010199 0.861574 0.012485
0.028686 0.861686 0.012919
0.062579 0.861892 0.013447
0.096472 0.862097 0.013975
0.130365 0.862303 0.014502
0.164259 0.862508 0.015030
0.198152 0.862714 0.015558
0.232045 0.862920 0.016086
0.265938 0.863125 0.016613
0.299831 0.863331 0.017141
0.333724 0.863536 0.017669
0.367617 0.863742 0.018197
0.401510 0.863947 0.018724
0.435403 0.864153 0.019252
0.469296 0.864359 0.019780
0.503189 0.864564 0.020308
0.537082 0.864770 0.020835
0.570975 0.864975 0.021363
0.604868 0.865181 0.021891
0.638761 0.865386 0.022419
0.672654 0.865592 0.022946
0.706547 0.865797 0.023474
0.740441 0.866003 0.024002
0.774334 0.866209 0.024530
0.808227 0.866414 0.025058
0.842120 0.866620 0.025585
