docs/luts/fresh-serpent.cube
TITLE "FreshLUTs??-????"
LUT_3D_SIZE 5
DOMAIN_MIN 0.0 0.0 0.0
DOMAIN_MAX 1.0 1.0 1.0
0.000000 0.060000 0.000000
0.175479 0.051927 0.001345
0.455257 0.044153 0.002990
0.735035 0.036379 0.004635
0.965515 0.028306 0.005980
0.000000 0.244816 0.002407
0.194835 0.236743 0.003752
0.474614 0.228969 0.005397
0.754392 0.221195 0.007041
0.984871 0.213122 0.009275
0.000000 0.518889 0.005870
0.215248 0.510816 0.007215
0.495026 0.503042 0.009653
0.770004 0.500505 0.013875
0.991850 0.501850 0.017798
0.005182 0.792962 0.010032
0.231179 0.789779 0.013955
0.502323 0.791423 0.018177
0.773468 0.793068 0.022399
0.995313 0.794413 0.026322
0.011740 0.991740 0.017499
0.233586 0.993086 0.021422
0.504730 0.994730 0.025644
0.775875 0.996374 0.029866
0.997720 0.997720 0.033789
0.000000 0.056933 0.225924
0.179295 0.048860 0.227270
0.459073 0.041086 0.228914
0.738852 0.033312 0.230559
0.969331 0.025239 0.231904
0.000000 0.241750 0.228331
0.198652 0.233677 0.229677
0.478430 0.225903 0.231321
0.758208 0.218129 0.232966
0.988687 0.210056 0.236182
0.000000 0.515822 0.231794
0.219065 0.507749 0.233140
0.498843 0.499975 0.236560
0.770529 0.501029 0.240782
0.992374 0.502374 0.244705
0.008998 0.789895 0.236939
0.231703 0.790303 0.240862
0.502848 0.791948 0.245084
0.773992 0.793592 0.249306
0.995838 0.794938 0.253229
0.012264 0.992264 0.244406
0.234110 0.993610 0.248329
0.505254 0.995254 0.252551
0.776399 0.996899 0.256773
0.998244 0.998244 0.260696
0.000000 0.053958 0.491140
0.183203 0.045885 0.492486
0.462981 0.038111 0.494130
0.742759 0.030337 0.495775
0.973238 0.022264 0.497120
0.000000 0.238774 0.493547
0.202559 0.230701 0.494892
0.482337 0.222927 0.496537
0.762115 0.215153 0.498457
0.989527 0.210427 0.502380
0.000000 0.512847 0.497010
0.222972 0.504774 0.498537
0.500000 0.500000 0.502759
0.771145 0.501645 0.506981
0.992990 0.502990 0.510904
0.010473 0.789573 0.503137
0.232319 0.790919 0.507060
0.503463 0.792563 0.511282
0.774608 0.794208 0.515504
0.996453 0.795553 0.519427
0.012880 0.992880 0.510604
0.234725 0.994225 0.514527
0.505870 0.995870 0.518749
0.777015 0.997514 0.522971
0.998860 0.998860 0.526894
0.000000 0.050983 0.756356
0.187110 0.042910 0.757701
0.466888 0.035136 0.759346
0.746666 0.027362 0.760990
0.977145 0.019289 0.762336
0.000000 0.235799 0.758762
0.206466 0.227726 0.760108
0.486244 0.219952 0.761752
0.766023 0.212178 0.764655
0.990142 0.211042 0.768579
0.000000 0.509872 0.762226
0.226879 0.501799 0.764735
0.500616 0.500616 0.768957
0.771760 0.502260 0.773179
0.993606 0.503606 0.777102
0.011089 0.790189 0.769335
0.232934 0.791534 0.773259
0.504079 0.793179 0.777481
0.775223 0.794823 0.781703
0.997069 0.796169 0.785626
0.013496 0.993496 0.776802
0.235341 0.994841 0.780726
0.506486 0.996486 0.784948
0.777630 0.998130 0.789170
0.999476 0.999476 0.793093
0.000000 0.047916 0.982280
0.190926 0.039843 0.983625
0.470704 0.032069 0.985270
0.750482 0.024295 0.986914
0.980961 0.016222 0.988260
0.000000 0.232732 0.984687
0.210282 0.224659 0.986032
0.490061 0.216885 0.987677
0.768821 0.210221 0.991563
0.990667 0.211567 0.995486
0.000216 0.506805 0.988150
0.229995 0.499495 0.991642
0.501140 0.501140 0.995864
0.772285 0.502784 1.000000
0.994130 0.504130 1.000000
0.011613 0.790713 0.996243
0.233459 0.792059 1.000000
0.504603 0.793703 1.000000
0.775748 0.795348 1.000000
0.997593 0.796693 1.000000
0.014020 0.994020 1.000000
0.235865 0.995366 1.000000
0.507010 0.997010 1.000000
0.778155 0.998655 1.000000
1.000000 1.000000 1.000000
