docs/luts/fresh-nikon-z6-contrast.cube
TITLE "FreshLUTs??-NikonZ6??"
LUT_3D_SIZE 9
DOMAIN_MIN 0.0 0.0 0.0
DOMAIN_MAX 1.0 1.0 1.0
0.000000 0.004000 0.016000
0.065911 0.004000 0.014744
0.212944 0.004000 0.013488
0.359977 0.004000 0.012233
0.507010 0.004000 0.010977
0.654043 0.004000 0.009721
0.801076 0.004000 0.008465
0.948109 0.004000 0.007209
1.000000 0.004000 0.005954
0.000000 0.077099 0.013535
0.065060 0.076710 0.012279
0.212093 0.075843 0.011023
0.359126 0.074976 0.009767
0.506159 0.074109 0.008511
0.653192 0.073242 0.007256
0.800225 0.072375 0.006000
0.947258 0.071508 0.004744
1.000000 0.071119 0.003488
0.000000 0.220776 0.011069
0.063387 0.220387 0.009813
0.210420 0.219520 0.008558
0.357453 0.218653 0.007302
0.504486 0.217786 0.006046
0.651519 0.216919 0.004790
0.798552 0.216052 0.003534
0.945585 0.215185 0.002279
1.000000 0.214796 0.001023
0.000000 0.364453 0.008604
0.061714 0.364064 0.007348
0.208747 0.363197 0.006092
0.355780 0.362330 0.004836
0.502813 0.361463 0.003581
0.649846 0.360596 0.002325
0.797215 0.359729 0.001069
0.944763 0.358862 0.000000
1.000000 0.358473 0.000000
0.000000 0.508130 0.006138
0.060041 0.507741 0.004883
0.207074 0.506874 0.003627
0.354107 0.506007 0.002371
0.501457 0.505140 0.001115
0.649006 0.504273 0.000000
0.796554 0.503406 0.000000
0.944102 0.502539 0.000000
1.000000 0.502150 0.000000
0.000000 0.651807 0.003673
0.058368 0.651418 0.002417
0.205700 0.650551 0.001161
0.353248 0.649684 0.000000
0.500796 0.648817 0.000000
0.648345 0.647950 0.000000
0.795893 0.647083 0.000000
0.943442 0.646216 0.000000
1.000000 0.645827 0.000000
0.000279 0.795484 0.001208
0.057490 0.795095 0.000000
0.205039 0.794228 0.000000
0.352587 0.793361 0.000000
0.500135 0.792494 0.000000
0.647684 0.791627 0.000000
0.795232 0.790760 0.000000
0.942781 0.789893 0.000000
1.000000 0.789504 0.000000
0.001291 0.939161 0.000000
0.056829 0.938772 0.000000
0.204378 0.937905 0.000000
0.351926 0.937038 0.000000
0.499475 0.936171 0.000000
0.647023 0.935304 0.000000
0.794571 0.934437 0.000000
0.942120 0.933570 0.000000
1.000000 0.933181 0.000000
0.002303 1.000000 0.000000
0.056990 1.000000 0.000000
0.204539 1.000000 0.000000
0.352087 1.000000 0.000000
0.499636 1.000000 0.000000
0.647184 1.000000 0.000000
0.794732 1.000000 0.000000
0.942281 1.000000 0.000000
1.000000 1.000000 0.000000
0.000000 0.004000 0.081673
0.065763 0.004000 0.080029
0.212796 0.004000 0.077906
0.359829 0.004000 0.075783
0.506862 0.004000 0.073660
0.653895 0.004000 0.071537
0.800928 0.004000 0.069414
0.947960 0.004000 0.067291
1.000000 0.004000 0.065647
0.000000 0.076951 0.078356
0.064912 0.076562 0.076712
0.211945 0.075695 0.074589
0.358978 0.074828 0.072466
0.506011 0.073961 0.070343
0.653044 0.073094 0.068220
0.800076 0.072226 0.066097
0.947109 0.071359 0.063975
1.000000 0.070971 0.062330
0.000000 0.220628 0.074218
0.063239 0.220239 0.072574
0.210272 0.219372 0.070451
0.357305 0.218505 0.068328
0.504338 0.217638 0.066205
0.651371 0.216771 0.064082
0.798404 0.215904 0.061959
0.945473 0.215036 0.059836
1.000000 0.214648 0.058192
0.000000 0.364305 0.070080
0.061566 0.363916 0.068435
0.208599 0.363049 0.066312
0.355632 0.362182 0.064189
0.502665 0.361315 0.062067
0.649715 0.360448 0.059944
0.797263 0.359581 0.057821
0.944812 0.358713 0.056363
1.000000 0.358325 0.055975
0.000000 0.507982 0.065941
0.059893 0.507593 0.064297
0.206926 0.506726 0.062174
0.353959 0.505859 0.060051
0.501506 0.504992 0.057928
0.649054 0.504125 0.056425
0.796602 0.503258 0.055558
0.944151 0.502390 0.054691
1.000000 0.502002 0.054302
0.000000 0.651659 0.061803
0.058220 0.651270 0.060159
0.205748 0.650403 0.058036
0.353296 0.649536 0.056486
0.500845 0.648669 0.055619
0.648393 0.647802 0.054752
0.795942 0.646935 0.053885
0.943490 0.646068 0.053018
1.000000 0.645679 0.052629
0.000476 0.795336 0.057665
0.057539 0.794947 0.056547
0.205087 0.794080 0.055680
0.352635 0.793213 0.054813
0.500184 0.792346 0.053946
0.647732 0.791479 0.053079
0.795281 0.790612 0.052212
0.942829 0.789745 0.051345
1.000000 0.789356 0.050956
0.001488 0.939013 0.055263
0.056878 0.938624 0.054874
0.204426 0.937757 0.054007
0.351975 0.936890 0.053140
0.499523 0.936023 0.052273
0.647071 0.935156 0.051406
0.794620 0.934289 0.050539
0.942168 0.933422 0.049672
1.000000 0.933033 0.049283
0.002500 1.000000 0.054412
0.057039 1.000000 0.054023
0.204587 1.000000 0.053156
0.352135 1.000000 0.052289
0.499684 1.000000 0.051422
0.647232 1.000000 0.050555
0.794781 1.000000 0.049688
0.942329 1.000000 0.048821
1.000000 1.000000 0.048432
0.000000 0.004000 0.228764
0.065433 0.004000 0.227119
0.212465 0.004000 0.224996
0.359498 0.004000 0.222873
0.506531 0.004000 0.220750
0.653564 0.004000 0.218628
0.800597 0.004000 0.216505
0.947630 0.004000 0.214382
1.000000 0.004000 0.212737
0.000000 0.076620 0.225447
0.064581 0.076231 0.223803
0.211614 0.075364 0.221680
0.358647 0.074497 0.219557
0.505680 0.073630 0.217434
0.652713 0.072763 0.215311
0.799746 0.071896 0.213188
0.946779 0.071029 0.211065
1.000000 0.070640 0.209421
0.000000 0.220297 0.221309
0.062908 0.219908 0.219664
0.209941 0.219041 0.217541
0.356974 0.218174 0.215418
0.504007 0.217307 0.213296
0.651040 0.216440 0.211173
0.798073 0.215573 0.209050
0.945339 0.214706 0.206927
1.000000 0.214317 0.205282
0.000000 0.363974 0.217170
0.061235 0.363585 0.215526
0.208268 0.362718 0.213403
0.355301 0.361851 0.211280
0.502334 0.360984 0.209157
0.649581 0.360117 0.207034
0.797129 0.359250 0.204911
0.944678 0.358383 0.203933
1.000000 0.357994 0.203544
0.000000 0.507651 0.213032
0.059563 0.507262 0.211388
0.206595 0.506395 0.209265
0.353823 0.505528 0.207142
0.501372 0.504661 0.205019
0.648920 0.503794 0.203994
0.796468 0.502927 0.203127
0.944017 0.502060 0.202260
1.000000 0.501671 0.201871
0.000000 0.651328 0.208894
0.058065 0.650940 0.207249
0.205614 0.650072 0.205126
0.353162 0.649205 0.204055
0.500711 0.648338 0.203188
0.648259 0.647471 0.202321
0.795807 0.646604 0.201454
0.943356 0.645737 0.200587
1.000000 0.645348 0.200198
0.000672 0.795005 0.204755
0.057405 0.794617 0.204117
0.204953 0.793749 0.203250
0.352501 0.792882 0.202382
0.500050 0.792015 0.201515
0.647598 0.791148 0.200648
0.795147 0.790281 0.199781
0.942695 0.789414 0.198914
1.000000 0.789025 0.198525
0.001684 0.938682 0.202832
0.056744 0.938294 0.202444
0.204292 0.937427 0.201577
0.351840 0.936559 0.200709
0.499389 0.935692 0.199842
0.646937 0.934825 0.198975
0.794486 0.933958 0.198108
0.942034 0.933091 0.197241
1.000000 0.932702 0.196852
0.002697 1.000000 0.201981
0.056905 1.000000 0.201593
0.204453 1.000000 0.200725
0.352001 1.000000 0.199858
0.499550 1.000000 0.198991
0.647098 1.000000 0.198124
0.794647 1.000000 0.197257
0.942195 1.000000 0.196390
1.000000 1.000000 0.196001
0.000000 0.004000 0.375854
0.065102 0.004000 0.374210
0.212135 0.004000 0.372087
0.359168 0.004000 0.369964
0.506201 0.004000 0.367841
0.653234 0.004000 0.365718
0.800266 0.004000 0.363595
0.947299 0.004000 0.361472
1.000000 0.004000 0.359828
0.000000 0.076289 0.372538
0.064251 0.075901 0.370893
0.211284 0.075034 0.368770
0.358317 0.074167 0.366647
0.505349 0.073299 0.364524
0.652382 0.072432 0.362402
0.799415 0.071565 0.360279
0.946448 0.070698 0.358156
1.000000 0.070309 0.356511
0.000000 0.219967 0.368399
0.062578 0.219578 0.366755
0.209611 0.218711 0.364632
0.356644 0.217844 0.362509
0.503676 0.216977 0.360386
0.650709 0.216109 0.358263
0.797742 0.215242 0.356140
0.945205 0.214375 0.354017
1.000000 0.213987 0.352787
0.000000 0.363644 0.364261
0.060905 0.363255 0.362616
0.207938 0.362388 0.360494
0.354971 0.361521 0.358371
0.502004 0.360654 0.356248
0.649447 0.359786 0.354125
0.796995 0.358919 0.352369
0.944544 0.358052 0.351502
1.000000 0.357664 0.351114
0.000000 0.507321 0.360123
0.059232 0.506932 0.358478
0.206265 0.506065 0.356355
0.353689 0.505198 0.354232
0.501237 0.504331 0.352431
0.648786 0.503463 0.351563
0.796334 0.502596 0.350696
0.943883 0.501729 0.349829
1.000000 0.501341 0.349441
0.000000 0.650998 0.355984
0.057931 0.650609 0.354340
0.205480 0.649742 0.352492
0.353028 0.648875 0.351625
0.500577 0.648008 0.350758
0.648125 0.647141 0.349891
0.795673 0.646273 0.349023
0.943222 0.645406 0.348156
1.000000 0.645018 0.347768
0.000869 0.794675 0.352075
0.057270 0.794286 0.351686
0.204819 0.793419 0.350819
0.352367 0.792552 0.349952
0.499916 0.791685 0.349085
0.647464 0.790818 0.348218
0.795013 0.789950 0.347350
0.942561 0.789083 0.346483
1.000000 0.788695 0.346095
0.001881 0.938352 0.350402
0.056610 0.937963 0.350013
0.204158 0.937096 0.349146
0.351706 0.936229 0.348279
0.499255 0.935362 0.347412
0.646803 0.934495 0.346545
0.794352 0.933628 0.345678
0.941900 0.932760 0.344810
1.000000 0.932372 0.344422
0.002893 1.000000 0.349551
0.056771 1.000000 0.349162
0.204319 1.000000 0.348295
0.351867 1.000000 0.347428
0.499416 1.000000 0.346561
0.646964 1.000000 0.345693
0.794513 1.000000 0.344826
0.942061 1.000000 0.343959
1.000000 1.000000 0.343571
0.000000 0.004000 0.522945
0.064771 0.004000 0.521300
0.211804 0.004000 0.519177
0.358837 0.004000 0.517055
0.505870 0.004000 0.514932
0.652903 0.004000 0.512809
0.799936 0.004000 0.510686
0.946969 0.004000 0.508563
1.000000 0.004000 0.506918
0.000000 0.075959 0.519628
0.063920 0.075570 0.517984
0.210953 0.074703 0.515861
0.357986 0.073836 0.513738
0.505019 0.072969 0.511615
0.652052 0.072102 0.509492
0.799085 0.071235 0.507369
0.946118 0.070368 0.505246
1.000000 0.069979 0.503602
0.000000 0.219636 0.515490
0.062247 0.219247 0.513845
0.209280 0.218380 0.511723
0.356313 0.217513 0.509600
0.503346 0.216646 0.507477
0.650379 0.215779 0.505354
0.797522 0.214912 0.503231
0.945070 0.214045 0.501108
1.000000 0.213656 0.500356
0.000000 0.363313 0.511352
0.060574 0.362924 0.509707
0.207607 0.362057 0.507584
0.354640 0.361190 0.505461
0.501764 0.360323 0.503338
0.649313 0.359456 0.501215
0.796861 0.358589 0.499939
0.944410 0.357722 0.499072
1.000000 0.357333 0.498683
0.000000 0.506990 0.507213
0.058901 0.506601 0.505569
0.206007 0.505734 0.503446
0.353555 0.504867 0.501323
0.501103 0.504000 0.500000
0.648652 0.503133 0.499133
0.796200 0.502266 0.498266
0.943749 0.501399 0.497399
1.000000 0.501010 0.497010
0.000053 0.650667 0.503075
0.057797 0.650278 0.501430
0.205346 0.649411 0.500061
0.352894 0.648544 0.499194
0.500443 0.647677 0.498327
0.647991 0.646810 0.497460
0.795539 0.645943 0.496593
0.943088 0.645076 0.495726
1.000000 0.644687 0.495337
0.001066 0.794344 0.499644
0.057136 0.793955 0.499255
0.204685 0.793088 0.498388
0.352233 0.792221 0.497521
0.499782 0.791354 0.496654
0.647330 0.790487 0.495787
0.794879 0.789620 0.494920
0.942427 0.788753 0.494053
1.000000 0.788364 0.493664
0.002078 0.938021 0.497971
0.056476 0.937632 0.497582
0.204024 0.936765 0.496715
0.351572 0.935898 0.495848
0.499121 0.935031 0.494981
0.646669 0.934164 0.494114
0.794218 0.933297 0.493247
0.941766 0.932430 0.492380
1.000000 0.932041 0.491991
0.003090 1.000000 0.497120
0.056636 1.000000 0.496731
0.204185 1.000000 0.495864
0.351733 1.000000 0.494997
0.499282 1.000000 0.494130
0.646830 1.000000 0.493263
0.794379 1.000000 0.492396
0.941927 1.000000 0.491529
1.000000 1.000000 0.491140
0.000000 0.004000 0.670035
0.064441 0.004000 0.668391
0.211474 0.004000 0.666268
0.358506 0.004000 0.664145
0.505539 0.004000 0.662022
0.652572 0.004000 0.659899
0.799605 0.004000 0.657776
0.946638 0.004000 0.655654
1.000000 0.004000 0.654009
0.000000 0.075628 0.666719
0.063590 0.075240 0.665074
0.210622 0.074372 0.662951
0.357655 0.073505 0.660829
0.504688 0.072638 0.658706
0.651721 0.071771 0.656583
0.798754 0.070904 0.654460
0.945787 0.070037 0.652337
1.000000 0.069648 0.650692
0.000000 0.219305 0.662581
0.061917 0.218917 0.660936
0.208950 0.218050 0.658813
0.355982 0.217182 0.656690
0.503015 0.216315 0.654567
0.650048 0.215448 0.652444
0.797388 0.214581 0.650322
0.944936 0.213714 0.648314
1.000000 0.213325 0.647925
0.000000 0.362982 0.658442
0.060244 0.362594 0.656798
0.207277 0.361727 0.654675
0.354309 0.360859 0.652552
0.501630 0.359992 0.650429
0.649179 0.359125 0.648375
0.796727 0.358258 0.647508
0.944276 0.357391 0.646641
1.000000 0.357002 0.646252
0.000000 0.506659 0.654304
0.058571 0.506271 0.652659
0.205873 0.505404 0.650536
0.353421 0.504537 0.648437
0.500969 0.503669 0.647569
0.648518 0.502802 0.646702
0.796066 0.501935 0.645835
0.943615 0.501068 0.644968
1.000000 0.500679 0.644579
0.000250 0.650336 0.650165
0.057663 0.649948 0.648521
0.205212 0.649081 0.647631
0.352760 0.648214 0.646764
0.500309 0.647346 0.645896
0.647857 0.646479 0.645029
0.795405 0.645612 0.644162
0.942954 0.644745 0.643295
1.000000 0.644356 0.642906
0.001262 0.794013 0.647213
0.057002 0.793625 0.646825
0.204551 0.792758 0.645958
0.352099 0.791891 0.645091
0.499648 0.791023 0.644224
0.647196 0.790156 0.643356
0.794744 0.789289 0.642489
0.942293 0.788422 0.641622
1.000000 0.788033 0.641234
0.002274 0.937691 0.645541
0.056342 0.937302 0.645152
0.203890 0.936435 0.644285
0.351438 0.935568 0.643418
0.498987 0.934701 0.642551
0.646535 0.933833 0.641683
0.794084 0.932966 0.640816
0.941632 0.932099 0.639949
1.000000 0.931711 0.639561
0.003286 1.000000 0.644689
0.056502 1.000000 0.644301
0.204051 1.000000 0.643434
0.351599 1.000000 0.642567
0.499148 1.000000 0.641699
0.646696 1.000000 0.640832
0.794245 1.000000 0.639965
0.941793 1.000000 0.639098
1.000000 1.000000 0.638709
0.000000 0.004000 0.817126
0.064110 0.004000 0.815481
0.211143 0.004000 0.813359
0.358176 0.004000 0.811236
0.505209 0.004000 0.809113
0.652242 0.004000 0.806990
0.799275 0.004000 0.804867
0.946307 0.004000 0.802744
1.000000 0.004000 0.801100
0.000000 0.075298 0.813809
0.063259 0.074909 0.812165
0.210292 0.074042 0.810042
0.357325 0.073175 0.807919
0.504358 0.072308 0.805796
0.651391 0.071441 0.803673
0.798423 0.070573 0.801550
0.945463 0.069706 0.799428
1.000000 0.069318 0.797783
0.000000 0.218975 0.809671
0.061586 0.218586 0.808027
0.208619 0.217719 0.805904
0.355652 0.216852 0.803781
0.502685 0.215985 0.801658
0.649718 0.215118 0.799535
0.797254 0.214251 0.797412
0.944802 0.213383 0.795883
1.000000 0.212995 0.795495
0.000000 0.362652 0.805533
0.059913 0.362263 0.803888
0.206946 0.361396 0.801765
0.353979 0.360529 0.799642
0.501496 0.359662 0.797520
0.649045 0.358795 0.795945
0.796593 0.357928 0.795078
0.944141 0.357060 0.794210
1.000000 0.356672 0.793822
0.000000 0.506329 0.801394
0.058240 0.505940 0.799750
0.205739 0.505073 0.797627
0.353287 0.504206 0.796006
0.500835 0.503339 0.795139
0.648384 0.502472 0.794272
0.795932 0.501605 0.793405
0.943481 0.500737 0.792538
1.000000 0.500349 0.792149
0.000447 0.650006 0.797256
0.057529 0.649617 0.796067
0.205078 0.648750 0.795200
0.352626 0.647883 0.794333
0.500174 0.647016 0.793466
0.647723 0.646149 0.792599
0.795271 0.645282 0.791732
0.942820 0.644415 0.790865
1.000000 0.644026 0.790476
0.001459 0.793683 0.794783
0.056868 0.793294 0.794394
0.204417 0.792427 0.793527
0.351965 0.791560 0.792660
0.499514 0.790693 0.791793
0.647062 0.789826 0.790926
0.794610 0.788959 0.790059
0.942159 0.788092 0.789192
1.000000 0.787703 0.788803
0.002471 0.937360 0.793110
0.056207 0.936971 0.792721
0.203756 0.936104 0.791854
0.351304 0.935237 0.790987
0.498853 0.934370 0.790120
0.646401 0.933503 0.789253
0.793950 0.932636 0.788386
0.941498 0.931769 0.787519
1.000000 0.931380 0.787130
0.003483 1.000000 0.792259
0.056368 1.000000 0.791870
0.203917 1.000000 0.791003
0.351465 1.000000 0.790136
0.499014 1.000000 0.789269
0.646562 1.000000 0.788402
0.794110 1.000000 0.787535
0.941659 1.000000 0.786668
1.000000 1.000000 0.786279
0.000000 0.004000 0.964217
0.063780 0.004000 0.962572
0.210812 0.004000 0.960449
0.357845 0.004000 0.958326
0.504878 0.004000 0.956203
0.651911 0.004000 0.954080
0.798944 0.004000 0.951958
0.945977 0.004000 0.949835
1.000000 0.004000 0.948190
0.000000 0.074967 0.960900
0.062928 0.074578 0.959256
0.209961 0.073711 0.957133
0.356994 0.072844 0.955010
0.504027 0.071977 0.952887
0.651060 0.071110 0.950764
0.798093 0.070243 0.948641
0.945329 0.069376 0.946518
1.000000 0.068987 0.944874
0.000000 0.218644 0.956762
0.061255 0.218255 0.955117
0.208288 0.217388 0.952994
0.355321 0.216521 0.950871
0.502354 0.215654 0.948748
0.649571 0.214787 0.946626
0.797120 0.213920 0.944503
0.944668 0.213053 0.943453
1.000000 0.212664 0.943064
0.000000 0.362321 0.952623
0.059582 0.361932 0.950979
0.206615 0.361065 0.948856
0.353814 0.360198 0.946733
0.501362 0.359331 0.944610
0.648911 0.358464 0.943514
0.796459 0.357597 0.942647
0.944007 0.356730 0.941780
1.000000 0.356341 0.941391
0.000000 0.505998 0.948485
0.058056 0.505610 0.946840
0.205604 0.504742 0.944718
0.353153 0.503875 0.943575
0.500701 0.503008 0.942708
0.648250 0.502141 0.941841
0.795798 0.501274 0.940974
0.943347 0.500407 0.940107
1.000000 0.500018 0.939718
0.000643 0.649675 0.944347
0.057395 0.649287 0.943637
0.204944 0.648419 0.942769
0.352492 0.647552 0.941902
0.500040 0.646685 0.941035
0.647589 0.645818 0.940168
0.795137 0.644951 0.939301
0.942686 0.644084 0.938434
1.000000 0.643695 0.938045
0.001655 0.793352 0.942352
0.056734 0.792964 0.941964
0.204283 0.792096 0.941097
0.351831 0.791229 0.940229
0.499380 0.790362 0.939362
0.646928 0.789495 0.938495
0.794476 0.788628 0.937628
0.942025 0.787761 0.936761
1.000000 0.787372 0.936372
0.002667 0.937029 0.940679
0.056073 0.936641 0.940291
0.203622 0.935774 0.939424
0.351170 0.934906 0.938556
0.498719 0.934039 0.937689
0.646267 0.933172 0.936822
0.793815 0.932305 0.935955
0.941364 0.931438 0.935088
1.000000 0.931049 0.934699
0.003679 1.000000 0.939828
0.056234 1.000000 0.939439
0.203783 1.000000 0.938572
0.351331 1.000000 0.937705
0.498880 1.000000 0.936838
0.646428 1.000000 0.935971
0.793976 1.000000 0.935104
0.941525 1.000000 0.934237
1.000000 1.000000 0.933848
0.000000 0.004000 1.000000
0.063631 0.004000 1.000000
0.210664 0.004000 1.000000
0.357697 0.004000 1.000000
0.504730 0.004000 1.000000
0.651763 0.004000 1.000000
0.798796 0.004000 1.000000
0.945829 0.004000 1.000000
1.000000 0.004000 1.000000
0.000000 0.074819 1.000000
0.062780 0.074430 1.000000
0.209813 0.073563 1.000000
0.356846 0.072696 1.000000
0.503879 0.071829 1.000000
0.650912 0.070962 1.000000
0.797945 0.070095 1.000000
0.945378 0.069228 1.000000
1.000000 0.068839 1.000000
0.000000 0.218496 1.000000
0.061107 0.218107 1.000000
0.208140 0.217240 1.000000
0.355173 0.216373 1.000000
0.502206 0.215506 1.000000
0.649620 0.214639 1.000000
0.797168 0.213772 1.000000
0.944717 0.212905 1.000000
1.000000 0.212516 1.000000
0.000000 0.362173 1.000000
0.059434 0.361784 1.000000
0.206467 0.360917 1.000000
0.353862 0.360050 1.000000
0.501411 0.359183 1.000000
0.648959 0.358316 1.000000
0.796507 0.357449 1.000000
0.944056 0.356582 1.000000
1.000000 0.356193 1.000000
0.000000 0.505850 1.000000
0.058104 0.505461 1.000000
0.205653 0.504594 1.000000
0.353201 0.503727 1.000000
0.500750 0.502860 1.000000
0.648298 0.501993 1.000000
0.795846 0.501126 1.000000
0.943395 0.500259 1.000000
1.000000 0.499870 1.000000
0.000840 0.649527 1.000000
0.057444 0.649138 1.000000
0.204992 0.648271 1.000000
0.352540 0.647404 1.000000
0.500089 0.646537 1.000000
0.647637 0.645670 1.000000
0.795186 0.644803 1.000000
0.942734 0.643936 1.000000
1.000000 0.643547 1.000000
0.001852 0.793204 1.000000
0.056783 0.792815 1.000000
0.204331 0.791948 1.000000
0.351879 0.791081 1.000000
0.499428 0.790214 1.000000
0.646976 0.789347 1.000000
0.794525 0.788480 1.000000
0.942073 0.787613 1.000000
1.000000 0.787224 1.000000
0.002864 0.936881 1.000000
0.056122 0.936492 1.000000
0.203670 0.935625 1.000000
0.351219 0.934758 1.000000
0.498767 0.933891 1.000000
0.646315 0.933024 1.000000
0.793864 0.932157 1.000000
0.941412 0.931290 1.000000
1.000000 0.930901 1.000000
0.003876 1.000000 1.000000
0.056283 1.000000 1.000000
0.203831 1.000000 1.000000
0.351380 1.000000 1.000000
0.498928 1.000000 1.000000
0.646476 1.000000 1.000000
0.794025 1.000000 1.000000
0.941573 1.000000 1.000000
1.000000 1.000000 1.000000
