docs/luts/fresh-severn-film.cube
TITLE "FreshLUTs??-????"
LUT_3D_SIZE 5
DOMAIN_MIN 0.0 0.0 0.0
DOMAIN_MAX 1.0 1.0 1.0
0.000000 0.000000 0.000000
0.204578 0.006578 0.000000
0.464950 0.014950 0.000000
0.725322 0.023322 0.000000
0.929900 0.029900 0.013155
0.013501 0.220501 0.000000
0.218079 0.227079 0.000000
0.478451 0.235451 0.011447
0.738823 0.243823 0.026882
0.944511 0.250845 0.040524
0.029350 0.479350 0.012086
0.233928 0.485928 0.025728
0.495291 0.494697 0.041163
0.758885 0.504357 0.052672
0.966685 0.512224 0.059250
0.046072 0.738548 0.041803
0.253872 0.746415 0.051777
0.517466 0.756076 0.060149
0.781060 0.765737 0.068521
0.988860 0.773603 0.075099
0.065898 0.961579 0.058700
0.273698 0.969446 0.065278
0.537292 0.979107 0.073650
0.800886 0.988768 0.082022
1.000000 0.996634 0.088600
0.002565 0.002565 0.162758
0.207143 0.009143 0.176400
0.467515 0.017515 0.191836
0.727887 0.025887 0.207272
0.932465 0.032465 0.220914
0.016066 0.223066 0.190127
0.220644 0.229644 0.203769
0.481016 0.238016 0.219205
0.741388 0.246388 0.234641
0.948304 0.253901 0.248283
0.031915 0.481915 0.219844
0.236493 0.488493 0.233486
0.499085 0.497753 0.248922
0.762679 0.507414 0.257737
0.970479 0.515281 0.264315
0.049865 0.741605 0.249561
0.257665 0.749471 0.256842
0.521259 0.759132 0.265214
0.784853 0.768793 0.273586
0.992653 0.776660 0.280164
0.069692 0.964636 0.263765
0.277492 0.972502 0.270343
0.541086 0.982163 0.278715
0.804680 0.991824 0.287087
1.000000 0.999691 0.293665
0.005700 0.005700 0.416087
0.210278 0.012278 0.429728
0.470650 0.020650 0.445164
0.731022 0.029022 0.460600
0.935600 0.035600 0.474242
0.019201 0.226201 0.443455
0.223779 0.232779 0.457097
0.484151 0.241151 0.472533
0.744868 0.249661 0.487969
0.952668 0.257528 0.499101
0.035050 0.485050 0.473172
0.239854 0.491719 0.486814
0.503448 0.501379 0.500000
0.767042 0.511040 0.508372
0.974842 0.518907 0.514950
0.054229 0.745231 0.500899
0.262029 0.753098 0.507477
0.525623 0.762758 0.515849
0.789217 0.772419 0.524221
0.997017 0.780286 0.530799
0.074055 0.968262 0.514400
0.281855 0.976129 0.520978
0.545449 0.985790 0.529350
0.809043 0.995450 0.537722
1.000000 1.000000 0.544300
0.008835 0.008835 0.669415
0.213413 0.015413 0.683057
0.473785 0.023785 0.698492
0.734157 0.032157 0.713928
0.938735 0.038735 0.727570
0.022336 0.229336 0.696784
0.226914 0.235914 0.710426
0.487286 0.244286 0.725861
0.749231 0.253287 0.741297
0.957031 0.261154 0.749736
0.038185 0.488185 0.726500
0.244218 0.495345 0.740142
0.507812 0.505006 0.750635
0.771406 0.514666 0.759007
0.979206 0.522533 0.765585
0.058592 0.748857 0.751534
0.266392 0.756724 0.758112
0.529986 0.766385 0.766484
0.793580 0.776046 0.774856
1.000000 0.783912 0.781434
0.078419 0.971888 0.765035
0.286219 0.979755 0.771613
0.549813 0.989416 0.779985
0.813407 0.999077 0.788357
1.000000 1.000000 0.794935
0.011400 0.011400 0.877173
0.215978 0.017978 0.890815
0.476350 0.026350 0.906251
0.736722 0.034722 0.921687
0.941300 0.041300 0.935329
0.024901 0.231901 0.904542
0.229479 0.238479 0.918184
0.489851 0.246851 0.933620
0.753025 0.256344 0.948223
0.960825 0.264210 0.954801
0.040750 0.490750 0.934259
0.248011 0.498401 0.947328
0.511605 0.508062 0.955700
0.775199 0.517723 0.964072
0.982999 0.525590 0.970650
0.062386 0.751914 0.956599
0.270186 0.759780 0.963177
0.533780 0.769441 0.971549
0.797374 0.779102 0.979921
1.000000 0.786969 0.986499
0.082212 0.974945 0.970100
0.290012 0.982812 0.976678
0.553606 0.992472 0.985050
0.817200 1.000000 0.993422
1.000000 1.000000 1.000000
