docs/luts/fresh-bmpcc-neutral.cube
TITLE "FreshLUTs??-BMPCC??"
LUT_3D_SIZE 5
DOMAIN_MIN 0.0 0.0 0.0
DOMAIN_MAX 1.0 1.0 1.0
0.000000 0.000000 0.035000
0.225116 0.000000 0.033722
0.478970 0.000737 0.032982
0.732824 0.007375 0.032242
0.957940 0.013475 0.030964
0.008541 0.228189 0.032755
0.233657 0.234289 0.031477
0.487511 0.240926 0.030736
0.741365 0.247564 0.029996
0.967280 0.253664 0.028718
0.017610 0.483006 0.031038
0.242726 0.489106 0.029760
0.497294 0.495744 0.029020
0.753468 0.501334 0.031334
0.980903 0.505550 0.035550
0.027308 0.737823 0.029321
0.254743 0.742945 0.030895
0.510917 0.747699 0.035649
0.767091 0.752453 0.040403
0.994527 0.756669 0.044619
0.040403 0.975220 0.035220
0.267838 0.979436 0.039436
0.524012 0.984190 0.044190
0.780186 0.988944 0.048944
1.000000 0.993160 0.053160
0.001642 0.000000 0.260147
0.226757 0.000000 0.258869
0.480612 0.003097 0.258129
0.734466 0.009735 0.257389
0.959582 0.015835 0.256110
0.010182 0.230549 0.257902
0.235298 0.236648 0.256623
0.489152 0.243286 0.255883
0.743007 0.249924 0.255143
0.969806 0.256024 0.253865
0.019252 0.485366 0.256185
0.244367 0.491466 0.254906
0.499820 0.498103 0.254166
0.755994 0.502976 0.258576
0.983430 0.507192 0.262792
0.029834 0.740183 0.254468
0.257269 0.744587 0.258137
0.513443 0.749341 0.262891
0.769617 0.754095 0.267645
0.997053 0.758311 0.271861
0.042929 0.976862 0.262462
0.270365 0.981078 0.266678
0.526538 0.985832 0.271432
0.782712 0.990586 0.276186
1.000000 0.994802 0.280402
0.003420 0.000000 0.504230
0.228536 0.000000 0.502952
0.482390 0.005594 0.502212
0.736244 0.012232 0.501472
0.961360 0.018331 0.500194
0.011961 0.233045 0.501985
0.237077 0.239145 0.500707
0.490931 0.245783 0.499967
0.745033 0.252421 0.499227
0.972469 0.257851 0.499901
0.021030 0.487863 0.500268
0.246309 0.493962 0.498990
0.502483 0.500000 0.500000
0.758657 0.504754 0.504754
0.986092 0.508970 0.508970
0.032497 0.742149 0.500099
0.259932 0.746365 0.504315
0.516106 0.751119 0.509069
0.772280 0.755873 0.513823
0.999716 0.760089 0.518039
0.045592 0.978640 0.508640
0.273027 0.982856 0.512856
0.529201 0.987610 0.517610
0.785375 0.992364 0.522364
1.000000 0.996580 0.526580
0.005198 0.000000 0.748314
0.230314 0.001453 0.747036
0.484168 0.008090 0.746296
0.738023 0.014728 0.745556
0.963138 0.020828 0.744278
0.013739 0.235542 0.746069
0.238855 0.241642 0.744791
0.492709 0.248279 0.744051
0.747696 0.254917 0.743311
0.975132 0.259629 0.746079
0.022808 0.490359 0.744352
0.248972 0.496459 0.743074
0.505146 0.501778 0.746178
0.761320 0.506533 0.750933
0.988755 0.510748 0.755148
0.035159 0.743928 0.746278
0.262595 0.748143 0.750493
0.518769 0.752898 0.755248
0.774943 0.757652 0.760002
1.000000 0.761868 0.764218
0.048255 0.980418 0.754818
0.275690 0.984634 0.759034
0.531864 0.989388 0.763788
0.788038 0.994143 0.768543
1.000000 0.998358 0.772758
0.006840 0.000000 0.973461
0.231956 0.003812 0.972183
0.485810 0.010450 0.971443
0.739664 0.017088 0.970703
0.964780 0.023188 0.969425
0.015381 0.237902 0.971216
0.240497 0.244001 0.969938
0.494351 0.250639 0.969197
0.750222 0.257055 0.969105
0.977658 0.261271 0.973321
0.024450 0.492719 0.969499
0.251498 0.498666 0.968666
0.507672 0.503420 0.973420
0.763846 0.508174 0.978174
0.991281 0.512390 0.982390
0.037686 0.745569 0.973519
0.265121 0.749785 0.977735
0.521295 0.754539 0.982489
0.777469 0.759293 0.987243
1.000000 0.763509 0.991459
0.050781 0.982060 0.982060
0.278216 0.986276 0.986276
0.534390 0.991030 0.991030
0.790564 0.995784 0.995784
1.000000 1.000000 1.000000
