docs/luts/fresh-warm-correction.cube
TITLE "FreshLUTs??-????"
LUT_3D_SIZE 9
DOMAIN_MIN 0.0 0.0 0.0
DOMAIN_MAX 1.0 1.0 1.0
0.022761 0.011711 0.000000
0.134917 0.012392 0.000000
0.261862 0.013162 0.000000
0.388806 0.013931 0.000000
0.515751 0.014701 0.000000
0.642696 0.015471 0.000000
0.769641 0.016241 0.000000
0.896586 0.017011 0.000000
1.000000 0.017691 0.000000
0.024141 0.128241 0.000000
0.136296 0.128921 0.000000
0.263241 0.129691 0.000000
0.390186 0.130461 0.000000
0.517131 0.131231 0.000000
0.644076 0.132001 0.000000
0.771021 0.132771 0.000000
0.897966 0.133541 0.000000
1.000000 0.134221 0.000571
0.025638 0.254688 0.000000
0.137793 0.255368 0.000000
0.264738 0.256138 0.000000
0.391683 0.256908 0.000000
0.518628 0.257678 0.000000
0.645573 0.258448 0.000000
0.772518 0.259218 0.000618
0.899462 0.259987 0.001387
1.000000 0.260668 0.002068
0.027135 0.381135 0.000000
0.139290 0.381815 0.000000
0.266235 0.382585 0.000000
0.393180 0.383355 0.000000
0.520125 0.384125 0.000575
0.647069 0.384894 0.001344
0.774014 0.385664 0.002114
0.900959 0.386434 0.002884
1.000000 0.387115 0.003565
0.028631 0.507581 0.000000
0.140787 0.508262 0.000000
0.267732 0.509032 0.000532
0.394676 0.509801 0.001301
0.521621 0.510571 0.002071
0.648566 0.511341 0.002841
0.775511 0.512111 0.003611
0.902456 0.512881 0.004381
1.000000 0.513561 0.005061
0.030128 0.634028 0.000578
0.142283 0.634708 0.001258
0.269228 0.635478 0.002028
0.396173 0.636248 0.002798
0.523118 0.637018 0.003568
0.650063 0.637788 0.004338
0.777008 0.638558 0.005108
0.903953 0.639328 0.005878
1.000000 0.640008 0.006558
0.031625 0.760475 0.002075
0.143780 0.761155 0.002755
0.270725 0.761925 0.003525
0.397670 0.762695 0.004295
0.524615 0.763465 0.005065
0.651560 0.764235 0.005835
0.778505 0.765005 0.006605
0.905450 0.765775 0.007375
1.000000 0.766455 0.008055
0.033122 0.886922 0.003572
0.145277 0.887602 0.004252
0.272222 0.888372 0.005022
0.399167 0.889142 0.005792
0.526112 0.889912 0.006562
0.653057 0.890682 0.007332
0.780002 0.891452 0.008102
0.906947 0.892222 0.008872
1.000000 0.892902 0.009552
0.034501 1.000000 0.004951
0.146657 1.000000 0.005632
0.273602 1.000000 0.006402
0.400546 1.000000 0.007171
0.527491 1.000000 0.007941
0.654436 1.000000 0.008711
0.781381 1.000000 0.009481
0.908326 1.000000 0.010251
1.000000 1.000000 0.010931
0.023044 0.011994 0.114769
0.135199 0.012674 0.115449
0.262144 0.013444 0.116219
0.389089 0.014214 0.116989
0.516034 0.014984 0.117759
0.642978 0.015753 0.118528
0.769923 0.016523 0.119298
0.896868 0.017293 0.120068
1.000000 0.017974 0.120749
0.024423 0.128523 0.116148
0.136578 0.129203 0.116828
0.263523 0.129973 0.117598
0.390468 0.130743 0.118368
0.517413 0.131513 0.119138
0.644358 0.132283 0.119908
0.771303 0.133053 0.120678
0.898248 0.133823 0.121448
1.000000 0.134503 0.122128
0.025920 0.254970 0.117645
0.138075 0.255650 0.118325
0.265020 0.256420 0.119095
0.391965 0.257190 0.119865
0.518910 0.257960 0.120635
0.645855 0.258730 0.121405
0.772800 0.259500 0.122175
0.899745 0.260270 0.122945
1.000000 0.260950 0.123625
0.027417 0.381417 0.119142
0.139572 0.382097 0.119822
0.266517 0.382867 0.120592
0.393462 0.383637 0.121362
0.520407 0.384407 0.122132
0.647352 0.385177 0.122902
0.774297 0.385947 0.123672
0.901241 0.386716 0.124441
1.000000 0.387397 0.125122
0.028914 0.507864 0.120639
0.141069 0.508544 0.121319
0.268014 0.509314 0.122089
0.394959 0.510084 0.122859
0.521904 0.510854 0.123629
0.648848 0.511623 0.124398
0.775793 0.512393 0.125168
0.902738 0.513163 0.125938
1.000000 0.513844 0.126619
0.030410 0.634310 0.122135
0.142566 0.634991 0.122816
0.269511 0.635761 0.123586
0.396455 0.636530 0.124355
0.523400 0.637300 0.125125
0.650345 0.638070 0.125895
0.777290 0.638840 0.126665
0.904235 0.639610 0.127435
1.000000 0.640290 0.128115
0.031907 0.760757 0.123632
0.144062 0.761437 0.124312
0.271007 0.762207 0.125082
0.397952 0.762977 0.125852
0.524897 0.763747 0.126622
0.651842 0.764517 0.127392
0.778787 0.765287 0.128162
0.905732 0.766057 0.128932
1.000000 0.766737 0.129612
0.033404 0.887204 0.125129
0.145559 0.887884 0.125809
0.272504 0.888654 0.126579
0.399449 0.889424 0.127349
0.526394 0.890194 0.128119
0.653339 0.890964 0.128889
0.780284 0.891734 0.129659
0.907229 0.892504 0.130429
1.000000 0.893184 0.131109
0.034784 1.000000 0.126509
0.146939 1.000000 0.127189
0.273884 1.000000 0.127959
0.400829 1.000000 0.128729
0.527774 1.000000 0.129499
0.654718 1.000000 0.130268
0.781663 1.000000 0.131038
0.908608 1.000000 0.131808
1.000000 1.000000 0.132489
0.023326 0.012276 0.236326
0.135481 0.012956 0.237006
0.262426 0.013726 0.237776
0.389371 0.014496 0.238546
0.516316 0.015266 0.239316
0.643261 0.016036 0.240086
0.770206 0.016806 0.240856
0.897150 0.017575 0.241625
1.000000 0.018256 0.242306
0.024705 0.128805 0.237705
0.136860 0.129485 0.238385
0.263805 0.130255 0.239155
0.390750 0.131025 0.239925
0.517695 0.131795 0.240695
0.644640 0.132565 0.241465
0.771585 0.133335 0.242235
0.898530 0.134105 0.243005
1.000000 0.134785 0.243685
0.026202 0.255252 0.239202
0.138357 0.255932 0.239882
0.265302 0.256702 0.240652
0.392247 0.257472 0.241422
0.519192 0.258242 0.242192
0.646137 0.259012 0.242962
0.773082 0.259782 0.243732
0.900027 0.260552 0.244502
1.000000 0.261232 0.245182
0.027699 0.381699 0.240699
0.139854 0.382379 0.241379
0.266799 0.383149 0.242149
0.393744 0.383919 0.242919
0.520689 0.384689 0.243689
0.647634 0.385459 0.244459
0.774579 0.386229 0.245229
0.901524 0.386999 0.245999
1.000000 0.387679 0.246679
0.029196 0.508146 0.242196
0.141351 0.508826 0.242876
0.268296 0.509596 0.243646
0.395241 0.510366 0.244416
0.522186 0.511136 0.245186
0.649131 0.511906 0.245956
0.776076 0.512676 0.246726
0.903020 0.513445 0.247495
1.000000 0.514126 0.248176
0.030693 0.634593 0.243693
0.142848 0.635273 0.244373
0.269793 0.636043 0.245143
0.396738 0.636813 0.245913
0.523683 0.637583 0.246683
0.650627 0.638352 0.247452
0.777572 0.639122 0.248222
0.904517 0.639892 0.248992
1.000000 0.640573 0.249673
0.032189 0.761039 0.245189
0.144345 0.761720 0.245870
0.271290 0.762490 0.246640
0.398234 0.763259 0.247409
0.525179 0.764029 0.248179
0.652124 0.764799 0.248949
0.779069 0.765569 0.249719
0.906014 0.766339 0.250489
1.000000 0.767019 0.251169
0.033686 0.887486 0.246686
0.145841 0.888166 0.247366
0.272786 0.888936 0.248136
0.399731 0.889706 0.248906
0.526676 0.890476 0.249676
0.653621 0.891246 0.250446
0.780566 0.892016 0.251216
0.907511 0.892786 0.251986
1.000000 0.893466 0.252666
0.035066 1.000000 0.248066
0.147221 1.000000 0.248746
0.274166 1.000000 0.249516
0.401111 1.000000 0.250286
0.528056 1.000000 0.251056
0.655001 1.000000 0.251826
0.781946 1.000000 0.252596
0.908890 1.000000 0.253365
1.000000 1.000000 0.254046
0.023608 0.012558 0.357883
0.135763 0.013238 0.358563
0.262708 0.014008 0.359333
0.389653 0.014778 0.360103
0.516598 0.015548 0.360873
0.643543 0.016318 0.361643
0.770488 0.017088 0.362413
0.897433 0.017858 0.363183
1.000000 0.018538 0.363863
0.024987 0.129087 0.359262
0.137143 0.129768 0.359943
0.264087 0.130537 0.360712
0.391032 0.131307 0.361482
0.517977 0.132077 0.362252
0.644922 0.132847 0.363022
0.771867 0.133617 0.363792
0.898812 0.134387 0.364562
1.000000 0.135067 0.365242
0.026484 0.255534 0.360759
0.138639 0.256214 0.361439
0.265584 0.256984 0.362209
0.392529 0.257754 0.362979
0.519474 0.258524 0.363749
0.646419 0.259294 0.364519
0.773364 0.260064 0.365289
0.900309 0.260834 0.366059
1.000000 0.261514 0.366739
0.027981 0.381981 0.362256
0.140136 0.382661 0.362936
0.267081 0.383431 0.363706
0.394026 0.384201 0.364476
0.520971 0.384971 0.365246
0.647916 0.385741 0.366016
0.774861 0.386511 0.366786
0.901806 0.387281 0.367556
1.000000 0.387961 0.368236
0.029478 0.508428 0.363753
0.141633 0.509108 0.364433
0.268578 0.509878 0.365203
0.395523 0.510648 0.365973
0.522468 0.511418 0.366743
0.649413 0.512188 0.367513
0.776358 0.512958 0.368283
0.903303 0.513728 0.369053
1.000000 0.514408 0.369733
0.030975 0.634875 0.365250
0.143130 0.635555 0.365930
0.270075 0.636325 0.366700
0.397020 0.637095 0.367470
0.523965 0.637865 0.368240
0.650910 0.638635 0.369010
0.777855 0.639405 0.369780
0.904799 0.640174 0.370549
1.000000 0.640855 0.371230
0.032472 0.761322 0.366747
0.144627 0.762002 0.367427
0.271572 0.762772 0.368197
0.398517 0.763542 0.368967
0.525462 0.764312 0.369737
0.652406 0.765081 0.370506
0.779351 0.765851 0.371276
0.906296 0.766621 0.372046
1.000000 0.767302 0.372727
0.033968 0.887768 0.368243
0.146124 0.888449 0.368924
0.273069 0.889219 0.369694
0.400013 0.889988 0.370463
0.526958 0.890758 0.371233
0.653903 0.891528 0.372003
0.780848 0.892298 0.372773
0.907793 0.893068 0.373543
1.000000 0.893748 0.374223
0.035348 1.000000 0.369623
0.147503 1.000000 0.370303
0.274448 1.000000 0.371073
0.401393 1.000000 0.371843
0.528338 1.000000 0.372613
0.655283 1.000000 0.373383
0.782228 1.000000 0.374153
0.909173 1.000000 0.374923
1.000000 1.000000 0.375603
0.023890 0.012840 0.479440
0.136045 0.013520 0.480120
0.262990 0.014290 0.480890
0.389935 0.015060 0.481660
0.516880 0.015830 0.482430
0.643825 0.016600 0.483200
0.770770 0.017370 0.483970
0.897715 0.018140 0.484740
1.000000 0.018820 0.485420
0.025269 0.129369 0.480819
0.137425 0.130050 0.481500
0.264370 0.130820 0.482270
0.391315 0.131590 0.483040
0.518259 0.132359 0.483809
0.645204 0.133129 0.484579
0.772149 0.133899 0.485349
0.899094 0.134669 0.486119
1.000000 0.135349 0.486799
0.026766 0.255816 0.482316
0.138922 0.256497 0.482997
0.265866 0.257266 0.483766
0.392811 0.258036 0.484536
0.519756 0.258806 0.485306
0.646701 0.259576 0.486076
0.773646 0.260346 0.486846
0.900591 0.261116 0.487616
1.000000 0.261796 0.488296
0.028263 0.382263 0.483813
0.140418 0.382943 0.484493
0.267363 0.383713 0.485263
0.394308 0.384483 0.486033
0.521253 0.385253 0.486803
0.648198 0.386023 0.487573
0.775143 0.386793 0.488343
0.902088 0.387563 0.489113
1.000000 0.388243 0.489793
0.029760 0.508710 0.485310
0.141915 0.509390 0.485990
0.268860 0.510160 0.486760
0.395805 0.510930 0.487530
0.522750 0.511700 0.488300
0.649695 0.512470 0.489070
0.776640 0.513240 0.489840
0.903585 0.514010 0.490610
1.000000 0.514690 0.491290
0.031257 0.635157 0.486807
0.143412 0.635837 0.487487
0.270357 0.636607 0.488257
0.397302 0.637377 0.489027
0.524247 0.638147 0.489797
0.651192 0.638917 0.490567
0.778137 0.639687 0.491337
0.905082 0.640457 0.492107
1.000000 0.641137 0.492787
0.032754 0.761604 0.488304
0.144909 0.762284 0.488984
0.271854 0.763054 0.489754
0.398799 0.763824 0.490524
0.525744 0.764594 0.491294
0.652689 0.765364 0.492064
0.779634 0.766134 0.492834
0.906578 0.766903 0.493603
1.000000 0.767584 0.494284
0.034251 0.888051 0.489801
0.146406 0.888731 0.490481
0.273351 0.889501 0.491251
0.400296 0.890271 0.492021
0.527241 0.891041 0.492791
0.654185 0.891810 0.493560
0.781130 0.892580 0.494330
0.908075 0.893350 0.495100
1.000000 0.894031 0.495781
0.035630 1.000000 0.491180
0.147785 1.000000 0.491860
0.274730 1.000000 0.492630
0.401675 1.000000 0.493400
0.528620 1.000000 0.494170
0.655565 1.000000 0.494940
0.782510 1.000000 0.495710
0.909455 1.000000 0.496480
1.000000 1.000000 0.497160
0.024172 0.013122 0.600997
0.136327 0.013802 0.601677
0.263272 0.014572 0.602447
0.390217 0.015342 0.603217
0.517162 0.016112 0.603987
0.644107 0.016882 0.604757
0.771052 0.017652 0.605527
0.897997 0.018422 0.606297
1.000000 0.019102 0.606977
0.025552 0.129652 0.602377
0.137707 0.130332 0.603057
0.264652 0.131102 0.603827
0.391597 0.131872 0.604597
0.518542 0.132642 0.605367
0.645487 0.133412 0.606137
0.772431 0.134181 0.606906
0.899376 0.134951 0.607676
1.000000 0.135632 0.608357
0.027048 0.256098 0.603873
0.139204 0.256779 0.604554
0.266149 0.257549 0.605324
0.393094 0.258319 0.606094
0.520038 0.259088 0.606863
0.646983 0.259858 0.607633
0.773928 0.260628 0.608403
0.900873 0.261398 0.609173
1.000000 0.262078 0.609853
0.028545 0.382545 0.605370
0.140701 0.383226 0.606051
0.267645 0.383995 0.606820
0.394590 0.384765 0.607590
0.521535 0.385535 0.608360
0.648480 0.386305 0.609130
0.775425 0.387075 0.609900
0.902370 0.387845 0.610670
1.000000 0.388525 0.611350
0.030042 0.508992 0.606867
0.142197 0.509672 0.607547
0.269142 0.510442 0.608317
0.396087 0.511212 0.609087
0.523032 0.511982 0.609857
0.649977 0.512752 0.610627
0.776922 0.513522 0.611397
0.903867 0.514292 0.612167
1.000000 0.514972 0.612847
0.031539 0.635439 0.608364
0.143694 0.636119 0.609044
0.270639 0.636889 0.609814
0.397584 0.637659 0.610584
0.524529 0.638429 0.611354
0.651474 0.639199 0.612124
0.778419 0.639969 0.612894
0.905364 0.640739 0.613664
1.000000 0.641419 0.614344
0.033036 0.761886 0.609861
0.145191 0.762566 0.610541
0.272136 0.763336 0.611311
0.399081 0.764106 0.612081
0.526026 0.764876 0.612851
0.652971 0.765646 0.613621
0.779916 0.766416 0.614391
0.906861 0.767186 0.615161
1.000000 0.767866 0.615841
0.034533 0.888333 0.611358
0.146688 0.889013 0.612038
0.273633 0.889783 0.612808
0.400578 0.890553 0.613578
0.527523 0.891323 0.614348
0.654468 0.892093 0.615118
0.781413 0.892863 0.615888
0.908357 0.893632 0.616657
1.000000 0.894313 0.617338
0.035912 1.000000 0.612737
0.148067 1.000000 0.613417
0.275012 1.000000 0.614187
0.401957 1.000000 0.614957
0.528902 1.000000 0.615727
0.655847 1.000000 0.616497
0.782792 1.000000 0.617267
0.909737 1.000000 0.618037
1.000000 1.000000 0.618717
0.024454 0.013404 0.722554
0.136610 0.014085 0.723235
0.263554 0.014854 0.724004
0.390499 0.015624 0.724774
0.517444 0.016394 0.725544
0.644389 0.017164 0.726314
0.771334 0.017934 0.727084
0.898279 0.018704 0.727854
1.000000 0.019384 0.728534
0.025834 0.129934 0.723934
0.137989 0.130614 0.724614
0.264934 0.131384 0.725384
0.391879 0.132154 0.726154
0.518824 0.132924 0.726924
0.645769 0.133694 0.727694
0.772714 0.134464 0.728464
0.899659 0.135234 0.729234
1.000000 0.135914 0.729914
0.027331 0.256381 0.725431
0.139486 0.257061 0.726111
0.266431 0.257831 0.726881
0.393376 0.258601 0.727651
0.520321 0.259371 0.728421
0.647266 0.260141 0.729191
0.774210 0.260910 0.729960
0.901155 0.261680 0.730730
1.000000 0.262361 0.731411
0.028827 0.382827 0.726927
0.140983 0.383508 0.727608
0.267928 0.384278 0.728378
0.394873 0.385048 0.729148
0.521817 0.385817 0.729917
0.648762 0.386587 0.730687
0.775707 0.387357 0.731457
0.902652 0.388127 0.732227
1.000000 0.388807 0.732907
0.030324 0.509274 0.728424
0.142480 0.509955 0.729105
0.269424 0.510724 0.729874
0.396369 0.511494 0.730644
0.523314 0.512264 0.731414
0.650259 0.513034 0.732184
0.777204 0.513804 0.732954
0.904149 0.514574 0.733724
1.000000 0.515254 0.734404
0.031821 0.635721 0.729921
0.143976 0.636401 0.730601
0.270921 0.637171 0.731371
0.397866 0.637941 0.732141
0.524811 0.638711 0.732911
0.651756 0.639481 0.733681
0.778701 0.640251 0.734451
0.905646 0.641021 0.735221
1.000000 0.641701 0.735901
0.033318 0.762168 0.731418
0.145473 0.762848 0.732098
0.272418 0.763618 0.732868
0.399363 0.764388 0.733638
0.526308 0.765158 0.734408
0.653253 0.765928 0.735178
0.780198 0.766698 0.735948
0.907143 0.767468 0.736718
1.000000 0.768148 0.737398
0.034815 0.888615 0.732915
0.146970 0.889295 0.733595
0.273915 0.890065 0.734365
0.400860 0.890835 0.735135
0.527805 0.891605 0.735905
0.654750 0.892375 0.736675
0.781695 0.893145 0.737445
0.908640 0.893915 0.738215
1.000000 0.894595 0.738895
0.036194 1.000000 0.734294
0.148350 1.000000 0.734975
0.275294 1.000000 0.735744
0.402239 1.000000 0.736514
0.529184 1.000000 0.737284
0.656129 1.000000 0.738054
0.783074 1.000000 0.738824
0.910019 1.000000 0.739594
1.000000 1.000000 0.740274
0.024736 0.013686 0.844111
0.136892 0.014367 0.844792
0.263837 0.015137 0.845562
0.390782 0.015907 0.846332
0.517726 0.016676 0.847101
0.644671 0.017446 0.847871
0.771616 0.018216 0.848641
0.898561 0.018986 0.849411
1.000000 0.019666 0.850091
0.026116 0.130216 0.845491
0.138271 0.130896 0.846171
0.265216 0.131666 0.846941
0.392161 0.132436 0.847711
0.519106 0.133206 0.848481
0.646051 0.133976 0.849251
0.772996 0.134746 0.850021
0.899941 0.135516 0.850791
1.000000 0.136196 0.851471
0.027613 0.256663 0.846988
0.139768 0.257343 0.847668
0.266713 0.258113 0.848438
0.393658 0.258883 0.849208
0.520603 0.259653 0.849978
0.647548 0.260423 0.850748
0.774493 0.261193 0.851518
0.901438 0.261963 0.852288
1.000000 0.262643 0.852968
0.029110 0.383110 0.848485
0.141265 0.383790 0.849165
0.268210 0.384560 0.849935
0.395155 0.385330 0.850705
0.522100 0.386100 0.851475
0.649045 0.386870 0.852245
0.775989 0.387639 0.853014
0.902934 0.388409 0.853784
1.000000 0.389090 0.854465
0.030606 0.509556 0.849981
0.142762 0.510237 0.850662
0.269707 0.511007 0.851432
0.396652 0.511777 0.852202
0.523596 0.512546 0.852971
0.650541 0.513316 0.853741
0.777486 0.514086 0.854511
0.904431 0.514856 0.855281
1.000000 0.515536 0.855961
0.032103 0.636003 0.851478
0.144259 0.636684 0.852159
0.271203 0.637453 0.852928
0.398148 0.638223 0.853698
0.525093 0.638993 0.854468
0.652038 0.639763 0.855238
0.778983 0.640533 0.856008
0.905928 0.641303 0.856778
1.000000 0.641983 0.857458
0.033600 0.762450 0.852975
0.145755 0.763130 0.853655
0.272700 0.763900 0.854425
0.399645 0.764670 0.855195
0.526590 0.765440 0.855965
0.653535 0.766210 0.856735
0.780480 0.766980 0.857505
0.907425 0.767750 0.858275
1.000000 0.768430 0.858955
0.035097 0.888897 0.854472
0.147252 0.889577 0.855152
0.274197 0.890347 0.855922
0.401142 0.891117 0.856692
0.528087 0.891887 0.857462
0.655032 0.892657 0.858232
0.781977 0.893427 0.859002
0.908922 0.894197 0.859772
1.000000 0.894877 0.860452
0.036476 1.000000 0.855851
0.148632 1.000000 0.856532
0.275577 1.000000 0.857302
0.402522 1.000000 0.858072
0.529466 1.000000 0.858841
0.656411 1.000000 0.859611
0.783356 1.000000 0.860381
0.910301 1.000000 0.861151
1.000000 1.000000 0.861831
0.025019 0.013969 0.965669
0.137174 0.014649 0.966349
0.264119 0.015419 0.967119
0.391064 0.016189 0.967889
0.518009 0.016959 0.968659
0.644954 0.017729 0.969429
0.771898 0.018498 0.970198
0.898843 0.019268 0.970968
1.000000 0.019949 0.971649
0.026398 0.130498 0.967048
0.138553 0.131178 0.967728
0.265498 0.131948 0.968498
0.392443 0.132718 0.969268
0.519388 0.133488 0.970038
0.646333 0.134258 0.970808
0.773278 0.135028 0.971578
0.900223 0.135798 0.972348
1.000000 0.136478 0.973028
0.027895 0.256945 0.968545
0.140050 0.257625 0.969225
0.266995 0.258395 0.969995
0.393940 0.259165 0.970765
0.520885 0.259935 0.971535
0.647830 0.260705 0.972305
0.774775 0.261475 0.973075
0.901720 0.262245 0.973845
1.000000 0.262925 0.974525
0.029392 0.383392 0.970042
0.141547 0.384072 0.970722
0.268492 0.384842 0.971492
0.395437 0.385612 0.972262
0.522382 0.386382 0.973032
0.649327 0.387152 0.973802
0.776272 0.387922 0.974572
0.903217 0.388692 0.975342
1.000000 0.389372 0.976022
0.030889 0.509839 0.971539
0.143044 0.510519 0.972219
0.269989 0.511289 0.972989
0.396934 0.512059 0.973759
0.523879 0.512829 0.974529
0.650824 0.513599 0.975299
0.777768 0.514368 0.976068
0.904713 0.515138 0.976838
1.000000 0.515819 0.977519
0.032385 0.636285 0.973035
0.144541 0.636966 0.973716
0.271486 0.637736 0.974486
0.398431 0.638506 0.975256
0.525375 0.639275 0.976025
0.652320 0.640045 0.976795
0.779265 0.640815 0.977565
0.906210 0.641585 0.978335
1.000000 0.642265 0.979015
0.033882 0.762732 0.974532
0.146038 0.763413 0.975213
0.272982 0.764182 0.975982
0.399927 0.764952 0.976752
0.526872 0.765722 0.977522
0.653817 0.766492 0.978292
0.780762 0.767262 0.979062
0.907707 0.768032 0.979832
1.000000 0.768712 0.980512
0.035379 0.889179 0.976029
0.147534 0.889859 0.976709
0.274479 0.890629 0.977479
0.401424 0.891399 0.978249
0.528369 0.892169 0.979019
0.655314 0.892939 0.979789
0.782259 0.893709 0.980559
0.909204 0.894479 0.981329
1.000000 0.895159 0.982009
0.036759 1.000000 0.977409
0.148914 1.000000 0.978089
0.275859 1.000000 0.978859
0.402804 1.000000 0.979629
0.529749 1.000000 0.980399
0.656694 1.000000 0.981169
0.783638 1.000000 0.981938
0.910583 1.000000 0.982708
1.000000 1.000000 0.983389
