docs/luts/fresh-green-nature.cube
TITLE "FreshLUTs??-????"
LUT_3D_SIZE 33
DOMAIN_MIN 0.0 0.0 0.0
DOMAIN_MAX 1.0 1.0 1.0
0.000000 0.068750 0.000000
0.000000 0.067671 0.000000
0.020314 0.066592 0.000000
0.054350 0.065512 0.000000
0.088362 0.064433 0.000000
0.122351 0.063354 0.000000
0.156318 0.062275 0.000000
0.190261 0.061196 0.000000
0.224181 0.060116 0.000000
0.258078 0.059037 0.000000
0.291951 0.057958 0.000000
0.325802 0.056879 0.000000
0.359630 0.055800 0.000000
0.393434 0.054720 0.000000
0.427216 0.053641 0.000000
0.460974 0.052562 0.000000
0.494709 0.051483 0.000000
0.528421 0.050404 0.000000
0.562110 0.049324 0.000000
0.595776 0.048245 0.000000
0.629419 0.047166 0.000000
0.663038 0.046087 0.000000
0.696635 0.045008 0.000000
0.730209 0.043928 0.000000
0.763759 0.042849 0.000000
0.797286 0.041770 0.000000
0.830790 0.040691 0.000000
0.864271 0.039612 0.000000
0.897729 0.038532 0.000000
0.931164 0.037453 0.000000
0.964576 0.036374 0.000000
0.992459 0.035295 0.000000
0.993055 0.034216 0.000000
0.000000 0.066631 0.000000
0.000000 0.065552 0.000000
0.022779 0.064473 0.000000
0.056769 0.063394 0.000000
0.090736 0.062314 0.000000
0.124680 0.061235 0.000000
0.158601 0.060156 0.000000
0.192499 0.059077 0.000000
0.226374 0.057998 0.000000
0.260225 0.056918 0.000000
0.294054 0.055839 0.000000
0.327859 0.054760 0.000000
0.361641 0.053681 0.000000
0.395400 0.052602 0.000000
0.429136 0.051522 0.000000
0.462849 0.050443 0.000000
0.496539 0.049364 0.000000
0.530206 0.048285 0.000000
0.563850 0.047206 0.000000
0.597470 0.046126 0.000000
0.631067 0.045047 0.000000
0.664642 0.043968 0.000000
0.698193 0.042889 0.000000
0.731721 0.041810 0.000000
0.765226 0.040730 0.000000
0.798708 0.039651 0.000000
0.832167 0.038572 0.000000
0.865603 0.037493 0.000000
0.899015 0.036414 0.000000
0.932405 0.035334 0.000000
0.965771 0.034255 0.000000
0.993608 0.033176 0.000000
0.994160 0.032097 0.000000
0.000000 0.064513 0.000000
0.000000 0.063433 0.000000
0.025155 0.062354 0.000000
0.059100 0.061275 0.000000
0.093022 0.060196 0.000000
0.126920 0.059117 0.000000
0.160796 0.058037 0.000000
0.194648 0.056958 0.000000
0.228478 0.055879 0.000000
0.262284 0.054800 0.000000
0.296067 0.053721 0.000000
0.329827 0.052641 0.000000
0.363564 0.051562 0.000000
0.397277 0.050483 0.000000
0.430968 0.049404 0.000000
0.464636 0.048325 0.000000
0.498280 0.047245 0.000000
0.531902 0.046166 0.000000
0.565500 0.045087 0.000000
0.599075 0.044008 0.000000
0.632627 0.042929 0.000000
0.666156 0.041849 0.000000
0.699662 0.040770 0.000000
0.733145 0.039691 0.000000
0.766604 0.038612 0.000000
0.800041 0.037533 0.000000
0.833454 0.036453 0.000000
0.866845 0.035374 0.000000
0.900212 0.034295 0.000000
0.933556 0.033216 0.000000
0.966877 0.032137 0.000000
0.994669 0.031057 0.000000
0.995175 0.029978 0.000000
0.000000 0.091573 0.000000
0.000000 0.090232 0.000000
0.026767 0.088772 0.000000
0.060667 0.087312 0.000000
0.094543 0.085851 0.000000
0.128396 0.084391 0.000000
0.162226 0.082930 0.000000
0.196033 0.081470 0.000000
0.229817 0.080009 0.000000
0.263578 0.078549 0.000000
0.297316 0.077089 0.000000
0.331030 0.075628 0.000000
0.364722 0.074168 0.000000
0.398390 0.072707 0.000000
0.432036 0.071247 0.000000
0.465658 0.069786 0.000000
0.499257 0.068326 0.000000
0.532833 0.066866 0.000000
0.566386 0.065405 0.000000
0.599916 0.063945 0.000000
0.633423 0.062484 0.000000
0.666906 0.061024 0.000000
0.700367 0.059563 0.000000
0.733804 0.058103 0.000000
0.767219 0.056643 0.000000
0.800610 0.055182 0.000000
0.833978 0.053722 0.000000
0.867323 0.052261 0.000000
0.900645 0.050801 0.000000
0.933944 0.049340 0.000000
0.967219 0.047880 0.000000
0.995641 0.046420 0.000000
0.996102 0.045079 0.000000
0.000000 0.126303 0.000000
0.000000 0.124963 0.000000
0.028114 0.123502 0.000000
0.061968 0.122042 0.000000
0.095799 0.120581 0.000000
0.129607 0.119121 0.000000
0.163392 0.117660 0.000000
0.197153 0.116200 0.000000
0.230892 0.114740 0.000000
0.264607 0.113279 0.000000
0.298300 0.111819 0.000000
0.331969 0.110358 0.000000
0.365615 0.108898 0.000000
0.399238 0.107437 0.000000
0.432838 0.105977 0.000000
0.466415 0.104517 0.000000
0.499969 0.103056 0.000000
0.533500 0.101596 0.000000
0.567007 0.100135 0.000000
0.600492 0.098675 0.000000
0.633953 0.097214 0.000000
0.667391 0.095754 0.000000
0.700806 0.094294 0.000000
0.734199 0.092833 0.000000
0.767568 0.091373 0.000000
0.800913 0.089912 0.000000
0.834236 0.088452 0.000000
0.867536 0.086991 0.000000
0.900812 0.085531 0.000000
0.934066 0.084071 0.000000
0.967296 0.082610 0.000000
0.996524 0.081150 0.000000
0.996939 0.079809 0.000000
0.000000 0.161034 0.000000
0.000000 0.159693 0.000000
0.029372 0.158232 0.000000
0.063180 0.156772 0.000000
0.096966 0.155311 0.000000
0.130729 0.153851 0.000000
0.164468 0.152391 0.000000
0.198184 0.150930 0.000000
0.231878 0.149470 0.000000
0.265548 0.148009 0.000000
0.299195 0.146549 0.000000
0.332819 0.145088 0.000000
0.366419 0.143628 0.000000
0.399997 0.142168 0.000000
0.433552 0.140707 0.000000
0.467083 0.139247 0.000000
0.500592 0.137786 0.000000
0.534077 0.136326 0.000000
0.567539 0.134865 0.000000
0.600978 0.133405 0.000000
0.634394 0.131945 0.000000
0.667787 0.130484 0.000000
0.701157 0.129024 0.000000
0.734504 0.127563 0.000000
0.767827 0.126103 0.000000
0.801128 0.124642 0.000000
0.834405 0.123182 0.000000
0.867660 0.121722 0.000000
0.900891 0.120261 0.000000
0.934099 0.118801 0.000000
0.967284 0.117340 0.000000
0.997317 0.115880 0.000000
0.997687 0.114539 0.000000
0.000000 0.195764 0.000000
0.000000 0.194423 0.000000
0.030540 0.192962 0.000000
0.064304 0.191502 0.000000
0.098044 0.190042 0.000000
0.131761 0.188581 0.000000
0.165455 0.187121 0.000000
0.199126 0.185660 0.000000
0.232774 0.184200 0.000000
0.266399 0.182739 0.000000
0.300001 0.181279 0.000000
0.333579 0.179819 0.000000
0.367135 0.178358 0.000000
0.400667 0.176898 0.000000
0.434176 0.175437 0.000000
0.467662 0.173977 0.000000
0.501125 0.172516 0.000000
0.534565 0.171056 0.000000
0.567982 0.169596 0.000000
0.601376 0.168135 0.000000
0.634747 0.166675 0.000000
0.668094 0.165214 0.000000
0.701419 0.163754 0.000000
0.734720 0.162293 0.000000
0.767998 0.160833 0.000000
0.801254 0.159373 0.000000
0.834486 0.157912 0.000000
0.867695 0.156452 0.000000
0.900880 0.154991 0.000000
0.934043 0.153531 0.000000
0.967183 0.152070 0.000000
0.998022 0.150610 0.000000
0.998347 0.149269 0.000000
0.000000 0.230494 0.000000
0.000000 0.229153 0.000000
0.031620 0.227693 0.000000
0.065338 0.226232 0.000000
0.099033 0.224772 0.000000
0.132705 0.223311 0.000000
0.166353 0.221851 0.000000
0.199979 0.220390 0.000000
0.233582 0.218930 0.000000
0.267161 0.217470 0.000000
0.300717 0.216009 0.000000
0.334251 0.214549 0.000000
0.367761 0.213088 0.000000
0.401248 0.211628 0.000000
0.434712 0.210167 0.000000
0.468152 0.208707 0.000000
0.501570 0.207247 0.000000
0.534965 0.205786 0.000000
0.568336 0.204326 0.000000
0.601685 0.202865 0.000000
0.635010 0.201405 0.000000
0.668312 0.199944 0.000000
0.701591 0.198484 0.000000
0.734847 0.197024 0.000000
0.768080 0.195563 0.000000
0.801290 0.194103 0.000000
0.834477 0.192642 0.000000
0.867640 0.191182 0.000000
0.900781 0.189721 0.000000
0.933898 0.188261 0.000000
0.966993 0.186801 0.000000
0.998637 0.185340 0.000000
0.998917 0.183999 0.000000
0.000000 0.265224 0.000000
0.000000 0.263883 0.000000
0.032611 0.262423 0.000000
0.066283 0.260962 0.000000
0.099933 0.259502 0.000000
0.133559 0.258041 0.000000
0.167163 0.256581 0.000000
0.200743 0.255121 0.000000
0.234300 0.253660 0.000000
0.267834 0.252200 0.000000
0.301345 0.250739 0.000000
0.334833 0.249279 0.000000
0.368298 0.247818 0.000000
0.401739 0.246358 0.000000
0.435158 0.244898 0.000000
0.468553 0.243437 0.000000
0.501926 0.241977 0.000000
0.535275 0.240516 0.000000
0.568601 0.239056 0.000000
0.601904 0.237595 0.000000
0.635184 0.236135 0.000000
0.668441 0.234675 0.000000
0.701675 0.233214 0.000000
0.734886 0.231754 0.000000
0.768073 0.230293 0.000000
0.801238 0.228833 0.000000
0.834379 0.227372 0.000000
0.867497 0.225912 0.000000
0.900592 0.224452 0.000000
0.933664 0.222991 0.000000
0.966713 0.221531 0.000000
0.999164 0.220070 0.000000
0.999398 0.218729 0.000000
0.000000 0.299954 0.000000
0.000000 0.298613 0.000000
0.033512 0.297153 0.000000
0.067139 0.295692 0.000000
0.100744 0.294232 0.000000
0.134325 0.292772 0.000000
0.167883 0.291311 0.000000
0.201418 0.289851 0.000000
0.234930 0.288390 0.000000
0.268418 0.286930 0.000000
0.301884 0.285469 0.000000
0.335326 0.284009 0.000000
0.368746 0.282549 0.000000
0.402142 0.281088 0.000000
0.435515 0.279628 0.000000
0.468865 0.278167 0.000000
0.502192 0.276707 0.000000
0.535496 0.275246 0.000000
0.568777 0.273786 0.000000
0.602035 0.272326 0.000000
0.635270 0.270865 0.000000
0.668481 0.269405 0.000000
0.701669 0.267944 0.000000
0.734835 0.266484 0.000000
0.767977 0.265023 0.000000
0.801096 0.263563 0.000000
0.834192 0.262103 0.000000
0.867265 0.260642 0.000000
0.900315 0.259182 0.000000
0.933341 0.257721 0.000000
0.966345 0.256261 0.000000
0.999326 0.254800 0.000000
0.999790 0.253460 0.000000
0.000000 0.334684 0.000000
0.000720 0.333343 0.000000
0.034325 0.331883 0.000000
0.067907 0.330423 0.000000
0.101465 0.328962 0.000000
0.135001 0.327502 0.000000
0.168514 0.326041 0.000000
0.202003 0.324581 0.000000
0.235470 0.323120 0.000000
0.268913 0.321660 0.000000
0.302334 0.320200 0.000000
0.335731 0.318739 0.000000
0.369105 0.317279 0.000000
0.402456 0.315818 0.000000
0.435784 0.314358 0.000000
0.469088 0.312897 0.000000
0.502370 0.311437 0.000000
0.535629 0.309977 0.000000
0.568864 0.308516 0.000000
0.602076 0.307056 0.000000
0.635266 0.305595 0.000000
0.668432 0.304135 0.000000
0.701575 0.302674 0.000000
0.734695 0.301214 0.000000
0.767792 0.299754 0.000000
0.800865 0.298293 0.000000
0.833916 0.296833 0.000000
0.866944 0.295372 0.000000
0.899948 0.293912 0.000000
0.932929 0.292451 0.000000
0.965888 0.290991 0.000000
0.998823 0.289531 0.000000
1.000000 0.288911 0.000000
0.000000 0.369414 0.000000
0.001488 0.368074 0.000000
0.035048 0.366613 0.000000
0.068585 0.365153 0.000000
0.102098 0.363692 0.000000
0.135589 0.362232 0.000000
0.169056 0.360771 0.000000
0.202500 0.359311 0.000000
0.235921 0.357851 0.000000
0.269319 0.356390 0.000000
0.302694 0.354930 0.000000
0.336046 0.353469 0.000000
0.369375 0.352009 0.000000
0.402680 0.350548 0.000000
0.435963 0.349088 0.000000
0.469222 0.347628 0.000000
0.502459 0.346167 0.000000
0.535672 0.344707 0.000000
0.568862 0.343246 0.000000
0.602029 0.341786 0.000000
0.635173 0.340325 0.000000
0.668294 0.338865 0.000000
0.701391 0.337405 0.000000
0.734466 0.335944 0.000000
0.767517 0.334484 0.000000
0.800546 0.333023 0.000000
0.833551 0.331563 0.000000
0.866533 0.330102 0.000000
0.899492 0.328642 0.000000
0.932428 0.327182 0.000000
0.965253 0.326403 0.000000
0.998022 0.326022 0.000000
1.000000 0.325760 0.000000
0.000000 0.404145 0.000000
0.002168 0.402804 0.000000
0.035683 0.401343 0.000000
0.069174 0.399883 0.000000
0.102642 0.398422 0.000000
0.136087 0.396962 0.000000
0.169509 0.395502 0.000000
0.202908 0.394041 0.000000
0.236284 0.392581 0.000000
0.269636 0.391120 0.000000
0.302966 0.389660 0.000000
0.336272 0.388199 0.000000
0.369556 0.386739 0.000000
0.402816 0.385279 0.000000
0.436053 0.383818 0.000000
0.469267 0.382358 0.000000
0.502458 0.380897 0.000000
0.535626 0.379437 0.000000
0.568771 0.377976 0.000000
0.601892 0.376516 0.000000
0.634991 0.375056 0.000000
0.668066 0.373595 0.000000
0.701119 0.372135 0.000000
0.734148 0.370674 0.000000
0.767154 0.369214 0.000000
0.800137 0.367753 0.000000
0.833097 0.366293 0.000000
0.866034 0.364833 0.000000
0.898864 0.364014 0.000000
0.931633 0.363633 0.000000
0.964402 0.363252 0.000000
0.997171 0.362871 0.000000
1.000000 0.362609 0.000000
0.000000 0.438875 0.000000
0.002759 0.437534 0.000000
0.036228 0.436073 0.000000
0.069674 0.434613 0.000000
0.103097 0.433153 0.000000
0.136496 0.431692 0.000000
0.169873 0.430232 0.000000
0.203227 0.428771 0.000000
0.236557 0.427311 0.000000
0.269864 0.425850 0.000000
0.303149 0.424390 0.000000
0.336410 0.422930 0.000000
0.369648 0.421469 0.000000
0.402863 0.420009 0.000000
0.436054 0.418548 0.000000
0.469223 0.417088 0.000000
0.502369 0.415627 0.000000
0.535491 0.414167 0.000000
0.568591 0.412707 0.000000
0.601667 0.411246 0.000000
0.634720 0.409786 0.000000
0.667750 0.408325 0.000000
0.700757 0.406865 0.000000
0.733741 0.405404 0.000000
0.766702 0.403944 0.000000
0.799640 0.402484 0.000000
0.832476 0.401626 0.000000
0.865244 0.401244 0.000000
0.898013 0.400863 0.000000
0.930782 0.400482 0.000000
0.963551 0.400101 0.000000
0.996319 0.399719 0.000000
1.000000 0.399458 0.000000
0.000000 0.473605 0.000000
0.003261 0.472264 0.000000
0.036684 0.470804 0.000000
0.070085 0.469343 0.000000
0.103462 0.467883 0.000000
0.136817 0.466422 0.000000
0.170148 0.464962 0.000000
0.203456 0.463501 0.000000
0.236741 0.462041 0.000000
0.270003 0.460581 0.000000
0.303242 0.459120 0.000000
0.336458 0.457660 0.000000
0.369650 0.456199 0.000000
0.402820 0.454739 0.000000
0.435967 0.453278 0.000000
0.469090 0.451818 0.000000
0.502190 0.450358 0.000000
0.535267 0.448897 0.000000
0.568321 0.447437 0.000000
0.601352 0.445976 0.000000
0.634360 0.444516 0.000000
0.667345 0.443055 0.000000
0.700307 0.441595 0.000000
0.733245 0.440135 0.000000
0.766087 0.439237 0.000000
0.798856 0.438856 0.000000
0.831624 0.438474 0.000000
0.864393 0.438093 0.000000
0.897162 0.437712 0.000000
0.929931 0.437331 0.000000
0.962700 0.436950 0.000000
0.995468 0.436568 0.000000
1.000000 0.436307 0.000000
0.000000 0.508335 0.000000
0.003673 0.506994 0.000000
0.037052 0.505534 0.000000
0.070407 0.504073 0.000000
0.103739 0.502613 0.000000
0.137048 0.501152 0.000000
0.170334 0.499692 0.000000
0.203597 0.498232 0.000000
0.236836 0.496771 0.000000
0.270053 0.495311 0.000000
0.303247 0.493850 0.000000
0.336417 0.492390 0.000000
0.369564 0.490929 0.000000
0.402689 0.489469 0.000000
0.435790 0.488009 0.000000
0.468868 0.486548 0.000000
0.501923 0.485088 0.000000
0.534954 0.483627 0.000000
0.567963 0.482167 0.000000
0.600949 0.480706 0.000000
0.633911 0.479246 0.000000
0.666851 0.477786 0.000000
0.699698 0.476848 0.000000
0.732467 0.476467 0.000000
0.765236 0.476086 0.000000
0.798005 0.475705 0.000000
0.830773 0.475323 0.000000
0.863542 0.474942 0.000000
0.896311 0.474561 0.000000
0.929080 0.474180 0.000000
0.961848 0.473798 0.000000
0.994617 0.473417 0.000000
1.000000 0.473156 0.000000
0.000000 0.543065 0.000000
0.003997 0.541724 0.000000
0.037330 0.540264 0.000000
0.070640 0.538803 0.000000
0.103927 0.537343 0.000000
0.137190 0.535883 0.000000
0.170431 0.534422 0.000000
0.203648 0.532962 0.000000
0.236843 0.531501 0.000000
0.270014 0.530041 0.000000
0.303162 0.528580 0.000000
0.336287 0.527120 0.000000
0.369389 0.525660 0.000000
0.402468 0.524199 0.000000
0.435524 0.522739 0.000000
0.468556 0.521278 0.000000
0.501566 0.519818 0.000000
0.534552 0.518357 0.000000
0.567516 0.516897 0.000000
0.600456 0.515437 0.000000
0.633309 0.514460 0.000000
0.666078 0.514078 0.000000
0.698847 0.513697 0.000000
0.731616 0.513316 0.000000
0.764385 0.512935 0.000000
0.797153 0.512553 0.000000
0.829922 0.512172 0.000000
0.862691 0.511791 0.000000
0.895460 0.511410 0.000000
0.928228 0.511028 0.000000
0.960997 0.510647 0.000000
0.993766 0.510266 0.000000
1.000000 0.510004 0.000000
0.000000 0.577795 0.000000
0.004232 0.576454 0.000000
0.037519 0.574994 0.000000
0.070784 0.573534 0.000000
0.104025 0.572073 0.000000
0.137244 0.570613 0.000000
0.170439 0.569152 0.000000
0.203611 0.567692 0.000000
0.236760 0.566231 0.000000
0.269886 0.564771 0.000000
0.302989 0.563311 0.000000
0.336068 0.561850 0.000000
0.369125 0.560390 0.000000
0.402158 0.558929 0.000000
0.435169 0.557469 0.000000
0.468156 0.556008 0.000000
0.501120 0.554548 0.000000
0.534061 0.553088 0.000000
0.566921 0.552071 0.000000
0.599690 0.551690 0.000000
0.632458 0.551308 0.000000
0.665227 0.550927 0.000000
0.697996 0.550546 0.000000
0.730765 0.550165 0.000000
0.763533 0.549783 0.000000
0.796302 0.549402 0.000000
0.829071 0.549021 0.000000
0.861840 0.548640 0.000000
0.894609 0.548259 0.000000
0.927377 0.547877 0.000000
0.960146 0.547496 0.000000
0.992915 0.547115 0.000000
1.000000 0.546853 0.000000
0.000000 0.612525 0.000000
0.004377 0.611185 0.000000
0.037620 0.609724 0.000000
0.070839 0.608264 0.000000
0.104035 0.606803 0.000000
0.137208 0.605343 0.000000
0.170358 0.603882 0.000000
0.203484 0.602422 0.000000
0.236588 0.600962 0.000000
0.269669 0.599501 0.000000
0.302726 0.598041 0.000000
0.335760 0.596580 0.000000
0.368772 0.595120 0.000000
0.401760 0.593659 0.000000
0.434725 0.592199 0.000000
0.467667 0.590739 0.000000
0.500532 0.589682 0.000000
0.533301 0.589301 0.000000
0.566070 0.588920 0.000000
0.598838 0.588538 0.000000
0.631607 0.588157 0.000000
0.664376 0.587776 0.000000
0.697145 0.587395 0.000000
0.729914 0.587014 0.000000
0.762682 0.586632 0.000000
0.795451 0.586251 0.000000
0.828220 0.585870 0.000000
0.860989 0.585489 0.000000
0.893757 0.585107 0.000000
0.926526 0.584726 0.000000
0.959295 0.584345 0.000000
0.992064 0.583964 0.000000
1.000000 0.583702 0.000000
0.000000 0.647256 0.000000
0.004434 0.645915 0.000000
0.037631 0.644454 0.000000
0.070805 0.642994 0.000000
0.103955 0.641533 0.000000
0.137083 0.640073 0.000000
0.170187 0.638613 0.000000
0.203269 0.637152 0.000000
0.236327 0.635692 0.000000
0.269362 0.634231 0.000000
0.302374 0.632771 0.000000
0.335363 0.631310 0.000000
0.368329 0.629850 0.000000
0.401272 0.628390 0.000000
0.434143 0.627293 0.000000
0.466912 0.626912 0.000000
0.499681 0.626531 0.000000
0.532450 0.626150 0.000000
0.565218 0.625769 0.000000
0.597987 0.625387 0.000000
0.630756 0.625006 0.000000
0.663525 0.624625 0.000000
0.696294 0.624244 0.000000
0.729062 0.623862 0.000000
0.761831 0.623481 0.000000
0.794600 0.623100 0.000000
0.827369 0.622719 0.000000
0.860137 0.622337 0.000000
0.892906 0.621956 0.000000
0.925675 0.621575 0.000000
0.958444 0.621194 0.000000
0.991213 0.620813 0.000000
1.000000 0.620551 0.000000
0.000000 0.681986 0.000000
0.004401 0.680645 0.000000
0.037553 0.679184 0.000000
0.070681 0.677724 0.000000
0.103787 0.676264 0.000000
0.136869 0.674803 0.000000
0.169928 0.673343 0.000000
0.202964 0.671882 0.000000
0.235977 0.670422 0.000000
0.268967 0.668961 0.000000
0.301934 0.667501 0.000000
0.334877 0.666041 0.000000
0.367755 0.664905 0.000000
0.400523 0.664523 0.000000
0.433292 0.664142 0.000000
0.466061 0.663761 0.000000
0.498830 0.663380 0.000000
0.531599 0.662999 0.000000
0.564367 0.662617 0.000000
0.597136 0.662236 0.000000
0.629905 0.661855 0.000000
0.662674 0.661474 0.000000
0.695442 0.661092 0.000000
0.728211 0.660711 0.000000
0.760980 0.660330 0.000000
0.793749 0.659949 0.000000
0.826518 0.659568 0.000000
0.859286 0.659186 0.000000
0.892055 0.658805 0.000000
0.924824 0.658424 0.000000
0.957593 0.658043 0.000000
0.990361 0.657661 0.000000
1.000000 0.657400 0.000000
0.000000 0.716716 0.000000
0.004280 0.715375 0.000000
0.037386 0.713915 0.000000
0.070469 0.712454 0.000000
0.103529 0.710994 0.000000
0.136566 0.709533 0.000000
0.169580 0.708073 0.000000
0.202571 0.706612 0.000000
0.235538 0.705152 0.000000
0.268483 0.703692 0.000000
0.301366 0.702516 0.000000
0.334135 0.702135 0.000000
0.366904 0.701754 0.000000
0.399672 0.701372 0.000000
0.432441 0.700991 0.000000
0.465210 0.700610 0.000000
0.497979 0.700229 0.000000
0.530747 0.699847 0.000000
0.563516 0.699466 0.000000
0.596285 0.699085 0.000000
0.629054 0.698704 0.000000
0.661823 0.698323 0.000000
0.694591 0.697941 0.000000
0.727360 0.697560 0.000000
0.760129 0.697179 0.000000
0.792898 0.696798 0.000000
0.825666 0.696416 0.000000
0.858435 0.696035 0.000000
0.891204 0.695654 0.000000
0.923973 0.695273 0.000000
0.956742 0.694892 0.000000
0.989510 0.694510 0.000000
1.000000 0.694249 0.000000
0.000000 0.751446 0.000000
0.004069 0.750105 0.000000
0.037130 0.748645 0.000000
0.070168 0.747184 0.000000
0.103183 0.745724 0.000000
0.136174 0.744263 0.000000
0.169143 0.742803 0.000000
0.202088 0.741343 0.000000
0.234977 0.740127 0.000000
0.267746 0.739746 0.000000
0.300515 0.739365 0.000000
0.333284 0.738984 0.000000
0.366052 0.738602 0.000000
0.398821 0.738221 0.000000
0.431590 0.737840 0.000000
0.464359 0.737459 0.000000
0.497127 0.737078 0.000000
0.529896 0.736696 0.000000
0.562665 0.736315 0.000000
0.595434 0.735934 0.000000
0.628203 0.735553 0.000000
0.660971 0.735171 0.000000
0.693740 0.734790 0.000000
0.726509 0.734409 0.000000
0.759278 0.734028 0.000000
0.792046 0.733646 0.000000
0.824815 0.733265 0.000000
0.857584 0.732884 0.000000
0.890353 0.732503 0.000000
0.923122 0.732122 0.000000
0.955890 0.731740 0.000000
0.988659 0.731359 0.000000
1.000000 0.731098 0.000000
0.000000 0.786176 0.000000
0.003770 0.784835 0.000000
0.036785 0.783375 0.000000
0.069778 0.781914 0.000000
0.102747 0.780454 0.000000
0.135693 0.778994 0.000000
0.168589 0.777739 0.000000
0.201357 0.777357 0.000000
0.234126 0.776976 0.000000
0.266895 0.776595 0.000000
0.299664 0.776214 0.000000
0.332432 0.775832 0.000000
0.365201 0.775451 0.000000
0.397970 0.775070 0.000000
0.430739 0.774689 0.000000
0.463508 0.774308 0.000000
0.496276 0.773926 0.000000
0.529045 0.773545 0.000000
0.561814 0.773164 0.000000
0.594583 0.772783 0.000000
0.627351 0.772401 0.000000
0.660120 0.772020 0.000000
0.692889 0.771639 0.000000
0.725658 0.771258 0.000000
0.758427 0.770877 0.000000
0.791195 0.770495 0.000000
0.823964 0.770114 0.000000
0.856733 0.769733 0.000000
0.889502 0.769352 0.000000
0.922270 0.768970 0.000000
0.955039 0.768589 0.000000
0.987808 0.768208 0.000000
1.000000 0.767946 0.000000
0.000000 0.820906 0.000000
0.003381 0.819565 0.000000
0.036351 0.818105 0.000000
0.069298 0.816645 0.000000
0.102200 0.815350 0.000000
0.134969 0.814969 0.000000
0.167737 0.814587 0.000000
0.200506 0.814206 0.000000
0.233275 0.813825 0.000000
0.266044 0.813444 0.000000
0.298813 0.813063 0.000000
0.331581 0.812681 0.000000
0.364350 0.812300 0.000000
0.397119 0.811919 0.000000
0.429888 0.811538 0.000000
0.462656 0.811156 0.000000
0.495425 0.810775 0.000000
0.528194 0.810394 0.000000
0.560963 0.810013 0.000000
0.593732 0.809632 0.000000
0.626500 0.809250 0.000000
0.659269 0.808869 0.000000
0.692038 0.808488 0.000000
0.724807 0.808107 0.000000
0.757575 0.807725 0.000000
0.790344 0.807344 0.000000
0.823113 0.806963 0.000000
0.855882 0.806582 0.000000
0.888651 0.806201 0.000000
0.921419 0.805819 0.000000
0.954188 0.805438 0.000000
0.986957 0.805057 0.000000
1.000000 0.804795 0.000000
0.000000 0.855636 0.000000
0.002903 0.854296 0.000000
0.035811 0.852961 0.000000
0.068580 0.852580 0.000000
0.101349 0.852199 0.000000
0.134118 0.851818 0.000000
0.166886 0.851436 0.000000
0.199655 0.851055 0.000000
0.232424 0.850674 0.000000
0.265193 0.850293 0.000000
0.297961 0.849911 0.000000
0.330730 0.849530 0.000000
0.363499 0.849149 0.000000
0.396268 0.848768 0.000000
0.429037 0.848387 0.000000
0.461805 0.848005 0.000000
0.494574 0.847624 0.000000
0.527343 0.847243 0.000000
0.560112 0.846862 0.000000
0.592880 0.846480 0.000000
0.625649 0.846099 0.000000
0.658418 0.845718 0.000000
0.691187 0.845337 0.000000
0.723955 0.844955 0.000000
0.756724 0.844574 0.000000
0.789493 0.844193 0.000000
0.822262 0.843812 0.000000
0.855031 0.843431 0.000000
0.887799 0.843049 0.000000
0.920568 0.842668 0.000000
0.953337 0.842287 0.000000
0.986106 0.841906 0.000000
1.000000 0.841644 0.000000
0.000000 0.890453 0.000000
0.002191 0.890191 0.000000
0.034960 0.889810 0.000000
0.067729 0.889429 0.000000
0.100498 0.889048 0.000000
0.133266 0.888666 0.000000
0.166035 0.888285 0.000000
0.198804 0.887904 0.000000
0.231573 0.887523 0.000000
0.264341 0.887141 0.000000
0.297110 0.886760 0.000000
0.329879 0.886379 0.000000
0.362648 0.885998 0.000000
0.395417 0.885617 0.000000
0.428185 0.885235 0.000000
0.460954 0.884854 0.000000
0.493723 0.884473 0.000000
0.526492 0.884092 0.000000
0.559260 0.883710 0.000000
0.592029 0.883329 0.000000
0.624798 0.882948 0.000000
0.657567 0.882567 0.000000
0.690336 0.882186 0.000000
0.723104 0.881804 0.000000
0.755873 0.881423 0.000000
0.788642 0.881042 0.000000
0.821411 0.880661 0.000000
