docs/luts/fresh-cinematic-core.cube
TITLE "FreshLUTs??-????"
LUT_3D_SIZE 5
DOMAIN_MIN 0.0 0.0 0.0
DOMAIN_MAX 1.0 1.0 1.0
0.000000 0.000000 0.040000
0.218014 0.000000 0.033721
0.507010 0.000000 0.027442
0.796006 0.000000 0.021163
1.000000 0.000000 0.014884
0.000000 0.218557 0.027673
0.215373 0.219155 0.021394
0.504368 0.219334 0.015115
0.793364 0.219513 0.008836
1.000000 0.220111 0.002557
0.000000 0.499526 0.015346
0.212144 0.500124 0.009067
0.502250 0.500304 0.002788
0.794855 0.499436 0.000000
1.000000 0.498150 0.000000
0.000978 0.780496 0.003019
0.213502 0.780116 0.000000
0.506106 0.778412 0.000000
0.798711 0.776707 0.000000
1.000000 0.775421 0.000000
0.008062 1.000000 0.000000
0.217945 1.000000 0.000000
0.510549 1.000000 0.000000
0.803154 1.000000 0.000000
1.000000 1.000000 0.000000
0.000000 0.000000 0.261504
0.217513 0.000000 0.253940
0.506508 0.000000 0.245956
0.795504 0.000000 0.237973
1.000000 0.000000 0.230408
0.000000 0.218773 0.246536
0.214871 0.219371 0.238971
0.503867 0.219551 0.230988
0.792863 0.219730 0.223005
1.000000 0.220328 0.215440
0.000000 0.499743 0.230980
0.211643 0.500341 0.223416
0.503125 0.500520 0.215432
0.795729 0.498934 0.213334
1.000000 0.497648 0.212048
0.002353 0.780712 0.215425
0.214376 0.779614 0.213514
0.506981 0.777910 0.211810
0.799585 0.776206 0.210106
1.000000 0.774920 0.208820
0.009438 1.000000 0.212158
0.218819 1.000000 0.210873
0.511424 1.000000 0.209168
0.804028 1.000000 0.207464
1.000000 1.000000 0.206178
0.000000 0.000000 0.544072
0.216874 0.000000 0.536507
0.505870 0.000000 0.528524
0.794866 0.000000 0.520541
1.000000 0.000000 0.512976
0.000000 0.218853 0.529104
0.214233 0.219451 0.521539
0.503228 0.219630 0.513555
0.792610 0.219810 0.505572
1.000000 0.219738 0.500239
0.000000 0.499823 0.513548
0.211258 0.500421 0.505983
0.503862 0.500000 0.500000
0.796466 0.498296 0.498296
1.000000 0.497010 0.497010
0.003729 0.780262 0.499762
0.215114 0.778976 0.498476
0.507718 0.777272 0.496772
0.800322 0.775567 0.495067
1.000000 0.774282 0.493781
0.010814 1.000000 0.497120
0.219557 1.000000 0.495834
0.512161 1.000000 0.494130
0.804765 1.000000 0.492426
1.000000 1.000000 0.491140
0.000000 0.000000 0.826640
0.216236 0.000000 0.819075
0.505232 0.000000 0.811092
0.794227 0.000000 0.803108
1.000000 0.000000 0.795544
0.000000 0.218933 0.811671
0.213594 0.219531 0.804106
0.502590 0.219710 0.796123
0.793348 0.219890 0.788140
1.000000 0.219100 0.785200
0.000000 0.499902 0.796116
0.211995 0.500500 0.788551
0.504600 0.499362 0.784962
0.797204 0.497657 0.783257
1.000000 0.496372 0.781972
0.005105 0.779623 0.784723
0.215851 0.778337 0.783437
0.508456 0.776633 0.781733
0.801060 0.774929 0.780029
1.000000 0.773643 0.778743
0.012190 1.000000 0.782082
0.220294 1.000000 0.780796
0.512898 1.000000 0.779092
0.805503 1.000000 0.777387
1.000000 1.000000 0.776102
0.000000 0.000000 1.000000
0.215734 0.000000 1.000000
0.504730 0.000000 1.000000
0.793726 0.000000 1.000000
1.000000 0.000000 1.000000
0.000000 0.219149 1.000000
0.213093 0.219747 1.000000
0.502089 0.219927 1.000000
0.794222 0.219884 1.000000
1.000000 0.218598 1.000000
0.000000 0.500119 1.000000
0.212869 0.500564 1.000000
0.505474 0.498860 1.000000
0.798078 0.497156 1.000000
1.000000 0.495870 1.000000
0.006481 0.779122 1.000000
0.216725 0.777836 1.000000
0.509330 0.776131 1.000000
0.801934 0.774427 1.000000
1.000000 0.773142 1.000000
0.013566 1.000000 1.000000
0.221168 1.000000 1.000000
0.513773 1.000000 1.000000
0.806377 1.000000 1.000000
1.000000 1.000000 1.000000
