docs/luts/fresh-powerful-cold.cube
TITLE "FreshLUTs??-???"
LUT_3D_SIZE 5
DOMAIN_MIN 0.0 0.0 0.0
DOMAIN_MAX 1.0 1.0 1.0
0.000000 0.006000 0.108000
0.162291 0.011943 0.100600
0.425078 0.019380 0.094694
0.687864 0.026818 0.088789
0.904156 0.032760 0.081389
0.000000 0.224960 0.093765
0.189660 0.230903 0.086365
0.452447 0.238340 0.080460
0.715233 0.245778 0.074554
0.931524 0.251721 0.067154
0.003086 0.482268 0.081878
0.219377 0.488211 0.074478
0.482164 0.495648 0.068573
0.741023 0.503522 0.070522
0.950250 0.510250 0.077250
0.032803 0.739576 0.069992
0.245426 0.745927 0.069926
0.501149 0.754149 0.078149
0.756872 0.762371 0.086372
0.966099 0.769099 0.093099
0.049700 0.959700 0.076700
0.258927 0.966427 0.083427
0.514650 0.974650 0.091650
0.770373 0.982873 0.099873
0.979600 0.989600 0.106600
0.000000 0.007981 0.284894
0.167265 0.013923 0.277493
0.430051 0.021361 0.271588
0.692837 0.028799 0.265683
0.909129 0.034741 0.258282
0.000000 0.226941 0.270659
0.194633 0.232883 0.263259
0.457420 0.240321 0.257353
0.720206 0.247759 0.251448
0.936498 0.253701 0.244048
0.008059 0.484249 0.258772
0.224350 0.490192 0.251372
0.487137 0.497629 0.245467
0.743302 0.505803 0.252803
0.952530 0.512530 0.259530
0.037776 0.741557 0.246885
0.247706 0.748206 0.252207
0.503429 0.756429 0.260429
0.759151 0.764652 0.268651
0.968379 0.771379 0.275379
0.051980 0.961980 0.258980
0.261207 0.968707 0.265708
0.516930 0.976930 0.273930
0.772652 0.985152 0.282153
0.981880 0.991880 0.288880
0.000000 0.011101 0.552927
0.173378 0.017044 0.545527
0.436164 0.024482 0.539621
0.698951 0.031919 0.533716
0.915242 0.037862 0.526316
0.000000 0.230062 0.538692
0.200747 0.236004 0.531292
0.463533 0.243442 0.525387
0.726320 0.250879 0.519482
0.940101 0.257101 0.517101
0.014172 0.487370 0.526806
0.230464 0.493312 0.519405
0.491000 0.501000 0.518000
0.746723 0.509223 0.526223
0.955950 0.515950 0.532950
0.041899 0.744899 0.518899
0.251126 0.751627 0.525626
0.506849 0.759849 0.533849
0.762572 0.768072 0.542072
0.971799 0.774799 0.548799
0.055400 0.965400 0.532400
0.264627 0.972128 0.539127
0.520350 0.980350 0.547350
0.776073 0.988572 0.555573
0.985300 0.995300 0.562300
0.000000 0.014222 0.820961
0.179491 0.020165 0.813560
0.442277 0.027603 0.807655
0.705064 0.035040 0.801750
0.921355 0.040983 0.794350
0.000000 0.233182 0.806726
0.206860 0.239125 0.799325
0.469646 0.246563 0.793420
0.732433 0.254000 0.787515
0.943521 0.260521 0.790521
0.020286 0.490490 0.794839
0.236577 0.496433 0.787439
0.494420 0.504420 0.791420
0.750143 0.512643 0.799643
0.959370 0.519370 0.806370
0.045319 0.748319 0.792319
0.254546 0.755047 0.799047
0.510269 0.763269 0.807269
0.765992 0.771491 0.815492
0.975219 0.778219 0.822219
0.058820 0.968820 0.805820
0.268047 0.975548 0.812548
0.523770 0.983770 0.820770
0.779493 0.991992 0.828993
0.988720 0.998720 0.835720
0.000000 0.016203 0.997854
0.184464 0.022146 0.990454
0.447251 0.029583 0.984549
0.710037 0.037021 0.978643
0.926328 0.042964 0.971243
0.000000 0.235163 0.983619
0.211833 0.241106 0.976219
0.474620 0.248543 0.970314
0.736573 0.256073 0.966074
0.945801 0.262801 0.972801
0.025259 0.492471 0.971732
0.240977 0.498478 0.965477
0.496700 0.506700 0.973700
0.752422 0.514922 0.981923
0.961650 0.521650 0.988650
0.047599 0.750599 0.974599
0.256826 0.757327 0.981326
0.512549 0.765549 0.989549
0.768271 0.773772 0.997772
0.977499 0.780499 1.000000
0.061100 0.971100 0.988100
0.270327 0.977827 0.994827
0.526050 0.986050 1.000000
0.781772 0.994273 1.000000
0.991000 1.000000 1.000000
