docs/luts/fresh-slog3-rec709.cube
TITLE "FreshLUTs??-SLog3Rec709"
LUT_3D_SIZE 33
DOMAIN_MIN 0.0 0.0 0.0
DOMAIN_MAX 1.0 1.0 1.0
0.000000 0.005000 0.018000
0.000000 0.005000 0.017647
0.027500 0.005000 0.017294
0.061250 0.005000 0.016940
0.095000 0.005000 0.016587
0.128750 0.005000 0.016234
0.162500 0.005000 0.015881
0.196250 0.005000 0.015528
0.230000 0.005000 0.015174
0.263750 0.005000 0.014821
0.297500 0.005000 0.014468
0.331250 0.005000 0.014115
0.365000 0.005000 0.013762
0.398750 0.005000 0.013408
0.432500 0.005000 0.013055
0.466250 0.005000 0.012702
0.500000 0.005000 0.012349
0.533750 0.005000 0.011996
0.567500 0.005000 0.011643
0.601250 0.005000 0.011289
0.635000 0.005000 0.010936
0.668750 0.005000 0.010583
0.702500 0.005000 0.010230
0.736250 0.005000 0.009877
0.770000 0.005000 0.009523
0.803750 0.005000 0.009170
0.837500 0.005000 0.008817
0.871250 0.005000 0.008464
0.905000 0.005000 0.008111
0.938750 0.005000 0.007757
0.972500 0.005000 0.007404
1.000000 0.005000 0.007051
1.000000 0.005000 0.006698
0.000000 0.005000 0.017307
0.000000 0.005000 0.016953
0.027500 0.005000 0.016600
0.061250 0.005000 0.016247
0.095000 0.005000 0.015894
0.128750 0.005000 0.015541
0.162500 0.005000 0.015187
0.196250 0.005000 0.014834
0.230000 0.005000 0.014481
0.263750 0.005000 0.014128
0.297500 0.005000 0.013775
0.331250 0.005000 0.013421
0.365000 0.005000 0.013068
0.398750 0.005000 0.012715
0.432500 0.005000 0.012362
0.466250 0.005000 0.012009
0.500000 0.005000 0.011656
0.533750 0.005000 0.011302
0.567500 0.005000 0.010949
0.601250 0.005000 0.010596
0.635000 0.005000 0.010243
0.668750 0.005000 0.009890
0.702500 0.005000 0.009536
0.736250 0.005000 0.009183
0.770000 0.005000 0.008830
0.803750 0.005000 0.008477
0.837500 0.005000 0.008124
0.871250 0.005000 0.007770
0.905000 0.005000 0.007417
0.938750 0.005000 0.007064
0.972500 0.005000 0.006711
1.000000 0.005000 0.006358
1.000000 0.005000 0.006004
0.000000 0.036875 0.016613
0.000000 0.036875 0.016260
0.027500 0.036875 0.015907
0.061250 0.036875 0.015554
0.095000 0.036875 0.015200
0.128750 0.036875 0.014847
0.162500 0.036875 0.014494
0.196250 0.036875 0.014141
0.230000 0.036875 0.013788
0.263750 0.036875 0.013434
0.297500 0.036875 0.013081
0.331250 0.036875 0.012728
0.365000 0.036875 0.012375
0.398750 0.036875 0.012022
0.432500 0.036875 0.011668
0.466250 0.036875 0.011315
0.500000 0.036875 0.010962
0.533750 0.036875 0.010609
0.567500 0.036875 0.010256
0.601250 0.036875 0.009903
0.635000 0.036875 0.009549
0.668750 0.036875 0.009196
0.702500 0.036875 0.008843
0.736250 0.036875 0.008490
0.770000 0.036875 0.008137
0.803750 0.036875 0.007783
0.837500 0.036875 0.007430
0.871250 0.036875 0.007077
0.905000 0.036875 0.006724
0.938750 0.036875 0.006371
0.972500 0.036875 0.006017
1.000000 0.036875 0.005664
1.000000 0.036875 0.005311
0.000000 0.070313 0.015920
0.000000 0.070313 0.015567
0.027500 0.070313 0.015213
0.061250 0.070313 0.014860
0.095000 0.070313 0.014507
0.128750 0.070313 0.014154
0.162500 0.070313 0.013801
0.196250 0.070313 0.013447
0.230000 0.070313 0.013094
0.263750 0.070313 0.012741
0.297500 0.070313 0.012388
0.331250 0.070313 0.012035
0.365000 0.070313 0.011681
0.398750 0.070313 0.011328
0.432500 0.070313 0.010975
0.466250 0.070313 0.010622
0.500000 0.070313 0.010269
0.533750 0.070313 0.009916
0.567500 0.070313 0.009562
0.601250 0.070313 0.009209
0.635000 0.070313 0.008856
0.668750 0.070313 0.008503
0.702500 0.070313 0.008150
0.736250 0.070313 0.007796
0.770000 0.070313 0.007443
0.803750 0.070313 0.007090
0.837500 0.070313 0.006737
0.871250 0.070313 0.006384
0.905000 0.070313 0.006030
0.938750 0.070313 0.005677
0.972500 0.070313 0.005324
1.000000 0.070313 0.004971
1.000000 0.070313 0.004618
0.000000 0.103750 0.015226
0.000000 0.103750 0.014873
0.027500 0.103750 0.014520
0.061250 0.103750 0.014167
0.095000 0.103750 0.013814
0.128750 0.103750 0.013460
0.162500 0.103750 0.013107
0.196250 0.103750 0.012754
0.230000 0.103750 0.012401
0.263750 0.103750 0.012048
0.297500 0.103750 0.011694
0.331250 0.103750 0.011341
0.365000 0.103750 0.010988
0.398750 0.103750 0.010635
0.432500 0.103750 0.010282
0.466250 0.103750 0.009929
0.500000 0.103750 0.009575
0.533750 0.103750 0.009222
0.567500 0.103750 0.008869
0.601250 0.103750 0.008516
0.635000 0.103750 0.008163
0.668750 0.103750 0.007809
0.702500 0.103750 0.007456
0.736250 0.103750 0.007103
0.770000 0.103750 0.006750
0.803750 0.103750 0.006397
0.837500 0.103750 0.006043
0.871250 0.103750 0.005690
0.905000 0.103750 0.005337
0.938750 0.103750 0.004984
0.972500 0.103750 0.004631
1.000000 0.103750 0.004277
1.000000 0.103750 0.003924
0.000000 0.137187 0.014533
0.000000 0.137187 0.014180
0.027500 0.137187 0.013827
0.061250 0.137187 0.013473
0.095000 0.137187 0.013120
0.128750 0.137187 0.012767
0.162500 0.137187 0.012414
0.196250 0.137187 0.012061
0.230000 0.137187 0.011707
0.263750 0.137187 0.011354
0.297500 0.137187 0.011001
0.331250 0.137187 0.010648
0.365000 0.137187 0.010295
0.398750 0.137187 0.009942
0.432500 0.137187 0.009588
0.466250 0.137187 0.009235
0.500000 0.137187 0.008882
0.533750 0.137187 0.008529
0.567500 0.137187 0.008176
0.601250 0.137187 0.007822
0.635000 0.137187 0.007469
0.668750 0.137187 0.007116
0.702500 0.137187 0.006763
0.736250 0.137187 0.006410
0.770000 0.137187 0.006056
0.803750 0.137187 0.005703
0.837500 0.137187 0.005350
0.871250 0.137187 0.004997
0.905000 0.137187 0.004644
0.938750 0.137187 0.004290
0.972500 0.137187 0.003937
1.000000 0.137187 0.003584
1.000000 0.137187 0.003231
0.000000 0.170625 0.013840
0.000000 0.170625 0.013486
0.027500 0.170625 0.013133
0.061250 0.170625 0.012780
0.095000 0.170625 0.012427
0.128750 0.170625 0.012074
0.162500 0.170625 0.011720
0.196250 0.170625 0.011367
0.230000 0.170625 0.011014
0.263750 0.170625 0.010661
0.297500 0.170625 0.010308
0.331250 0.170625 0.009955
0.365000 0.170625 0.009601
0.398750 0.170625 0.009248
0.432500 0.170625 0.008895
0.466250 0.170625 0.008542
0.500000 0.170625 0.008189
0.533750 0.170625 0.007835
0.567500 0.170625 0.007482
0.601250 0.170625 0.007129
0.635000 0.170625 0.006776
0.668750 0.170625 0.006423
0.702500 0.170625 0.006069
0.736250 0.170625 0.005716
0.770000 0.170625 0.005363
0.803750 0.170625 0.005010
0.837500 0.170625 0.004657
0.871250 0.170625 0.004303
0.905000 0.170625 0.003950
0.938750 0.170625 0.003597
0.972500 0.170625 0.003244
1.000000 0.170625 0.002891
1.000000 0.170625 0.002537
0.000000 0.204062 0.013146
0.000000 0.204062 0.012793
0.027500 0.204062 0.012440
0.061250 0.204062 0.012087
0.095000 0.204062 0.011733
0.128750 0.204062 0.011380
0.162500 0.204062 0.011027
0.196250 0.204062 0.010674
0.230000 0.204062 0.010321
0.263750 0.204062 0.009967
0.297500 0.204062 0.009614
0.331250 0.204062 0.009261
0.365000 0.204062 0.008908
0.398750 0.204062 0.008555
0.432500 0.204062 0.008202
0.466250 0.204062 0.007848
0.500000 0.204062 0.007495
0.533750 0.204062 0.007142
0.567500 0.204062 0.006789
0.601250 0.204062 0.006436
0.635000 0.204062 0.006082
0.668750 0.204062 0.005729
0.702500 0.204062 0.005376
0.736250 0.204062 0.005023
0.770000 0.204062 0.004670
0.803750 0.204062 0.004316
0.837500 0.204062 0.003963
0.871250 0.204062 0.003610
0.905000 0.204062 0.003257
0.938750 0.204062 0.002904
0.972500 0.204062 0.002550
1.000000 0.204062 0.002197
1.000000 0.204062 0.001844
0.000000 0.237500 0.012453
0.000000 0.237500 0.012100
0.027500 0.237500 0.011746
0.061250 0.237500 0.011393
0.095000 0.237500 0.011040
0.128750 0.237500 0.010687
0.162500 0.237500 0.010334
0.196250 0.237500 0.009980
0.230000 0.237500 0.009627
0.263750 0.237500 0.009274
0.297500 0.237500 0.008921
0.331250 0.237500 0.008568
0.365000 0.237500 0.008215
0.398750 0.237500 0.007861
0.432500 0.237500 0.007508
0.466250 0.237500 0.007155
0.500000 0.237500 0.006802
0.533750 0.237500 0.006449
0.567500 0.237500 0.006095
0.601250 0.237500 0.005742
0.635000 0.237500 0.005389
0.668750 0.237500 0.005036
0.702500 0.237500 0.004683
0.736250 0.237500 0.004329
0.770000 0.237500 0.003976
0.803750 0.237500 0.003623
0.837500 0.237500 0.003270
0.871250 0.237500 0.002917
0.905000 0.237500 0.002563
0.938750 0.237500 0.002210
0.972646 0.237500 0.001857
1.000000 0.237500 0.001504
1.000000 0.237500 0.001151
0.000000 0.270937 0.011759
0.000000 0.270937 0.011406
0.027500 0.270937 0.011053
0.061250 0.270937 0.010700
0.095000 0.270937 0.010347
0.128750 0.270937 0.009993
0.162500 0.270937 0.009640
0.196250 0.270937 0.009287
0.230000 0.270937 0.008934
0.263750 0.270937 0.008581
0.297500 0.270937 0.008228
0.331250 0.270937 0.007874
0.365000 0.270937 0.007521
0.398750 0.270937 0.007168
0.432500 0.270937 0.006815
0.466250 0.270937 0.006462
0.500000 0.270937 0.006108
0.533750 0.270937 0.005755
0.567500 0.270937 0.005402
0.601250 0.270937 0.005049
0.635000 0.270937 0.004696
0.668750 0.270937 0.004342
0.702500 0.270937 0.003989
0.736250 0.270937 0.003636
0.770000 0.270937 0.003283
0.803750 0.270937 0.002930
0.837500 0.270937 0.002576
0.871250 0.270937 0.002223
0.905139 0.270937 0.001870
0.939082 0.270937 0.001517
0.973026 0.270937 0.001164
1.000000 0.270937 0.000810
1.000000 0.270937 0.000457
0.000000 0.304375 0.011066
0.000000 0.304375 0.010713
0.027500 0.304375 0.010360
0.061250 0.304375 0.010006
0.095000 0.304375 0.009653
0.128750 0.304375 0.009300
0.162500 0.304375 0.008947
0.196250 0.304375 0.008594
0.230000 0.304375 0.008241
0.263750 0.304375 0.007887
0.297500 0.304375 0.007534
0.331250 0.304375 0.007181
0.365000 0.304375 0.006828
0.398750 0.304375 0.006475
0.432500 0.304375 0.006121
0.466250 0.304375 0.005768
0.500000 0.304375 0.005415
0.533750 0.304375 0.005062
0.567500 0.304375 0.004709
0.601250 0.304375 0.004355
0.635000 0.304375 0.004002
0.668750 0.304375 0.003649
0.702500 0.304375 0.003296
0.736250 0.304375 0.002943
0.770000 0.304375 0.002589
0.803750 0.304375 0.002236
0.837632 0.304375 0.001883
0.871575 0.304375 0.001530
0.905519 0.304375 0.001177
0.939462 0.304375 0.000823
0.973405 0.304375 0.000470
1.000000 0.304375 0.000117
1.000000 0.304375 0.000000
0.000000 0.337812 0.010373
0.000000 0.337812 0.010019
0.027500 0.337812 0.009666
0.061250 0.337812 0.009313
0.095000 0.337812 0.008960
0.128750 0.337812 0.008607
0.162500 0.337812 0.008254
0.196250 0.337812 0.007900
0.230000 0.337812 0.007547
0.263750 0.337812 0.007194
0.297500 0.337812 0.006841
0.331250 0.337812 0.006488
0.365000 0.337812 0.006134
0.398750 0.337812 0.005781
0.432500 0.337812 0.005428
0.466250 0.337812 0.005075
0.500000 0.337812 0.004722
0.533750 0.337812 0.004368
0.567500 0.337812 0.004015
0.601250 0.337812 0.003662
0.635000 0.337812 0.003309
0.668750 0.337812 0.002956
0.702500 0.337812 0.002602
0.736250 0.337812 0.002249
0.770125 0.337812 0.001896
0.804068 0.337812 0.001543
0.838011 0.337812 0.001190
0.871955 0.337812 0.000836
0.905898 0.337812 0.000483
0.939841 0.337812 0.000130
0.973785 0.337812 0.000000
1.000000 0.337812 0.000000
1.000000 0.337812 0.000000
0.000000 0.371250 0.009679
0.000000 0.371250 0.009326
0.027500 0.371250 0.008973
0.061250 0.371250 0.008620
0.095000 0.371250 0.008266
0.128750 0.371250 0.007913
0.162500 0.371250 0.007560
0.196250 0.371250 0.007207
0.230000 0.371250 0.006854
0.263750 0.371250 0.006501
0.297500 0.371250 0.006147
0.331250 0.371250 0.005794
0.365000 0.371250 0.005441
0.398750 0.371250 0.005088
0.432500 0.371250 0.004735
0.466250 0.371250 0.004381
0.500000 0.371250 0.004028
0.533750 0.371250 0.003675
0.567500 0.371250 0.003322
0.601250 0.371250 0.002969
0.635000 0.371250 0.002615
0.668750 0.371250 0.002262
0.702618 0.371250 0.001909
0.736561 0.371250 0.001556
0.770504 0.371250 0.001203
0.804448 0.371250 0.000849
0.838391 0.371250 0.000496
0.872334 0.371250 0.000143
0.906278 0.371250 0.000000
0.940221 0.371250 0.000000
0.974164 0.371250 0.000000
1.000000 0.371250 0.000000
1.000000 0.371250 0.000000
0.000000 0.404687 0.008986
0.000000 0.404687 0.008633
0.027500 0.404687 0.008279
0.061250 0.404687 0.007926
0.095000 0.404687 0.007573
0.128750 0.404687 0.007220
0.162500 0.404687 0.006867
0.196250 0.404687 0.006514
0.230000 0.404687 0.006160
0.263750 0.404687 0.005807
0.297500 0.404687 0.005454
0.331250 0.404687 0.005101
0.365000 0.404687 0.004748
0.398750 0.404687 0.004394
0.432500 0.404687 0.004041
0.466250 0.404687 0.003688
0.500000 0.404687 0.003335
0.533750 0.404687 0.002982
0.567500 0.404687 0.002628
0.601250 0.404687 0.002275
0.635111 0.404687 0.001922
0.669054 0.404687 0.001569
0.702997 0.404687 0.001216
0.736941 0.404687 0.000862
0.770884 0.404687 0.000509
0.804827 0.404687 0.000156
0.838770 0.404687 0.000000
0.872714 0.404687 0.000000
0.906657 0.404687 0.000000
0.940600 0.404687 0.000000
0.974544 0.404687 0.000000
1.000000 0.404687 0.000000
1.000000 0.404687 0.000000
0.000000 0.438125 0.008292
0.000000 0.438125 0.007939
0.027500 0.438125 0.007586
0.061250 0.438125 0.007233
0.095000 0.438125 0.006880
0.128750 0.438125 0.006527
0.162500 0.438125 0.006173
0.196250 0.438125 0.005820
0.230000 0.438125 0.005467
0.263750 0.438125 0.005114
0.297500 0.438125 0.004761
0.331250 0.438125 0.004407
0.365000 0.438125 0.004054
0.398750 0.438125 0.003701
0.432500 0.438125 0.003348
0.466250 0.438125 0.002995
0.500000 0.438125 0.002641
0.533750 0.438125 0.002288
0.567603 0.438125 0.001935
0.601547 0.438125 0.001582
0.635490 0.438125 0.001229
0.669433 0.438125 0.000875
0.703377 0.438125 0.000522
0.737320 0.438125 0.000169
0.771263 0.438125 0.000000
0.805207 0.438125 0.000000
0.839150 0.438125 0.000000
0.873093 0.438125 0.000000
0.907037 0.438125 0.000000
0.940980 0.438125 0.000000
0.974923 0.438125 0.000000
1.000000 0.438125 0.000000
1.000000 0.438125 0.000000
0.000000 0.471562 0.007599
0.000000 0.471562 0.007246
0.027500 0.471562 0.006893
0.061250 0.471562 0.006540
0.095000 0.471562 0.006186
0.128750 0.471562 0.005833
0.162500 0.471562 0.005480
0.196250 0.471562 0.005127
0.230000 0.471562 0.004774
0.263750 0.471562 0.004420
0.297500 0.471562 0.004067
0.331250 0.471562 0.003714
0.365000 0.471562 0.003361
0.398750 0.471562 0.003008
0.432500 0.471562 0.002654
0.466250 0.471562 0.002301
0.500096 0.471562 0.001948
0.534040 0.471562 0.001595
0.567983 0.471562 0.001242
0.601926 0.471562 0.000888
0.635870 0.471562 0.000535
0.669813 0.471562 0.000182
0.703756 0.471562 0.000000
0.737700 0.471562 0.000000
0.771643 0.471562 0.000000
0.805586 0.471562 0.000000
0.839530 0.471562 0.000000
0.873473 0.471562 0.000000
0.907416 0.471562 0.000000
0.941359 0.471562 0.000000
0.975303 0.471562 0.000000
1.000000 0.471562 0.000000
1.000000 0.471562 0.000000
0.000000 0.505000 0.006906
0.000000 0.505000 0.006553
0.027500 0.505000 0.006199
0.061250 0.505000 0.005846
0.095000 0.505000 0.005493
0.128750 0.505000 0.005140
0.162500 0.505000 0.004787
0.196250 0.505000 0.004433
0.230000 0.505000 0.004080
0.263750 0.505000 0.003727
0.297500 0.505000 0.003374
0.331250 0.505000 0.003021
0.365000 0.505000 0.002667
0.398750 0.505000 0.002314
0.432589 0.505000 0.001961
0.466533 0.505000 0.001608
0.500476 0.505000 0.001255
0.534419 0.505000 0.000901
0.568362 0.505000 0.000548
0.602306 0.505000 0.000195
0.636249 0.505000 0.000000
0.670192 0.505000 0.000000
0.704136 0.505000 0.000000
0.738079 0.505000 0.000000
0.772022 0.505000 0.000000
0.805966 0.505000 0.000000
0.839909 0.505000 0.000000
0.873852 0.505000 0.000000
0.907796 0.505000 0.000000
0.941739 0.505000 0.000000
0.975682 0.505000 0.000000
1.000000 0.505000 0.000000
1.000000 0.505000 0.000000
0.000000 0.538438 0.006212
0.000000 0.538438 0.005859
0.027500 0.538438 0.005506
0.061250 0.538438 0.005153
0.095000 0.538438 0.004800
0.128750 0.538438 0.004446
0.162500 0.538438 0.004093
0.196250 0.538438 0.003740
0.230000 0.538438 0.003387
0.263750 0.538438 0.003034
0.297500 0.538438 0.002680
0.331250 0.538438 0.002327
0.365082 0.538438 0.001974
0.399025 0.538438 0.001621
0.432969 0.538438 0.001268
0.466912 0.538438 0.000914
0.500855 0.538438 0.000561
0.534799 0.538438 0.000208
0.568742 0.538438 0.000000
0.602685 0.538438 0.000000
0.636629 0.538438 0.000000
0.670572 0.538438 0.000000
0.704515 0.538438 0.000000
0.738459 0.538438 0.000000
0.772402 0.538438 0.000000
0.806345 0.538438 0.000000
0.840289 0.538438 0.000000
0.874232 0.538438 0.000000
0.908175 0.538438 0.000000
0.942119 0.538438 0.000000
0.976062 0.538438 0.000000
1.000000 0.538438 0.000000
1.000000 0.538438 0.000000
0.000000 0.571875 0.005519
0.000000 0.571875 0.005166
0.027500 0.571875 0.004813
0.061250 0.571875 0.004459
0.095000 0.571875 0.004106
0.128750 0.571875 0.003753
0.162500 0.571875 0.003400
0.196250 0.571875 0.003047
0.230000 0.571875 0.002693
0.263750 0.571875 0.002340
0.297575 0.571875 0.001987
0.331518 0.571875 0.001634
0.365462 0.571875 0.001281
0.399405 0.571875 0.000927
0.433348 0.571875 0.000574
0.467292 0.571875 0.000221
0.501235 0.571875 0.000000
0.535178 0.571875 0.000000
0.569122 0.571875 0.000000
0.603065 0.571875 0.000000
0.637008 0.571875 0.000000
0.670952 0.571875 0.000000
0.704895 0.571875 0.000000
0.738838 0.571875 0.000000
0.772781 0.571875 0.000000
0.806725 0.571875 0.000000
0.840668 0.571875 0.000000
0.874611 0.571875 0.000000
0.908555 0.571875 0.000000
0.942498 0.571875 0.000000
0.976441 0.571875 0.000000
1.000000 0.571875 0.000000
1.000000 0.571875 0.000000
0.000000 0.605313 0.004826
0.000000 0.605313 0.004472
0.027500 0.605313 0.004119
0.061250 0.605313 0.003766
0.095000 0.605313 0.003413
0.128750 0.605313 0.003060
0.162500 0.605313 0.002706
0.196250 0.605313 0.002353
0.230068 0.605313 0.002000
0.264011 0.605313 0.001647
0.297955 0.605313 0.001294
0.331898 0.605313 0.000940
0.365841 0.605313 0.000587
0.399784 0.605313 0.000234
0.433728 0.605313 0.000000
0.467671 0.605313 0.000000
0.501614 0.605313 0.000000
0.535558 0.605313 0.000000
0.569501 0.605313 0.000000
0.603444 0.605313 0.000000
0.637388 0.605313 0.000000
0.671331 0.605313 0.000000
0.705274 0.605313 0.000000
0.739218 0.605313 0.000000
0.773161 0.605313 0.000000
0.807104 0.605313 0.000000
0.841048 0.605313 0.000000
0.874991 0.605313 0.000000
0.908934 0.605313 0.000000
0.942878 0.605313 0.000000
0.976821 0.605313 0.000000
1.000000 0.605313 0.000000
1.000000 0.605313 0.000000
0.000000 0.638750 0.004132
0.000000 0.638750 0.003779
0.027500 0.638750 0.003426
0.061250 0.638750 0.003073
0.095000 0.638750 0.002719
0.128750 0.638750 0.002366
0.162561 0.638750 0.002013
0.196504 0.638750 0.001660
0.230447 0.638750 0.001307
0.264391 0.638750 0.000953
0.298334 0.638750 0.000600
0.332277 0.638750 0.000247
0.366221 0.638750 0.000000
0.400164 0.638750 0.000000
0.434107 0.638750 0.000000
0.468051 0.638750 0.000000
0.501994 0.638750 0.000000
0.535937 0.638750 0.000000
0.569881 0.638750 0.000000
0.603824 0.638750 0.000000
0.637767 0.638750 0.000000
0.671711 0.638750 0.000000
0.705654 0.638750 0.000000
0.739597 0.638750 0.000000
0.773541 0.638750 0.000000
0.807484 0.638750 0.000000
0.841427 0.638750 0.000000
0.875370 0.638750 0.000000
0.909314 0.638750 0.000000
0.943257 0.638750 0.000000
0.977200 0.638750 0.000000
1.000000 0.638750 0.000000
1.000000 0.638750 0.000000
0.000000 0.672188 0.003439
0.000000 0.672188 0.003086
0.027500 0.672188 0.002732
0.061250 0.672188 0.002379
0.095054 0.672188 0.002026
0.128997 0.672188 0.001673
0.162940 0.672188 0.001320
0.196884 0.672188 0.000966
0.230827 0.672188 0.000613
0.264770 0.672188 0.000260
0.298714 0.672188 0.000000
0.332657 0.672188 0.000000
0.366600 0.672188 0.000000
0.400544 0.672188 0.000000
0.434487 0.672188 0.000000
0.468430 0.672188 0.000000
0.502373 0.672188 0.000000
0.536317 0.672188 0.000000
0.570260 0.672188 0.000000
0.604203 0.672188 0.000000
0.638147 0.672188 0.000000
0.672090 0.672188 0.000000
0.706033 0.672188 0.000000
0.739977 0.672188 0.000000
0.773920 0.672188 0.000000
0.807863 0.672188 0.000000
0.841807 0.672188 0.000000
0.875750 0.672188 0.000000
0.909693 0.672188 0.000000
0.943637 0.672188 0.000000
0.977580 0.672188 0.000000
1.000000 0.672188 0.000000
1.000000 0.672188 0.000000
0.000000 0.705625 0.002745
0.000000 0.705625 0.002392
0.027547 0.705625 0.002039
0.061490 0.705625 0.001686
0.095433 0.705625 0.001333
0.129377 0.705625 0.000979
0.163320 0.705625 0.000626
0.197263 0.705625 0.000273
0.231206 0.705625 0.000000
0.265150 0.705625 0.000000
0.299093 0.705625 0.000000
0.333036 0.705625 0.000000
0.366980 0.705625 0.000000
0.400923 0.705625 0.000000
0.434866 0.705625 0.000000
0.468810 0.705625 0.000000
0.502753 0.705625 0.000000
0.536696 0.705625 0.000000
0.570640 0.705625 0.000000
0.604583 0.705625 0.000000
0.638526 0.705625 0.000000
0.672470 0.705625 0.000000
0.706413 0.705625 0.000000
0.740356 0.705625 0.000000
0.774300 0.705625 0.000000
0.808243 0.705625 0.000000
0.842186 0.705625 0.000000
0.876130 0.705625 0.000000
0.910073 0.705625 0.000000
0.944016 0.705625 0.000000
0.977959 0.705625 0.000000
1.000000 0.705625 0.000000
1.000000 0.705625 0.000000
0.000039 0.739063 0.002052
0.000233 0.739063 0.001699
0.027926 0.739063 0.001346
0.061869 0.739063 0.000992
0.095813 0.739063 0.000639
0.129756 0.739063 0.000286
0.163699 0.739063 0.000000
0.197643 0.739063 0.000000
0.231586 0.739063 0.000000
0.265529 0.739063 0.000000
0.299473 0.739063 0.000000
0.333416 0.739063 0.000000
0.367359 0.739063 0.000000
0.401303 0.739063 0.000000
0.435246 0.739063 0.000000
0.469189 0.739063 0.000000
0.503133 0.739063 0.000000
0.537076 0.739063 0.000000
0.571019 0.739063 0.000000
0.604963 0.739063 0.000000
0.638906 0.739063 0.000000
0.672849 0.739063 0.000000
0.706792 0.739063 0.000000
0.740736 0.739063 0.000000
0.774679 0.739063 0.000000
0.808622 0.739063 0.000000
0.842566 0.739063 0.000000
0.876509 0.739063 0.000000
0.910452 0.739063 0.000000
0.944396 0.739063 0.000000
0.978339 0.739063 0.000000
1.000000 0.739063 0.000000
1.000000 0.739063 0.000000
0.000419 0.772500 0.001359
0.000612 0.772500 0.001005
0.028306 0.772500 0.000652
0.062249 0.772500 0.000299
0.096192 0.772500 0.000000
0.130136 0.772500 0.000000
0.164079 0.772500 0.000000
0.198022 0.772500 0.000000
0.231966 0.772500 0.000000
0.265909 0.772500 0.000000
0.299852 0.772500 0.000000
0.333795 0.772500 0.000000
0.367739 0.772500 0.000000
0.401682 0.772500 0.000000
0.435625 0.772500 0.000000
0.469569 0.772500 0.000000
0.503512 0.772500 0.000000
0.537455 0.772500 0.000000
0.571399 0.772500 0.000000
0.605342 0.772500 0.000000
0.639285 0.772500 0.000000
0.673229 0.772500 0.000000
0.707172 0.772500 0.000000
0.741115 0.772500 0.000000
0.775059 0.772500 0.000000
0.809002 0.772500 0.000000
0.842945 0.772500 0.000000
0.876889 0.772500 0.000000
0.910832 0.772500 0.000000
0.944775 0.772500 0.000000
0.978719 0.772500 0.000000
1.000000 0.772500 0.000000
1.000000 0.772500 0.000000
0.000798 0.805938 0.000665
0.000992 0.805938 0.000312
0.028685 0.805938 0.000000
0.062628 0.805938 0.000000
0.096572 0.805938 0.000000
0.130515 0.805938 0.000000
0.164458 0.805938 0.000000
0.198402 0.805938 0.000000
0.232345 0.805938 0.000000
0.266288 0.805938 0.000000
0.300232 0.805938 0.000000
0.334175 0.805938 0.000000
0.368118 0.805938 0.000000
0.402062 0.805938 0.000000
0.436005 0.805938 0.000000
0.469948 0.805938 0.000000
0.503892 0.805938 0.000000
0.537835 0.805938 0.000000
0.571778 0.805938 0.000000
0.605722 0.805938 0.000000
0.639665 0.805938 0.000000
0.673608 0.805938 0.000000
0.707552 0.805938 0.000000
0.741495 0.805938 0.000000
0.775438 0.805938 0.000000
0.809381 0.805938 0.000000
0.843325 0.805938 0.000000
0.877268 0.805938 0.000000
0.911211 0.805938 0.000000
0.945155 0.805938 0.000000
0.979098 0.805938 0.000000
1.000000 0.805938 0.000000
1.000000 0.805938 0.000000
0.001178 0.839375 0.000000
0.001371 0.839375 0.000000
0.029065 0.839375 0.000000
0.063008 0.839375 0.000000
0.096951 0.839375 0.000000
0.130895 0.839375 0.000000
0.164838 0.839375 0.000000
0.198781 0.839375 0.000000
0.232725 0.839375 0.000000
0.266668 0.839375 0.000000
0.300611 0.839375 0.000000
0.334555 0.839375 0.000000
0.368498 0.839375 0.000000
0.402441 0.839375 0.000000
0.436384 0.839375 0.000000
0.470328 0.839375 0.000000
0.504271 0.839375 0.000000
0.538214 0.839375 0.000000
0.572158 0.839375 0.000000
0.606101 0.839375 0.000000
0.640044 0.839375 0.000000
0.673988 0.839375 0.000000
0.707931 0.839375 0.000000
0.741874 0.839375 0.000000
0.775818 0.839375 0.000000
0.809761 0.839375 0.000000
0.843704 0.839375 0.000000
