docs/luts/fresh-severn-film.cube
TITLE "FreshLUTs??-????"
LUT_3D_SIZE 9
DOMAIN_MIN 0.0 0.0 0.0
DOMAIN_MAX 1.0 1.0 1.0
0.000000 0.000000 0.000000
0.074392 0.002392 0.000000
0.204578 0.006578 0.000000
0.334764 0.010764 0.000000
0.464950 0.014950 0.000000
0.595136 0.019136 0.000000
0.725322 0.023322 0.000000
0.855508 0.027508 0.007232
0.929900 0.029900 0.013155
0.005576 0.091076 0.000000
0.079968 0.093468 0.000000
0.210154 0.097654 0.000000
0.340340 0.101840 0.000000
0.470527 0.106026 0.000000
0.600712 0.110212 0.004306
0.730899 0.114398 0.012024
0.861085 0.118584 0.019742
0.935477 0.120976 0.025666
0.013501 0.220501 0.000000
0.087893 0.222893 0.000000
0.218079 0.227079 0.000000
0.348265 0.231265 0.003729
0.478451 0.235451 0.011447
0.608637 0.239637 0.019165
0.738823 0.243823 0.026882
0.869009 0.248009 0.034600
0.944511 0.250845 0.040524
0.021425 0.349926 0.000000
0.095817 0.352318 0.003151
0.226003 0.356503 0.010869
0.356189 0.360689 0.018587
0.486376 0.364875 0.026305
0.616561 0.369061 0.034023
0.747798 0.373668 0.041741
0.879595 0.378498 0.048933
0.955598 0.381535 0.051325
0.029350 0.479350 0.012086
0.103742 0.481742 0.018010
0.233928 0.485928 0.025728
0.364114 0.490114 0.033446
0.495291 0.494697 0.041163
0.627088 0.499527 0.048486
0.758885 0.504357 0.052672
0.890682 0.509188 0.056858
0.966685 0.512224 0.059250
0.037274 0.608774 0.026944
0.111666 0.611166 0.032868
0.242785 0.615725 0.040586
0.374582 0.620556 0.048038
0.506379 0.625386 0.052225
0.638176 0.630217 0.056411
0.769973 0.635047 0.060596
0.901770 0.639877 0.064782
0.977773 0.642914 0.067175
0.046072 0.738548 0.041803
0.122075 0.741585 0.047591
0.253872 0.746415 0.051777
0.385669 0.751245 0.055963
0.517466 0.756076 0.060149
0.649263 0.760906 0.064335
0.781060 0.765737 0.068521
0.912857 0.770567 0.072707
0.988860 0.773603 0.075099
0.057159 0.869238 0.053123
0.133162 0.872274 0.055515
0.264959 0.877105 0.059701
0.396756 0.881935 0.063887
0.528553 0.886765 0.068074
0.660350 0.891596 0.072260
0.792147 0.896426 0.076445
0.923944 0.901257 0.080631
0.999947 0.904293 0.083024
0.065898 0.961579 0.058700
0.141901 0.964616 0.061092
0.273698 0.969446 0.065278
0.405495 0.974276 0.069464
0.537292 0.979107 0.073650
0.669089 0.983937 0.077836
0.800886 0.988768 0.082022
0.932683 0.993598 0.086208
1.000000 0.996634 0.088600
0.000998 0.000998 0.036094
0.075389 0.003389 0.042018
0.205575 0.007575 0.049736
0.335761 0.011761 0.057454
0.465948 0.015948 0.065172
0.596134 0.020133 0.072890
0.726320 0.024319 0.080608
0.856506 0.028506 0.088326
0.930898 0.030897 0.094250
0.006574 0.092074 0.048605
0.080966 0.094466 0.054528
0.211152 0.098652 0.062246
0.341338 0.102838 0.069964
0.471524 0.107024 0.077682
0.601710 0.111210 0.085400
0.731896 0.115396 0.093118
0.862082 0.119582 0.100836
0.936474 0.121974 0.106760
0.014498 0.221498 0.063463
0.088890 0.223890 0.069387
0.219076 0.228076 0.077105
0.349262 0.232262 0.084823
0.479448 0.236448 0.092541
0.609635 0.240634 0.100259
0.739820 0.244820 0.107977
0.870120 0.249052 0.115695
0.946123 0.252088 0.121618
0.022423 0.350923 0.078321
0.096815 0.353315 0.084245
0.227001 0.357501 0.091963
0.357187 0.361687 0.099681
0.487373 0.365873 0.107399
0.617613 0.370081 0.115117
0.749410 0.374911 0.122835
0.881207 0.379741 0.128681
0.957210 0.382778 0.131073
0.030347 0.480348 0.093180
0.104739 0.482739 0.099104
0.234925 0.486926 0.106822
0.365111 0.491111 0.114540
0.496903 0.495940 0.122258
0.628700 0.500770 0.128233
0.760497 0.505601 0.132419
0.892294 0.510431 0.136605
0.968297 0.513467 0.138997
0.038272 0.609772 0.108038
0.112664 0.612164 0.113962
0.244396 0.616969 0.121680
0.376193 0.621799 0.127786
0.507990 0.626629 0.131972
0.639787 0.631460 0.136158
0.771584 0.636290 0.140344
0.903381 0.641121 0.144530
0.979384 0.644157 0.146922
0.047684 0.739791 0.122897
0.123687 0.742828 0.127338
0.255484 0.747658 0.131524
0.387281 0.752489 0.135710
0.519078 0.757319 0.139896
0.650875 0.762149 0.144082
0.782672 0.766980 0.148268
0.914469 0.771810 0.152454
0.990472 0.774847 0.154846
0.058771 0.870481 0.132871
0.134774 0.873517 0.135263
0.266571 0.878348 0.139449
0.398368 0.883178 0.143635
0.530165 0.888008 0.147821
0.661962 0.892839 0.152007
0.793759 0.897669 0.156193
0.925556 0.902500 0.160379
1.000000 0.905536 0.162771
0.067510 0.962823 0.138448
0.143513 0.965859 0.140840
0.275310 0.970689 0.145026
0.407107 0.975520 0.149211
0.538904 0.980350 0.153397
0.670701 0.985180 0.157583
0.802498 0.990011 0.161770
0.934295 0.994841 0.165956
1.000000 0.997878 0.168347
0.002565 0.002565 0.162758
0.076957 0.004957 0.168682
0.207143 0.009143 0.176400
0.337329 0.013329 0.184118
0.467515 0.017515 0.191836
0.597701 0.021701 0.199554
0.727887 0.025887 0.207272
0.858073 0.030073 0.214990
0.932465 0.032465 0.220914
0.008141 0.093641 0.175269
0.082533 0.096033 0.181193
0.212719 0.100219 0.188911
0.342905 0.104405 0.196628
0.473091 0.108591 0.204346
0.603278 0.112777 0.212064
0.733464 0.116963 0.219782
0.863650 0.121149 0.227500
0.938041 0.123541 0.233424
0.016066 0.223066 0.190127
0.090458 0.225458 0.196051
0.220644 0.229644 0.203769
0.350830 0.233830 0.211487
0.481016 0.238016 0.219205
0.611202 0.242202 0.226923
0.741388 0.246388 0.234641
0.872301 0.250865 0.242359
0.948304 0.253901 0.248283
0.023990 0.352490 0.204986
0.098382 0.354882 0.210909
0.228568 0.359069 0.218627
0.358754 0.363254 0.226345
0.488941 0.367441 0.234063
0.619795 0.371894 0.241781
0.751592 0.376724 0.249499
0.883389 0.381555 0.253998
0.959392 0.384591 0.256390
0.031915 0.481915 0.219844
0.106307 0.484307 0.225768
0.236493 0.488493 0.233486
0.367288 0.492923 0.241204
0.499085 0.497753 0.248922
0.630882 0.502583 0.253551
0.762679 0.507414 0.257737
0.894476 0.512244 0.261923
0.970479 0.515281 0.264315
0.039839 0.611340 0.234702
0.114781 0.613951 0.240626
0.246578 0.618782 0.248344
0.378375 0.623612 0.253103
0.510172 0.628443 0.257289
0.641969 0.633273 0.261475
0.773766 0.638103 0.265661
0.905563 0.642934 0.269847
0.981566 0.645970 0.272239
0.049865 0.741605 0.249561
0.125868 0.744641 0.252656
0.257665 0.749471 0.256842
0.389462 0.754302 0.261028
0.521259 0.759132 0.265214
0.653056 0.763962 0.269400
0.784853 0.768793 0.273586
0.916650 0.773623 0.277772
0.992653 0.776660 0.280164
0.060953 0.872294 0.258188
0.136955 0.875331 0.260580
0.268752 0.880161 0.264766
0.400549 0.884991 0.268952
0.532346 0.889822 0.273138
0.664143 0.894652 0.277324
0.795940 0.899482 0.281510
0.927737 0.904313 0.285696
1.000000 0.907349 0.288088
0.069692 0.964636 0.263765
0.145695 0.967672 0.266157
0.277492 0.972502 0.270343
0.409289 0.977333 0.274529
0.541086 0.982163 0.278715
0.672883 0.986994 0.282901
0.804680 0.991824 0.287087
0.936477 0.996654 0.291273
1.000000 0.999691 0.293665
0.004132 0.004132 0.289422
0.078524 0.006524 0.295346
0.208710 0.010710 0.303064
0.338896 0.014897 0.310782
0.469082 0.019083 0.318500
0.599268 0.023268 0.326218
0.729455 0.027454 0.333936
0.859641 0.031641 0.341654
0.934033 0.034032 0.347578
0.009709 0.095209 0.301933
0.084101 0.097601 0.307857
0.214287 0.101787 0.315575
0.344473 0.105973 0.323293
0.474659 0.110159 0.331011
0.604845 0.114345 0.338728
0.735031 0.118531 0.346446
0.865217 0.122717 0.354164
0.939609 0.125109 0.360088
0.017633 0.224633 0.316791
0.092025 0.227025 0.322715
0.222211 0.231211 0.330433
0.352397 0.235397 0.338151
0.482583 0.239583 0.345869
0.612769 0.243769 0.353587
0.742956 0.247955 0.361305
0.874483 0.252678 0.369023
0.950486 0.255715 0.373783
0.025558 0.354058 0.331650
0.099950 0.356450 0.337574
0.230136 0.360636 0.345292
0.360322 0.364822 0.353010
0.490508 0.369008 0.360727
0.621976 0.373707 0.368445
0.753773 0.378537 0.375130
0.885570 0.383368 0.379316
0.961573 0.386404 0.381708
0.033482 0.483483 0.346508
0.107874 0.485874 0.352432
0.238060 0.490061 0.360150
0.369470 0.494736 0.367868
0.501267 0.499566 0.374682
0.633064 0.504397 0.378868
0.764861 0.509227 0.383054
0.896658 0.514057 0.387240
0.972661 0.517094 0.389632
0.041407 0.612907 0.361367
0.116963 0.615765 0.367290
0.248760 0.620595 0.374235
0.380557 0.625425 0.378421
0.512354 0.630256 0.382607
0.644151 0.635086 0.386793
0.775948 0.639916 0.390979
0.907745 0.644747 0.395165
0.983748 0.647783 0.397557
0.052047 0.743418 0.375582
0.128050 0.746454 0.377973
0.259847 0.751285 0.382159
0.391644 0.756115 0.386346
0.523441 0.760945 0.390531
0.655238 0.765776 0.394717
0.787035 0.770606 0.398903
0.918832 0.775436 0.403089
0.994835 0.778473 0.405481
0.063134 0.874107 0.383506
0.139137 0.877144 0.385898
0.270934 0.881974 0.390084
0.402731 0.886804 0.394270
0.534528 0.891635 0.398456
0.666325 0.896465 0.402642
0.798122 0.901296 0.406828
0.929919 0.906126 0.411014
1.000000 0.909162 0.413406
0.071873 0.966449 0.389082
0.147876 0.969485 0.391475
0.279673 0.974316 0.395660
0.411470 0.979146 0.399846
0.543267 0.983976 0.404032
0.675064 0.988807 0.408218
0.806861 0.993637 0.412405
0.938658 0.998468 0.416591
1.000000 1.000000 0.418983
0.005700 0.005700 0.416087
0.080092 0.008092 0.422010
0.210278 0.012278 0.429728
0.340464 0.016464 0.437446
0.470650 0.020650 0.445164
0.600836 0.024836 0.452882
0.731022 0.029022 0.460600
0.861208 0.033208 0.468318
0.935600 0.035600 0.474242
0.011276 0.096776 0.428597
0.085668 0.099168 0.434521
0.215854 0.103354 0.442239
0.346040 0.107540 0.449957
0.476226 0.111726 0.457675
0.606413 0.115912 0.465393
0.736599 0.120098 0.473111
0.866785 0.124284 0.480828
0.941581 0.126838 0.486752
0.019201 0.226201 0.443455
0.093593 0.228593 0.449379
0.223779 0.232779 0.457097
0.353965 0.236965 0.464815
0.484151 0.241151 0.472533
0.614337 0.245337 0.480251
0.744868 0.249661 0.487969
0.876665 0.254491 0.495687
0.952668 0.257528 0.499101
0.027125 0.355625 0.458314
0.101517 0.358017 0.464238
0.231703 0.362204 0.471956
0.361889 0.366389 0.479674
0.492361 0.370690 0.487392
0.624158 0.375520 0.495110
0.755955 0.380351 0.500448
0.887752 0.385181 0.504633
0.963755 0.388217 0.507026
0.035050 0.485050 0.473172
0.109442 0.487442 0.479096
0.239854 0.491719 0.486814
0.371651 0.496549 0.494532
0.503448 0.501379 0.500000
0.635245 0.506210 0.504186
0.767042 0.511040 0.508372
0.898839 0.515871 0.512558
0.974842 0.518907 0.514950
0.043142 0.614541 0.488031
0.119145 0.617578 0.493955
0.250942 0.622408 0.499553
0.382738 0.627239 0.503738
0.514535 0.632069 0.507925
0.646332 0.636899 0.512111
0.778129 0.641730 0.516296
0.909926 0.646560 0.520482
0.985929 0.649596 0.522875
0.054229 0.745231 0.500899
0.130232 0.748267 0.503291
0.262029 0.753098 0.507477
0.393826 0.757928 0.511663
0.525623 0.762758 0.515849
0.657420 0.767589 0.520035
0.789217 0.772419 0.524221
0.921014 0.777250 0.528407
0.997017 0.780286 0.530799
0.065316 0.875920 0.508823
0.141319 0.878957 0.511216
0.273116 0.883787 0.515401
0.404913 0.888618 0.519587
0.536710 0.893448 0.523774
0.668507 0.898278 0.527959
0.800304 0.903109 0.532145
0.932101 0.907939 0.536331
1.000000 0.910976 0.538724
0.074055 0.968262 0.514400
0.150058 0.971298 0.516792
0.281855 0.976129 0.520978
0.413652 0.980959 0.525164
0.545449 0.985790 0.529350
0.677246 0.990620 0.533536
0.809043 0.995450 0.537722
0.940840 1.000000 0.541908
1.000000 1.000000 0.544300
0.007267 0.007267 0.542751
0.081659 0.009660 0.548675
0.211845 0.013845 0.556392
0.342031 0.018032 0.564110
0.472218 0.022218 0.571828
0.602404 0.026403 0.579546
0.732590 0.030589 0.587264
0.862776 0.034776 0.594982
0.937168 0.037167 0.600906
0.012844 0.098344 0.555261
0.087236 0.100736 0.561185
0.217422 0.104922 0.568903
0.347608 0.109108 0.576621
0.477794 0.113294 0.584339
0.607980 0.117480 0.592057
0.738166 0.121666 0.599775
0.868352 0.125852 0.607493
0.943762 0.128651 0.613417
0.020768 0.227768 0.570120
0.095160 0.230160 0.576043
0.225346 0.234346 0.583761
0.355532 0.238532 0.591479
0.485718 0.242718 0.599197
0.615905 0.246904 0.606915
0.747050 0.251474 0.614633
0.878847 0.256305 0.622026
0.954850 0.259341 0.624418
0.028693 0.357193 0.584978
0.103085 0.359585 0.590902
0.233271 0.363771 0.598620
0.363457 0.367957 0.606338
0.494543 0.372503 0.614056
0.626340 0.377333 0.621579
0.758137 0.382164 0.625765
0.889934 0.386994 0.629951
0.965937 0.390031 0.632343
0.036617 0.486617 0.599836
0.111009 0.489009 0.605760
0.242036 0.493532 0.613478
0.373833 0.498362 0.621131
0.505630 0.503192 0.625317
0.637427 0.508023 0.629503
0.769224 0.512853 0.633690
0.901021 0.517684 0.637875
0.977024 0.520720 0.640267
0.045323 0.616355 0.614695
0.121326 0.619391 0.620619
0.253123 0.624221 0.624870
0.384920 0.629052 0.629056
0.516717 0.633882 0.633242
0.648514 0.638712 0.637428
0.780311 0.643543 0.641614
0.912108 0.648373 0.645800
0.988111 0.651410 0.648192
0.056410 0.747044 0.626216
0.132413 0.750080 0.628608
0.264210 0.754911 0.632794
0.396007 0.759741 0.636980
0.527804 0.764572 0.641166
0.659601 0.769402 0.645352
0.791398 0.774232 0.649539
0.923195 0.779063 0.653724
0.999198 0.782099 0.656116
0.067498 0.877734 0.634141
0.143501 0.880770 0.636533
0.275298 0.885600 0.640719
0.407095 0.890431 0.644905
0.538892 0.895261 0.649091
0.670689 0.900092 0.653277
0.802486 0.904922 0.657463
0.934283 0.909752 0.661649
1.000000 0.912789 0.664041
0.076237 0.970075 0.639717
0.152240 0.973112 0.642109
0.284037 0.977942 0.646295
0.415834 0.982772 0.650481
0.547631 0.987603 0.654667
0.679428 0.992433 0.658853
0.811225 0.997264 0.663040
0.943022 1.000000 0.667226
1.000000 1.000000 0.669617
0.008835 0.008835 0.669415
0.083227 0.011227 0.675339
0.213413 0.015413 0.683057
0.343599 0.019599 0.690775
0.473785 0.023785 0.698492
0.603971 0.027971 0.706210
0.734157 0.032157 0.713928
0.864343 0.036343 0.721646
0.938735 0.038735 0.727570
0.014411 0.099911 0.681925
0.088803 0.102303 0.687849
0.218989 0.106489 0.695567
0.349175 0.110675 0.703285
0.479361 0.114861 0.711003
0.609548 0.119047 0.718721
0.739734 0.123233 0.726439
0.869941 0.127428 0.734157
0.945944 0.130465 0.740081
0.022336 0.229336 0.696784
0.096728 0.231728 0.702708
0.226914 0.235914 0.710426
0.357100 0.240100 0.718143
0.487286 0.244286 0.725861
0.617472 0.248472 0.733579
0.749231 0.253287 0.741297
0.881028 0.258118 0.747344
0.957031 0.261154 0.749736
0.030260 0.358760 0.711642
0.104652 0.361152 0.717566
0.234838 0.365339 0.725284
0.365024 0.369524 0.733002
0.496725 0.374316 0.740720
0.628522 0.379146 0.746897
0.760318 0.383977 0.751082
0.892115 0.388807 0.755269
0.968118 0.391844 0.757661
0.038185 0.488185 0.726500
0.112577 0.490577 0.732424
0.244218 0.495345 0.740142
0.376015 0.500175 0.746449
0.507812 0.505006 0.750635
0.639609 0.509836 0.754821
0.771406 0.514666 0.759007
0.903203 0.519497 0.763193
0.979206 0.522533 0.765585
0.047505 0.618168 0.741359
0.123508 0.621204 0.746001
0.255305 0.626034 0.750188
0.387102 0.630865 0.754374
0.518899 0.635695 0.758560
0.650696 0.640526 0.762746
0.782493 0.645356 0.766931
0.914290 0.650186 0.771118
0.990293 0.653223 0.773510
0.058592 0.748857 0.751534
0.134595 0.751894 0.753926
0.266392 0.756724 0.758112
0.398189 0.761554 0.762298
0.529986 0.766385 0.766484
0.661783 0.771215 0.770670
0.793580 0.776046 0.774856
0.925377 0.780876 0.779042
1.000000 0.783912 0.781434
0.069679 0.879547 0.759459
0.145682 0.882583 0.761850
0.277479 0.887414 0.766037
0.409276 0.892244 0.770223
0.541073 0.897074 0.774409
0.672870 0.901905 0.778595
0.804667 0.906735 0.782780
0.936464 0.911566 0.786967
1.000000 0.914602 0.789359
0.078419 0.971888 0.765035
0.154422 0.974925 0.767427
0.286219 0.979755 0.771613
0.418016 0.984586 0.775799
0.549813 0.989416 0.779985
0.681610 0.994246 0.784171
0.813407 0.999077 0.788357
0.945204 1.000000 0.792543
1.000000 1.000000 0.794935
0.010402 0.010402 0.796079
0.084794 0.012795 0.802003
0.214980 0.016981 0.809721
0.345166 0.021167 0.817439
0.475353 0.025353 0.825157
0.605538 0.029538 0.832875
0.735725 0.033724 0.840593
0.865911 0.037911 0.848310
0.940303 0.040303 0.854234
0.015979 0.101479 0.808589
0.090371 0.103871 0.814513
0.220557 0.108057 0.822231
0.350743 0.112243 0.829949
0.480929 0.116429 0.837667
0.611115 0.120615 0.845385
0.741301 0.124801 0.853103
0.872123 0.129241 0.860821
0.948126 0.132278 0.866745
0.023903 0.230903 0.823448
0.098295 0.233295 0.829372
0.228481 0.237481 0.837090
0.358667 0.241667 0.844808
0.488853 0.245853 0.852526
0.619616 0.250270 0.860243
0.751413 0.255101 0.867961
0.883210 0.259931 0.872662
0.959213 0.262967 0.875054
0.031828 0.360328 0.838306
0.106220 0.362720 0.844230
0.236406 0.366906 0.851948
0.367109 0.371299 0.859666
0.498906 0.376129 0.867384
0.630703 0.380960 0.872214
0.762500 0.385790 0.876400
0.894297 0.390620 0.880586
0.970300 0.393657 0.882978
0.039752 0.489753 0.853165
0.114602 0.492328 0.859089
0.246399 0.497158 0.866807
0.378196 0.501988 0.871767
0.509993 0.506819 0.875953
0.641790 0.511649 0.880139
0.773587 0.516480 0.884325
0.905384 0.521310 0.888511
0.981387 0.524346 0.890903
0.049687 0.619981 0.868023
0.125690 0.623017 0.871319
0.257487 0.627848 0.875505
0.389284 0.632678 0.879691
0.521081 0.637508 0.883877
0.652878 0.642339 0.888063
0.784675 0.647169 0.892249
0.916472 0.652000 0.896435
0.992475 0.655036 0.898827
0.060774 0.750670 0.876852
0.136777 0.753707 0.879244
0.268574 0.758537 0.883430
0.400371 0.763368 0.887616
0.532168 0.768198 0.891802
0.663965 0.773028 0.895988
0.795762 0.777859 0.900174
0.927559 0.782689 0.904360
1.000000 0.785726 0.906752
0.071861 0.881360 0.884776
0.147864 0.884396 0.887168
0.279661 0.889227 0.891354
0.411458 0.894057 0.895540
0.543255 0.898888 0.899726
0.675052 0.903718 0.903912
0.806849 0.908548 0.908098
0.938646 0.913379 0.912284
1.000000 0.916415 0.914676
0.080600 0.973702 0.890353
0.156603 0.976738 0.892745
0.288400 0.981568 0.896931
0.420197 0.986399 0.901117
0.551994 0.991229 0.905303
0.683791 0.996060 0.909489
0.815588 1.000000 0.913675
0.947385 1.000000 0.917861
1.000000 1.000000 0.920253
0.011400 0.011400 0.877173
0.085792 0.013792 0.883097
0.215978 0.017978 0.890815
0.346164 0.022164 0.898533
0.476350 0.026350 0.906251
0.606536 0.030536 0.913969
0.736722 0.034722 0.921687
0.866908 0.038908 0.929405
0.941300 0.041300 0.935329
0.016977 0.102476 0.889683
0.091368 0.104868 0.895607
0.221554 0.109054 0.903325
0.351741 0.113240 0.911043
0.481927 0.117426 0.918761
0.612113 0.121612 0.926479
0.742298 0.125798 0.934197
0.873735 0.130484 0.941915
0.949737 0.133521 0.946877
0.024901 0.231901 0.904542
0.099293 0.234293 0.910466
0.229479 0.238479 0.918184
0.359665 0.242665 0.925902
0.489851 0.246851 0.933620
0.621228 0.251513 0.941338
0.753025 0.256344 0.948223
0.884822 0.261174 0.952409
0.960825 0.264210 0.954801
0.032826 0.361325 0.919400
0.107217 0.363717 0.925324
0.237403 0.367903 0.933042
0.368721 0.372542 0.940760
0.500518 0.377372 0.947775
0.632315 0.382203 0.951962
0.764112 0.387033 0.956147
0.895909 0.391864 0.960333
0.971912 0.394900 0.962726
0.040750 0.490750 0.934259
0.116214 0.493571 0.940183
0.248011 0.498401 0.947328
0.379808 0.503232 0.951514
0.511605 0.508062 0.955700
0.643402 0.512892 0.959886
0.775199 0.517723 0.964072
0.906996 0.522553 0.968258
0.982999 0.525590 0.970650
0.051298 0.621224 0.948675
0.127301 0.624260 0.951067
0.259098 0.629091 0.955253
0.390895 0.633921 0.959439
0.522692 0.638752 0.963624
0.654489 0.643582 0.967811
0.786286 0.648412 0.971996
0.918083 0.653243 0.976182
0.994086 0.656279 0.978575
0.062386 0.751914 0.956599
0.138389 0.754950 0.958991
0.270186 0.759780 0.963177
0.401983 0.764611 0.967363
0.533780 0.769441 0.971549
0.665577 0.774272 0.975735
0.797374 0.779102 0.979921
0.929171 0.783932 0.984107
1.000000 0.786969 0.986499
0.073473 0.882603 0.964524
0.149476 0.885640 0.966916
0.281273 0.890470 0.971102
0.413070 0.895300 0.975287
0.544867 0.900131 0.979473
0.676664 0.904961 0.983660
0.808461 0.909792 0.987846
0.940258 0.914622 0.992031
1.000000 0.917658 0.994424
0.082212 0.974945 0.970100
0.158215 0.977981 0.972492
0.290012 0.982812 0.976678
0.421809 0.987642 0.980864
0.553606 0.992472 0.985050
0.685403 0.997303 0.989236
0.817200 1.000000 0.993422
0.948997 1.000000 0.997608
1.000000 1.000000 1.000000
