docs/luts/fresh-kodak-portra-bmd.cube
TITLE "FreshLUTs??-KodakPortraBMD"
LUT_3D_SIZE 33
DOMAIN_MIN 0.0 0.0 0.0
DOMAIN_MAX 1.0 1.0 1.0
0.039426 0.033026 0.015266
0.067475 0.034125 0.016365
0.095523 0.035223 0.017463
0.123572 0.036322 0.018562
0.151621 0.037421 0.019661
0.179670 0.038520 0.020760
0.207719 0.039619 0.021859
0.235768 0.040718 0.022958
0.263816 0.041816 0.024056
0.291865 0.042915 0.025155
0.319914 0.044014 0.026254
0.347963 0.045113 0.027353
0.376012 0.046212 0.028452
0.404061 0.047311 0.029551
0.432109 0.048409 0.030649
0.460158 0.049508 0.031748
0.488207 0.050607 0.032847
0.516256 0.051706 0.033946
0.544305 0.052805 0.035045
0.572353 0.053903 0.036143
0.600402 0.055002 0.037242
0.628451 0.056101 0.038341
0.656500 0.057200 0.039440
0.684549 0.058299 0.040539
0.712598 0.059398 0.041638
0.740646 0.060496 0.042736
0.768695 0.061595 0.043835
0.796744 0.062694 0.044934
0.824793 0.063793 0.046033
0.852842 0.064892 0.047132
0.880891 0.065991 0.048231
0.908939 0.067089 0.049329
0.936988 0.068188 0.050428
0.041561 0.061836 0.017401
0.069610 0.062935 0.018500
0.097659 0.064034 0.019599
0.125707 0.065132 0.020697
0.153756 0.066231 0.021796
0.181805 0.067330 0.022895
0.209854 0.068429 0.023994
0.237903 0.069528 0.025093
0.265952 0.070627 0.026192
0.294000 0.071725 0.027290
0.322049 0.072824 0.028389
0.350098 0.073923 0.029488
0.378147 0.075022 0.030587
0.406196 0.076121 0.031686
0.434245 0.077220 0.032785
0.462293 0.078318 0.033883
0.490342 0.079417 0.034982
0.518391 0.080516 0.036081
0.546440 0.081615 0.037180
0.574489 0.082714 0.038279
0.602538 0.083813 0.039378
0.630586 0.084911 0.040476
0.658635 0.086010 0.041575
0.686684 0.087109 0.042674
0.714733 0.088208 0.043773
0.742782 0.089307 0.044872
0.770830 0.090405 0.045970
0.798879 0.091504 0.047069
0.826928 0.092603 0.048168
0.854977 0.093702 0.049267
0.883026 0.094801 0.050366
0.911075 0.095900 0.051465
0.939123 0.096998 0.052563
0.043696 0.090646 0.019536
0.071745 0.091745 0.020635
0.099794 0.092844 0.021734
0.127843 0.093943 0.022833
0.155892 0.095042 0.023932
0.183940 0.096140 0.025030
0.211989 0.097239 0.026129
0.240038 0.098338 0.027228
0.268087 0.099437 0.028327
0.296136 0.100536 0.029426
0.324184 0.101634 0.030524
0.352233 0.102733 0.031623
0.380282 0.103832 0.032722
0.408331 0.104931 0.033821
0.436380 0.106030 0.034920
0.464429 0.107129 0.036019
0.492477 0.108227 0.037117
0.520526 0.109326 0.038216
0.548575 0.110425 0.039315
0.576624 0.111524 0.040414
0.604673 0.112623 0.041513
0.632722 0.113722 0.042612
0.660770 0.114820 0.043710
0.688819 0.115919 0.044809
0.716868 0.117018 0.045908
0.744917 0.118117 0.047007
0.772966 0.119216 0.048106
0.801015 0.120315 0.049205
0.829063 0.121413 0.050303
0.857112 0.122512 0.051402
0.885161 0.123611 0.052501
0.913210 0.124710 0.053600
0.941259 0.125809 0.054699
0.045831 0.119456 0.021671
0.073880 0.120555 0.022770
0.101929 0.121654 0.023869
0.129978 0.122753 0.024968
0.158027 0.123852 0.026067
0.186076 0.124951 0.027166
0.214124 0.126049 0.028264
0.242173 0.127148 0.029363
0.270222 0.128247 0.030462
0.298271 0.129346 0.031561
0.326320 0.130445 0.032660
0.354369 0.131544 0.033759
0.382417 0.132642 0.034857
0.410466 0.133741 0.035956
0.438515 0.134840 0.037055
0.466564 0.135939 0.038154
0.494613 0.137038 0.039253
0.522661 0.138136 0.040351
0.550710 0.139235 0.041450
0.578759 0.140334 0.042549
0.606808 0.141433 0.043648
0.634857 0.142532 0.044747
0.662906 0.143631 0.045846
0.690954 0.144729 0.046944
0.719003 0.145828 0.048043
0.747052 0.146927 0.049142
0.775101 0.148026 0.050241
0.803150 0.149125 0.051340
0.831199 0.150224 0.052439
0.859247 0.151322 0.053537
0.887296 0.152421 0.054636
0.915345 0.153520 0.055735
0.943394 0.154619 0.056834
0.047967 0.148267 0.023807
0.076015 0.149365 0.024905
0.104064 0.150464 0.026004
0.132113 0.151563 0.027103
0.160162 0.152662 0.028202
0.188211 0.153761 0.029301
0.216260 0.154860 0.030400
0.244308 0.155958 0.031498
0.272357 0.157057 0.032597
0.300406 0.158156 0.033696
0.328455 0.159255 0.034795
0.356504 0.160354 0.035894
0.384553 0.161453 0.036993
0.412601 0.162551 0.038091
0.440650 0.163650 0.039190
0.468699 0.164749 0.040289
0.496748 0.165848 0.041388
0.524797 0.166947 0.042487
0.552846 0.168045 0.043586
0.580894 0.169144 0.044684
0.608943 0.170243 0.045783
0.636992 0.171342 0.046882
0.665041 0.172441 0.047981
0.693090 0.173540 0.049080
0.721138 0.174638 0.050178
0.749187 0.175737 0.051277
0.777236 0.176836 0.052376
0.805285 0.177935 0.053475
0.833334 0.179034 0.054574
0.861383 0.180133 0.055673
0.889431 0.181231 0.056771
0.917480 0.182330 0.057870
0.945529 0.183429 0.058969
0.050102 0.177077 0.025942
0.078151 0.178176 0.027041
0.106200 0.179275 0.028140
0.134248 0.180373 0.029238
0.162297 0.181472 0.030337
0.190346 0.182571 0.031436
0.218395 0.183670 0.032535
0.246444 0.184769 0.033634
0.274492 0.185867 0.034732
0.302541 0.186966 0.035831
0.330590 0.188065 0.036930
0.358639 0.189164 0.038029
0.386688 0.190263 0.039128
0.414737 0.191362 0.040227
0.442785 0.192460 0.041325
0.470834 0.193559 0.042424
0.498883 0.194658 0.043523
0.526932 0.195757 0.044622
0.554981 0.196856 0.045721
0.583030 0.197955 0.046820
0.611078 0.199053 0.047918
0.639127 0.200152 0.049017
0.667176 0.201251 0.050116
0.695225 0.202350 0.051215
0.723274 0.203449 0.052314
0.751322 0.204547 0.053412
0.779371 0.205646 0.054511
0.807420 0.206745 0.055610
0.835469 0.207844 0.056709
0.863518 0.208943 0.057808
0.891567 0.210042 0.058907
0.919615 0.211140 0.060005
0.947664 0.212239 0.061104
0.052237 0.205887 0.028077
0.080286 0.206986 0.029176
0.108335 0.208085 0.030275
0.136384 0.209184 0.031374
0.164432 0.210282 0.032472
0.192481 0.211381 0.033571
0.220530 0.212480 0.034670
0.248579 0.213579 0.035769
0.276628 0.214678 0.036868
0.304677 0.215777 0.037967
0.332725 0.216875 0.039065
0.360774 0.217974 0.040164
0.388823 0.219073 0.041263
0.416872 0.220172 0.042362
0.444921 0.221271 0.043461
0.472969 0.222369 0.044559
0.501018 0.223468 0.045658
0.529067 0.224567 0.046757
0.557116 0.225666 0.047856
0.585165 0.226765 0.048955
0.613214 0.227864 0.050054
0.641262 0.228962 0.051152
0.669311 0.230061 0.052251
0.697360 0.231160 0.053350
0.725409 0.232259 0.054449
0.753458 0.233358 0.055548
0.781507 0.234457 0.056647
0.809555 0.235555 0.057745
0.837604 0.236654 0.058844
0.865653 0.237753 0.059943
0.893702 0.238852 0.061042
0.921751 0.239951 0.062141
0.949799 0.241049 0.063239
0.054372 0.234697 0.030212
0.082421 0.235796 0.031311
0.110470 0.236895 0.032410
0.138519 0.237994 0.033509
0.166568 0.239093 0.034608
0.194616 0.240191 0.035706
0.222665 0.241290 0.036805
0.250714 0.242389 0.037904
0.278763 0.243488 0.039003
0.306812 0.244587 0.040102
0.334861 0.245686 0.041201
0.362909 0.246784 0.042299
0.390958 0.247883 0.043398
0.419007 0.248982 0.044497
0.447056 0.250081 0.045596
0.475105 0.251180 0.046695
0.503153 0.252278 0.047793
0.531202 0.253377 0.048892
0.559251 0.254476 0.049991
0.587300 0.255575 0.051090
0.615349 0.256674 0.052189
0.643398 0.257773 0.053288
0.671446 0.258871 0.054386
0.699495 0.259970 0.055485
0.727544 0.261069 0.056584
0.755593 0.262168 0.057683
0.783642 0.263267 0.058782
0.811691 0.264366 0.059881
0.839739 0.265464 0.060979
0.867788 0.266563 0.062078
0.895837 0.267662 0.063177
0.923886 0.268761 0.064276
0.951935 0.269860 0.065375
0.056507 0.263508 0.032348
0.084556 0.264606 0.033446
0.112605 0.265705 0.034545
0.140654 0.266804 0.035644
0.168703 0.267903 0.036743
0.196752 0.269002 0.037842
0.224800 0.270100 0.038940
0.252849 0.271199 0.040039
0.280898 0.272298 0.041138
0.308947 0.273397 0.042237
0.336996 0.274496 0.043336
0.365045 0.275595 0.044435
0.393093 0.276693 0.045533
0.421142 0.277792 0.046632
0.449191 0.278891 0.047731
0.477240 0.279990 0.048830
0.505289 0.281089 0.049929
0.533338 0.282188 0.051028
0.561386 0.283286 0.052126
0.589435 0.284385 0.053225
0.617484 0.285484 0.054324
0.645533 0.286583 0.055423
0.673582 0.287682 0.056522
0.701630 0.288780 0.057620
0.729679 0.289879 0.058719
0.757728 0.290978 0.059818
0.785777 0.292077 0.060917
0.813826 0.293176 0.062016
0.841875 0.294275 0.063115
0.869923 0.295373 0.064213
0.897972 0.296472 0.065312
0.926021 0.297571 0.066411
0.954070 0.298670 0.067510
0.058643 0.292318 0.034483
0.086692 0.293417 0.035582
0.114740 0.294515 0.036680
0.142789 0.295614 0.037779
0.170838 0.296713 0.038878
0.198887 0.297812 0.039977
0.226936 0.298911 0.041076
0.254984 0.300009 0.042174
0.283033 0.301108 0.043273
0.311082 0.302207 0.044372
0.339131 0.303306 0.045471
0.367180 0.304405 0.046570
0.395229 0.305504 0.047669
0.423277 0.306602 0.048767
0.451326 0.307701 0.049866
0.479375 0.308800 0.050965
0.507424 0.309899 0.052064
0.535473 0.310998 0.053163
0.563522 0.312097 0.054262
0.591570 0.313195 0.055360
0.619619 0.314294 0.056459
0.647668 0.315393 0.057558
0.675717 0.316492 0.058657
0.703766 0.317591 0.059756
0.731815 0.318690 0.060855
0.759863 0.319788 0.061953
0.787912 0.320887 0.063052
0.815961 0.321986 0.064151
0.844010 0.323085 0.065250
0.872059 0.324184 0.066349
0.900107 0.325282 0.067447
0.928156 0.326381 0.068546
0.956205 0.327480 0.069645
0.060778 0.321128 0.036618
0.088827 0.322227 0.037717
0.116876 0.323326 0.038816
0.144924 0.324424 0.039914
0.172973 0.325523 0.041013
0.201022 0.326622 0.042112
0.229071 0.327721 0.043211
0.257120 0.328820 0.044310
0.285169 0.329919 0.045409
0.313217 0.331017 0.046507
0.341266 0.332116 0.047606
0.369315 0.333215 0.048705
0.397364 0.334314 0.049804
0.425413 0.335413 0.050903
0.453461 0.336511 0.052001
0.481510 0.337610 0.053100
0.509559 0.338709 0.054199
0.537608 0.339808 0.055298
0.565657 0.340907 0.056397
0.593706 0.342006 0.057496
0.621754 0.343104 0.058594
0.649803 0.344203 0.059693
0.677852 0.345302 0.060792
0.705901 0.346401 0.061891
0.733950 0.347500 0.062990
0.761999 0.348599 0.064089
0.790047 0.349697 0.065187
0.818096 0.350796 0.066286
0.846145 0.351895 0.067385
0.874194 0.352994 0.068484
0.902243 0.354093 0.069583
0.930292 0.355191 0.070682
0.958340 0.356290 0.071780
0.062913 0.349938 0.038753
0.090962 0.351037 0.039852
0.119011 0.352136 0.040951
0.147060 0.353235 0.042050
0.175108 0.354333 0.043148
0.203157 0.355432 0.044247
0.231206 0.356531 0.045346
0.259255 0.357630 0.046445
0.287304 0.358729 0.047544
0.315353 0.359828 0.048643
0.343401 0.360926 0.049741
0.371450 0.362025 0.050840
0.399499 0.363124 0.051939
0.427548 0.364223 0.053038
0.455597 0.365322 0.054137
0.483646 0.366421 0.055236
0.511694 0.367519 0.056334
0.539743 0.368618 0.057433
0.567792 0.369717 0.058532
0.595841 0.370816 0.059631
0.623890 0.371915 0.060730
0.651938 0.373013 0.061828
0.679987 0.374112 0.062927
0.708036 0.375211 0.064026
0.736085 0.376310 0.065125
0.764134 0.377409 0.066224
0.792183 0.378508 0.067323
0.820231 0.379606 0.068421
0.848280 0.380705 0.069520
0.876329 0.381804 0.070619
0.904378 0.382903 0.071718
0.932427 0.384002 0.072817
0.960476 0.385101 0.073916
0.065048 0.378748 0.040888
0.093097 0.379847 0.041987
0.121146 0.380946 0.043086
0.149195 0.382045 0.044185
0.177244 0.383144 0.045284
0.205292 0.384242 0.046382
0.233341 0.385341 0.047481
0.261390 0.386440 0.048580
0.289439 0.387539 0.049679
0.317488 0.388638 0.050778
0.345537 0.389737 0.051877
0.373585 0.390835 0.052975
0.401634 0.391934 0.054074
0.429683 0.393033 0.055173
0.457732 0.394132 0.056272
0.485781 0.395231 0.057371
0.513830 0.396330 0.058470
0.541878 0.397428 0.059568
0.569927 0.398527 0.060667
0.597976 0.399626 0.061766
0.626025 0.400725 0.062865
0.654074 0.401824 0.063964
0.682123 0.402923 0.065062
0.710171 0.404021 0.066161
0.738220 0.405120 0.067260
0.766269 0.406219 0.068359
0.794318 0.407318 0.069458
0.822367 0.408417 0.070557
0.850415 0.409515 0.071655
0.878464 0.410614 0.072754
0.906513 0.411713 0.073853
0.934562 0.412812 0.074952
0.962611 0.413911 0.076051
0.067184 0.407559 0.043024
0.095232 0.408657 0.044122
0.123281 0.409756 0.045221
0.151330 0.410855 0.046320
0.179379 0.411954 0.047419
0.207428 0.413053 0.048518
0.235477 0.414152 0.049617
0.263525 0.415250 0.050715
0.291574 0.416349 0.051814
0.319623 0.417448 0.052913
0.347672 0.418547 0.054012
0.375721 0.419646 0.055111
0.403769 0.420744 0.056209
0.431818 0.421843 0.057308
0.459867 0.422942 0.058407
0.487916 0.424041 0.059506
0.515965 0.425140 0.060605
0.544014 0.426239 0.061704
0.572062 0.427337 0.062802
0.600111 0.428436 0.063901
0.628160 0.429535 0.065000
0.656209 0.430634 0.066099
0.684258 0.431733 0.067198
0.712307 0.432832 0.068297
0.740355 0.433930 0.069395
0.768404 0.435029 0.070494
0.796453 0.436128 0.071593
0.824502 0.437227 0.072692
0.852551 0.438326 0.073791
0.880599 0.439424 0.074889
0.908648 0.440523 0.075988
0.936697 0.441622 0.077087
0.964746 0.442721 0.078186
0.069319 0.436369 0.045159
0.097368 0.437468 0.046258
0.125416 0.438566 0.047356
0.153465 0.439665 0.048455
0.181514 0.440764 0.049554
0.209563 0.441863 0.050653
0.237612 0.442962 0.051752
0.265661 0.444061 0.052851
0.293709 0.445159 0.053949
0.321758 0.446258 0.055048
0.349807 0.447357 0.056147
0.377856 0.448456 0.057246
0.405905 0.449555 0.058345
0.433953 0.450654 0.059444
0.462002 0.451752 0.060542
0.490051 0.452851 0.061641
0.518100 0.453950 0.062740
0.546149 0.455049 0.063839
0.574198 0.456148 0.064938
0.602246 0.457246 0.066036
0.630295 0.458345 0.067135
0.658344 0.459444 0.068234
0.686393 0.460543 0.069333
0.714442 0.461642 0.070432
0.742491 0.462741 0.071531
0.770539 0.463839 0.072629
0.798588 0.464938 0.073728
0.826637 0.466037 0.074827
0.854686 0.467136 0.075926
0.882735 0.468235 0.077025
0.910784 0.469334 0.078124
0.938832 0.470432 0.079222
0.966881 0.471531 0.080321
0.071454 0.465179 0.047294
0.099503 0.466278 0.048393
0.127552 0.467377 0.049492
0.155600 0.468475 0.050590
0.183649 0.469574 0.051689
0.211698 0.470673 0.052788
0.239747 0.471772 0.053887
0.267796 0.472871 0.054986
0.295845 0.473970 0.056085
0.323893 0.475068 0.057183
0.351942 0.476167 0.058282
0.379991 0.477266 0.059381
0.408040 0.478365 0.060480
0.436089 0.479464 0.061579
0.464138 0.480563 0.062678
0.492186 0.481661 0.063776
0.520235 0.482760 0.064875
0.548284 0.483859 0.065974
0.576333 0.484958 0.067073
0.604382 0.486057 0.068172
0.632430 0.487155 0.069270
0.660479 0.488254 0.070369
0.688528 0.489353 0.071468
0.716577 0.490452 0.072567
0.744626 0.491551 0.073666
0.772675 0.492650 0.074765
0.800723 0.493748 0.075863
0.828772 0.494847 0.076962
0.856821 0.495946 0.078061
0.884870 0.497045 0.079160
0.912919 0.498144 0.080259
0.940968 0.499243 0.081358
0.969016 0.500341 0.082456
0.073589 0.493989 0.049429
0.101638 0.495088 0.050528
0.129687 0.496187 0.051627
0.157736 0.497286 0.052726
0.185784 0.498385 0.053825
0.213833 0.499483 0.054923
0.241882 0.500582 0.056022
0.269931 0.501681 0.057121
0.297980 0.502780 0.058220
0.326029 0.503879 0.059319
0.354077 0.504977 0.060417
0.382126 0.506076 0.061516
0.410175 0.507175 0.062615
0.438224 0.508274 0.063714
0.466273 0.509373 0.064813
0.494322 0.510472 0.065912
0.522370 0.511570 0.067010
0.550419 0.512669 0.068109
0.578468 0.513768 0.069208
0.606517 0.514867 0.070307
0.634566 0.515966 0.071406
0.662615 0.517065 0.072505
0.690663 0.518163 0.073603
0.718712 0.519262 0.074702
0.746761 0.520361 0.075801
0.774810 0.521460 0.076900
0.802859 0.522559 0.077999
0.830907 0.523657 0.079097
0.858956 0.524756 0.080196
0.887005 0.525855 0.081295
0.915054 0.526954 0.082394
0.943103 0.528053 0.083493
0.971152 0.529152 0.084592
0.075724 0.522799 0.051564
0.103773 0.523898 0.052663
0.131822 0.524997 0.053762
0.159871 0.526096 0.054861
0.187920 0.527195 0.055960
0.215969 0.528294 0.057059
0.244017 0.529392 0.058157
0.272066 0.530491 0.059256
0.300115 0.531590 0.060355
0.328164 0.532689 0.061454
0.356213 0.533788 0.062553
0.384261 0.534886 0.063651
0.412310 0.535985 0.064750
0.440359 0.537084 0.065849
0.468408 0.538183 0.066948
0.496457 0.539282 0.068047
0.524506 0.540381 0.069146
0.552554 0.541479 0.070244
0.580603 0.542578 0.071343
0.608652 0.543677 0.072442
0.636701 0.544776 0.073541
0.664750 0.545875 0.074640
0.692799 0.546974 0.075739
0.720847 0.548072 0.076837
0.748896 0.549171 0.077936
0.776945 0.550270 0.079035
0.804994 0.551369 0.080134
0.833043 0.552468 0.081233
0.861092 0.553567 0.082332
0.889140 0.554665 0.083430
0.917189 0.555764 0.084529
0.945238 0.556863 0.085628
0.973287 0.557962 0.086727
0.077860 0.551610 0.053700
0.105908 0.552708 0.054798
0.133957 0.553807 0.055897
0.162006 0.554906 0.056996
0.190055 0.556005 0.058095
0.218104 0.557104 0.059194
0.246153 0.558203 0.060293
0.274201 0.559301 0.061391
0.302250 0.560400 0.062490
0.330299 0.561499 0.063589
0.358348 0.562598 0.064688
0.386397 0.563697 0.065787
0.414446 0.564796 0.066886
0.442494 0.565894 0.067984
0.470543 0.566993 0.069083
0.498592 0.568092 0.070182
0.526641 0.569191 0.071281
0.554690 0.570290 0.072380
0.582738 0.571388 0.073478
0.610787 0.572487 0.074577
0.638836 0.573586 0.075676
0.666885 0.574685 0.076775
0.694934 0.575784 0.077874
0.722983 0.576883 0.078973
0.751031 0.577981 0.080071
0.779080 0.579080 0.081170
0.807129 0.580179 0.082269
0.835178 0.581278 0.083368
0.863227 0.582377 0.084467
0.891276 0.583476 0.085566
0.919324 0.584574 0.086664
0.947373 0.585673 0.087763
0.975422 0.586772 0.088862
0.079995 0.580420 0.055835
0.108044 0.581519 0.056934
0.136092 0.582617 0.058032
0.164141 0.583716 0.059131
0.192190 0.584815 0.060230
0.220239 0.585914 0.061329
0.248288 0.587013 0.062428
0.276337 0.588112 0.063527
0.304385 0.589210 0.064625
0.332434 0.590309 0.065724
0.360483 0.591408 0.066823
0.388532 0.592507 0.067922
0.416581 0.593606 0.069021
0.444630 0.594705 0.070120
0.472678 0.595803 0.071218
0.500727 0.596902 0.072317
0.528776 0.598001 0.073416
0.556825 0.599100 0.074515
0.584874 0.600199 0.075614
0.612923 0.601298 0.076713
0.640971 0.602396 0.077811
0.669020 0.603495 0.078910
0.697069 0.604594 0.080009
0.725118 0.605693 0.081108
0.753167 0.606792 0.082207
0.781215 0.607890 0.083305
0.809264 0.608989 0.084404
0.837313 0.610088 0.085503
0.865362 0.611187 0.086602
0.893411 0.612286 0.087701
0.921460 0.613385 0.088800
0.949508 0.614483 0.089898
0.977557 0.615582 0.090997
0.082130 0.609230 0.057970
0.110179 0.610329 0.059069
0.138228 0.611428 0.060168
0.166277 0.612527 0.061267
0.194325 0.613625 0.062365
0.222374 0.614724 0.063464
0.250423 0.615823 0.064563
0.278472 0.616922 0.065662
0.306521 0.618021 0.066761
0.334569 0.619119 0.067859
0.362618 0.620218 0.068958
0.390667 0.621317 0.070057
0.418716 0.622416 0.071156
0.446765 0.623515 0.072255
0.474814 0.624614 0.073354
0.502862 0.625712 0.074452
0.530911 0.626811 0.075551
0.558960 0.627910 0.076650
0.587009 0.629009 0.077749
0.615058 0.630108 0.078848
0.643107 0.631207 0.079947
0.671155 0.632305 0.081045
0.699204 0.633404 0.082144
0.727253 0.634503 0.083243
0.755302 0.635602 0.084342
0.783351 0.636701 0.085441
0.811400 0.637799 0.086539
0.839448 0.638898 0.087638
0.867497 0.639997 0.088737
0.895546 0.641096 0.089836
0.923595 0.642195 0.090935
0.951644 0.643294 0.092034
0.979692 0.644392 0.093132
0.084265 0.638040 0.060105
0.112314 0.639139 0.061204
0.140363 0.640238 0.062303
0.168412 0.641337 0.063402
0.196461 0.642436 0.064501
0.224509 0.643534 0.065599
0.252558 0.644633 0.066698
0.280607 0.645732 0.067797
0.308656 0.646831 0.068896
0.336705 0.647930 0.069995
0.364754 0.649029 0.071094
0.392802 0.650127 0.072192
0.420851 0.651226 0.073291
0.448900 0.652325 0.074390
0.476949 0.653424 0.075489
0.504998 0.654523 0.076588
0.533046 0.655621 0.077686
0.561095 0.656720 0.078785
0.589144 0.657819 0.079884
0.617193 0.658918 0.080983
0.645242 0.660017 0.082082
0.673291 0.661116 0.083181
0.701339 0.662214 0.084279
0.729388 0.663313 0.085378
0.757437 0.664412 0.086477
0.785486 0.665511 0.087576
0.813535 0.666610 0.088675
0.841584 0.667709 0.089774
0.869632 0.668807 0.090872
0.897681 0.669906 0.091971
0.925730 0.671005 0.093070
0.953779 0.672104 0.094169
0.981828 0.673203 0.095268
0.086400 0.666850 0.062240
0.114449 0.667949 0.063339
0.142498 0.669048 0.064438
0.170547 0.670147 0.065537
0.198596 0.671246 0.066636
0.226645 0.672345 0.067735
0.254693 0.673443 0.068833
0.282742 0.674542 0.069932
0.310791 0.675641 0.071031
0.338840 0.676740 0.072130
0.366889 0.677839 0.073229
0.394938 0.678938 0.074328
0.422986 0.680036 0.075426
0.451035 0.681135 0.076525
0.479084 0.682234 0.077624
0.507133 0.683333 0.078723
0.535182 0.684432 0.079822
0.563231 0.685531 0.080921
0.591279 0.686629 0.082019
0.619328 0.687728 0.083118
0.647377 0.688827 0.084217
0.675426 0.689926 0.085316
0.703475 0.691025 0.086415
0.731523 0.692123 0.087513
0.759572 0.693222 0.088612
0.787621 0.694321 0.089711
0.815670 0.695420 0.090810
0.843719 0.696519 0.091909
0.871768 0.697618 0.093008
0.899816 0.698716 0.094106
0.927865 0.699815 0.095205
0.955914 0.700914 0.096304
0.983963 0.702013 0.097403
0.088536 0.695661 0.064376
0.116585 0.696760 0.065475
0.144633 0.697858 0.066573
0.172682 0.698957 0.067672
0.200731 0.700056 0.068771
0.228780 0.701155 0.069870
0.256829 0.702254 0.070969
0.284877 0.703352 0.072067
0.312926 0.704451 0.073166
0.340975 0.705550 0.074265
0.369024 0.706649 0.075364
0.397073 0.707748 0.076463
0.425122 0.708847 0.077562
0.453170 0.709945 0.078660
0.481219 0.711044 0.079759
0.509268 0.712143 0.080858
0.537317 0.713242 0.081957
0.565366 0.714341 0.083056
0.593415 0.715440 0.084155
0.621463 0.716538 0.085253
0.649512 0.717637 0.086352
0.677561 0.718736 0.087451
0.705610 0.719835 0.088550
0.733659 0.720934 0.089649
0.761707 0.722032 0.090747
0.789756 0.723131 0.091846
0.817805 0.724230 0.092945
0.845854 0.725329 0.094044
0.873903 0.726428 0.095143
0.901952 0.727527 0.096242
0.930000 0.728625 0.097340
0.958049 0.729724 0.098439
0.986098 0.730823 0.099538
0.090671 0.724471 0.066511
0.118720 0.725570 0.067610
0.146769 0.726669 0.068709
0.174817 0.727767 0.069807
0.202866 0.728866 0.070906
0.230915 0.729965 0.072005
0.258964 0.731064 0.073104
0.287013 0.732163 0.074203
0.315061 0.733262 0.075301
0.343110 0.734360 0.076400
0.371159 0.735459 0.077499
0.399208 0.736558 0.078598
0.427257 0.737657 0.079697
0.455306 0.738756 0.080796
0.483354 0.739854 0.081894
0.511403 0.740953 0.082993
0.539452 0.742052 0.084092
0.567501 0.743151 0.085191
0.595550 0.744250 0.086290
0.623599 0.745349 0.087389
0.651647 0.746447 0.088487
0.679696 0.747546 0.089586
0.707745 0.748645 0.090685
0.735794 0.749744 0.091784
0.763843 0.750843 0.092883
0.791892 0.751942 0.093982
0.819940 0.753040 0.095080
0.847989 0.754139 0.096179
0.876038 0.755238 0.097278
0.904087 0.756337 0.098377
0.932136 0.757436 0.099476
0.960184 0.758534 0.100574
0.988233 0.759633 0.101673
0.092806 0.753281 0.068646
0.120855 0.754380 0.069745
0.148904 0.755479 0.070844
0.176953 0.756578 0.071943
0.205001 0.757676 0.073041
0.233050 0.758775 0.074140
0.261099 0.759874 0.075239
0.289148 0.760973 0.076338
0.317197 0.762072 0.077437
0.345246 0.763171 0.078536
0.373294 0.764269 0.079634
0.401343 0.765368 0.080733
0.429392 0.766467 0.081832
0.457441 0.767566 0.082931
0.485490 0.768665 0.084030
0.513538 0.769763 0.085128
0.541587 0.770862 0.086227
0.569636 0.771961 0.087326
0.597685 0.773060 0.088425
0.625734 0.774159 0.089524
0.653783 0.775258 0.090623
0.681831 0.776356 0.091721
0.709880 0.777455 0.092820
0.737929 0.778554 0.093919
0.765978 0.779653 0.095018
0.794027 0.780752 0.096117
0.822076 0.781851 0.097216
0.850124 0.782949 0.098314
0.878173 0.784048 0.099413
0.906222 0.785147 0.100512
0.934271 0.786246 0.101611
0.962320 0.787345 0.102710
0.990369 0.788444 0.103809
0.094941 0.782091 0.070781
0.122990 0.783190 0.071880
0.151039 0.784289 0.072979
0.179088 0.785388 0.074078
0.207137 0.786487 0.075177
0.235185 0.787585 0.076275
0.263234 0.788684 0.077374
0.291283 0.789783 0.078473
0.319332 0.790882 0.079572
0.347381 0.791981 0.080671
0.375430 0.793080 0.081770
0.403478 0.794178 0.082868
0.431527 0.795277 0.083967
0.459576 0.796376 0.085066
0.487625 0.797475 0.086165
0.515674 0.798574 0.087264
0.543723 0.799673 0.088363
0.571771 0.800771 0.089461
0.599820 0.801870 0.090560
0.627869 0.802969 0.091659
0.655918 0.804068 0.092758
0.683967 0.805167 0.093857
0.712015 0.806265 0.094955
0.740064 0.807364 0.096054
0.768113 0.808463 0.097153
0.796162 0.809562 0.098252
0.824211 0.810661 0.099351
