docs/luts/fresh-kodak-portra-bmd.cube
TITLE "FreshLUTs??-KodakPortraBMD"
LUT_3D_SIZE 5
DOMAIN_MIN 0.0 0.0 0.0
DOMAIN_MAX 1.0 1.0 1.0
0.039426 0.033026 0.015266
0.263816 0.041816 0.024056
0.488207 0.050607 0.032847
0.712598 0.059398 0.041638
0.936988 0.068188 0.050428
0.056507 0.263508 0.032348
0.280898 0.272298 0.041138
0.505289 0.281089 0.049929
0.729679 0.289879 0.058719
0.954070 0.298670 0.067510
0.073589 0.493989 0.049429
0.297980 0.502780 0.058220
0.522370 0.511570 0.067010
0.746761 0.520361 0.075801
0.971152 0.529152 0.084592
0.090671 0.724471 0.066511
0.315061 0.733262 0.075301
0.539452 0.742052 0.084092
0.763843 0.750843 0.092883
0.988233 0.759633 0.101673
0.107753 0.954953 0.083593
0.332143 0.963743 0.092383
0.556534 0.972534 0.101174
0.780924 0.981324 0.109964
1.000000 0.990115 0.118755
0.042641 0.036241 0.225281
0.267031 0.045031 0.234071
0.491422 0.053822 0.242862
0.715812 0.062612 0.251652
0.940203 0.071403 0.260443
0.059722 0.266722 0.242362
0.284113 0.275513 0.251153
0.508503 0.284304 0.259943
0.732894 0.293094 0.268734
0.957285 0.301885 0.277525
0.076804 0.497204 0.259444
0.301195 0.505995 0.268235
0.525585 0.514785 0.277025
0.749976 0.523576 0.285816
0.974366 0.532366 0.294606
0.093886 0.727686 0.276526
0.318276 0.736476 0.285316
0.542667 0.745267 0.294107
0.767058 0.754057 0.302898
0.991448 0.762848 0.311688
0.110967 0.958167 0.293607
0.335358 0.966958 0.302398
0.559749 0.975749 0.311189
0.784139 0.984539 0.319979
1.000000 0.993330 0.328770
0.045855 0.039455 0.435295
0.270246 0.048246 0.444086
0.494637 0.057037 0.452877
0.719027 0.065827 0.461667
0.943418 0.074618 0.470458
0.062937 0.269937 0.452377
0.287328 0.278728 0.461168
0.511718 0.287518 0.469958
0.736109 0.296309 0.478749
0.960500 0.305100 0.487540
0.080019 0.500419 0.469459
0.304409 0.509209 0.478249
0.528800 0.518000 0.487040
0.753191 0.526791 0.495831
0.977581 0.535581 0.504621
0.097100 0.730900 0.486541
0.321491 0.739691 0.495331
0.545882 0.748482 0.504122
0.770272 0.757272 0.512912
0.994663 0.766063 0.521703
0.114182 0.961382 0.503622
0.338573 0.970173 0.512413
0.562963 0.978963 0.521203
0.787354 0.987754 0.529994
1.000000 0.996545 0.538785
0.049070 0.042670 0.645310
0.273461 0.051461 0.654101
0.497851 0.060251 0.662891
0.722242 0.069042 0.671682
0.946633 0.077833 0.680473
0.066152 0.273152 0.662392
0.290542 0.281942 0.671183
0.514933 0.290733 0.679973
0.739324 0.299524 0.688764
0.963714 0.308314 0.697554
0.083234 0.503634 0.679474
0.307624 0.512424 0.688264
0.532015 0.521215 0.697055
0.756405 0.530005 0.705845
0.980796 0.538796 0.714636
0.100315 0.734115 0.696555
0.324706 0.742906 0.705346
0.549096 0.751696 0.714137
0.773487 0.760487 0.722927
0.997878 0.769278 0.731718
0.117397 0.964597 0.713637
0.341788 0.973388 0.722428
0.566178 0.982178 0.731218
0.790569 0.990969 0.740009
1.000000 0.999759 0.748799
0.052285 0.045885 0.855325
0.276676 0.054676 0.864116
0.501066 0.063466 0.872906
0.725457 0.072257 0.881697
0.949847 0.081047 0.890487
0.069367 0.276367 0.872407
0.293757 0.285157 0.881197
0.518148 0.293948 0.889988
0.742539 0.302739 0.898779
0.966929 0.311529 0.907569
0.086448 0.506848 0.889488
0.310839 0.515639 0.898279
0.535230 0.524430 0.907070
0.759620 0.533220 0.915860
0.984011 0.542011 0.924651
0.103530 0.737330 0.906570
0.327921 0.746121 0.915361
0.552311 0.754911 0.924151
0.776702 0.763702 0.932942
1.000000 0.772492 0.941732
0.120612 0.967812 0.923652
0.345002 0.976602 0.932442
0.569393 0.985393 0.941233
0.793784 0.994184 0.950024
1.000000 1.000000 0.958814
