docs/luts/fresh-natural-warm.cube
TITLE "FreshLUTs??-????"
LUT_3D_SIZE 33
DOMAIN_MIN 0.0 0.0 0.0
DOMAIN_MAX 1.0 1.0 1.0
0.016250 0.007800 0.000427
0.038409 0.007800 0.000296
0.070731 0.007800 0.000106
0.103053 0.007800 0.000000
0.135375 0.007800 0.000000
0.167696 0.007800 0.000000
0.200018 0.007800 0.000000
0.232340 0.007800 0.000000
0.264662 0.007800 0.000000
0.296984 0.007800 0.000000
0.329306 0.007800 0.000000
0.361628 0.007800 0.000000
0.393950 0.007800 0.000000
0.426272 0.007800 0.000000
0.458593 0.007800 0.000000
0.490915 0.007800 0.000000
0.523237 0.007800 0.000000
0.555559 0.007800 0.000000
0.587881 0.007800 0.000000
0.620203 0.007800 0.000000
0.652525 0.007800 0.000000
0.684847 0.007800 0.000000
0.717169 0.007800 0.000000
0.749490 0.007800 0.000000
0.781812 0.007800 0.000000
0.814134 0.007800 0.000000
0.846456 0.007800 0.000000
0.878778 0.007800 0.000000
0.911100 0.007800 0.000000
0.943422 0.007800 0.000000
0.975744 0.007800 0.000000
1.000000 0.007800 0.000000
1.000000 0.007800 0.000000
0.016250 0.034559 0.000115
0.038097 0.034428 0.000000
0.070419 0.034238 0.000000
0.102741 0.034047 0.000000
0.135063 0.033856 0.000000
0.167385 0.033666 0.000000
0.199706 0.033475 0.000000
0.232028 0.033285 0.000000
0.264350 0.033094 0.000000
0.296672 0.032903 0.000000
0.328994 0.032713 0.000000
0.361316 0.032522 0.000000
0.393638 0.032332 0.000000
0.425960 0.032141 0.000000
0.458282 0.031950 0.000000
0.490603 0.031760 0.000000
0.522925 0.031569 0.000000
0.555247 0.031378 0.000000
0.587569 0.031188 0.000000
0.619891 0.030997 0.000000
0.652213 0.030807 0.000000
0.684535 0.030616 0.000000
0.716857 0.030425 0.000000
0.749179 0.030235 0.000000
0.781500 0.030044 0.000000
0.813822 0.029854 0.000000
0.846144 0.029663 0.000000
0.878466 0.029472 0.000000
0.910788 0.029282 0.000000
0.943110 0.029091 0.000000
0.975432 0.028901 0.000000
1.000000 0.028710 0.000000
1.000000 0.028579 0.000000
0.016250 0.066382 0.000000
0.037726 0.066251 0.000000
0.070048 0.066061 0.000000
0.102370 0.065870 0.000000
0.134692 0.065680 0.000000
0.167014 0.065489 0.000000
0.199336 0.065298 0.000000
0.231658 0.065108 0.000000
0.263980 0.064917 0.000000
0.296302 0.064727 0.000000
0.328623 0.064536 0.000000
0.360945 0.064345 0.000000
0.393267 0.064155 0.000000
0.425589 0.063964 0.000000
0.457911 0.063774 0.000000
0.490233 0.063583 0.000000
0.522555 0.063392 0.000000
0.554877 0.063202 0.000000
0.587199 0.063011 0.000000
0.619520 0.062820 0.000000
0.651842 0.062630 0.000000
0.684164 0.062439 0.000000
0.716486 0.062249 0.000000
0.748808 0.062058 0.000000
0.781130 0.061867 0.000000
0.813452 0.061677 0.000000
0.845774 0.061486 0.000000
0.878096 0.061296 0.000000
0.910417 0.061105 0.000000
0.942739 0.060914 0.000000
0.975061 0.060724 0.000000
1.000000 0.060533 0.000000
1.000000 0.060402 0.000000
0.016250 0.098206 0.000000
0.037356 0.098075 0.000000
0.069678 0.097884 0.000000
0.102000 0.097693 0.000000
0.134322 0.097503 0.000000
0.166644 0.097312 0.000000
0.198965 0.097122 0.000000
0.231287 0.096931 0.000000
0.263609 0.096740 0.000000
0.295931 0.096550 0.000000
0.328253 0.096359 0.000000
0.360575 0.096169 0.000000
0.392897 0.095978 0.000000
0.425219 0.095787 0.000000
0.457540 0.095597 0.000000
0.489862 0.095406 0.000000
0.522184 0.095216 0.000000
0.554506 0.095025 0.000000
0.586828 0.094834 0.000000
0.619150 0.094644 0.000000
0.651472 0.094453 0.000000
0.683794 0.094262 0.000000
0.716116 0.094072 0.000000
0.748437 0.093881 0.000000
0.780759 0.093691 0.000000
0.813081 0.093500 0.000000
0.845403 0.093309 0.000000
0.877725 0.093119 0.000000
0.910047 0.092928 0.000000
0.942369 0.092738 0.000000
0.974691 0.092547 0.000000
1.000000 0.092356 0.000000
1.000000 0.092226 0.000000
0.016250 0.130029 0.000000
0.036985 0.129898 0.000000
0.069307 0.129707 0.000000
0.101629 0.129517 0.000000
0.133951 0.129326 0.000000
0.166273 0.129135 0.000000
0.198595 0.128945 0.000000
0.230917 0.128754 0.000000
0.263239 0.128564 0.000000
0.295561 0.128373 0.000000
0.327882 0.128182 0.000000
0.360204 0.127992 0.000000
0.392526 0.127801 0.000000
0.424848 0.127611 0.000000
0.457170 0.127420 0.000000
0.489492 0.127229 0.000000
0.521814 0.127039 0.000000
0.554136 0.126848 0.000000
0.586457 0.126657 0.000000
0.618779 0.126467 0.000000
0.651101 0.126276 0.000000
0.683423 0.126086 0.000000
0.715745 0.125895 0.000000
0.748067 0.125704 0.000000
0.780389 0.125514 0.000000
0.812711 0.125323 0.000000
0.845033 0.125133 0.000000
0.877354 0.124942 0.000000
0.909676 0.124751 0.000000
0.941998 0.124561 0.000000
0.974320 0.124370 0.000000
1.000000 0.124180 0.000000
1.000000 0.124049 0.000000
0.016250 0.161852 0.000000
0.036615 0.161721 0.000000
0.068937 0.161531 0.000000
0.101259 0.161340 0.000000
0.133581 0.161149 0.000000
0.165902 0.160959 0.000000
0.198224 0.160768 0.000000
0.230546 0.160577 0.000000
0.262868 0.160387 0.000000
0.295190 0.160196 0.000000
0.327512 0.160006 0.000000
0.359834 0.159815 0.000000
0.392156 0.159624 0.000000
0.424478 0.159434 0.000000
0.456799 0.159243 0.000000
0.489121 0.159053 0.000000
0.521443 0.158862 0.000000
0.553765 0.158671 0.000000
0.586087 0.158481 0.000000
0.618409 0.158290 0.000000
0.650731 0.158099 0.000000
0.683053 0.157909 0.000000
0.715375 0.157718 0.000000
0.747696 0.157528 0.000000
0.780018 0.157337 0.000000
0.812340 0.157146 0.000000
0.844662 0.156956 0.000000
0.876984 0.156765 0.000000
0.909306 0.156575 0.000000
0.941628 0.156384 0.000000
0.973950 0.156193 0.000000
1.000000 0.156003 0.000000
1.000000 0.155872 0.000000
0.016250 0.193675 0.000000
0.036244 0.193544 0.000000
0.068566 0.193354 0.000000
0.100888 0.193163 0.000000
0.133210 0.192972 0.000000
0.165532 0.192782 0.000000
0.197854 0.192591 0.000000
0.230176 0.192401 0.000000
0.262498 0.192210 0.000000
0.294819 0.192019 0.000000
0.327141 0.191829 0.000000
0.359463 0.191638 0.000000
0.391785 0.191448 0.000000
0.424107 0.191257 0.000000
0.456429 0.191066 0.000000
0.488751 0.190876 0.000000
0.521073 0.190685 0.000000
0.553395 0.190495 0.000000
0.585716 0.190304 0.000000
0.618038 0.190113 0.000000
0.650360 0.189923 0.000000
0.682682 0.189732 0.000000
0.715004 0.189541 0.000000
0.747326 0.189351 0.000000
0.779648 0.189160 0.000000
0.811970 0.188970 0.000000
0.844292 0.188779 0.000000
0.876613 0.188588 0.000000
0.908935 0.188398 0.000000
0.941257 0.188207 0.000000
0.973579 0.188017 0.000000
1.000000 0.187826 0.000000
1.000000 0.187695 0.000000
0.016250 0.225498 0.000000
0.035874 0.225368 0.000000
0.068196 0.225177 0.000000
0.100518 0.224986 0.000000
0.132839 0.224796 0.000000
0.165161 0.224605 0.000000
0.197483 0.224414 0.000000
0.229805 0.224224 0.000000
0.262127 0.224033 0.000000
0.294449 0.223843 0.000000
0.326771 0.223652 0.000000
0.359093 0.223461 0.000000
0.391415 0.223271 0.000000
0.423736 0.223080 0.000000
0.456058 0.222890 0.000000
0.488380 0.222699 0.000000
0.520702 0.222508 0.000000
0.553024 0.222318 0.000000
0.585346 0.222127 0.000000
0.617668 0.221937 0.000000
0.649990 0.221746 0.000000
0.682312 0.221555 0.000000
0.714633 0.221365 0.000000
0.746955 0.221174 0.000000
0.779277 0.220983 0.000000
0.811599 0.220793 0.000000
0.843921 0.220602 0.000000
0.876243 0.220412 0.000000
0.908565 0.220221 0.000000
0.940887 0.220030 0.000000
0.973209 0.219840 0.000000
1.000000 0.219649 0.000000
1.000000 0.219518 0.000000
0.016250 0.257322 0.000000
0.035503 0.257191 0.000000
0.067825 0.257000 0.000000
0.100147 0.256810 0.000000
0.132469 0.256619 0.000000
0.164791 0.256428 0.000000
0.197113 0.256238 0.000000
0.229435 0.256047 0.000000
0.261756 0.255856 0.000000
0.294078 0.255666 0.000000
0.326400 0.255475 0.000000
0.358722 0.255285 0.000000
0.391044 0.255094 0.000000
0.423366 0.254903 0.000000
0.455688 0.254713 0.000000
0.488010 0.254522 0.000000
0.520332 0.254332 0.000000
0.552653 0.254141 0.000000
0.584975 0.253950 0.000000
0.617297 0.253760 0.000000
0.649619 0.253569 0.000000
0.681941 0.253378 0.000000
0.714263 0.253188 0.000000
0.746585 0.252997 0.000000
0.778907 0.252807 0.000000
0.811229 0.252616 0.000000
0.843550 0.252425 0.000000
0.875872 0.252235 0.000000
0.908194 0.252044 0.000000
0.940516 0.251854 0.000000
0.972838 0.251663 0.000000
1.000000 0.251472 0.000000
1.000000 0.251342 0.000000
0.016250 0.289145 0.000000
0.035133 0.289014 0.000000
0.067455 0.288823 0.000000
0.099776 0.288633 0.000000
0.132098 0.288442 0.000000
0.164420 0.288251 0.000000
0.196742 0.288061 0.000000
0.229064 0.287870 0.000000
0.261386 0.287680 0.000000
0.293708 0.287489 0.000000
0.326030 0.287298 0.000000
0.358352 0.287108 0.000000
0.390673 0.286917 0.000000
0.422995 0.286727 0.000000
0.455317 0.286536 0.000000
0.487639 0.286345 0.000000
0.519961 0.286155 0.000000
0.552283 0.285964 0.000000
0.584605 0.285774 0.000000
0.616927 0.285583 0.000000
0.649249 0.285392 0.000000
0.681570 0.285202 0.000000
0.713892 0.285011 0.000000
0.746214 0.284820 0.000000
0.778536 0.284630 0.000000
0.810858 0.284439 0.000000
0.843180 0.284249 0.000000
0.875502 0.284058 0.000000
0.907824 0.283867 0.000000
0.940146 0.283677 0.000000
0.972467 0.283486 0.000000
1.000000 0.283296 0.000000
1.000000 0.283165 0.000000
0.016250 0.320968 0.000000
0.034762 0.320837 0.000000
0.067084 0.320647 0.000000
0.099406 0.320456 0.000000
0.131728 0.320265 0.000000
0.164050 0.320075 0.000000
0.196372 0.319884 0.000000
0.228693 0.319693 0.000000
0.261015 0.319503 0.000000
0.293337 0.319312 0.000000
0.325659 0.319122 0.000000
0.357981 0.318931 0.000000
0.390303 0.318740 0.000000
0.422625 0.318550 0.000000
0.454947 0.318359 0.000000
0.487269 0.318169 0.000000
0.519590 0.317978 0.000000
0.551912 0.317787 0.000000
0.584234 0.317597 0.000000
0.616556 0.317406 0.000000
0.648878 0.317216 0.000000
0.681200 0.317025 0.000000
0.713522 0.316834 0.000000
0.745844 0.316644 0.000000
0.778166 0.316453 0.000000
0.810487 0.316262 0.000000
0.842809 0.316072 0.000000
0.875131 0.315881 0.000000
0.907453 0.315691 0.000000
0.939775 0.315500 0.000000
0.972097 0.315309 0.000000
1.000000 0.315119 0.000000
1.000000 0.314988 0.000000
0.016250 0.352791 0.000000
0.034392 0.352660 0.000000
0.066713 0.352470 0.000000
0.099035 0.352279 0.000000
0.131357 0.352089 0.000000
0.163679 0.351898 0.000000
0.196001 0.351707 0.000000
0.228323 0.351517 0.000000
0.260645 0.351326 0.000000
0.292967 0.351135 0.000000
0.325289 0.350945 0.000000
0.357610 0.350754 0.000000
0.389932 0.350564 0.000000
0.422254 0.350373 0.000000
0.454576 0.350182 0.000000
0.486898 0.349992 0.000000
0.519220 0.349801 0.000000
0.551542 0.349611 0.000000
0.583864 0.349420 0.000000
0.616186 0.349229 0.000000
0.648507 0.349039 0.000000
0.680829 0.348848 0.000000
0.713151 0.348657 0.000000
0.745473 0.348467 0.000000
0.777795 0.348276 0.000000
0.810117 0.348086 0.000000
0.842439 0.347895 0.000000
0.874761 0.347704 0.000000
0.907083 0.347514 0.000000
0.939404 0.347323 0.000000
0.971726 0.347133 0.000000
1.000000 0.346942 0.000000
1.000000 0.346811 0.000000
0.016250 0.384614 0.000000
0.034021 0.384484 0.000000
0.066343 0.384293 0.000000
0.098665 0.384102 0.000000
0.130987 0.383912 0.000000
0.163309 0.383721 0.000000
0.195631 0.383530 0.000000
0.227952 0.383340 0.000000
0.260274 0.383149 0.000000
0.292596 0.382959 0.000000
0.324918 0.382768 0.000000
0.357240 0.382577 0.000000
0.389562 0.382387 0.000000
0.421884 0.382196 0.000000
0.454206 0.382006 0.000000
0.486527 0.381815 0.000000
0.518849 0.381624 0.000000
0.551171 0.381434 0.000000
0.583493 0.381243 0.000000
0.615815 0.381053 0.000000
0.648137 0.380862 0.000000
0.680459 0.380671 0.000000
0.712781 0.380481 0.000000
0.745103 0.380290 0.000000
0.777424 0.380099 0.000000
0.809746 0.379909 0.000000
0.842068 0.379718 0.000000
0.874390 0.379528 0.000000
0.906712 0.379337 0.000000
0.939034 0.379146 0.000000
0.971356 0.378956 0.000000
1.000000 0.378765 0.000000
1.000000 0.378634 0.000000
0.016250 0.416438 0.000000
0.033651 0.416307 0.000000
0.065972 0.416116 0.000000
0.098294 0.415926 0.000000
0.130616 0.415735 0.000000
0.162938 0.415544 0.000000
0.195260 0.415354 0.000000
0.227582 0.415163 0.000000
0.259904 0.414972 0.000000
0.292226 0.414782 0.000000
0.324548 0.414591 0.000000
0.356869 0.414401 0.000000
0.389191 0.414210 0.000000
0.421513 0.414019 0.000000
0.453835 0.413829 0.000000
0.486157 0.413638 0.000000
0.518479 0.413448 0.000000
0.550801 0.413257 0.000000
0.583123 0.413066 0.000000
0.615444 0.412876 0.000000
0.647766 0.412685 0.000000
0.680088 0.412495 0.000000
0.712410 0.412304 0.000000
0.744732 0.412113 0.000000
0.777054 0.411923 0.000000
0.809376 0.411732 0.000000
0.841698 0.411541 0.000000
0.874020 0.411351 0.000000
0.906341 0.411160 0.000000
0.938663 0.410970 0.000000
0.970985 0.410779 0.000000
1.000000 0.410588 0.000000
1.000000 0.410458 0.000000
0.016250 0.448261 0.000000
0.033280 0.448130 0.000000
0.065602 0.447939 0.000000
0.097924 0.447749 0.000000
0.130246 0.447558 0.000000
0.162568 0.447368 0.000000
0.194889 0.447177 0.000000
0.227211 0.446986 0.000000
0.259533 0.446796 0.000000
0.291855 0.446605 0.000000
0.324177 0.446414 0.000000
0.356499 0.446224 0.000000
0.388821 0.446033 0.000000
0.421143 0.445843 0.000000
0.453465 0.445652 0.000000
0.485786 0.445461 0.000000
0.518108 0.445271 0.000000
0.550430 0.445080 0.000000
0.582752 0.444890 0.000000
0.615074 0.444699 0.000000
0.647396 0.444508 0.000000
0.679718 0.444318 0.000000
0.712040 0.444127 0.000000
0.744362 0.443937 0.000000
0.776683 0.443746 0.000000
0.809005 0.443555 0.000000
0.841327 0.443365 0.000000
0.873649 0.443174 0.000000
0.905971 0.442983 0.000000
0.938293 0.442793 0.000000
0.970615 0.442602 0.000000
1.000000 0.442412 0.000000
1.000000 0.442281 0.000000
0.016250 0.480084 0.000000
0.032909 0.479953 0.000000
0.065231 0.479763 0.000000
0.097553 0.479572 0.000000
0.129875 0.479381 0.000000
0.162197 0.479191 0.000000
0.194519 0.479000 0.000000
0.226841 0.478810 0.000000
0.259163 0.478619 0.000000
0.291485 0.478428 0.000000
0.323806 0.478238 0.000000
0.356128 0.478047 0.000000
0.388450 0.477856 0.000000
0.420772 0.477666 0.000000
0.453094 0.477475 0.000000
0.485416 0.477285 0.000000
0.517738 0.477094 0.000000
0.550060 0.476903 0.000000
0.582382 0.476713 0.000000
0.614703 0.476522 0.000000
0.647025 0.476332 0.000000
0.679347 0.476141 0.000000
0.711669 0.475950 0.000000
0.743991 0.475760 0.000000
0.776313 0.475569 0.000000
0.808635 0.475378 0.000000
0.840957 0.475188 0.000000
0.873279 0.474997 0.000000
0.905600 0.474807 0.000000
0.937922 0.474616 0.000000
0.970244 0.474425 0.000000
1.000000 0.474235 0.000000
1.000000 0.474104 0.000000
0.016250 0.511907 0.000000
0.032539 0.511776 0.000000
0.064861 0.511586 0.000000
0.097183 0.511395 0.000000
0.129505 0.511205 0.000000
0.161826 0.511014 0.000000
0.194148 0.510823 0.000000
0.226470 0.510633 0.000000
0.258792 0.510442 0.000000
0.291114 0.510251 0.000000
0.323436 0.510061 0.000000
0.355758 0.509870 0.000000
0.388080 0.509680 0.000000
0.420402 0.509489 0.000000
0.452723 0.509298 0.000000
0.485045 0.509108 0.000000
0.517367 0.508917 0.000000
0.549689 0.508727 0.000000
0.582011 0.508536 0.000000
0.614333 0.508345 0.000000
0.646655 0.508155 0.000000
0.678977 0.507964 0.000000
0.711299 0.507774 0.000000
0.743620 0.507583 0.000000
0.775942 0.507392 0.000000
0.808264 0.507202 0.000000
0.840586 0.507011 0.000000
0.872908 0.506820 0.000000
0.905230 0.506630 0.000000
0.937552 0.506439 0.000000
0.969874 0.506249 0.000000
1.000000 0.506058 0.000000
1.000000 0.505927 0.000000
0.016250 0.543730 0.000000
0.032168 0.543600 0.000000
0.064490 0.543409 0.000000
0.096812 0.543218 0.000000
0.129134 0.543028 0.000000
0.161456 0.542837 0.000000
0.193778 0.542647 0.000000
0.226100 0.542456 0.000000
0.258422 0.542265 0.000000
0.290743 0.542075 0.000000
0.323065 0.541884 0.000000
0.355387 0.541693 0.000000
0.387709 0.541503 0.000000
0.420031 0.541312 0.000000
0.452353 0.541122 0.000000
0.484675 0.540931 0.000000
0.516997 0.540740 0.000000
0.549319 0.540550 0.000000
0.581640 0.540359 0.000000
0.613962 0.540169 0.000000
0.646284 0.539978 0.000000
0.678606 0.539787 0.000000
0.710928 0.539597 0.000000
0.743250 0.539406 0.000000
0.775572 0.539216 0.000000
0.807894 0.539025 0.000000
0.840216 0.538834 0.000000
0.872537 0.538644 0.000000
0.904859 0.538453 0.000000
0.937181 0.538262 0.000000
0.969503 0.538072 0.000000
1.000000 0.537881 0.000000
1.000000 0.537750 0.000000
0.016250 0.575554 0.000000
0.031798 0.575423 0.000000
0.064120 0.575232 0.000000
0.096442 0.575042 0.000000
0.128763 0.574851 0.000000
0.161085 0.574660 0.000000
0.193407 0.574470 0.000000
0.225729 0.574279 0.000000
0.258051 0.574089 0.000000
0.290373 0.573898 0.000000
0.322695 0.573707 0.000000
0.355017 0.573517 0.000000
0.387339 0.573326 0.000000
0.419660 0.573135 0.000000
0.451982 0.572945 0.000000
0.484304 0.572754 0.000000
0.516626 0.572564 0.000000
0.548948 0.572373 0.000000
0.581270 0.572182 0.000000
0.613592 0.571992 0.000000
0.645914 0.571801 0.000000
0.678236 0.571611 0.000000
0.710557 0.571420 0.000000
0.742879 0.571229 0.000000
0.775201 0.571039 0.000000
0.807523 0.570848 0.000000
0.839845 0.570657 0.000000
0.872167 0.570467 0.000000
0.904489 0.570276 0.000000
0.936811 0.570086 0.000000
0.969133 0.569895 0.000000
1.000000 0.569704 0.000000
1.000000 0.569574 0.000000
0.016250 0.607377 0.000000
0.031427 0.607246 0.000000
0.063749 0.607055 0.000000
0.096071 0.606865 0.000000
0.128393 0.606674 0.000000
0.160715 0.606484 0.000000
0.193037 0.606293 0.000000
0.225359 0.606102 0.000000
0.257680 0.605912 0.000000
0.290002 0.605721 0.000000
0.322324 0.605530 0.000000
0.354646 0.605340 0.000000
0.386968 0.605149 0.000000
0.419290 0.604959 0.000000
0.451612 0.604768 0.000000
0.483934 0.604577 0.000000
0.516256 0.604387 0.000000
0.548577 0.604196 0.000000
0.580899 0.604006 0.000000
0.613221 0.603815 0.000000
0.645543 0.603624 0.000000
0.677865 0.603434 0.000000
0.710187 0.603243 0.000000
0.742509 0.603053 0.000000
0.774831 0.602862 0.000000
0.807153 0.602671 0.000000
0.839474 0.602481 0.000000
0.871796 0.602290 0.000000
0.904118 0.602099 0.000000
0.936440 0.601909 0.000000
0.968762 0.601718 0.000000
1.000000 0.601528 0.000000
1.000000 0.601397 0.000000
0.016250 0.639200 0.000000
0.031057 0.639069 0.000000
0.063379 0.638879 0.000000
0.095700 0.638688 0.000000
0.128022 0.638497 0.000000
0.160344 0.638307 0.000000
0.192666 0.638116 0.000000
0.224988 0.637926 0.000000
0.257310 0.637735 0.000000
0.289632 0.637544 0.000000
0.321954 0.637354 0.000000
0.354276 0.637163 0.000000
0.386597 0.636972 0.000000
0.418919 0.636782 0.000000
0.451241 0.636591 0.000000
0.483563 0.636401 0.000000
0.515885 0.636210 0.000000
0.548207 0.636019 0.000000
0.580529 0.635829 0.000000
0.612851 0.635638 0.000000
0.645173 0.635448 0.000000
0.677494 0.635257 0.000000
0.709816 0.635066 0.000000
0.742138 0.634876 0.000000
0.774460 0.634685 0.000000
0.806782 0.634495 0.000000
0.839104 0.634304 0.000000
0.871426 0.634113 0.000000
0.903748 0.633923 0.000000
0.936070 0.633732 0.000000
0.968391 0.633541 0.000000
1.000000 0.633351 0.000000
1.000000 0.633220 0.000000
0.016250 0.671023 0.000000
0.030686 0.670892 0.000000
0.063008 0.670702 0.000000
0.095330 0.670511 0.000000
0.127652 0.670321 0.000000
0.159974 0.670130 0.000000
0.192296 0.669939 0.000000
0.224617 0.669749 0.000000
0.256939 0.669558 0.000000
0.289261 0.669368 0.000000
0.321583 0.669177 0.000000
0.353905 0.668986 0.000000
0.386227 0.668796 0.000000
0.418549 0.668605 0.000000
0.450871 0.668414 0.000000
0.483193 0.668224 0.000000
0.515514 0.668033 0.000000
0.547836 0.667843 0.000000
0.580158 0.667652 0.000000
0.612480 0.667461 0.000000
0.644802 0.667271 0.000000
0.677124 0.667080 0.000000
0.709446 0.666890 0.000000
0.741768 0.666699 0.000000
0.774090 0.666508 0.000000
0.806411 0.666318 0.000000
0.838733 0.666127 0.000000
0.871055 0.665936 0.000000
0.903377 0.665746 0.000000
0.935699 0.665555 0.000000
0.968021 0.665365 0.000000
1.000000 0.665174 0.000000
1.000000 0.665043 0.000000
0.016250 0.702846 0.000000
0.030316 0.702716 0.000000
0.062638 0.702525 0.000000
0.094959 0.702334 0.000000
0.127281 0.702144 0.000000
0.159603 0.701953 0.000000
0.191925 0.701763 0.000000
0.224247 0.701572 0.000000
0.256569 0.701381 0.000000
0.288891 0.701191 0.000000
0.321213 0.701000 0.000000
0.353534 0.700810 0.000000
0.385856 0.700619 0.000000
0.418178 0.700428 0.000000
0.450500 0.700238 0.000000
0.482822 0.700047 0.000000
0.515144 0.699856 0.000000
0.547466 0.699666 0.000000
0.579788 0.699475 0.000000
0.612110 0.699285 0.000000
0.644431 0.699094 0.000000
0.676753 0.698903 0.000000
0.709075 0.698713 0.000000
0.741397 0.698522 0.000000
0.773719 0.698332 0.000000
0.806041 0.698141 0.000000
0.838363 0.697950 0.000000
0.870685 0.697760 0.000000
0.903007 0.697569 0.000000
0.935328 0.697378 0.000000
0.967650 0.697188 0.000000
0.999972 0.696997 0.000000
1.000000 0.696866 0.000000
0.016250 0.734670 0.000000
0.029945 0.734539 0.000000
0.062267 0.734348 0.000000
0.094589 0.734158 0.000000
0.126911 0.733967 0.000000
0.159233 0.733776 0.000000
0.191555 0.733586 0.000000
0.223876 0.733395 0.000000
0.256198 0.733205 0.000000
0.288520 0.733014 0.000000
0.320842 0.732823 0.000000
0.353164 0.732633 0.000000
0.385486 0.732442 0.000000
0.417808 0.732251 0.000000
0.450130 0.732061 0.000000
0.482452 0.731870 0.000000
0.514773 0.731680 0.000000
0.547095 0.731489 0.000000
0.579417 0.731298 0.000000
0.611739 0.731108 0.000000
0.644061 0.730917 0.000000
0.676383 0.730727 0.000000
0.708705 0.730536 0.000000
0.741027 0.730345 0.000000
0.773348 0.730155 0.000000
0.805670 0.729964 0.000000
0.837992 0.729774 0.000000
0.870314 0.729583 0.000000
0.902636 0.729392 0.000000
0.934958 0.729202 0.000000
0.967280 0.729011 0.000000
0.999602 0.728820 0.000000
1.000000 0.728690 0.000000
0.016250 0.766493 0.000000
0.029575 0.766362 0.000000
0.061896 0.766171 0.000000
0.094218 0.765981 0.000000
0.126540 0.765790 0.000000
0.158862 0.765600 0.000000
0.191184 0.765409 0.000000
0.223506 0.765218 0.000000
0.255828 0.765028 0.000000
0.288150 0.764837 0.000000
0.320472 0.764647 0.000000
0.352793 0.764456 0.000000
0.385115 0.764265 0.000000
0.417437 0.764075 0.000000
0.449759 0.763884 0.000000
0.482081 0.763693 0.000000
0.514403 0.763503 0.000000
0.546725 0.763312 0.000000
0.579047 0.763122 0.000000
0.611369 0.762931 0.000000
0.643690 0.762740 0.000000
0.676012 0.762550 0.000000
0.708334 0.762359 0.000000
0.740656 0.762169 0.000000
0.772978 0.761978 0.000000
0.805300 0.761787 0.000000
0.837622 0.761597 0.000000
0.869944 0.761406 0.000000
0.902266 0.761215 0.000000
0.934587 0.761025 0.000000
0.966909 0.760834 0.000000
0.999231 0.760644 0.000000
1.000000 0.760513 0.000000
0.016250 0.798316 0.000000
0.029204 0.798185 0.000000
0.061526 0.797995 0.000000
0.093848 0.797804 0.000000
0.126170 0.797613 0.000000
0.158492 0.797423 0.000000
0.190813 0.797232 0.000000
0.223135 0.797042 0.000000
0.255457 0.796851 0.000000
0.287779 0.796660 0.000000
0.320101 0.796470 0.000000
0.352423 0.796279 0.000000
0.384745 0.796089 0.000000
0.417067 0.795898 0.000000
0.449389 0.795707 0.000000
0.481710 0.795517 0.000000
0.514032 0.795326 0.000000
0.546354 0.795135 0.000000
0.578676 0.794945 0.000000
0.610998 0.794754 0.000000
0.643320 0.794564 0.000000
0.675642 0.794373 0.000000
0.707964 0.794182 0.000000
0.740286 0.793992 0.000000
0.772607 0.793801 0.000000
0.804929 0.793611 0.000000
0.837251 0.793420 0.000000
0.869573 0.793229 0.000000
0.901895 0.793039 0.000000
0.934217 0.792848 0.000000
0.966539 0.792657 0.000000
0.998861 0.792467 0.000000
1.000000 0.792336 0.000000
0.016250 0.830139 0.000000
0.028833 0.830008 0.000000
0.061155 0.829818 0.000000
0.093477 0.829627 0.000000
0.125799 0.829437 0.000000
0.158121 0.829246 0.000000
0.190443 0.829055 0.000000
0.222765 0.828865 0.000000
0.255087 0.828674 0.000000
0.287409 0.828484 0.000000
0.319730 0.828293 0.000000
0.352052 0.828102 0.000000
0.384374 0.827912 0.000000
0.416696 0.827721 0.000000
0.449018 0.827530 0.000000
0.481340 0.827340 0.000000
0.513662 0.827149 0.000000
0.545984 0.826959 0.000000
0.578306 0.826768 0.000000
0.610627 0.826577 0.000000
0.642949 0.826387 0.000000
0.675271 0.826196 0.000000
0.707593 0.826006 0.000000
0.739915 0.825815 0.000000
0.772237 0.825624 0.000000
0.804559 0.825434 0.000000
0.836881 0.825243 0.000000
