docs/luts/fresh-teal-orange-flog.cube
TITLE "FreshLUTs??-FLog??"
LUT_3D_SIZE 5
DOMAIN_MIN 0.0 0.0 0.0
DOMAIN_MAX 1.0 1.0 1.0
0.000000 0.021998 0.065000
0.242259 0.017284 0.054797
0.508633 0.012334 0.044593
0.775006 0.007384 0.034390
0.993302 0.004465 0.024186
0.000000 0.264857 0.044969
0.242111 0.260143 0.034765
0.508485 0.255193 0.024562
0.774859 0.250243 0.014358
1.000000 0.245529 0.002823
0.000000 0.517779 0.024937
0.241730 0.513065 0.014734
0.510484 0.508115 0.003341
0.783019 0.504213 0.000000
1.000000 0.501383 0.000000
0.000736 0.770701 0.003858
0.249711 0.766965 0.000000
0.520992 0.763899 0.000000
0.792273 0.760833 0.000000
1.000000 0.758003 0.000000
0.017276 1.000000 0.000000
0.259197 1.000000 0.000000
0.530478 1.000000 0.000000
0.801759 1.000000 0.000000
1.000000 1.000000 0.000000
0.000000 0.020208 0.304036
0.242264 0.015494 0.291002
0.508638 0.010544 0.277733
0.775012 0.005631 0.264463
0.994379 0.003747 0.251430
0.000000 0.263067 0.278309
0.242116 0.258353 0.265276
0.508490 0.253403 0.252006
0.774864 0.248453 0.238737
1.000000 0.243739 0.222897
0.000000 0.515989 0.252351
0.241736 0.511275 0.239317
0.513438 0.506325 0.223384
0.784896 0.503141 0.215811
1.000000 0.500311 0.209114
0.004762 0.768912 0.223870
0.251587 0.765894 0.216158
0.522868 0.762828 0.209225
0.794149 0.759762 0.202293
1.000000 0.756931 0.195596
0.020224 1.000000 0.209569
0.261073 1.000000 0.202872
0.532354 1.000000 0.195940
0.803635 1.000000 0.189007
1.000000 1.000000 0.182311
0.000000 0.018281 0.574537
0.242133 0.013567 0.561504
0.508507 0.008618 0.548234
0.774881 0.004912 0.534965
0.995457 0.003029 0.521931
0.000000 0.261140 0.548811
0.241985 0.256426 0.535777
0.508359 0.251477 0.522508
0.775561 0.246527 0.508825
1.000000 0.242482 0.495550
0.000000 0.514063 0.522852
0.242148 0.509349 0.509547
0.515355 0.504999 0.495661
0.786636 0.501933 0.488729
1.000000 0.499103 0.482032
0.007991 0.767516 0.495772
0.253327 0.764685 0.489075
0.524608 0.761619 0.482143
0.795889 0.758553 0.475210
1.000000 0.755723 0.468514
0.023172 1.000000 0.482486
0.262813 1.000000 0.475790
0.534094 1.000000 0.468857
0.805375 1.000000 0.461925
1.000000 1.000000 0.455228
0.000000 0.016355 0.845039
0.242002 0.011641 0.832005
0.508376 0.006691 0.818736
0.774750 0.004194 0.805466
0.996534 0.002311 0.792433
0.000000 0.259214 0.819312
0.241854 0.254500 0.806279
0.508228 0.249550 0.793009
0.778378 0.244600 0.777852
1.000000 0.241274 0.768467
0.000000 0.512136 0.793353
0.244965 0.507422 0.778574
0.517095 0.503790 0.768578
0.788376 0.500724 0.761646
1.000000 0.497894 0.754949
0.010940 0.766307 0.768689
0.255067 0.763477 0.761993
0.526348 0.760411 0.755060
0.797629 0.757345 0.748128
1.000000 0.754515 0.741431
0.026121 1.000000 0.755404
0.264553 1.000000 0.748707
0.535834 1.000000 0.741775
0.807115 1.000000 0.734842
1.000000 1.000000 0.728146
0.000000 0.014565 1.000000
0.242008 0.009851 1.000000
0.508382 0.005360 1.000000
0.774756 0.003476 1.000000
0.997611 0.001592 1.000000
0.000000 0.257424 1.000000
0.241860 0.252710 1.000000
0.508234 0.247760 1.000000
0.780999 0.243032 0.996638
1.000000 0.240202 0.992772
0.000000 0.510346 1.000000
0.247690 0.505785 0.996780
0.518971 0.502719 0.992914
0.790252 0.499653 0.989047
1.000000 0.496823 0.985181
0.013888 0.765236 0.993056
0.256944 0.762405 0.989190
0.528225 0.759339 0.985323
0.799506 0.756273 0.981457
1.000000 0.753443 0.977591
0.029069 1.000000 0.985466
0.266430 1.000000 0.981599
0.537711 1.000000 0.977733
0.808992 1.000000 0.973866
1.000000 1.000000 0.970000
