docs/luts/fresh-cinematic-forest.cube
TITLE "FreshLUTs??-????"
LUT_3D_SIZE 5
DOMAIN_MIN 0.0 0.0 0.0
DOMAIN_MAX 1.0 1.0 1.0
0.000000 0.074250 0.000000
0.201533 0.067022 0.000000
0.471667 0.059973 0.000000
0.740322 0.052924 0.000000
0.977919 0.045695 0.000000
0.000000 0.275483 0.000000
0.220090 0.268255 0.000000
0.487321 0.261206 0.000000
0.753074 0.254157 0.000000
0.987769 0.246929 0.000000
0.000000 0.536221 0.000000
0.233654 0.528992 0.000000
0.497982 0.521944 0.000000
0.760145 0.519695 0.001695
0.991850 0.521100 0.003100
0.008194 0.796958 0.000000
0.240862 0.794212 0.001813
0.502147 0.795797 0.003397
0.763432 0.797382 0.004982
0.995137 0.798787 0.006387
0.011740 1.000000 0.002990
0.243445 1.000000 0.004395
0.504730 1.000000 0.005980
0.766015 1.000000 0.007565
0.997720 1.000000 0.008970
0.000000 0.071528 0.213316
0.205651 0.064300 0.218646
0.475221 0.057251 0.224155
0.743313 0.050202 0.229664
0.980346 0.042974 0.234994
0.000000 0.272761 0.223603
0.223102 0.265533 0.228933
0.489769 0.258484 0.234442
0.754958 0.251435 0.239951
0.989090 0.244207 0.245281
0.000000 0.533499 0.234595
0.235559 0.526271 0.239925
0.499324 0.519222 0.245434
0.760715 0.520265 0.247265
0.992420 0.521670 0.248670
0.009556 0.794237 0.245587
0.241432 0.794782 0.247382
0.502717 0.796367 0.248967
0.764002 0.797952 0.250552
0.995707 0.799357 0.251957
0.012310 1.000000 0.248560
0.244015 1.000000 0.249965
0.505300 1.000000 0.251550
0.766585 1.000000 0.253135
0.998290 1.000000 0.254540
0.000000 0.068807 0.460382
0.209554 0.061578 0.465712
0.478561 0.054529 0.471221
0.746089 0.047480 0.476730
0.982559 0.040252 0.482060
0.000000 0.270040 0.470670
0.225899 0.262811 0.475999
0.492002 0.255762 0.481508
0.756628 0.248713 0.487017
0.989703 0.244553 0.490953
0.002148 0.530777 0.481661
0.237249 0.523549 0.486991
0.500000 0.519250 0.491250
0.761285 0.520835 0.492835
0.992990 0.522240 0.494240
0.010297 0.793947 0.491547
0.242003 0.795353 0.492952
0.503287 0.796937 0.494537
0.764572 0.798522 0.496122
0.996277 0.799927 0.497527
0.012880 1.000000 0.494130
0.244585 1.000000 0.495535
0.505870 1.000000 0.497120
0.767155 1.000000 0.498705
0.998860 1.000000 0.500110
0.000000 0.066085 0.707449
0.213243 0.058856 0.712778
0.481685 0.051808 0.718287
0.748650 0.044759 0.723797
0.984556 0.037530 0.729126
0.000000 0.267318 0.717736
0.228480 0.260090 0.723066
0.494020 0.253041 0.728575
0.758082 0.245992 0.734084
0.990273 0.245123 0.736523
0.004187 0.528056 0.728727
0.238724 0.520827 0.734057
0.500570 0.519820 0.736820
0.761855 0.521405 0.738405
0.993560 0.522810 0.739810
0.010867 0.794517 0.737117
0.242572 0.795922 0.738522
0.503857 0.797507 0.740107
0.765142 0.799092 0.741692
0.996847 0.800497 0.743097
0.013450 1.000000 0.739700
0.245155 1.000000 0.741105
0.506440 1.000000 0.742690
0.767725 1.000000 0.744275
0.999430 1.000000 0.745680
0.000000 0.063363 0.954515
0.216716 0.056135 0.959845
0.484595 0.049086 0.965354
0.750996 0.042037 0.970863
0.986338 0.034808 0.976192
0.000000 0.264596 0.964802
0.230847 0.257368 0.970132
0.495824 0.250319 0.975641
0.759138 0.244287 0.980687
0.990843 0.245693 0.982093
0.006011 0.525334 0.975794
0.239855 0.518805 0.980805
0.501140 0.520390 0.982390
0.762425 0.521975 0.983975
0.994130 0.523380 0.985380
0.011437 0.795087 0.982687
0.243142 0.796493 0.984093
0.504427 0.798077 0.985677
0.765712 0.799662 0.987262
0.997417 0.801067 0.988667
0.014020 1.000000 0.985270
0.245725 1.000000 0.986675
0.507010 1.000000 0.988260
0.768295 1.000000 0.989845
1.000000 1.000000 0.991250
