docs/luts/fresh-urban-monochrome.cube
TITLE "??????"
LUT_3D_SIZE 5
DOMAIN_MIN 0.0 0.0 0.0
DOMAIN_MAX 1.0 1.0 1.0
0.000000 0.000000 0.015000
0.000000 0.000000 0.015000
0.059200 0.059200 0.073312
0.128800 0.128800 0.141868
0.198400 0.198400 0.210424
0.099800 0.099800 0.113303
0.169400 0.169400 0.181859
0.239000 0.239000 0.250415
0.308600 0.308600 0.318971
0.378200 0.378200 0.387527
0.279600 0.279600 0.290406
0.349200 0.349200 0.358962
0.418800 0.418800 0.427518
0.488400 0.488400 0.496074
0.558000 0.558000 0.564630
0.459400 0.459400 0.467509
0.529000 0.529000 0.536065
0.598600 0.598600 0.604621
0.668200 0.668200 0.673177
0.737800 0.737800 0.741733
0.639200 0.639200 0.644612
0.708800 0.708800 0.713168
0.778400 0.778400 0.781724
0.848000 0.848000 0.850280
0.917600 0.917600 0.918836
0.000000 0.000000 0.015000
0.030200 0.030200 0.044747
0.099800 0.099800 0.113303
0.169400 0.169400 0.181859
0.239000 0.239000 0.250415
0.140400 0.140400 0.153294
0.210000 0.210000 0.221850
0.279600 0.279600 0.290406
0.349200 0.349200 0.358962
0.418800 0.418800 0.427518
0.320200 0.320200 0.330397
0.389800 0.389800 0.398953
0.459400 0.459400 0.467509
0.529000 0.529000 0.536065
0.598600 0.598600 0.604621
0.500000 0.500000 0.507500
0.569600 0.569600 0.576056
0.639200 0.639200 0.644612
0.708800 0.708800 0.713168
0.778400 0.778400 0.781724
0.679800 0.679800 0.684603
0.749400 0.749400 0.753159
0.819000 0.819000 0.821715
0.888600 0.888600 0.890271
0.958200 0.958200 0.958827
0.001200 0.001200 0.016182
0.070800 0.070800 0.084738
0.140400 0.140400 0.153294
0.210000 0.210000 0.221850
0.279600 0.279600 0.290406
0.181000 0.181000 0.193285
0.250600 0.250600 0.261841
0.320200 0.320200 0.330397
0.389800 0.389800 0.398953
0.459400 0.459400 0.467509
0.360800 0.360800 0.370388
0.430400 0.430400 0.438944
0.500000 0.500000 0.507500
0.569600 0.569600 0.576056
0.639200 0.639200 0.644612
0.540600 0.540600 0.547491
0.610200 0.610200 0.616047
0.679800 0.679800 0.684603
0.749400 0.749400 0.753159
0.819000 0.819000 0.821715
0.720400 0.720400 0.724594
0.790000 0.790000 0.793150
0.859600 0.859600 0.861706
0.929200 0.929200 0.930262
0.998800 0.998800 0.998818
0.041800 0.041800 0.056173
0.111400 0.111400 0.124729
0.181000 0.181000 0.193285
0.250600 0.250600 0.261841
0.320200 0.320200 0.330397
0.221600 0.221600 0.233276
0.291200 0.291200 0.301832
0.360800 0.360800 0.370388
0.430400 0.430400 0.438944
0.500000 0.500000 0.507500
0.401400 0.401400 0.410379
0.471000 0.471000 0.478935
0.540600 0.540600 0.547491
0.610200 0.610200 0.616047
0.679800 0.679800 0.684603
0.581200 0.581200 0.587482
0.650800 0.650800 0.656038
0.720400 0.720400 0.724594
0.790000 0.790000 0.793150
0.859600 0.859600 0.861706
0.761000 0.761000 0.764585
0.830600 0.830600 0.833141
0.900200 0.900200 0.901697
0.969800 0.969800 0.970253
1.000000 1.000000 1.000000
0.082400 0.082400 0.096164
0.152000 0.152000 0.164720
0.221600 0.221600 0.233276
0.291200 0.291200 0.301832
0.360800 0.360800 0.370388
0.262200 0.262200 0.273267
0.331800 0.331800 0.341823
0.401400 0.401400 0.410379
0.471000 0.471000 0.478935
0.540600 0.540600 0.547491
0.442000 0.442000 0.450370
0.511600 0.511600 0.518926
0.581200 0.581200 0.587482
0.650800 0.650800 0.656038
0.720400 0.720400 0.724594
0.621800 0.621800 0.627473
0.691400 0.691400 0.696029
0.761000 0.761000 0.764585
0.830600 0.830600 0.833141
0.900200 0.900200 0.901697
0.801600 0.801600 0.804576
0.871200 0.871200 0.873132
0.940800 0.940800 0.941688
1.000000 1.000000 1.000000
1.000000 1.000000 1.000000
