docs/luts/fresh-celluloid.cube
TITLE "FreshLUTs??-???"
LUT_3D_SIZE 5
DOMAIN_MIN 0.0 0.0 0.0
DOMAIN_MAX 1.0 1.0 1.0
0.000000 0.000000 0.040000
0.223551 0.000000 0.036472
0.485980 0.000000 0.033422
0.748409 0.001273 0.030372
0.971960 0.006379 0.026844
0.005635 0.225658 0.033308
0.229186 0.230763 0.029780
0.491615 0.236347 0.026730
0.754044 0.241931 0.023680
0.978483 0.247036 0.020152
0.011740 0.485985 0.027086
0.235291 0.491091 0.023558
0.498513 0.496675 0.020508
0.763520 0.500949 0.020949
0.989648 0.503700 0.023700
0.018543 0.746313 0.020864
0.244671 0.750196 0.020596
0.509678 0.753425 0.023825
0.774685 0.756654 0.027054
1.000000 0.759405 0.029805
0.029239 0.983480 0.023480
0.255367 0.986231 0.026231
0.520374 0.989460 0.029460
0.785381 0.992689 0.032689
1.000000 0.995440 0.035440
0.001072 0.000000 0.264278
0.224622 0.000000 0.260749
0.487052 0.000000 0.257700
0.749481 0.003242 0.254650
0.973032 0.008348 0.251122
0.006707 0.227627 0.257586
0.230258 0.232733 0.254058
0.492687 0.238316 0.251008
0.755116 0.243900 0.247958
0.980537 0.249006 0.244430
0.012812 0.487955 0.251364
0.236362 0.493060 0.247835
0.500567 0.498644 0.244786
0.765574 0.502021 0.247621
0.991703 0.504772 0.250372
0.020597 0.748282 0.245141
0.246726 0.751267 0.247267
0.511733 0.754496 0.250496
0.776739 0.757726 0.253726
1.000000 0.760476 0.256476
0.031293 0.984552 0.250152
0.257421 0.987302 0.252902
0.522428 0.990532 0.256132
0.787435 0.993761 0.259361
1.000000 0.996512 0.262112
0.002280 0.000000 0.517492
0.225831 0.000000 0.513964
0.488260 0.000000 0.510914
0.750689 0.005349 0.507864
0.974240 0.010454 0.504336
0.007915 0.229733 0.510800
0.231466 0.234839 0.507272
0.493895 0.240423 0.504222
0.756600 0.246006 0.501172
0.982729 0.250275 0.499875
0.014020 0.490061 0.504578
0.237752 0.495166 0.501050
0.502759 0.500000 0.500000
0.767765 0.503229 0.503229
0.993894 0.505980 0.505980
0.022789 0.749725 0.500125
0.248917 0.752476 0.502876
0.513924 0.755705 0.506105
0.778931 0.758934 0.509334
1.000000 0.761685 0.512085
0.033484 0.985760 0.505760
0.259613 0.988511 0.508511
0.524619 0.991740 0.511740
0.789626 0.994969 0.514969
1.000000 0.997720 0.517720
0.003488 0.000000 0.770706
0.227039 0.000000 0.767178
0.489468 0.001871 0.764128
0.751898 0.007455 0.761079
0.975448 0.012560 0.757550
0.009124 0.231839 0.764015
0.232674 0.236945 0.760486
0.495104 0.242529 0.757437
0.758791 0.248113 0.754387
0.984920 0.251484 0.755484
0.015228 0.492167 0.757792
0.239943 0.497272 0.754264
0.504950 0.501208 0.755608
0.769957 0.504438 0.758838
0.996085 0.507188 0.761588
0.024980 0.750933 0.755733
0.251108 0.753684 0.758484
0.516115 0.756913 0.761713
0.781122 0.760142 0.764942
1.000000 0.762893 0.767693
0.035675 0.986968 0.761368
0.261804 0.989719 0.764119
0.526810 0.992948 0.767348
0.791817 0.996178 0.770578
1.000000 0.998928 0.773328
0.004560 0.000000 0.994984
0.228111 0.000000 0.991456
0.490540 0.003840 0.988406
0.752969 0.009424 0.985356
0.976520 0.014530 0.981828
0.010195 0.233809 0.988292
0.233746 0.238914 0.984764
0.496175 0.244498 0.981714
0.760846 0.249804 0.979404
0.986974 0.252555 0.982155
0.016300 0.494136 0.982070
0.241997 0.499051 0.979051
0.507004 0.502280 0.982280
0.772011 0.505509 0.985509
0.998139 0.508260 0.988260
0.027034 0.752005 0.982405
0.253162 0.754756 0.985156
0.518169 0.757985 0.988385
0.783176 0.761214 0.991614
1.000000 0.763965 0.994365
0.037730 0.988040 0.988040
0.263858 0.990791 0.990791
0.528865 0.994020 0.994020
0.793872 0.997249 0.997249
1.000000 1.000000 1.000000
