docs/luts/fresh-cinematic-flog.cube
TITLE "FreshLUTs??-FLog??"
LUT_3D_SIZE 9
DOMAIN_MIN 0.0 0.0 0.0
DOMAIN_MAX 1.0 1.0 1.0
0.017777 0.020017 0.040497
0.129927 0.021397 0.038738
0.251621 0.022894 0.037095
0.373315 0.024392 0.035453
0.495009 0.025889 0.033811
0.616704 0.027387 0.032169
0.738398 0.028884 0.030527
0.860092 0.030382 0.028885
0.972242 0.031762 0.027126
0.020677 0.141477 0.037233
0.132826 0.142857 0.035474
0.254521 0.144354 0.033832
0.376215 0.145852 0.032190
0.497909 0.147349 0.030548
0.619603 0.148847 0.028906
0.741298 0.150344 0.027264
0.862992 0.151842 0.025622
0.975142 0.153222 0.023862
0.023577 0.262937 0.033970
0.135726 0.264317 0.032210
0.257420 0.265814 0.030568
0.379115 0.267312 0.028926
0.500809 0.268809 0.027284
0.622503 0.270306 0.025642
0.744197 0.271804 0.024000
0.865892 0.273301 0.022358
0.978840 0.274681 0.020598
0.026476 0.384396 0.030706
0.138626 0.385776 0.028946
0.260320 0.387274 0.027304
0.382014 0.388771 0.025662
0.503709 0.390269 0.024020
0.625403 0.391766 0.022378
0.747854 0.393264 0.020736
0.870708 0.394761 0.019561
0.984017 0.396141 0.020941
0.029376 0.505856 0.027442
0.141526 0.507236 0.025683
0.263220 0.508734 0.024041
0.384914 0.510231 0.022399
0.507322 0.511729 0.020757
0.630176 0.513226 0.019466
0.753031 0.514723 0.020963
0.875885 0.516221 0.022461
0.989194 0.517601 0.023841
0.032276 0.627316 0.024178
0.144426 0.628696 0.022419
0.266791 0.630193 0.020777
0.389645 0.631691 0.019371
0.512499 0.633188 0.020868
0.635353 0.634686 0.022366
0.758208 0.636183 0.023863
0.881062 0.637681 0.025361
0.994371 0.639061 0.026741
0.035804 0.748776 0.020915
0.149114 0.750156 0.019276
0.271968 0.751653 0.020773
0.394822 0.753151 0.022271
0.517676 0.754648 0.023768
0.640530 0.756146 0.025266
0.763385 0.757643 0.026763
0.886239 0.759140 0.028260
0.999548 0.760520 0.029640
0.040981 0.870235 0.020796
0.154291 0.871616 0.022176
0.277145 0.873113 0.023673
0.399999 0.874610 0.025170
0.522853 0.876108 0.026668
0.645707 0.877605 0.028165
0.768561 0.879103 0.029663
0.891416 0.880600 0.031160
1.000000 0.881980 0.032540
0.046158 0.991695 0.023695
0.159468 0.993075 0.025075
0.282322 0.994573 0.026573
0.405176 0.996070 0.028070
0.528030 0.997568 0.029568
0.650884 0.999065 0.031065
0.773738 1.000000 0.032563
0.896593 1.000000 0.034060
1.000000 1.000000 0.035440
0.018279 0.020519 0.145402
0.130428 0.021899 0.143642
0.252122 0.023396 0.142000
0.373817 0.024894 0.140358
0.495511 0.026391 0.138716
0.617205 0.027888 0.137074
0.738900 0.029386 0.135432
0.860594 0.030883 0.133790
0.972743 0.032263 0.132030
0.021178 0.141978 0.142138
0.133328 0.143358 0.140378
0.255022 0.144856 0.138736
0.376717 0.146353 0.137094
0.498411 0.147851 0.135452
0.620105 0.149348 0.133810
0.741799 0.150846 0.132168
0.863494 0.152343 0.130526
0.975643 0.153723 0.128767
0.024078 0.263438 0.138874
0.136228 0.264818 0.137115
0.257922 0.266316 0.135473
0.379616 0.267813 0.133831
0.501311 0.269311 0.132189
0.623005 0.270808 0.130547
0.744699 0.272305 0.128904
0.866475 0.273803 0.127262
0.979784 0.275183 0.125503
0.026978 0.384898 0.135610
0.139128 0.386278 0.133851
0.260822 0.387775 0.132209
0.382516 0.389273 0.130567
0.504210 0.390770 0.128925
0.625943 0.392268 0.127283
0.748798 0.393765 0.125641
0.871652 0.395263 0.125663
0.984961 0.396643 0.127043
0.029878 0.506358 0.132347
0.142027 0.507738 0.130587
0.263722 0.509235 0.128945
0.385416 0.510733 0.127303
0.508266 0.512230 0.125661
0.631120 0.513728 0.125568
0.753974 0.515225 0.127065
0.876829 0.516722 0.128562
0.990138 0.518102 0.129942
0.032778 0.627818 0.129083
0.144927 0.629198 0.127324
0.267735 0.630695 0.125681
0.390589 0.632192 0.125472
0.513443 0.633690 0.126970
0.636297 0.635187 0.128467
0.759151 0.636685 0.129965
0.882006 0.638182 0.131462
0.995315 0.639562 0.132842
0.036748 0.749277 0.125819
0.150058 0.750657 0.125377
0.272912 0.752155 0.126875
0.395766 0.753652 0.128372
0.518620 0.755150 0.129870
0.641474 0.756647 0.131367
0.764328 0.758145 0.132865
0.887183 0.759642 0.134362
1.000000 0.761022 0.135742
0.041925 0.870737 0.126897
0.155234 0.872117 0.128277
0.278089 0.873615 0.129775
0.400943 0.875112 0.131272
0.523797 0.876609 0.132769
0.646651 0.878107 0.134267
0.769505 0.879604 0.135764
0.892359 0.881102 0.137262
1.000000 0.882482 0.138642
0.047102 0.992197 0.129797
0.160411 0.993577 0.131177
0.283266 0.995074 0.132674
0.406120 0.996572 0.134172
0.528974 0.998069 0.135669
0.651828 0.999567 0.137167
0.774682 1.000000 0.138664
0.897536 1.000000 0.140162
1.000000 1.000000 0.141542
0.018871 0.021111 0.269597
0.131021 0.022491 0.267838
0.252715 0.023989 0.266196
0.374410 0.025486 0.264554
0.496104 0.026984 0.262912
0.617798 0.028481 0.261270
0.739492 0.029979 0.259628
0.861187 0.031476 0.257986
0.973336 0.032856 0.256226
0.021771 0.142571 0.266334
0.133921 0.143951 0.264574
0.255615 0.145449 0.262932
0.377309 0.146946 0.261290
0.499004 0.148444 0.259648
0.620698 0.149941 0.258006
0.742392 0.151438 0.256364
0.864086 0.152936 0.254722
0.976236 0.154316 0.252962
0.024671 0.264031 0.263070
0.136821 0.265411 0.261311
0.258515 0.266908 0.259668
0.380209 0.268406 0.258026
0.501903 0.269903 0.256384
0.623598 0.271401 0.254742
0.745292 0.272898 0.253100
0.867510 0.274396 0.251458
0.980819 0.275776 0.249699
0.027571 0.385491 0.259806
0.139720 0.386871 0.258047
0.261415 0.388368 0.256405
0.383109 0.389866 0.254763
0.504803 0.391363 0.253121
0.626978 0.392861 0.251479
0.749833 0.394358 0.249837
0.872687 0.395855 0.251055
0.985996 0.397236 0.252435
0.030471 0.506951 0.256543
0.142620 0.508331 0.254783
0.264314 0.509828 0.253141
0.386447 0.511325 0.251499
0.509301 0.512823 0.249857
0.632155 0.514320 0.250960
0.755010 0.515818 0.252458
0.877864 0.517315 0.253955
0.991173 0.518695 0.255335
0.033370 0.628410 0.253279
0.145916 0.629790 0.251519
0.268770 0.631288 0.249877
0.391624 0.632785 0.250865
0.514478 0.634283 0.252363
0.637332 0.635780 0.253860
0.760186 0.637278 0.255358
0.883041 0.638775 0.256855
0.996350 0.640155 0.258235
0.037783 0.749870 0.250015
0.151093 0.751250 0.250770
0.273947 0.752748 0.252268
0.396801 0.754245 0.253765
0.519655 0.755742 0.255262
0.642509 0.757240 0.256760
0.765363 0.758737 0.258257
0.888218 0.760235 0.259755
1.000000 0.761615 0.261135
0.042960 0.871330 0.252290
0.156270 0.872710 0.253670
0.279124 0.874207 0.255167
0.401978 0.875705 0.256665
0.524832 0.877202 0.258162
0.647686 0.878700 0.259660
0.770540 0.880197 0.261157
0.893394 0.881695 0.262655
1.000000 0.883075 0.264035
0.048137 0.992790 0.255190
0.161446 0.994170 0.256570
0.284301 0.995667 0.258067
0.407155 0.997165 0.259565
0.530009 0.998662 0.261062
0.652863 1.000000 0.262559
0.775717 1.000000 0.264057
0.898571 1.000000 0.265554
1.000000 1.000000 0.266934
0.019464 0.021704 0.393793
0.131614 0.023084 0.392034
0.253308 0.024582 0.390392
0.375002 0.026079 0.388750
0.496697 0.027577 0.387108
0.618391 0.029074 0.385466
0.740085 0.030572 0.383824
0.861779 0.032069 0.382181
0.973929 0.033449 0.380422
0.022364 0.143164 0.390530
0.134514 0.144544 0.388770
0.256208 0.146041 0.387128
0.377902 0.147539 0.385486
0.499596 0.149036 0.383844
0.621291 0.150534 0.382202
0.742985 0.152031 0.380560
0.864679 0.153529 0.378918
0.976829 0.154909 0.377158
0.025264 0.264624 0.387266
0.137413 0.266004 0.385506
0.259108 0.267501 0.383864
0.380802 0.268999 0.382222
0.502496 0.270496 0.380580
0.624190 0.271994 0.378938
0.745885 0.273491 0.377296
0.868545 0.274989 0.375654
0.981854 0.276369 0.374929
0.028164 0.386084 0.384002
0.140313 0.387464 0.382243
0.262007 0.388961 0.380601
0.383702 0.390458 0.378958
0.505396 0.391956 0.377316
0.628013 0.393453 0.375674
0.750868 0.394951 0.374951
0.873722 0.396448 0.376448
0.987031 0.397828 0.377828
0.031063 0.507543 0.380738
0.143213 0.508923 0.378979
0.264907 0.510421 0.377337
0.387482 0.511918 0.375695
0.510336 0.513416 0.374856
0.633190 0.514913 0.376353
0.756045 0.516411 0.377851
0.878899 0.517908 0.379348
0.992208 0.519288 0.380728
0.033963 0.629003 0.377475
0.146951 0.630383 0.375715
0.269805 0.631881 0.374761
0.392659 0.633378 0.376258
0.515513 0.634875 0.377756
0.638367 0.636373 0.379253
0.761222 0.637870 0.380750
0.884076 0.639368 0.382248
0.997385 0.640748 0.383628
0.038818 0.750463 0.374783
0.152128 0.751843 0.376163
0.274982 0.753340 0.377660
0.397836 0.754838 0.379158
0.520690 0.756335 0.380655
0.643544 0.757833 0.382153
0.766398 0.759330 0.383650
0.889253 0.760828 0.385148
1.000000 0.762208 0.386528
0.043995 0.871923 0.377683
0.157305 0.873303 0.379063
0.280159 0.874800 0.380560
0.403013 0.876298 0.382058
0.525867 0.877795 0.383555
0.648721 0.879293 0.385053
0.771575 0.880790 0.386550
0.894430 0.882287 0.388047
1.000000 0.883667 0.389427
0.049172 0.993382 0.380582
0.162481 0.994762 0.381962
0.285336 0.996260 0.383460
0.408190 0.997757 0.384957
0.531044 0.999255 0.386455
0.653898 1.000000 0.387952
0.776752 1.000000 0.389450
0.899606 1.000000 0.390947
1.000000 1.000000 0.392327
0.020057 0.022297 0.517989
0.132207 0.023677 0.516230
0.253901 0.025174 0.514587
0.375595 0.026672 0.512945
0.497289 0.028169 0.511303
0.618984 0.029667 0.509661
0.740678 0.031164 0.508019
0.862372 0.032662 0.506377
0.974522 0.034042 0.504618
0.022957 0.143757 0.514725
0.135106 0.145137 0.512966
0.256801 0.146634 0.511324
0.378495 0.148132 0.509682
0.500189 0.149629 0.508040
0.621883 0.151127 0.506398
0.743578 0.152624 0.504756
0.865272 0.154122 0.503114
0.977712 0.155502 0.501354
0.025857 0.265217 0.511462
0.138006 0.266597 0.509702
0.259700 0.268094 0.508060
0.381395 0.269592 0.506418
0.503089 0.271089 0.504776
0.624783 0.272586 0.503134
0.746726 0.274084 0.501492
0.869580 0.275581 0.499850
0.982889 0.276961 0.500321
0.028756 0.386676 0.508198
0.140906 0.388056 0.506438
0.262600 0.389554 0.504796
0.384294 0.391051 0.503154
0.506194 0.392549 0.501512
0.629049 0.394046 0.499870
0.751903 0.395544 0.500344
0.874757 0.397041 0.501841
0.988066 0.398421 0.503221
0.031656 0.508136 0.504934
0.143806 0.509516 0.503175
0.265663 0.511014 0.501533
0.388517 0.512511 0.499891
0.511371 0.514009 0.500249
0.634225 0.515506 0.501746
0.757080 0.517003 0.503243
0.879934 0.518501 0.504741
0.993243 0.519881 0.506121
0.034676 0.629596 0.501670
0.147986 0.630976 0.499911
0.270840 0.632473 0.500153
0.393694 0.633971 0.501651
0.516548 0.635468 0.503148
0.639402 0.636966 0.504646
0.762257 0.638463 0.506143
0.885111 0.639961 0.507641
0.998420 0.641341 0.509021
0.039853 0.751056 0.500176
0.153163 0.752436 0.501556
0.276017 0.753933 0.503053
0.398871 0.755431 0.504551
0.521725 0.756928 0.506048
0.644579 0.758426 0.507546
0.767433 0.759923 0.509043
0.890288 0.761420 0.510540
1.000000 0.762800 0.511920
0.045030 0.872515 0.503076
0.158340 0.873896 0.504456
0.281194 0.875393 0.505953
0.404048 0.876890 0.507450
0.526902 0.878388 0.508948
0.649756 0.879885 0.510445
0.772610 0.881383 0.511943
0.895465 0.882880 0.513440
1.000000 0.884260 0.514820
0.050207 0.993975 0.505975
0.163517 0.995355 0.507355
0.286371 0.996853 0.508853
0.409225 0.998350 0.510350
0.532079 0.999848 0.511848
0.654933 1.000000 0.513345
0.777787 1.000000 0.514843
0.900642 1.000000 0.516340
1.000000 1.000000 0.517720
0.020650 0.022890 0.642185
0.132799 0.024270 0.640425
0.254494 0.025767 0.638783
0.376188 0.027265 0.637141
0.497882 0.028762 0.635499
0.619576 0.030260 0.633857
0.741271 0.031757 0.632215
0.862965 0.033255 0.630573
0.975115 0.034635 0.628814
0.023550 0.144350 0.638921
0.135699 0.145730 0.637162
0.257393 0.147227 0.635520
0.379088 0.148725 0.633878
0.500782 0.150222 0.632235
0.622476 0.151719 0.630593
0.744170 0.153217 0.628951
0.865865 0.154714 0.627309
0.978748 0.156094 0.625550
0.026449 0.265809 0.635657
0.138599 0.267189 0.633898
0.260293 0.268687 0.632256
0.381988 0.270184 0.630614
0.503682 0.271682 0.628972
0.625376 0.273179 0.627330
0.747761 0.274677 0.625688
0.870615 0.276174 0.624334
0.983924 0.277554 0.625714
0.029349 0.387269 0.632394
0.141499 0.388649 0.630634
0.263193 0.390147 0.628992
0.384887 0.391644 0.627350
0.507229 0.393142 0.625708
0.630084 0.394639 0.624239
0.752938 0.396136 0.625736
0.875792 0.397634 0.627234
0.989101 0.399014 0.628614
0.032249 0.508729 0.629130
0.144399 0.510109 0.627370
0.266698 0.511606 0.625728
0.389552 0.513104 0.624144
0.512406 0.514601 0.625641
0.635260 0.516099 0.627139
0.758115 0.517596 0.628636
0.880969 0.519094 0.630134
0.994278 0.520474 0.631514
0.035711 0.630189 0.625866
0.149021 0.631569 0.624107
0.271875 0.633066 0.625546
0.394729 0.634564 0.627044
0.517583 0.636061 0.628541
0.640437 0.637559 0.630039
0.763292 0.639056 0.631536
0.886146 0.640553 0.633033
0.999455 0.641933 0.634413
0.040888 0.751649 0.625569
0.154198 0.753029 0.626949
0.277052 0.754526 0.628446
0.399906 0.756023 0.629943
0.522760 0.757521 0.631441
0.645614 0.759018 0.632938
0.768469 0.760516 0.634436
0.891323 0.762013 0.635933
1.000000 0.763393 0.637313
0.046065 0.873108 0.628468
0.159375 0.874488 0.629848
0.282229 0.875986 0.631346
0.405083 0.877483 0.632843
0.527937 0.878981 0.634341
0.650791 0.880478 0.635838
0.773645 0.881976 0.637336
0.896500 0.883473 0.638833
1.000000 0.884853 0.640213
0.051242 0.994568 0.631368
0.164552 0.995948 0.632748
0.287406 0.997446 0.634246
0.410260 0.998943 0.635743
0.533114 1.000000 0.637240
0.655968 1.000000 0.638738
0.778822 1.000000 0.640235
0.901677 1.000000 0.641733
1.000000 1.000000 0.643113
0.021243 0.023483 0.766381
0.133392 0.024863 0.764621
0.255086 0.026360 0.762979
0.376781 0.027858 0.761337
0.498475 0.029355 0.759695
0.620169 0.030852 0.758053
0.741864 0.032350 0.756411
0.863558 0.033847 0.754769
0.975707 0.035227 0.753009
0.024142 0.144942 0.763117
0.136292 0.146322 0.761357
0.257986 0.147820 0.759715
0.379681 0.149317 0.758073
0.501375 0.150815 0.756431
0.623069 0.152312 0.754789
0.744763 0.153810 0.753147
0.866473 0.155307 0.751505
0.979783 0.156687 0.749746
0.027042 0.266402 0.759853
0.139192 0.267782 0.758094
0.260886 0.269280 0.756452
0.382580 0.270777 0.754810
0.504275 0.272275 0.753168
0.625969 0.273772 0.751526
0.748796 0.275269 0.749883
0.871650 0.276767 0.749727
0.984960 0.278147 0.751107
0.029942 0.387862 0.756589
0.142092 0.389242 0.754830
0.263786 0.390739 0.753188
0.385480 0.392237 0.751546
0.508264 0.393734 0.749904
0.631119 0.395232 0.749632
0.753973 0.396729 0.751129
0.876827 0.398227 0.752627
0.990136 0.399607 0.754007
0.032842 0.509322 0.753326
0.144991 0.510702 0.751566
0.267733 0.512199 0.749924
0.390587 0.513697 0.749537
0.513441 0.515194 0.751034
0.636296 0.516692 0.752532
0.759150 0.518189 0.754029
0.882004 0.519686 0.755526
0.995313 0.521066 0.756906
0.036746 0.630782 0.750062
0.150056 0.632162 0.749442
0.272910 0.633659 0.750939
0.395764 0.635156 0.752436
0.518618 0.636654 0.753934
0.641472 0.638151 0.755431
0.764327 0.639649 0.756929
0.887181 0.641146 0.758426
1.000000 0.642526 0.759806
0.041923 0.752241 0.750961
0.155233 0.753621 0.752341
0.278087 0.755119 0.753839
0.400941 0.756616 0.755336
0.523795 0.758114 0.756834
0.646649 0.759611 0.758331
0.769504 0.761109 0.759829
0.892358 0.762606 0.761326
1.000000 0.763986 0.762706
0.047100 0.873701 0.753861
0.160410 0.875081 0.755241
0.283264 0.876579 0.756739
0.406118 0.878076 0.758236
0.528972 0.879573 0.759733
0.651826 0.881071 0.761231
0.774680 0.882568 0.762728
0.897535 0.884066 0.764226
1.000000 0.885446 0.765606
0.052277 0.995161 0.756761
0.165587 0.996541 0.758141
0.288441 0.998038 0.759638
0.411295 0.999536 0.761136
0.534149 1.000000 0.762633
0.657003 1.000000 0.764131
0.779857 1.000000 0.765628
0.902712 1.000000 0.767126
1.000000 1.000000 0.768506
0.021835 0.024075 0.890576
0.133985 0.025455 0.888817
0.255679 0.026953 0.887175
0.377374 0.028450 0.885533
0.499068 0.029948 0.883891
0.620762 0.031445 0.882249
0.742456 0.032943 0.880607
0.864151 0.034440 0.878965
0.976300 0.035820 0.877205
0.024735 0.145535 0.887313
0.136885 0.146915 0.885553
0.258579 0.148413 0.883911
0.380273 0.149910 0.882269
0.501968 0.151408 0.880627
0.623662 0.152905 0.878985
0.745356 0.154402 0.877343
0.867508 0.155900 0.875701
0.980818 0.157280 0.873941
0.027635 0.266995 0.884049
0.139785 0.268375 0.882290
0.261479 0.269872 0.880647
0.383173 0.271370 0.879005
0.504867 0.272867 0.877363
0.626977 0.274365 0.875721
0.749831 0.275862 0.874079
0.872685 0.277360 0.875120
0.985995 0.278740 0.876500
0.030535 0.388455 0.880785
0.142684 0.389835 0.879026
0.264379 0.391332 0.877384
0.386445 0.392830 0.875742
0.509299 0.394327 0.874100
0.632154 0.395825 0.875025
0.755008 0.397322 0.876522
0.877862 0.398819 0.878019
0.991171 0.400200 0.879400
0.033435 0.509915 0.877522
0.145914 0.511295 0.875762
0.268768 0.512792 0.874120
0.391622 0.514289 0.874929
0.514476 0.515787 0.876427
0.637331 0.517284 0.877924
0.760185 0.518782 0.879422
0.883039 0.520279 0.880919
0.996348 0.521659 0.882299
0.037781 0.631374 0.874258
0.151091 0.632754 0.874834
0.273945 0.634252 0.876332
0.396799 0.635749 0.877829
0.519653 0.637247 0.879327
0.642508 0.638744 0.880824
0.765362 0.640242 0.882322
0.888216 0.641739 0.883819
1.000000 0.643119 0.885199
0.042958 0.752834 0.876354
0.156268 0.754214 0.877734
0.279122 0.755712 0.879232
0.401976 0.757209 0.880729
0.524830 0.758706 0.882226
0.647684 0.760204 0.883724
0.770539 0.761701 0.885221
0.893393 0.763199 0.886719
1.000000 0.764579 0.888099
0.048135 0.874294 0.879254
0.161445 0.875674 0.880634
0.284299 0.877171 0.882131
0.407153 0.878669 0.883629
0.530007 0.880166 0.885126
0.652861 0.881664 0.886624
0.775716 0.883161 0.888121
0.898570 0.884659 0.889619
1.000000 0.886039 0.890999
0.053312 0.995754 0.882154
0.166622 0.997134 0.883534
0.289476 0.998631 0.885031
0.412330 1.000000 0.886529
0.535184 1.000000 0.888026
0.658038 1.000000 0.889523
0.780892 1.000000 0.891021
0.903747 1.000000 0.892518
1.000000 1.000000 0.893898
0.022337 0.024577 0.995481
0.134487 0.025957 0.993722
0.256181 0.027454 0.992079
0.377875 0.028952 0.990437
0.499569 0.030449 0.988795
0.621264 0.031947 0.987153
0.742958 0.033444 0.985511
0.864652 0.034942 0.983869
0.976802 0.036322 0.982110
0.025237 0.146037 0.992217
0.137386 0.147417 0.990458
0.259081 0.148914 0.988816
0.380775 0.150412 0.987174
0.502469 0.151909 0.985532
0.624163 0.153407 0.983890
0.745858 0.154904 0.982248
0.868452 0.156402 0.980606
0.981761 0.157782 0.979702
0.028137 0.267497 0.988954
0.140286 0.268877 0.987194
0.261980 0.270374 0.985552
0.383675 0.271872 0.983910
0.505369 0.273369 0.982268
0.627921 0.274866 0.980626
0.750775 0.276364 0.979724
0.873629 0.277861 0.981221
0.986938 0.279241 0.982601
0.031036 0.388956 0.985690
0.143186 0.390336 0.983930
0.264880 0.391834 0.982288
0.387389 0.393331 0.980646
0.510243 0.394829 0.979629
0.633097 0.396326 0.981126
0.755952 0.397824 0.982624
0.878806 0.399321 0.984121
0.992115 0.400701 0.985501
0.033936 0.510416 0.982426
0.146858 0.511796 0.980667
0.269712 0.513294 0.979534
0.392566 0.514791 0.981031
0.515420 0.516289 0.982529
0.638274 0.517786 0.984026
0.761129 0.519283 0.985523
0.883983 0.520781 0.987021
0.997292 0.522161 0.988401
0.038725 0.631876 0.979556
0.152035 0.633256 0.980936
0.274889 0.634753 0.982433
0.397743 0.636251 0.983931
0.520597 0.637748 0.985428
0.643451 0.639246 0.986926
0.766306 0.640743 0.988423
0.889160 0.642241 0.989921
1.000000 0.643621 0.991301
0.043902 0.753336 0.982456
0.157212 0.754716 0.983836
0.280066 0.756213 0.985333
0.402920 0.757711 0.986831
0.525774 0.759208 0.988328
0.648628 0.760706 0.989826
0.771482 0.762203 0.991323
0.894337 0.763700 0.992820
1.000000 0.765080 0.994200
0.049079 0.874795 0.985356
0.162389 0.876176 0.986736
0.285243 0.877673 0.988233
0.408097 0.879170 0.989730
0.530951 0.880668 0.991228
0.653805 0.882165 0.992725
0.776659 0.883663 0.994223
0.899514 0.885160 0.995720
1.000000 0.886540 0.997100
0.054256 0.996255 0.988255
0.167565 0.997635 0.989635
0.290420 0.999133 0.991133
0.413274 1.000000 0.992630
0.536128 1.000000 0.994128
0.658982 1.000000 0.995625
0.781836 1.000000 0.997123
0.904690 1.000000 0.998620
1.000000 1.000000 1.000000
