docs/luts/fresh-cine-teal.cube
TITLE "FreshLUTs??-????"
LUT_3D_SIZE 5
DOMAIN_MIN 0.0 0.0 0.0
DOMAIN_MAX 1.0 1.0 1.0
0.000000 0.035000 0.080000
0.194709 0.029506 0.067442
0.479419 0.024012 0.054884
0.764128 0.018518 0.042326
0.988837 0.013024 0.029768
0.000000 0.254214 0.055346
0.203954 0.248720 0.042788
0.488664 0.243226 0.030230
0.773373 0.237731 0.017672
0.998082 0.232237 0.005114
0.000000 0.513428 0.030692
0.213200 0.507934 0.018134
0.497909 0.502440 0.005576
0.780000 0.500000 0.000000
1.000000 0.500000 0.000000
0.000000 0.772642 0.006038
0.220000 0.770000 0.000000
0.500000 0.770000 0.000000
0.780000 0.770000 0.000000
1.000000 0.770000 0.000000
0.000000 1.000000 0.000000
0.220000 1.000000 0.000000
0.500000 1.000000 0.000000
0.780000 1.000000 0.000000
1.000000 1.000000 0.000000
0.000000 0.032905 0.295212
0.196505 0.027411 0.282654
0.481214 0.021917 0.270096
0.765923 0.016423 0.257538
0.990633 0.010929 0.244980
0.000000 0.252119 0.270558
0.205750 0.246625 0.258000
0.490459 0.241131 0.245442
0.775169 0.235637 0.232884
0.999878 0.230143 0.220326
0.000000 0.511333 0.245904
0.214995 0.505839 0.233346
0.499704 0.500345 0.220788
0.780000 0.500000 0.220000
1.000000 0.500000 0.220000
0.000000 0.770547 0.221250
0.220000 0.770000 0.220000
0.500000 0.770000 0.220000
0.780000 0.770000 0.220000
1.000000 0.770000 0.220000
0.000000 1.000000 0.220000
0.220000 1.000000 0.220000
0.500000 1.000000 0.220000
0.780000 1.000000 0.220000
1.000000 1.000000 0.220000
0.000000 0.030811 0.570424
0.198300 0.025316 0.557866
0.483009 0.019822 0.545308
0.767719 0.014328 0.532750
0.992428 0.008834 0.520192
0.000000 0.250024 0.545770
0.207545 0.244530 0.533212
0.492255 0.239036 0.520654
0.776964 0.233542 0.508096
1.000000 0.230000 0.500000
0.000000 0.509238 0.521116
0.216791 0.503744 0.508558
0.500000 0.500000 0.500000
0.780000 0.500000 0.500000
1.000000 0.500000 0.500000
0.000000 0.770000 0.500000
0.220000 0.770000 0.500000
0.500000 0.770000 0.500000
0.780000 0.770000 0.500000
1.000000 0.770000 0.500000
0.000000 1.000000 0.500000
0.220000 1.000000 0.500000
0.500000 1.000000 0.500000
0.780000 1.000000 0.500000
1.000000 1.000000 0.500000
0.000000 0.028716 0.845636
0.200096 0.023222 0.833078
0.484805 0.017728 0.820520
0.769514 0.012233 0.807962
0.994224 0.006739 0.795404
0.000000 0.247930 0.820982
0.209341 0.242435 0.808424
0.494050 0.236941 0.795866
0.778760 0.231447 0.783308
1.000000 0.230000 0.780000
0.000000 0.507143 0.796328
0.218586 0.501649 0.783770
0.500000 0.500000 0.780000
0.780000 0.500000 0.780000
1.000000 0.500000 0.780000
0.000000 0.770000 0.780000
0.220000 0.770000 0.780000
0.500000 0.770000 0.780000
0.780000 0.770000 0.780000
1.000000 0.770000 0.780000
0.000000 1.000000 0.780000
0.220000 1.000000 0.780000
0.500000 1.000000 0.780000
0.780000 1.000000 0.780000
1.000000 1.000000 0.780000
0.000000 0.026621 1.000000
0.201891 0.021127 1.000000
0.486600 0.015633 1.000000
0.771310 0.010139 1.000000
0.996019 0.004645 1.000000
0.000000 0.245835 1.000000
0.211136 0.240341 1.000000
0.495846 0.234847 1.000000
0.780000 0.230000 1.000000
1.000000 0.230000 1.000000
0.000000 0.505049 1.000000
0.220000 0.500000 1.000000
0.500000 0.500000 1.000000
0.780000 0.500000 1.000000
1.000000 0.500000 1.000000
0.000000 0.770000 1.000000
0.220000 0.770000 1.000000
0.500000 0.770000 1.000000
0.780000 0.770000 1.000000
1.000000 0.770000 1.000000
0.000000 1.000000 1.000000
0.220000 1.000000 1.000000
0.500000 1.000000 1.000000
0.780000 1.000000 1.000000
1.000000 1.000000 1.000000
