docs/luts/fresh-golden-forest-blue-water.cube
TITLE "FreshLUTs??-????"
LUT_3D_SIZE 5
DOMAIN_MIN 0.0 0.0 0.0
DOMAIN_MAX 1.0 1.0 1.0
0.000000 0.045000 0.000000
0.242898 0.037936 0.009418
0.528040 0.030872 0.018837
0.813182 0.023808 0.028256
1.000000 0.016744 0.037674
0.000000 0.263566 0.018490
0.232332 0.251001 0.027909
0.517474 0.237478 0.037327
0.802616 0.223956 0.046746
1.000000 0.211391 0.054611
0.000000 0.533784 0.036981
0.219418 0.521219 0.046399
0.506741 0.507696 0.054430
0.798971 0.498102 0.054101
1.000000 0.492600 0.049591
0.001920 0.804002 0.054250
0.215513 0.795104 0.054267
0.507743 0.788646 0.049756
0.799973 0.782188 0.045246
1.000000 0.776686 0.040735
0.015836 1.000000 0.049922
0.218863 1.000000 0.045412
0.511093 1.000000 0.040901
0.803323 1.000000 0.036390
1.000000 1.000000 0.031879
0.000000 0.042307 0.249893
0.240801 0.035243 0.253810
0.525942 0.028179 0.256770
0.811084 0.021115 0.259730
1.000000 0.014051 0.263647
0.000000 0.258775 0.257818
0.230235 0.246210 0.261735
0.515376 0.232688 0.264695
0.800518 0.219165 0.267655
1.000000 0.206600 0.268298
0.000000 0.528993 0.263394
0.217321 0.516428 0.267311
0.507346 0.502906 0.267164
0.799576 0.496004 0.256785
1.000000 0.490502 0.246773
0.004623 0.799212 0.266029
0.216118 0.793007 0.256954
0.508348 0.786548 0.245985
0.800578 0.780090 0.235016
1.000000 0.774588 0.225003
0.018539 1.000000 0.247545
0.219468 1.000000 0.237533
0.511698 1.000000 0.226563
0.803928 1.000000 0.215594
1.000000 1.000000 0.205582
0.000000 0.039613 0.542622
0.238338 0.032550 0.546539
0.523480 0.025486 0.549499
0.808622 0.018422 0.552459
1.000000 0.011358 0.556376
0.000000 0.253620 0.550546
0.227772 0.241054 0.554463
0.512914 0.227532 0.557423
0.798814 0.214010 0.559901
1.000000 0.203954 0.555960
0.000000 0.523838 0.556123
0.215356 0.511272 0.559723
0.507586 0.500000 0.555172
0.799816 0.493542 0.544203
1.000000 0.488040 0.534191
0.007325 0.796046 0.554384
0.216358 0.790544 0.544372
0.508588 0.784086 0.533403
0.800818 0.777628 0.522434
1.000000 0.772126 0.512421
0.021241 1.000000 0.534963
0.219708 1.000000 0.524950
0.511938 1.000000 0.513981
0.804168 1.000000 0.503012
1.000000 1.000000 0.493000
0.000000 0.036920 0.835351
0.235876 0.029856 0.839268
0.521018 0.022792 0.842228
0.806159 0.015729 0.845188
1.000000 0.008665 0.849105
0.000000 0.248464 0.843275
0.225310 0.235898 0.847192
0.510452 0.222376 0.850152
0.799054 0.208854 0.850910
1.000000 0.201492 0.843378
0.000000 0.518682 0.848852
0.215596 0.506117 0.850732
0.507826 0.497538 0.842590
0.800056 0.491079 0.831621
1.000000 0.485578 0.821609
0.010028 0.793584 0.841802
0.216598 0.788082 0.831790
0.508828 0.781624 0.820821
0.801058 0.775165 0.809851
1.000000 0.769664 0.799839
0.023944 1.000000 0.822381
0.219948 1.000000 0.812368
0.512178 1.000000 0.801399
0.804408 1.000000 0.790430
1.000000 1.000000 0.780417
0.000000 0.034227 1.000000
0.233778 0.027163 1.000000
0.518920 0.020099 1.000000
0.804062 0.013035 1.000000
1.000000 0.005972 1.000000
0.000000 0.243673 1.000000
0.223212 0.231108 1.000000
0.508354 0.217585 1.000000
0.799659 0.204896 1.000000
1.000000 0.199394 1.000000
0.000000 0.513891 1.000000
0.216201 0.501898 1.000000
0.508431 0.495440 1.000000
0.800661 0.488982 1.000000
1.000000 0.483480 1.000000
0.012731 0.791486 1.000000
0.217203 0.785984 1.000000
0.509433 0.779526 1.000000
0.801663 0.773068 1.000000
1.000000 0.767566 1.000000
0.026647 1.000000 1.000000
0.220553 1.000000 1.000000
0.512783 1.000000 1.000000
0.805013 1.000000 1.000000
1.000000 1.000000 1.000000
