docs/luts/fresh-orange-teal-blockbuster.cube
TITLE "FreshLUTs??-????"
LUT_3D_SIZE 5
DOMAIN_MIN 0.0 0.0 0.0
DOMAIN_MAX 1.0 1.0 1.0
0.000000 0.012000 0.085000
0.214720 0.010116 0.071657
0.524909 0.008233 0.058314
0.835097 0.006349 0.044971
0.990698 0.004465 0.031629
0.000000 0.249701 0.058805
0.206224 0.240013 0.045462
0.516412 0.227993 0.032119
0.826600 0.215973 0.018777
1.000000 0.206286 0.003880
0.000000 0.529384 0.032610
0.194909 0.519696 0.019267
0.508072 0.507676 0.004537
0.825744 0.496704 0.000000
1.000000 0.488900 0.000000
0.000732 0.809067 0.005193
0.193842 0.800357 0.000000
0.509772 0.790221 0.000000
0.825701 0.780085 0.000000
1.000000 0.772281 0.000000
0.021595 1.000000 0.000000
0.196617 1.000000 0.000000
0.512547 1.000000 0.000000
0.828477 1.000000 0.000000
1.000000 1.000000 0.000000
0.000000 0.011282 0.326069
0.213173 0.009398 0.304922
0.523361 0.007514 0.281443
0.833549 0.005631 0.257964
0.992194 0.003747 0.236817
0.000000 0.245939 0.283673
0.204676 0.236251 0.262526
0.514864 0.224231 0.239047
0.825053 0.212211 0.215568
1.000000 0.202524 0.191148
0.000000 0.525622 0.238459
0.193362 0.515934 0.217312
0.510209 0.503914 0.190726
0.826386 0.493660 0.175242
1.000000 0.485856 0.162927
0.005913 0.805305 0.190304
0.194483 0.797314 0.176661
0.510413 0.787177 0.162014
0.826343 0.777041 0.147367
1.000000 0.769237 0.135052
0.025280 1.000000 0.163919
0.197258 1.000000 0.151604
0.513188 1.000000 0.136957
0.829118 1.000000 0.122310
1.000000 1.000000 0.109996
0.000000 0.010564 0.627986
0.210873 0.008680 0.606839
0.521061 0.006796 0.583360
0.831250 0.004912 0.559881
0.993690 0.003029 0.538734
0.000000 0.241424 0.585589
0.202376 0.231737 0.564443
0.512564 0.219717 0.540964
0.823787 0.207697 0.517002
1.000000 0.198679 0.496085
0.000000 0.521107 0.540376
0.191741 0.511420 0.518912
0.510345 0.500000 0.495172
0.826275 0.489864 0.480526
1.000000 0.482060 0.468211
0.009989 0.801321 0.494260
0.194372 0.793517 0.481945
0.510302 0.783381 0.467298
0.826232 0.773245 0.452651
1.000000 0.765441 0.440336
0.028966 1.000000 0.469203
0.197148 1.000000 0.456888
0.513077 1.000000 0.442241
0.829007 1.000000 0.427594
1.000000 1.000000 0.415280
0.000000 0.009845 0.929902
0.208573 0.007962 0.908755
0.518761 0.006078 0.885276
0.828950 0.004194 0.861797
0.995186 0.002311 0.840651
0.000000 0.236910 0.887506
0.200076 0.227222 0.866359
0.510264 0.215202 0.842880
0.825173 0.203183 0.817199
1.000000 0.194883 0.801369
0.000000 0.516593 0.842292
0.193126 0.506905 0.819109
0.510234 0.496204 0.800456
0.826164 0.486068 0.785810
1.000000 0.478264 0.773495
0.013675 0.797525 0.799544
0.194262 0.789721 0.787229
0.510191 0.779585 0.772582
0.826121 0.769449 0.757935
1.000000 0.761645 0.745620
0.032651 1.000000 0.774487
0.197037 1.000000 0.762172
0.512967 1.000000 0.747525
0.828896 1.000000 0.732878
1.000000 1.000000 0.720564
0.000000 0.009127 1.000000
0.207025 0.007243 1.000000
0.517214 0.005360 1.000000
0.827402 0.003476 1.000000
0.996683 0.001592 1.000000
0.000000 0.233148 1.000000
0.198529 0.223460 1.000000
0.508717 0.211440 1.000000
0.826848 0.199643 0.996078
1.000000 0.191839 0.991567
0.000000 0.512831 1.000000
0.194946 0.503296 0.996244
0.510876 0.493160 0.991733
0.826805 0.483024 0.987222
1.000000 0.475220 0.982711
0.017360 0.794481 0.991899
0.194903 0.786677 0.987388
0.510833 0.776541 0.982877
0.826763 0.766405 0.978366
1.000000 0.758601 0.973856
0.036336 1.000000 0.983043
0.197678 1.000000 0.978532
0.513608 1.000000 0.974022
0.829538 1.000000 0.969511
1.000000 1.000000 0.965000
