docs/luts/fresh-clean-cinematic.cube
TITLE "FreshLUTs??-????"
LUT_3D_SIZE 33
DOMAIN_MIN 0.0 0.0 0.0
DOMAIN_MAX 1.0 1.0 1.0
0.002400 0.002400 0.002400
0.014725 0.002475 0.002475
0.046769 0.002669 0.002669
0.078813 0.002863 0.002863
0.110858 0.003058 0.003058
0.142902 0.003252 0.003252
0.174947 0.003446 0.003446
0.206991 0.003641 0.003641
0.239035 0.003835 0.003835
0.271080 0.004030 0.004030
0.303124 0.004224 0.004224
0.335168 0.004418 0.004418
0.367213 0.004613 0.004613
0.399257 0.004807 0.004807
0.431301 0.005001 0.005001
0.463346 0.005196 0.005196
0.495390 0.005390 0.005390
0.527434 0.005584 0.005584
0.559479 0.005779 0.005779
0.591523 0.005973 0.005973
0.623567 0.006167 0.006167
0.655612 0.006362 0.006362
0.687656 0.006556 0.006556
0.719700 0.006750 0.006750
0.751745 0.006945 0.006945
0.783789 0.007139 0.007139
0.815833 0.007334 0.007334
0.847878 0.007528 0.007528
0.879922 0.007722 0.007722
0.911967 0.007917 0.007917
0.944011 0.008111 0.008111
0.976055 0.008305 0.008305
0.988380 0.008380 0.008380
0.002547 0.014797 0.002547
0.014871 0.014871 0.002621
0.046916 0.015066 0.002816
0.078960 0.015260 0.003010
0.111005 0.015455 0.003205
0.143049 0.015649 0.003399
0.175093 0.015843 0.003593
0.207138 0.016038 0.003788
0.239182 0.016232 0.003982
0.271226 0.016426 0.004176
0.303271 0.016621 0.004371
0.335315 0.016815 0.004565
0.367359 0.017009 0.004759
0.399404 0.017204 0.004954
0.431448 0.017398 0.005148
0.463492 0.017592 0.005342
0.495537 0.017787 0.005537
0.527581 0.017981 0.005731
0.559625 0.018175 0.005925
0.591670 0.018370 0.006120
0.623714 0.018564 0.006314
0.655758 0.018758 0.006509
0.687803 0.018953 0.006703
0.719847 0.019147 0.006897
0.751892 0.019342 0.007092
0.783936 0.019536 0.007286
0.815980 0.019730 0.007480
0.848025 0.019925 0.007675
0.880069 0.020119 0.007869
0.912113 0.020313 0.008063
0.944158 0.020508 0.008258
0.976202 0.020702 0.008452
0.988527 0.020777 0.008527
0.002928 0.047028 0.002928
0.015253 0.047103 0.003003
0.047297 0.047297 0.003197
0.079342 0.047492 0.003392
0.111386 0.047686 0.003586
0.143430 0.047880 0.003780
0.175475 0.048075 0.003975
0.207519 0.048269 0.004169
0.239564 0.048463 0.004364
0.271608 0.048658 0.004558
0.303652 0.048852 0.004752
0.335697 0.049047 0.004947
0.367741 0.049241 0.005141
0.399785 0.049435 0.005335
0.431830 0.049630 0.005530
0.463874 0.049824 0.005724
0.495918 0.050018 0.005918
0.527963 0.050213 0.006113
0.560007 0.050407 0.006307
0.592051 0.050601 0.006501
0.624096 0.050796 0.006696
0.656140 0.050990 0.006890
0.688184 0.051184 0.007084
0.720229 0.051379 0.007279
0.752273 0.051573 0.007473
0.784317 0.051767 0.007667
0.816362 0.051962 0.007862
0.848406 0.052156 0.008056
0.880450 0.052350 0.008250
0.912495 0.052545 0.008445
0.944539 0.052739 0.008639
0.976584 0.052934 0.008834
0.988908 0.053008 0.008908
0.003310 0.079260 0.003310
0.015635 0.079335 0.003385
0.047679 0.079529 0.003579
0.079723 0.079723 0.003773
0.111768 0.079918 0.003968
0.143812 0.080112 0.004162
0.175856 0.080306 0.004356
0.207901 0.080501 0.004551
0.239945 0.080695 0.004745
0.271989 0.080889 0.004939
0.304034 0.081084 0.005134
0.336078 0.081278 0.005328
0.368122 0.081472 0.005522
0.400167 0.081667 0.005717
0.432211 0.081861 0.005911
0.464256 0.082056 0.006105
0.496300 0.082250 0.006300
0.528344 0.082444 0.006494
0.560389 0.082639 0.006689
0.592433 0.082833 0.006883
0.624477 0.083027 0.007077
0.656522 0.083222 0.007272
0.688566 0.083416 0.007466
0.720610 0.083610 0.007660
0.752655 0.083805 0.007855
0.784699 0.083999 0.008049
0.816743 0.084193 0.008243
0.848788 0.084388 0.008438
0.880832 0.084582 0.008632
0.912876 0.084776 0.008826
0.944921 0.084971 0.009021
0.976965 0.085165 0.009215
0.989290 0.085240 0.009290
0.003691 0.111491 0.003691
0.016016 0.111566 0.003766
0.048060 0.111760 0.003961
0.080105 0.111955 0.004155
0.112149 0.112149 0.004349
0.144194 0.112344 0.004544
0.176238 0.112538 0.004738
0.208282 0.112732 0.004932
0.240327 0.112927 0.005127
0.272371 0.113121 0.005321
0.304415 0.113315 0.005515
0.336460 0.113510 0.005710
0.368504 0.113704 0.005904
0.400548 0.113898 0.006098
0.432593 0.114093 0.006293
0.464637 0.114287 0.006487
0.496681 0.114481 0.006681
0.528726 0.114676 0.006876
0.560770 0.114870 0.007070
0.592814 0.115064 0.007264
0.624859 0.115259 0.007459
0.656903 0.115453 0.007653
0.688948 0.115648 0.007847
0.720992 0.115842 0.008042
0.753036 0.116036 0.008236
0.785081 0.116231 0.008431
0.817125 0.116425 0.008625
0.849169 0.116619 0.008819
0.881214 0.116814 0.009014
0.913258 0.117008 0.009208
0.945302 0.117202 0.009402
0.977347 0.117397 0.009597
0.989671 0.117471 0.009671
0.004073 0.143723 0.004073
0.016398 0.143798 0.004148
0.048442 0.143992 0.004342
0.080486 0.144186 0.004536
0.112531 0.144381 0.004731
0.144575 0.144575 0.004925
0.176619 0.144769 0.005119
0.208664 0.144964 0.005314
0.240708 0.145158 0.005508
0.272753 0.145352 0.005703
0.304797 0.145547 0.005897
0.336841 0.145741 0.006091
0.368886 0.145936 0.006286
0.400930 0.146130 0.006480
0.432974 0.146324 0.006674
0.465019 0.146519 0.006869
0.497063 0.146713 0.007063
0.529107 0.146907 0.007257
0.561152 0.147102 0.007452
0.593196 0.147296 0.007646
0.625240 0.147490 0.007840
0.657285 0.147685 0.008035
0.689329 0.147879 0.008229
0.721373 0.148073 0.008423
0.753418 0.148268 0.008618
0.785462 0.148462 0.008812
0.817506 0.148656 0.009006
0.849551 0.148851 0.009201
0.881595 0.149045 0.009395
0.913639 0.149239 0.009590
0.945684 0.149434 0.009784
0.977728 0.149628 0.009978
0.990053 0.149703 0.010053
0.004455 0.175955 0.004455
0.016779 0.176029 0.004529
0.048824 0.176224 0.004724
0.080868 0.176418 0.004918
0.112912 0.176612 0.005112
0.144957 0.176807 0.005307
0.177001 0.177001 0.005501
0.209045 0.177195 0.005695
0.241090 0.177390 0.005890
0.273134 0.177584 0.006084
0.305178 0.177778 0.006278
0.337223 0.177973 0.006473
0.369267 0.178167 0.006667
0.401311 0.178361 0.006861
0.433356 0.178556 0.007056
0.465400 0.178750 0.007250
0.497445 0.178945 0.007445
0.529489 0.179139 0.007639
0.561533 0.179333 0.007833
0.593578 0.179528 0.008028
0.625622 0.179722 0.008222
0.657666 0.179916 0.008416
0.689711 0.180111 0.008611
0.721755 0.180305 0.008805
0.753799 0.180499 0.008999
0.785844 0.180694 0.009194
0.817888 0.180888 0.009388
0.849932 0.181082 0.009582
0.881977 0.181277 0.009777
0.914021 0.181471 0.009971
0.946065 0.181665 0.010165
0.978110 0.181860 0.010360
0.990434 0.181934 0.010434
0.004836 0.208186 0.004836
0.017161 0.208261 0.004911
0.049205 0.208455 0.005105
0.081250 0.208650 0.005299
0.113294 0.208844 0.005494
0.145338 0.209038 0.005688
0.177383 0.209233 0.005883
0.209427 0.209427 0.006077
0.241471 0.209621 0.006271
0.273516 0.209816 0.006466
0.305560 0.210010 0.006660
0.337604 0.210204 0.006854
0.369649 0.210399 0.007049
0.401693 0.210593 0.007243
0.433737 0.210787 0.007437
0.465782 0.210982 0.007632
0.497826 0.211176 0.007826
0.529870 0.211370 0.008020
0.561915 0.211565 0.008215
0.593959 0.211759 0.008409
0.626003 0.211953 0.008603
0.658048 0.212148 0.008798
0.690092 0.212342 0.008992
0.722136 0.212537 0.009187
0.754181 0.212731 0.009381
0.786225 0.212925 0.009575
0.818270 0.213120 0.009770
0.850314 0.213314 0.009964
0.882358 0.213508 0.010158
0.914403 0.213703 0.010353
0.946447 0.213897 0.010547
0.978491 0.214091 0.010741
0.990816 0.214166 0.010816
0.005218 0.240418 0.005218
0.017542 0.240492 0.005292
0.049587 0.240687 0.005487
0.081631 0.240881 0.005681
0.113675 0.241075 0.005875
0.145720 0.241270 0.006070
0.177764 0.241464 0.006264
0.209808 0.241658 0.006458
0.241853 0.241853 0.006653
0.273897 0.242047 0.006847
0.305942 0.242241 0.007041
0.337986 0.242436 0.007236
0.370030 0.242630 0.007430
0.402075 0.242825 0.007625
0.434119 0.243019 0.007819
0.466163 0.243213 0.008013
0.498208 0.243408 0.008208
0.530252 0.243602 0.008402
0.562296 0.243796 0.008596
0.594341 0.243991 0.008791
0.626385 0.244185 0.008985
0.658429 0.244379 0.009179
0.690474 0.244574 0.009374
0.722518 0.244768 0.009568
0.754562 0.244962 0.009762
0.786607 0.245157 0.009957
0.818651 0.245351 0.010151
0.850695 0.245545 0.010345
0.882740 0.245740 0.010540
0.914784 0.245934 0.010734
0.946828 0.246129 0.010928
0.978873 0.246323 0.011123
0.991198 0.246398 0.011198
0.005599 0.272649 0.005599
0.017924 0.272724 0.005674
0.049968 0.272918 0.005868
0.082013 0.273113 0.006063
0.114057 0.273307 0.006257
0.146101 0.273501 0.006451
0.178146 0.273696 0.006646
0.210190 0.273890 0.006840
0.242234 0.274084 0.007034
0.274279 0.274279 0.007229
0.306323 0.274473 0.007423
0.338367 0.274667 0.007617
0.370412 0.274862 0.007812
0.402456 0.275056 0.008006
0.434500 0.275250 0.008200
0.466545 0.275445 0.008395
0.498589 0.275639 0.008589
0.530633 0.275834 0.008783
0.562678 0.276028 0.008978
0.594722 0.276222 0.009172
0.626767 0.276417 0.009367
0.658811 0.276611 0.009561
0.690855 0.276805 0.009755
0.722900 0.277000 0.009950
0.754944 0.277194 0.010144
0.786988 0.277388 0.010338
0.819033 0.277583 0.010533
0.851077 0.277777 0.010727
0.883121 0.277971 0.010921
0.915166 0.278166 0.011116
0.947210 0.278360 0.011310
0.979254 0.278554 0.011504
0.991579 0.278629 0.011579
0.005981 0.304881 0.005981
0.018305 0.304955 0.006055
0.050350 0.305150 0.006250
0.082394 0.305344 0.006444
0.114438 0.305538 0.006639
0.146483 0.305733 0.006833
0.178527 0.305927 0.007027
0.210572 0.306122 0.007222
0.242616 0.306316 0.007416
0.274660 0.306510 0.007610
0.306705 0.306705 0.007805
0.338749 0.306899 0.007999
0.370793 0.307093 0.008193
0.402838 0.307288 0.008388
0.434882 0.307482 0.008582
0.466926 0.307676 0.008776
0.498971 0.307871 0.008971
0.531015 0.308065 0.009165
0.563059 0.308259 0.009359
0.595104 0.308454 0.009554
0.627148 0.308648 0.009748
0.659192 0.308842 0.009942
0.691237 0.309037 0.010137
0.723281 0.309231 0.010331
0.755325 0.309426 0.010526
0.787370 0.309620 0.010720
0.819414 0.309814 0.010914
0.851459 0.310009 0.011109
0.883503 0.310203 0.011303
0.915547 0.310397 0.011497
0.947592 0.310592 0.011692
0.979636 0.310786 0.011886
0.991961 0.310861 0.011961
0.006362 0.337112 0.006362
0.018687 0.337187 0.006437
0.050731 0.337381 0.006631
0.082776 0.337576 0.006826
0.114820 0.337770 0.007020
0.146864 0.337964 0.007214
0.178909 0.338159 0.007409
0.210953 0.338353 0.007603
0.242997 0.338547 0.007797
0.275042 0.338742 0.007992
0.307086 0.338936 0.008186
0.339131 0.339131 0.008380
0.371175 0.339325 0.008575
0.403219 0.339519 0.008769
0.435264 0.339714 0.008964
0.467308 0.339908 0.009158
0.499352 0.340102 0.009352
0.531397 0.340297 0.009547
0.563441 0.340491 0.009741
0.595485 0.340685 0.009935
0.627530 0.340880 0.010130
0.659574 0.341074 0.010324
0.691618 0.341268 0.010518
0.723663 0.341463 0.010713
0.755707 0.341657 0.010907
0.787751 0.341851 0.011101
0.819796 0.342046 0.011296
0.851840 0.342240 0.011490
0.883884 0.342434 0.011684
0.915929 0.342629 0.011879
0.947973 0.342823 0.012073
0.980017 0.343018 0.012268
0.992342 0.343092 0.012342
0.006744 0.369344 0.006744
0.019069 0.369419 0.006819
0.051113 0.369613 0.007013
0.083157 0.369807 0.007207
0.115202 0.370002 0.007402
0.147246 0.370196 0.007596
0.179290 0.370390 0.007790
0.211335 0.370585 0.007985
0.243379 0.370779 0.008179
0.275423 0.370973 0.008373
0.307468 0.371168 0.008568
0.339512 0.371362 0.008762
0.371556 0.371556 0.008956
0.403601 0.371751 0.009151
0.435645 0.371945 0.009345
0.467689 0.372139 0.009539
0.499734 0.372334 0.009734
0.531778 0.372528 0.009928
0.563822 0.372723 0.010123
0.595867 0.372917 0.010317
0.627911 0.373111 0.010511
0.659956 0.373306 0.010706
0.692000 0.373500 0.010900
0.724044 0.373694 0.011094
0.756089 0.373889 0.011289
0.788133 0.374083 0.011483
0.820177 0.374277 0.011677
0.852222 0.374472 0.011872
0.884266 0.374666 0.012066
0.916310 0.374860 0.012260
0.948355 0.375055 0.012455
0.980399 0.375249 0.012649
0.992724 0.375324 0.012724
0.007125 0.401575 0.007125
0.019450 0.401650 0.007200
0.051494 0.401844 0.007394
0.083539 0.402039 0.007589
0.115583 0.402233 0.007783
0.147627 0.402427 0.007978
0.179672 0.402622 0.008172
0.211716 0.402816 0.008366
0.243761 0.403011 0.008561
0.275805 0.403205 0.008755
0.307849 0.403399 0.008949
0.339894 0.403594 0.009144
0.371938 0.403788 0.009338
0.403982 0.403982 0.009532
0.436027 0.404177 0.009727
0.468071 0.404371 0.009921
0.500115 0.404565 0.010115
0.532160 0.404760 0.010310
0.564204 0.404954 0.010504
0.596248 0.405148 0.010698
0.628293 0.405343 0.010893
0.660337 0.405537 0.011087
0.692381 0.405731 0.011281
0.724426 0.405926 0.011476
0.756470 0.406120 0.011670
0.788515 0.406314 0.011864
0.820559 0.406509 0.012059
0.852603 0.406703 0.012253
0.884648 0.406898 0.012448
0.916692 0.407092 0.012642
0.948736 0.407286 0.012836
0.980781 0.407481 0.013031
0.993105 0.407555 0.013105
0.007507 0.433807 0.007507
0.019832 0.433882 0.007582
0.051876 0.434076 0.007776
0.083920 0.434270 0.007970
0.115965 0.434465 0.008165
0.148009 0.434659 0.008359
0.180053 0.434853 0.008553
0.212098 0.435048 0.008748
0.244142 0.435242 0.008942
0.276186 0.435436 0.009136
0.308231 0.435631 0.009331
0.340275 0.435825 0.009525
0.372320 0.436020 0.009719
0.404364 0.436214 0.009914
0.436408 0.436408 0.010108
0.468453 0.436603 0.010303
0.500497 0.436797 0.010497
0.532541 0.436991 0.010691
0.564586 0.437186 0.010886
0.596630 0.437380 0.011080
0.628674 0.437574 0.011274
0.660719 0.437769 0.011469
0.692763 0.437963 0.011663
0.724807 0.438157 0.011857
0.756852 0.438352 0.012052
0.788896 0.438546 0.012246
0.820940 0.438740 0.012440
0.852985 0.438935 0.012635
0.885029 0.439129 0.012829
0.917073 0.439323 0.013023
0.949118 0.439518 0.013218
0.981162 0.439712 0.013412
0.993487 0.439787 0.013487
0.007888 0.466038 0.007888
0.020213 0.466113 0.007963
0.052258 0.466308 0.008158
0.084302 0.466502 0.008352
0.116346 0.466696 0.008546
0.148391 0.466891 0.008741
0.180435 0.467085 0.008935
0.212479 0.467279 0.009129
0.244524 0.467474 0.009324
0.276568 0.467668 0.009518
0.308612 0.467862 0.009712
0.340657 0.468057 0.009907
0.372701 0.468251 0.010101
0.404745 0.468445 0.010295
0.436790 0.468640 0.010490
0.468834 0.468834 0.010684
0.500878 0.469028 0.010878
0.532923 0.469223 0.011073
0.564967 0.469417 0.011267
0.597012 0.469612 0.011461
0.629056 0.469806 0.011656
0.661100 0.470000 0.011850
0.693145 0.470195 0.012045
0.725189 0.470389 0.012239
0.757233 0.470583 0.012433
0.789278 0.470778 0.012628
0.821322 0.470972 0.012822
0.853366 0.471166 0.013016
0.885411 0.471361 0.013211
0.917455 0.471555 0.013405
0.949499 0.471749 0.013599
0.981544 0.471944 0.013794
0.993868 0.472018 0.013868
0.008270 0.498270 0.008270
0.020595 0.498345 0.008345
0.052639 0.498539 0.008539
0.084683 0.498733 0.008733
0.116728 0.498928 0.008928
0.148772 0.499122 0.009122
0.180817 0.499316 0.009316
0.212861 0.499511 0.009511
0.244905 0.499705 0.009705
0.276950 0.499900 0.009900
0.308994 0.500094 0.010094
0.341038 0.500288 0.010288
0.373083 0.500483 0.010483
0.405127 0.500677 0.010677
0.437171 0.500871 0.010871
0.469216 0.501066 0.011066
0.501260 0.501260 0.011260
0.533304 0.501454 0.011454
0.565349 0.501649 0.011649
0.597393 0.501843 0.011843
0.629437 0.502037 0.012037
0.661482 0.502232 0.012232
0.693526 0.502426 0.012426
0.725570 0.502620 0.012620
0.757615 0.502815 0.012815
0.789659 0.503009 0.013009
0.821703 0.503203 0.013203
0.853748 0.503398 0.013398
0.885792 0.503592 0.013592
0.917837 0.503787 0.013787
0.949881 0.503981 0.013981
0.981925 0.504175 0.014175
0.994250 0.504250 0.014250
0.008652 0.530502 0.008652
0.020976 0.530576 0.008726
0.053021 0.530771 0.008921
0.085065 0.530965 0.009115
0.117109 0.531159 0.009309
0.149154 0.531354 0.009504
0.181198 0.531548 0.009698
0.213242 0.531742 0.009892
0.245287 0.531937 0.010087
0.277331 0.532131 0.010281
0.309375 0.532325 0.010475
0.341420 0.532520 0.010670
0.373464 0.532714 0.010864
0.405508 0.532908 0.011059
0.437553 0.533103 0.011253
0.469597 0.533297 0.011447
0.501642 0.533492 0.011642
0.533686 0.533686 0.011836
0.565730 0.533880 0.012030
0.597775 0.534075 0.012225
0.629819 0.534269 0.012419
0.661863 0.534463 0.012613
0.693908 0.534658 0.012808
0.725952 0.534852 0.013002
0.757996 0.535046 0.013196
0.790041 0.535241 0.013391
0.822085 0.535435 0.013585
0.854129 0.535629 0.013779
0.886174 0.535824 0.013974
0.918218 0.536018 0.014168
0.950262 0.536212 0.014362
0.982307 0.536407 0.014557
0.994632 0.536482 0.014632
0.009033 0.562733 0.009033
0.021358 0.562808 0.009108
0.053402 0.563002 0.009302
0.085447 0.563197 0.009497
0.117491 0.563391 0.009691
0.149535 0.563585 0.009885
0.181580 0.563780 0.010080
0.213624 0.563974 0.010274
0.245668 0.564168 0.010468
0.277713 0.564363 0.010663
0.309757 0.564557 0.010857
0.341801 0.564751 0.011051
0.373846 0.564946 0.011246
0.405890 0.565140 0.011440
0.437934 0.565334 0.011634
0.469979 0.565529 0.011829
0.502023 0.565723 0.012023
0.534067 0.565917 0.012217
0.566112 0.566112 0.012412
0.598156 0.566306 0.012606
0.630200 0.566500 0.012801
0.662245 0.566695 0.012995
0.694289 0.566889 0.013189
0.726334 0.567084 0.013384
0.758378 0.567278 0.013578
0.790422 0.567472 0.013772
0.822467 0.567667 0.013967
0.854511 0.567861 0.014161
0.886555 0.568055 0.014355
0.918600 0.568250 0.014550
0.950644 0.568444 0.014744
0.982688 0.568638 0.014938
0.995013 0.568713 0.015013
0.009415 0.594965 0.009415
0.021739 0.595039 0.009489
0.053784 0.595234 0.009684
0.085828 0.595428 0.009878
0.117872 0.595622 0.010072
0.149917 0.595817 0.010267
0.181961 0.596011 0.010461
0.214006 0.596205 0.010656
0.246050 0.596400 0.010850
0.278094 0.596594 0.011044
0.310139 0.596789 0.011239
0.342183 0.596983 0.011433
0.374227 0.597177 0.011627
0.406272 0.597372 0.011822
0.438316 0.597566 0.012016
0.470360 0.597760 0.012210
0.502405 0.597955 0.012405
0.534449 0.598149 0.012599
0.566493 0.598343 0.012793
0.598538 0.598538 0.012988
0.630582 0.598732 0.013182
0.662626 0.598926 0.013376
0.694671 0.599121 0.013571
0.726715 0.599315 0.013765
0.758759 0.599509 0.013959
0.790804 0.599704 0.014154
0.822848 0.599898 0.014348
0.854893 0.600093 0.014543
0.886937 0.600287 0.014737
0.918981 0.600481 0.014931
0.951026 0.600676 0.015126
0.983070 0.600870 0.015320
0.995395 0.600945 0.015395
0.009796 0.627196 0.009796
0.022121 0.627271 0.009871
0.054165 0.627465 0.010065
0.086210 0.627660 0.010260
0.118254 0.627854 0.010454
0.150298 0.628048 0.010648
0.182343 0.628243 0.010843
0.214387 0.628437 0.011037
0.246431 0.628631 0.011231
0.278476 0.628826 0.011426
0.310520 0.629020 0.011620
0.342564 0.629214 0.011814
0.374609 0.629409 0.012009
0.406653 0.629603 0.012203
0.438698 0.629798 0.012397
0.470742 0.629992 0.012592
0.502786 0.630186 0.012786
0.534831 0.630381 0.012981
0.566875 0.630575 0.013175
0.598919 0.630769 0.013369
0.630964 0.630964 0.013564
0.663008 0.631158 0.013758
0.695052 0.631352 0.013952
0.727097 0.631547 0.014147
0.759141 0.631741 0.014341
0.791185 0.631935 0.014535
0.823230 0.632130 0.014730
0.855274 0.632324 0.014924
0.887318 0.632518 0.015118
0.919363 0.632713 0.015313
0.951407 0.632907 0.015507
0.983451 0.633101 0.015701
0.995776 0.633176 0.015776
0.010178 0.659428 0.010178
0.022502 0.659502 0.010252
0.054547 0.659697 0.010447
0.086591 0.659891 0.010641
0.118636 0.660086 0.010836
0.150680 0.660280 0.011030
0.182724 0.660474 0.011224
0.214769 0.660669 0.011419
0.246813 0.660863 0.011613
0.278857 0.661057 0.011807
0.310902 0.661252 0.012002
0.342946 0.661446 0.012196
0.374990 0.661640 0.012390
0.407035 0.661835 0.012585
0.439079 0.662029 0.012779
0.471123 0.662223 0.012973
0.503168 0.662418 0.013168
0.535212 0.662612 0.013362
0.567256 0.662806 0.013556
0.599301 0.663001 0.013751
0.631345 0.663195 0.013945
0.663389 0.663389 0.014140
0.695434 0.663584 0.014334
0.727478 0.663778 0.014528
0.759523 0.663973 0.014723
0.791567 0.664167 0.014917
0.823611 0.664361 0.015111
0.855656 0.664556 0.015306
0.887700 0.664750 0.015500
0.919744 0.664944 0.015694
0.951789 0.665139 0.015889
0.983833 0.665333 0.016083
0.996158 0.665408 0.016158
0.010559 0.691659 0.010559
0.022884 0.691734 0.010634
0.054928 0.691928 0.010828
0.086973 0.692123 0.011023
0.119017 0.692317 0.011217
0.151061 0.692511 0.011411
0.183106 0.692706 0.011606
0.215150 0.692900 0.011800
0.247195 0.693094 0.011995
0.279239 0.693289 0.012189
0.311283 0.693483 0.012383
0.343328 0.693678 0.012578
0.375372 0.693872 0.012772
0.407416 0.694066 0.012966
0.439461 0.694261 0.013161
0.471505 0.694455 0.013355
0.503549 0.694649 0.013549
0.535594 0.694844 0.013744
0.567638 0.695038 0.013938
0.599682 0.695232 0.014132
0.631727 0.695427 0.014327
0.663771 0.695621 0.014521
0.695815 0.695815 0.014715
0.727860 0.696010 0.014910
0.759904 0.696204 0.015104
0.791948 0.696398 0.015298
0.823993 0.696593 0.015493
0.856037 0.696787 0.015687
0.888081 0.696982 0.015882
0.920126 0.697176 0.016076
0.952170 0.697370 0.016270
0.984215 0.697565 0.016465
0.996539 0.697639 0.016539
0.010941 0.723891 0.010941
0.023266 0.723966 0.011016
0.055310 0.724160 0.011210
0.087354 0.724354 0.011404
0.119399 0.724549 0.011599
0.151443 0.724743 0.011793
0.183487 0.724937 0.011987
0.215532 0.725132 0.012182
0.247576 0.725326 0.012376
0.279620 0.725520 0.012570
0.311665 0.725715 0.012765
0.343709 0.725909 0.012959
0.375753 0.726103 0.013153
0.407798 0.726298 0.013348
0.439842 0.726492 0.013542
0.471887 0.726687 0.013736
0.503931 0.726881 0.013931
0.535975 0.727075 0.014125
0.568020 0.727270 0.014320
0.600064 0.727464 0.014514
0.632108 0.727658 0.014708
0.664153 0.727853 0.014903
0.696197 0.728047 0.015097
0.728241 0.728241 0.015291
0.760286 0.728436 0.015486
0.792330 0.728630 0.015680
0.824374 0.728824 0.015874
0.856419 0.729019 0.016069
0.888463 0.729213 0.016263
0.920507 0.729407 0.016457
0.952552 0.729602 0.016652
0.984596 0.729796 0.016846
0.996921 0.729871 0.016921
0.011322 0.756122 0.011322
0.023647 0.756197 0.011397
0.055691 0.756391 0.011592
0.087736 0.756586 0.011786
0.119780 0.756780 0.011980
0.151825 0.756975 0.012175
0.183869 0.757169 0.012369
0.215913 0.757363 0.012563
0.247958 0.757558 0.012758
0.280002 0.757752 0.012952
0.312046 0.757946 0.013146
0.344091 0.758141 0.013341
0.376135 0.758335 0.013535
0.408179 0.758529 0.013729
0.440224 0.758724 0.013924
0.472268 0.758918 0.014118
0.504312 0.759112 0.014312
0.536357 0.759307 0.014507
0.568401 0.759501 0.014701
0.600445 0.759695 0.014895
0.632490 0.759890 0.015090
0.664534 0.760084 0.015284
0.696578 0.760278 0.015478
0.728623 0.760473 0.015673
0.760667 0.760667 0.015867
0.792712 0.760862 0.016062
0.824756 0.761056 0.016256
0.856800 0.761250 0.016450
0.888845 0.761445 0.016645
0.920889 0.761639 0.016839
0.952933 0.761833 0.017033
0.984978 0.762028 0.017228
0.997302 0.762102 0.017302
0.011704 0.788354 0.011704
0.024029 0.788429 0.011779
0.056073 0.788623 0.011973
0.088117 0.788817 0.012167
0.120162 0.789012 0.012362
0.152206 0.789206 0.012556
0.184250 0.789400 0.012750
0.216295 0.789595 0.012945
0.248339 0.789789 0.013139
0.280384 0.789983 0.013334
0.312428 0.790178 0.013528
0.344472 0.790372 0.013722
0.376517 0.790567 0.013917
0.408561 0.790761 0.014111
0.440605 0.790955 0.014305
0.472650 0.791150 0.014500
0.504694 0.791344 0.014694
0.536738 0.791538 0.014888
0.568783 0.791733 0.015083
0.600827 0.791927 0.015277
0.632871 0.792121 0.015471
0.664916 0.792316 0.015666
0.696960 0.792510 0.015860
0.729004 0.792704 0.016054
0.761049 0.792899 0.016249
0.793093 0.793093 0.016443
0.825137 0.793287 0.016637
0.857182 0.793482 0.016832
0.889226 0.793676 0.017026
0.921270 0.793870 0.017221
0.953315 0.794065 0.017415
0.985359 0.794259 0.017609
0.997684 0.794334 0.017684
0.012086 0.820585 0.012086
0.024410 0.820660 0.012160
0.056455 0.820855 0.012355
0.088499 0.821049 0.012549
0.120543 0.821243 0.012743
0.152588 0.821438 0.012938
0.184632 0.821632 0.013132
0.216676 0.821826 0.013326
0.248721 0.822021 0.013521
0.280765 0.822215 0.013715
0.312809 0.822409 0.013909
0.344854 0.822604 0.014104
0.376898 0.822798 0.014298
0.408942 0.822992 0.014492
0.440987 0.823187 0.014687
0.473031 0.823381 0.014881
0.505076 0.823575 0.015076
0.537120 0.823770 0.015270
0.569164 0.823964 0.015464
0.601209 0.824159 0.015659
0.633253 0.824353 0.015853
0.665297 0.824547 0.016047
0.697342 0.824742 0.016242
0.729386 0.824936 0.016436
0.761430 0.825130 0.016630
0.793475 0.825325 0.016825
0.825519 0.825519 0.017019
