docs/luts/fresh-kodak-2383.cube
TITLE "FreshLUTs??-Kodak2383"
LUT_3D_SIZE 9
DOMAIN_MIN 0.0 0.0 0.0
DOMAIN_MAX 1.0 1.0 1.0
0.000000 0.000000 0.000000
0.081682 0.000000 0.000000
0.224627 0.000000 0.000000
0.367571 0.000000 0.000000
0.510515 0.000000 0.000000
0.653459 0.000000 0.000000
0.796403 0.000000 0.000000
0.939348 0.000000 0.000000
1.000000 0.000000 0.000000
0.000000 0.096177 0.000000
0.080009 0.095459 0.000000
0.222954 0.094204 0.000000
0.365898 0.092948 0.000000
0.508842 0.091692 0.000000
0.651786 0.090436 0.000000
0.794730 0.089180 0.000000
0.937675 0.087925 0.000000
1.000000 0.087207 0.000000
0.000000 0.232850 0.000000
0.077632 0.232132 0.000000
0.220576 0.230876 0.000000
0.363521 0.229620 0.000000
0.506465 0.228365 0.000000
0.649409 0.227109 0.000000
0.792353 0.225853 0.000000
0.935297 0.224597 0.000000
1.000000 0.224679 0.000000
0.000000 0.369522 0.000000
0.075255 0.368805 0.000000
0.218199 0.367549 0.000000
0.361143 0.366293 0.000000
0.504087 0.365037 0.000000
0.647032 0.363782 0.000000
0.791867 0.363282 0.000000
0.937711 0.363186 0.000000
1.000000 0.363629 0.000000
0.000000 0.506195 0.000000
0.072877 0.505477 0.000000
0.215822 0.504222 0.000000
0.358766 0.502966 0.000000
0.503494 0.502424 0.000000
0.649338 0.502328 0.000000
0.795182 0.502232 0.000000
0.941026 0.502136 0.000000
1.000000 0.502578 0.000000
0.000000 0.642868 0.000000
0.070500 0.642150 0.000000
0.215122 0.641565 0.000000
0.360966 0.641469 0.000000
0.506810 0.641374 0.000000
0.652654 0.641278 0.000000
0.798498 0.641182 0.000000
0.944342 0.641086 0.000000
1.000000 0.641528 0.000000
0.001571 0.780169 0.000000
0.072594 0.780611 0.000000
0.218438 0.780515 0.000000
0.364282 0.780419 0.000000
0.510126 0.780323 0.000000
0.655970 0.780228 0.000000
0.801814 0.780132 0.000000
0.947658 0.780036 0.000000
1.000000 0.780478 0.000000
0.007264 0.919119 0.000000
0.075909 0.919561 0.000000
0.221753 0.919465 0.000000
0.367597 0.919369 0.000000
0.513441 0.919273 0.000000
0.659285 0.919177 0.000000
0.805129 0.919081 0.000000
0.950973 0.918986 0.000000
1.000000 0.919428 0.000000
0.012957 1.000000 0.000000
0.079929 1.000000 0.000000
0.225773 1.000000 0.000000
0.371617 1.000000 0.000000
0.517461 1.000000 0.000000
0.663305 1.000000 0.000000
0.809149 1.000000 0.000000
0.954993 1.000000 0.000000
1.000000 1.000000 0.000000
0.000000 0.000000 0.078971
0.081306 0.000000 0.081001
0.224250 0.000000 0.082492
0.367195 0.000000 0.083983
0.510139 0.000000 0.085474
0.653083 0.000000 0.086966
0.796027 0.000000 0.088457
0.938971 0.000000 0.089948
1.000000 0.000000 0.091978
0.000000 0.095801 0.082691
0.079633 0.095083 0.084721
0.222577 0.093827 0.086212
0.365522 0.092572 0.087703
0.508466 0.091316 0.089195
0.651410 0.090060 0.090686
0.794354 0.088804 0.092177
0.937298 0.087548 0.093668
1.000000 0.086831 0.095698
0.000000 0.232473 0.085707
0.077256 0.231756 0.087736
0.220200 0.230500 0.089228
0.363144 0.229244 0.090719
0.506088 0.227988 0.092210
0.649033 0.226733 0.093702
0.791977 0.225477 0.095193
0.935125 0.224303 0.096684
1.000000 0.224745 0.098713
0.000000 0.369146 0.088723
0.074879 0.368429 0.090752
0.217823 0.367173 0.092243
0.360767 0.365917 0.093735
0.503711 0.364661 0.095226
0.646752 0.363444 0.096717
0.792596 0.363348 0.098208
0.938440 0.363252 0.098244
1.000000 0.363695 0.097526
0.000000 0.505819 0.091738
0.072501 0.505101 0.093768
0.215445 0.503845 0.095259
0.358390 0.502590 0.096750
0.504224 0.502490 0.098242
0.650068 0.502394 0.098378
0.795912 0.502298 0.097122
0.941756 0.502202 0.095866
1.000000 0.502644 0.095149
0.000000 0.642491 0.094754
0.070124 0.641774 0.096784
0.215851 0.641631 0.098275
0.361695 0.641536 0.098512
0.507539 0.641440 0.097256
0.653383 0.641344 0.096001
0.799227 0.641248 0.094745
0.945071 0.641152 0.093489
1.000000 0.641594 0.092771
0.002677 0.780235 0.097770
0.073323 0.780677 0.098646
0.219167 0.780581 0.097391
0.365011 0.780485 0.096135
0.510855 0.780389 0.094879
0.656699 0.780294 0.093623
0.802543 0.780198 0.092367
0.948387 0.780102 0.091112
1.000000 0.780544 0.090394
0.008370 0.919185 0.096987
0.076639 0.919627 0.096269
0.222483 0.919531 0.095013
0.368327 0.919435 0.093758
0.514170 0.919339 0.092502
0.660014 0.919243 0.091246
0.805858 0.919147 0.089990
0.951702 0.919052 0.088734
1.000000 0.919494 0.088017
0.014062 1.000000 0.095314
0.080658 1.000000 0.094596
0.226502 1.000000 0.093340
0.372346 1.000000 0.092085
0.518190 1.000000 0.090829
0.664034 1.000000 0.089573
0.809878 1.000000 0.088317
0.955722 1.000000 0.087061
1.000000 1.000000 0.086344
0.000000 0.000000 0.213474
0.080862 0.000000 0.215503
0.223806 0.000000 0.216995
0.366750 0.000000 0.218486
0.509694 0.000000 0.219977
0.652638 0.000000 0.221468
0.795583 0.000000 0.222960
0.938527 0.000000 0.224451
1.000000 0.000000 0.226480
0.000000 0.095356 0.217194
0.079189 0.094639 0.219224
0.222133 0.093383 0.220715
0.365077 0.092127 0.222206
0.508021 0.090871 0.223697
0.650965 0.089615 0.225189
0.793910 0.088360 0.226680
0.936854 0.087104 0.228171
1.000000 0.086386 0.230201
0.000000 0.232029 0.220210
0.076811 0.231311 0.222239
0.219755 0.230055 0.223730
0.362700 0.228800 0.225222
0.505644 0.227544 0.226713
0.648588 0.226288 0.228204
0.791532 0.225032 0.229696
0.935786 0.224300 0.231187
1.000000 0.224743 0.233216
0.000000 0.368702 0.223225
0.074434 0.367984 0.225255
0.217378 0.366728 0.226746
0.360322 0.365472 0.228237
0.503267 0.364217 0.229729
0.647413 0.363442 0.231220
0.793257 0.363346 0.232711
0.939101 0.363250 0.231699
1.000000 0.363692 0.230982
0.000000 0.505374 0.226241
0.072057 0.504657 0.228271
0.215001 0.503401 0.229762
0.359041 0.502583 0.231253
0.504885 0.502487 0.232744
0.650729 0.502392 0.231833
0.796573 0.502296 0.230578
0.942417 0.502200 0.229322
1.000000 0.502642 0.228604
0.000000 0.642047 0.229257
0.070668 0.641725 0.231286
0.216512 0.641629 0.232778
0.362356 0.641533 0.231968
0.508200 0.641437 0.230712
0.654044 0.641341 0.229456
0.799888 0.641246 0.228200
0.945732 0.641150 0.226944
1.000000 0.641592 0.226227
0.003782 0.780232 0.232273
0.073984 0.780675 0.232102
0.219828 0.780579 0.230846
0.365672 0.780483 0.229590
0.511516 0.780387 0.228334
0.657360 0.780291 0.227079
0.803204 0.780195 0.225823
0.949048 0.780099 0.224567
1.000000 0.780542 0.223849
0.009475 0.919182 0.230442
0.077300 0.919625 0.229725
0.223144 0.919529 0.228469
0.368988 0.919433 0.227213
0.514832 0.919337 0.225957
0.660675 0.919241 0.224701
0.806519 0.919145 0.223446
0.952363 0.919049 0.222190
1.000000 0.919492 0.221472
0.015168 1.000000 0.228769
0.081319 1.000000 0.228052
0.227163 1.000000 0.226796
0.373007 1.000000 0.225540
0.518851 1.000000 0.224284
0.664695 1.000000 0.223028
0.810539 1.000000 0.221773
0.956383 1.000000 0.220517
1.000000 1.000000 0.219799
0.000000 0.000000 0.347977
0.080417 0.000000 0.350006
0.223361 0.000000 0.351497
0.366305 0.000000 0.352989
0.509250 0.000000 0.354480
0.652194 0.000000 0.355971
0.795138 0.000000 0.357463
0.938082 0.000000 0.358954
1.000000 0.000000 0.360983
0.000000 0.094912 0.351697
0.078744 0.094194 0.353726
0.221688 0.092938 0.355218
0.364632 0.091682 0.356709
0.507577 0.090427 0.358200
0.650521 0.089171 0.359691
0.793465 0.087915 0.361183
0.936409 0.086659 0.362674
1.000000 0.085942 0.364703
0.000000 0.231584 0.354713
0.076367 0.230867 0.356742
0.219311 0.229611 0.358233
0.362255 0.228355 0.359725
0.505199 0.227099 0.361216
0.648143 0.225843 0.362707
0.791088 0.224588 0.364198
0.936447 0.224298 0.365690
1.000000 0.224740 0.366814
0.000000 0.368257 0.357728
0.073989 0.367539 0.359758
0.216934 0.366284 0.361249
0.359878 0.365028 0.362740
0.502822 0.363772 0.364232
0.648074 0.363439 0.365723
0.793918 0.363344 0.366410
0.939762 0.363248 0.365155
1.000000 0.363690 0.364437
0.000000 0.504930 0.360744
0.071612 0.504212 0.362773
0.214556 0.502956 0.364265
0.359702 0.502581 0.365756
0.505546 0.502485 0.366545
0.651390 0.502389 0.365289
0.797234 0.502293 0.364033
0.943078 0.502197 0.362777
1.000000 0.502640 0.362060
0.000000 0.641602 0.363760
0.071329 0.641723 0.365789
0.217173 0.641627 0.366679
0.363017 0.641531 0.365423
0.508861 0.641435 0.364167
0.654705 0.641339 0.362911
0.800549 0.641243 0.361656
0.946393 0.641147 0.360400
1.000000 0.641590 0.359682
0.004888 0.780230 0.366275
0.074645 0.780672 0.365557
0.220489 0.780577 0.364302
0.366333 0.780481 0.363046
0.512177 0.780385 0.361790
0.658021 0.780289 0.360534
0.803865 0.780193 0.359278
0.949709 0.780097 0.358022
1.000000 0.780539 0.357305
0.010581 0.919180 0.363898
0.077961 0.919622 0.363180
0.223805 0.919526 0.361924
0.369649 0.919430 0.360668
0.515493 0.919335 0.359413
0.661336 0.919239 0.358157
0.807180 0.919143 0.356901
0.953024 0.919047 0.355645
1.000000 0.919489 0.354928
0.016274 1.000000 0.362225
0.081980 1.000000 0.361507
0.227824 1.000000 0.360251
0.373668 1.000000 0.358995
0.519512 1.000000 0.357740
0.665356 1.000000 0.356484
0.811200 1.000000 0.355228
0.957044 1.000000 0.353972
1.000000 1.000000 0.353255
0.000000 0.000000 0.482480
0.079972 0.000000 0.484509
0.222917 0.000000 0.486000
0.365861 0.000000 0.487491
0.508805 0.000000 0.488983
0.651749 0.000000 0.490474
0.794693 0.000000 0.491965
0.937638 0.000000 0.493457
1.000000 0.000000 0.495486
0.000000 0.094467 0.486200
0.078299 0.093749 0.488229
0.221244 0.092494 0.489720
0.364188 0.091238 0.491212
0.507132 0.089982 0.492703
0.650076 0.088726 0.494194
0.793020 0.087470 0.495685
0.935965 0.086215 0.497177
1.000000 0.085788 0.499206
0.000000 0.231140 0.489215
0.075922 0.230422 0.491245
0.218866 0.229166 0.492736
0.361810 0.227910 0.494227
0.504755 0.226655 0.495719
0.647699 0.225399 0.497210
0.791264 0.224391 0.498701
0.937108 0.224295 0.500192
1.000000 0.224738 0.500270
0.000000 0.367812 0.492231
0.073545 0.367095 0.494261
0.216489 0.365839 0.495752
0.359433 0.364583 0.497243
0.502891 0.363533 0.498734
0.648735 0.363437 0.500226
0.794579 0.363341 0.499866
0.940423 0.363245 0.498610
1.000000 0.363688 0.497892
0.000000 0.504485 0.495247
0.071167 0.503767 0.497276
0.214519 0.502675 0.498767
0.360363 0.502579 0.500259
0.506207 0.502483 0.500000
0.652051 0.502387 0.498744
0.797895 0.502291 0.497488
0.943739 0.502195 0.496233
1.000000 0.502637 0.495515
0.000301 0.641278 0.498262
0.071990 0.641720 0.500292
0.217834 0.641624 0.500134
0.363678 0.641528 0.498878
0.509522 0.641433 0.497623
0.655366 0.641337 0.496367
0.801210 0.641241 0.495111
0.947054 0.641145 0.493855
1.000000 0.641587 0.493138
0.005994 0.780228 0.499730
0.075306 0.780670 0.499013
0.221150 0.780574 0.497757
0.366994 0.780478 0.496501
0.512838 0.780382 0.495245
0.658682 0.780286 0.493989
0.804526 0.780191 0.492734
0.950370 0.780095 0.491478
1.000000 0.780537 0.490760
0.011686 0.919178 0.497353
0.078622 0.919620 0.496635
0.224466 0.919524 0.495380
0.370310 0.919428 0.494124
0.516154 0.919332 0.492868
0.661997 0.919236 0.491612
0.807841 0.919140 0.490356
0.953685 0.919045 0.489101
1.000000 0.919487 0.488383
0.017379 1.000000 0.495680
0.082641 1.000000 0.494962
0.228485 1.000000 0.493707
0.374329 1.000000 0.492451
0.520173 1.000000 0.491195
0.666017 1.000000 0.489939
0.811861 1.000000 0.488683
0.957705 1.000000 0.487428
1.000000 1.000000 0.486710
0.000000 0.000000 0.616982
0.079528 0.000000 0.619012
0.222472 0.000000 0.620503
0.365416 0.000000 0.621994
0.508360 0.000000 0.623486
0.651305 0.000000 0.624977
0.794249 0.000000 0.626468
0.937193 0.000000 0.627959
1.000000 0.000000 0.629989
0.000000 0.094022 0.620702
0.077855 0.093305 0.622732
0.220799 0.092049 0.624223
0.363743 0.090793 0.625714
0.506687 0.089537 0.627206
0.649632 0.088282 0.628697
0.792576 0.087026 0.630188
0.935520 0.085770 0.631679
1.000000 0.085786 0.633709
0.000000 0.230695 0.623718
0.075477 0.229977 0.625748
0.218422 0.228722 0.627239
0.361366 0.227466 0.628730
0.504310 0.226210 0.630221
0.647254 0.224954 0.631713
0.791925 0.224389 0.633204
0.937769 0.224293 0.634443
1.000000 0.224735 0.633725
0.000000 0.367368 0.626734
0.073100 0.366650 0.628763
0.216044 0.365394 0.630255
0.358989 0.364139 0.631746
0.503552 0.363531 0.633237
0.649396 0.363435 0.634577
0.795240 0.363339 0.633321
0.941084 0.363243 0.632065
1.000000 0.363685 0.631348
0.000000 0.504040 0.629750
0.070723 0.503323 0.631779
0.215180 0.502672 0.633270
0.361024 0.502576 0.634711
0.506868 0.502480 0.633455
0.652712 0.502385 0.632200
0.798556 0.502289 0.630944
0.944400 0.502193 0.629688
1.000000 0.502635 0.628970
0.001406 0.641276 0.632765
0.072651 0.641718 0.634795
0.218495 0.641622 0.633590
0.364339 0.641526 0.632334
0.510183 0.641430 0.631078
0.656027 0.641334 0.629822
0.801871 0.641238 0.628566
0.947715 0.641143 0.627311
1.000000 0.641585 0.626593
0.007099 0.780225 0.633186
0.075967 0.780668 0.632468
0.221811 0.780572 0.631212
0.367655 0.780476 0.629957
0.513499 0.780380 0.628701
0.659343 0.780284 0.627445
0.805187 0.780188 0.626189
0.951031 0.780092 0.624933
1.000000 0.780535 0.624216
0.012792 0.919175 0.630808
0.079283 0.919617 0.630091
0.225127 0.919522 0.628835
0.370971 0.919426 0.627579
0.516815 0.919330 0.626323
0.662658 0.919234 0.625068
0.808502 0.919138 0.623812
0.954346 0.919042 0.622556
1.000000 0.919484 0.621838
0.018485 1.000000 0.629135
0.083302 1.000000 0.628418
0.229146 1.000000 0.627162
0.374990 1.000000 0.625906
0.520834 1.000000 0.624650
0.666678 1.000000 0.623395
0.812522 1.000000 0.622139
0.958366 1.000000 0.620883
1.000000 1.000000 0.620165
0.000000 0.000000 0.751485
0.079083 0.000000 0.753515
0.222027 0.000000 0.755006
0.364972 0.000000 0.756497
0.507916 0.000000 0.757988
0.650860 0.000000 0.759480
0.793804 0.000000 0.760971
0.936748 0.000000 0.762462
1.000000 0.000000 0.764492
0.000000 0.093578 0.755205
0.077410 0.092860 0.757235
0.220354 0.091604 0.758726
0.363299 0.090349 0.760217
0.506243 0.089093 0.761708
0.649187 0.087837 0.763200
0.792131 0.086581 0.764691
0.935114 0.085341 0.766182
1.000000 0.085783 0.768212
0.000000 0.230250 0.758221
0.075033 0.229533 0.760250
0.217977 0.228277 0.761742
0.360921 0.227021 0.763233
0.503865 0.225765 0.764724
0.646810 0.224510 0.766215
0.792586 0.224387 0.767707
0.938430 0.224291 0.767898
1.000000 0.224733 0.767181
0.000000 0.366923 0.761237
0.072656 0.366206 0.763266
0.215600 0.364950 0.764757
0.358544 0.363694 0.766249
0.504213 0.363528 0.767740
0.650057 0.363432 0.768032
0.795901 0.363336 0.766777
0.941745 0.363241 0.765521
1.000000 0.363683 0.764803
0.000000 0.503596 0.764252
0.070278 0.502878 0.766282
0.215841 0.502670 0.767773
0.361685 0.502574 0.768167
0.507529 0.502478 0.766911
0.653373 0.502382 0.765655
0.799217 0.502286 0.764399
0.945061 0.502190 0.763143
1.000000 0.502633 0.762426
0.002512 0.641273 0.767268
0.073312 0.641716 0.768301
0.219156 0.641620 0.767045
0.365000 0.641524 0.765789
0.510844 0.641428 0.764533
0.656688 0.641332 0.763278
0.802532 0.641236 0.762022
0.948376 0.641140 0.760766
1.000000 0.641583 0.760048
0.008205 0.780223 0.766641
0.076628 0.780665 0.765923
0.222472 0.780569 0.764668
0.368316 0.780474 0.763412
0.514160 0.780378 0.762156
0.660004 0.780282 0.760900
0.805848 0.780186 0.759645
0.951692 0.780090 0.758389
1.000000 0.780532 0.757671
0.013898 0.919173 0.764264
0.079944 0.919615 0.763546
0.225788 0.919519 0.762290
0.371632 0.919423 0.761035
0.517476 0.919327 0.759779
0.663320 0.919232 0.758523
0.809163 0.919136 0.757267
0.955007 0.919040 0.756011
1.000000 0.919482 0.755294
0.019591 1.000000 0.762591
0.083964 1.000000 0.761873
0.229807 1.000000 0.760617
0.375651 1.000000 0.759362
0.521495 1.000000 0.758106
0.667339 1.000000 0.756850
0.813183 1.000000 0.755594
0.959027 1.000000 0.754338
1.000000 1.000000 0.753621
0.000000 0.000000 0.885988
0.078639 0.000000 0.888017
0.221583 0.000000 0.889509
0.364527 0.000000 0.891000
0.507471 0.000000 0.892491
0.650415 0.000000 0.893982
0.793360 0.000000 0.895474
0.936304 0.000000 0.896965
1.000000 0.000000 0.898994
0.000000 0.093133 0.889708
0.076966 0.092416 0.891737
0.219910 0.091160 0.893229
0.362854 0.089904 0.894720
0.505798 0.088648 0.896211
0.648742 0.087392 0.897702
0.791687 0.086137 0.899194
0.935775 0.085339 0.900685
1.000000 0.085781 0.902714
0.000000 0.229806 0.892724
0.074588 0.229088 0.894753
0.217532 0.227832 0.896244
0.360477 0.226577 0.897736
0.503421 0.225321 0.899227
0.647403 0.224480 0.900718
0.793247 0.224384 0.902209
0.939091 0.224288 0.901354
1.000000 0.224731 0.900636
0.000000 0.366479 0.895739
0.072211 0.365761 0.897769
0.215155 0.364505 0.899260
0.359030 0.363622 0.900751
0.504874 0.363526 0.902243
0.650718 0.363430 0.901488
0.796562 0.363334 0.900232
0.942406 0.363238 0.898976
1.000000 0.363681 0.898259
0.000000 0.503151 0.898755
0.070658 0.502763 0.900785
0.216502 0.502667 0.902276
0.362346 0.502572 0.901622
0.508190 0.502476 0.900366
0.654034 0.502380 0.899110
0.799878 0.502284 0.897855
0.945722 0.502188 0.896599
1.000000 0.502630 0.895881
0.003617 0.641271 0.901771
0.073973 0.641713 0.901756
0.219817 0.641617 0.900500
0.365661 0.641521 0.899245
0.511505 0.641425 0.897989
0.657349 0.641330 0.896733
0.803193 0.641234 0.895477
0.949037 0.641138 0.894221
1.000000 0.641580 0.893504
0.009310 0.780221 0.900097
0.077289 0.780663 0.899379
0.223133 0.780567 0.898123
0.368977 0.780471 0.896867
0.514821 0.780375 0.895612
0.660665 0.780279 0.894356
0.806509 0.780184 0.893100
0.952353 0.780088 0.891844
1.000000 0.780530 0.891127
0.015003 0.919170 0.897719
0.080605 0.919613 0.897002
0.226449 0.919517 0.895746
0.372293 0.919421 0.894490
0.518137 0.919325 0.893234
0.663981 0.919229 0.891978
0.809824 0.919133 0.890723
0.955668 0.919037 0.889467
1.000000 0.919480 0.888749
0.020696 1.000000 0.896046
0.084625 1.000000 0.895329
0.230468 1.000000 0.894073
0.376312 1.000000 0.892817
0.522156 1.000000 0.891561
0.668000 1.000000 0.890305
0.813844 1.000000 0.889050
0.959688 1.000000 0.887794
1.000000 1.000000 0.887076
0.000000 0.000000 0.973379
0.078262 0.000000 0.976126
0.221207 0.000000 0.978873
0.364151 0.000000 0.981620
0.507095 0.000000 0.984367
0.650039 0.000000 0.987114
0.792983 0.000000 0.989861
0.935928 0.000000 0.992608
1.000000 0.000000 0.995355
0.000000 0.092757 0.978772
0.076589 0.092039 0.981519
0.219534 0.090784 0.984266
0.362478 0.089528 0.987013
0.505422 0.088272 0.989760
0.648366 0.087016 0.992507
0.791310 0.085760 0.995254
0.936505 0.085405 0.998001
1.000000 0.085847 1.000000
0.000000 0.229430 0.984165
0.074212 0.228712 0.986912
0.217156 0.227456 0.989659
0.360100 0.226200 0.992406
0.503045 0.224945 0.995153
0.648132 0.224546 0.997900
0.793976 0.224450 1.000000
0.939820 0.224354 1.000000
1.000000 0.224797 1.000000
0.000000 0.366102 0.989558
0.071835 0.365385 0.992305
0.214779 0.364129 0.995052
0.359760 0.363688 0.997799
0.505604 0.363592 1.000000
0.651448 0.363496 1.000000
0.797292 0.363400 1.000000
0.943136 0.363304 1.000000
1.000000 0.363747 1.000000
0.000000 0.502775 0.994951
0.071387 0.502829 0.997698
0.217231 0.502733 1.000000
0.363075 0.502638 1.000000
0.508919 0.502542 1.000000
0.654763 0.502446 1.000000
0.800607 0.502350 1.000000
0.946451 0.502254 1.000000
1.000000 0.502696 1.000000
0.004723 0.641337 1.000000
0.074703 0.641779 1.000000
0.220547 0.641683 1.000000
0.366391 0.641587 1.000000
0.512235 0.641492 1.000000
0.658079 0.641396 1.000000
0.803923 0.641300 1.000000
0.949767 0.641204 1.000000
1.000000 0.641646 1.000000
0.010416 0.780287 1.000000
0.078018 0.780729 1.000000
0.223862 0.780633 1.000000
0.369706 0.780537 1.000000
0.515550 0.780441 1.000000
0.661394 0.780345 1.000000
0.807238 0.780250 1.000000
0.953082 0.780154 1.000000
1.000000 0.780596 1.000000
0.016109 0.919236 1.000000
0.081334 0.919679 1.000000
0.227178 0.919583 1.000000
0.373022 0.919487 1.000000
0.518866 0.919391 1.000000
0.664710 0.919295 1.000000
0.810554 0.919199 1.000000
0.956398 0.919103 1.000000
1.000000 0.919546 1.000000
0.021802 1.000000 1.000000
0.085354 1.000000 1.000000
0.231198 1.000000 1.000000
0.377042 1.000000 1.000000
0.522886 1.000000 1.000000
0.668730 1.000000 1.000000
0.814574 1.000000 1.000000
0.960418 1.000000 1.000000
1.000000 1.000000 1.000000
