docs/luts/fresh-rec709-film-look.cube
TITLE "FreshLUTs??-Rec709??"
LUT_3D_SIZE 5
DOMAIN_MIN 0.0 0.0 0.0
DOMAIN_MAX 1.0 1.0 1.0
0.000000 0.000000 0.000000
0.217931 0.004081 0.000000
0.478970 0.008970 0.000000
0.740009 0.013859 0.000103
0.957940 0.017940 0.008265
0.008277 0.229177 0.000000
0.226208 0.233258 0.000000
0.487247 0.238147 0.007422
0.748285 0.243035 0.016392
0.967460 0.247649 0.024555
0.017610 0.487610 0.007635
0.235541 0.491691 0.015798
0.497690 0.497056 0.024768
0.762338 0.503491 0.031469
0.983878 0.509119 0.035550
0.027921 0.746462 0.024981
0.249461 0.752090 0.031025
0.514108 0.758525 0.035913
0.778755 0.764961 0.040802
1.000000 0.770588 0.044883
0.043282 0.978675 0.035220
0.264822 0.984303 0.039301
0.529469 0.990738 0.044190
0.794117 0.997173 0.049079
1.000000 1.000000 0.053160
0.001642 0.001642 0.202798
0.219573 0.005723 0.210960
0.480612 0.010612 0.219930
0.741650 0.015500 0.228900
0.959582 0.019582 0.237063
0.009918 0.230818 0.219087
0.227850 0.234900 0.227250
0.488888 0.239788 0.236220
0.749927 0.244677 0.245190
0.970477 0.249881 0.253352
0.019252 0.489252 0.236433
0.237183 0.493333 0.244595
0.500708 0.499287 0.253565
0.765355 0.505722 0.258710
0.986895 0.511350 0.262792
0.030938 0.748694 0.253779
0.252478 0.754321 0.258266
0.517126 0.760757 0.263155
0.781773 0.767192 0.268044
1.000000 0.772820 0.272125
0.046300 0.980906 0.262462
0.267840 0.986534 0.266543
0.532487 0.992970 0.271432
0.797134 0.999405 0.276320
1.000000 1.000000 0.280402
0.003420 0.003420 0.450532
0.221351 0.007501 0.458695
0.482390 0.012390 0.467665
0.743429 0.017279 0.476635
0.961360 0.021360 0.484798
0.011697 0.232597 0.466821
0.229628 0.236678 0.474984
0.490667 0.241567 0.483954
0.752092 0.246621 0.492924
0.973632 0.252249 0.499637
0.021030 0.491030 0.484167
0.239215 0.495220 0.492330
0.503862 0.501655 0.500000
0.768509 0.508090 0.504889
0.990049 0.513718 0.508970
0.034093 0.751062 0.500363
0.255633 0.756689 0.504445
0.520280 0.763125 0.509333
0.784927 0.769560 0.514222
1.000000 0.775188 0.518303
0.049454 0.983274 0.508640
0.270994 0.988902 0.512721
0.535641 0.995338 0.517610
0.800288 1.000000 0.522499
1.000000 1.000000 0.526580
0.005198 0.005198 0.698267
0.223130 0.009280 0.706429
0.484168 0.014168 0.715399
0.745207 0.019057 0.724369
0.963138 0.023138 0.732532
0.013475 0.234375 0.714556
0.231406 0.238456 0.722719
0.492445 0.243345 0.731689
0.755246 0.248989 0.740659
0.976786 0.254617 0.745815
0.022808 0.492808 0.731902
0.242369 0.497588 0.740065
0.507016 0.504023 0.746178
0.771664 0.510458 0.751067
0.993204 0.516086 0.755148
0.037247 0.753430 0.746542
0.258787 0.759058 0.750623
0.523434 0.765493 0.755512
0.788081 0.771928 0.760400
1.000000 0.777556 0.764482
0.052608 0.985643 0.754818
0.274148 0.991270 0.758900
0.538795 0.997706 0.763788
0.803443 1.000000 0.768677
1.000000 1.000000 0.772758
0.006840 0.006840 0.927064
0.224771 0.010921 0.935227
0.485810 0.015810 0.944197
0.746849 0.020699 0.953167
0.964780 0.024780 0.961330
0.015117 0.236017 0.943354
0.233048 0.240098 0.951516
0.494087 0.244987 0.960486
0.758263 0.251220 0.968975
0.979803 0.256848 0.973057
0.024450 0.494450 0.960699
0.245387 0.499819 0.968531
0.510034 0.506254 0.973420
0.774681 0.512690 0.978309
0.996221 0.518318 0.982390
0.040264 0.755661 0.973783
0.261804 0.761289 0.977865
0.526452 0.767724 0.982753
0.791099 0.774159 0.987642
1.000000 0.779787 0.991723
0.055626 0.987874 0.982060
0.277165 0.993502 0.986141
0.541813 0.999937 0.991030
0.806460 1.000000 0.995919
1.000000 1.000000 1.000000
