docs/luts/fresh-sony-slog3-correction.cube
TITLE "FreshLUTs??-SonySLog3??"
LUT_3D_SIZE 5
DOMAIN_MIN 0.0 0.0 0.0
DOMAIN_MAX 1.0 1.0 1.0
0.011977 0.014017 0.029977
0.245772 0.015434 0.028569
0.499051 0.016971 0.027280
0.752329 0.018507 0.025990
0.986125 0.019925 0.024583
0.014795 0.252109 0.027248
0.248591 0.253526 0.025840
0.501869 0.255063 0.024551
0.755148 0.256599 0.023261
0.989387 0.258017 0.021854
0.017788 0.504928 0.024694
0.251583 0.506346 0.023286
0.505258 0.507882 0.021997
0.759826 0.509418 0.022278
0.994910 0.510836 0.023696
0.021130 0.757747 0.022139
0.256214 0.759165 0.022199
0.510781 0.760701 0.023735
0.765349 0.762237 0.025271
1.000000 0.763655 0.026689
0.026478 0.995839 0.023599
0.261563 0.997257 0.025017
0.516130 0.998793 0.026553
0.770697 1.000000 0.028089
1.000000 1.000000 0.029507
0.012517 0.014557 0.261817
0.246313 0.015975 0.260410
0.499591 0.017511 0.259120
0.752870 0.019047 0.257831
0.986665 0.020465 0.256423
0.015336 0.252649 0.259089
0.249131 0.254067 0.257681
0.502410 0.255603 0.256392
0.755688 0.257139 0.255102
0.990419 0.258557 0.253695
0.018328 0.505468 0.256534
0.252124 0.506886 0.255127
0.506291 0.508423 0.253837
0.760858 0.509959 0.255196
0.995942 0.511377 0.256614
0.022162 0.758288 0.253980
0.257246 0.759706 0.255117
0.511813 0.761242 0.256653
0.766381 0.762778 0.258189
1.000000 0.764196 0.259607
0.027510 0.996380 0.256517
0.262595 0.997798 0.257935
0.517162 0.999334 0.259471
0.771729 1.000000 0.261008
1.000000 1.000000 0.262426
0.013103 0.015143 0.513068
0.246898 0.016561 0.511661
0.500177 0.018097 0.510371
0.753456 0.019633 0.509082
0.987251 0.021051 0.507674
0.015921 0.253235 0.510340
0.249717 0.254653 0.508932
0.502995 0.256189 0.507643
0.756412 0.257725 0.506353
0.991496 0.259143 0.505950
0.018914 0.506054 0.507785
0.252800 0.507472 0.506378
0.507368 0.509008 0.505988
0.761935 0.510544 0.507524
0.997019 0.511962 0.508942
0.023239 0.758873 0.506027
0.258323 0.760291 0.507445
0.512891 0.761828 0.508981
0.767458 0.763364 0.510517
1.000000 0.764782 0.511935
0.028588 0.996965 0.508845
0.263672 0.998383 0.510263
0.518239 0.999920 0.511800
0.772807 1.000000 0.513336
1.000000 1.000000 0.514754
0.013689 0.015729 0.764319
0.247484 0.017147 0.762911
0.500763 0.018683 0.761622
0.754041 0.020219 0.760333
0.987837 0.021637 0.758925
0.016507 0.253821 0.761590
0.250303 0.255238 0.760183
0.503581 0.256775 0.758893
0.757489 0.258311 0.757604
0.992573 0.259729 0.758278
0.019500 0.506640 0.759036
0.253877 0.508058 0.757628
0.508445 0.509594 0.758316
0.763012 0.511130 0.759852
0.998096 0.512548 0.761270
0.024316 0.759459 0.758355
0.259400 0.760877 0.759773
0.513968 0.762413 0.761309
0.768535 0.763949 0.762845
1.000000 0.765367 0.764263
0.029665 0.997551 0.761174
0.264749 0.998969 0.762592
0.519316 1.000000 0.764128
0.773884 1.000000 0.765664
1.000000 1.000000 0.767082
0.014229 0.016269 0.996160
0.248025 0.017687 0.994752
0.501303 0.019223 0.993463
0.754582 0.020759 0.992174
0.988377 0.022177 0.990766
0.017048 0.254361 0.993431
0.250843 0.255779 0.992024
0.504122 0.257315 0.990734
0.758521 0.258851 0.989778
0.993605 0.260269 0.991196
0.020040 0.507180 0.990877
0.254909 0.508598 0.989698
0.509477 0.510135 0.991235
0.764044 0.511671 0.992771
0.999128 0.513089 0.994189
0.025348 0.760000 0.991273
0.260432 0.761418 0.992691
0.515000 0.762954 0.994227
0.769567 0.764490 0.995764
1.000000 0.765908 0.997182
0.030697 0.998092 0.994092
0.265781 0.999510 0.995510
0.520348 1.000000 0.997046
0.774916 1.000000 0.998582
1.000000 1.000000 1.000000
