docs/luts/fresh-cine-teal.cube
TITLE "FreshLUTs??-????"
LUT_3D_SIZE 33
DOMAIN_MIN 0.0 0.0 0.0
DOMAIN_MAX 1.0 1.0 1.0
0.000000 0.035000 0.080000
0.000000 0.034313 0.078430
0.000000 0.033626 0.076860
0.016766 0.032940 0.075291
0.052355 0.032253 0.073721
0.087943 0.031566 0.072151
0.123532 0.030879 0.070581
0.159121 0.030193 0.069012
0.194709 0.029506 0.067442
0.230298 0.028819 0.065872
0.265887 0.028132 0.064302
0.301475 0.027446 0.062733
0.337064 0.026759 0.061163
0.372653 0.026072 0.059593
0.408241 0.025385 0.058024
0.443830 0.024699 0.056454
0.479419 0.024012 0.054884
0.515007 0.023325 0.053314
0.550596 0.022638 0.051745
0.586184 0.021951 0.050175
0.621773 0.021265 0.048605
0.657362 0.020578 0.047035
0.692950 0.019891 0.045465
0.728539 0.019204 0.043896
0.764128 0.018518 0.042326
0.799716 0.017831 0.040756
0.835305 0.017144 0.039186
0.870894 0.016457 0.037617
0.906482 0.015771 0.036047
0.942071 0.015084 0.034477
0.977660 0.014397 0.032907
0.988248 0.013710 0.031338
0.988837 0.013024 0.029768
0.000000 0.033652 0.076918
0.000000 0.032965 0.075349
0.000000 0.032278 0.073779
0.017922 0.031591 0.072209
0.053510 0.030905 0.070639
0.089099 0.030218 0.069070
0.124688 0.029531 0.067500
0.160276 0.028844 0.065930
0.195865 0.028158 0.064360
0.231454 0.027471 0.062790
0.267042 0.026784 0.061221
0.302631 0.026097 0.059651
0.338220 0.025411 0.058081
0.373808 0.024724 0.056511
0.409397 0.024037 0.054942
0.444985 0.023350 0.053372
0.480574 0.022663 0.051802
0.516163 0.021977 0.050232
0.551751 0.021290 0.048663
0.587340 0.020603 0.047093
0.622929 0.019916 0.045523
0.658517 0.019230 0.043954
0.694106 0.018543 0.042384
0.729695 0.017856 0.040814
0.765283 0.017169 0.039244
0.800872 0.016483 0.037674
0.836461 0.015796 0.036105
0.872049 0.015109 0.034535
0.907638 0.014422 0.032965
0.943227 0.013736 0.031395
0.978815 0.013049 0.029826
0.989404 0.012362 0.028256
0.989993 0.011675 0.026686
0.000000 0.059803 0.073836
0.000000 0.059117 0.072267
0.000000 0.058430 0.070697
0.019077 0.057743 0.069127
0.054666 0.057056 0.067558
0.090255 0.056370 0.065988
0.125843 0.055683 0.064418
0.161432 0.054996 0.062848
0.197021 0.054309 0.061279
0.232609 0.053623 0.059709
0.268198 0.052936 0.058139
0.303787 0.052249 0.056569
0.339375 0.051562 0.054999
0.374964 0.050876 0.053430
0.410552 0.050189 0.051860
0.446141 0.049502 0.050290
0.481730 0.048815 0.048720
0.517318 0.048128 0.047151
0.552907 0.047442 0.045581
0.588496 0.046755 0.044011
0.624084 0.046068 0.042441
0.659673 0.045381 0.040872
0.695262 0.044695 0.039302
0.730850 0.044008 0.037732
0.766439 0.043321 0.036163
0.802028 0.042634 0.034593
0.837616 0.041948 0.033023
0.873205 0.041261 0.031453
0.908794 0.040574 0.029884
0.944382 0.039887 0.028314
0.979971 0.039200 0.026744
0.990560 0.038514 0.025174
0.991148 0.037827 0.023605
0.000000 0.092205 0.070755
0.000000 0.091518 0.069185
0.000000 0.090832 0.067615
0.020233 0.090145 0.066045
0.055822 0.089458 0.064476
0.091410 0.088771 0.062906
0.126999 0.088085 0.061336
0.162588 0.087398 0.059766
0.198176 0.086711 0.058197
0.233765 0.086024 0.056627
0.269354 0.085338 0.055057
0.304942 0.084651 0.053488
0.340531 0.083964 0.051918
0.376119 0.083277 0.050348
0.411708 0.082590 0.048778
0.447297 0.081904 0.047209
0.482885 0.081217 0.045639
0.518474 0.080530 0.044069
0.554063 0.079843 0.042499
0.589651 0.079157 0.040930
0.625240 0.078470 0.039360
0.660829 0.077783 0.037790
0.696417 0.077096 0.036220
0.732006 0.076410 0.034651
0.767595 0.075723 0.033081
0.803183 0.075036 0.031511
0.838772 0.074349 0.029941
0.874361 0.073663 0.028372
0.909949 0.072976 0.026802
0.945538 0.072289 0.025232
0.981127 0.071602 0.023662
0.991715 0.070915 0.022093
0.992304 0.070229 0.020523
0.000000 0.124607 0.067673
0.000000 0.123920 0.066103
0.000000 0.123233 0.064534
0.021389 0.122547 0.062964
0.056977 0.121860 0.061394
0.092566 0.121173 0.059824
0.128155 0.120486 0.058255
0.163743 0.119800 0.056685
0.199332 0.119113 0.055115
0.234921 0.118426 0.053545
0.270509 0.117739 0.051976
0.306098 0.117053 0.050406
0.341687 0.116366 0.048836
0.377275 0.115679 0.047266
0.412864 0.114992 0.045696
0.448452 0.114305 0.044127
0.484041 0.113619 0.042557
0.519630 0.112932 0.040987
0.555218 0.112245 0.039418
0.590807 0.111558 0.037848
0.626396 0.110872 0.036278
0.661984 0.110185 0.034708
0.697573 0.109498 0.033139
0.733162 0.108811 0.031569
0.768750 0.108125 0.029999
0.804339 0.107438 0.028429
0.839928 0.106751 0.026860
0.875516 0.106064 0.025290
0.911105 0.105377 0.023720
0.946694 0.104691 0.022150
0.982282 0.104004 0.020581
0.992871 0.103317 0.019011
0.993460 0.102630 0.017441
0.000000 0.157009 0.064591
0.000000 0.156322 0.063022
0.000000 0.155635 0.061452
0.022544 0.154948 0.059882
0.058133 0.154262 0.058312
0.093722 0.153575 0.056743
0.129310 0.152888 0.055173
0.164899 0.152201 0.053603
0.200488 0.151515 0.052033
0.236076 0.150828 0.050464
0.271665 0.150141 0.048894
0.307253 0.149454 0.047324
0.342842 0.148767 0.045754
0.378431 0.148081 0.044185
0.414019 0.147394 0.042615
0.449608 0.146707 0.041045
0.485197 0.146020 0.039475
0.520785 0.145334 0.037905
0.556374 0.144647 0.036336
0.591963 0.143960 0.034766
0.627551 0.143273 0.033196
0.663140 0.142587 0.031627
0.698729 0.141900 0.030057
0.734317 0.141213 0.028487
0.769906 0.140526 0.026917
0.805495 0.139840 0.025347
0.841083 0.139153 0.023778
0.876672 0.138466 0.022208
0.912261 0.137779 0.020638
0.947849 0.137092 0.019069
0.983438 0.136406 0.017499
0.994027 0.135719 0.015929
0.994615 0.135032 0.014359
0.000000 0.189410 0.061510
0.000000 0.188724 0.059940
0.000000 0.188037 0.058370
0.023700 0.187350 0.056800
0.059289 0.186663 0.055230
0.094877 0.185977 0.053661
0.130466 0.185290 0.052091
0.166055 0.184603 0.050521
0.201643 0.183916 0.048952
0.237232 0.183230 0.047382
0.272820 0.182543 0.045812
0.308409 0.181856 0.044242
0.343998 0.181169 0.042673
0.379586 0.180482 0.041103
0.415175 0.179796 0.039533
0.450764 0.179109 0.037963
0.486352 0.178422 0.036394
0.521941 0.177735 0.034824
0.557530 0.177049 0.033254
0.593118 0.176362 0.031684
0.628707 0.175675 0.030114
0.664296 0.174988 0.028545
0.699884 0.174302 0.026975
0.735473 0.173615 0.025405
0.771062 0.172928 0.023835
0.806650 0.172241 0.022266
0.842239 0.171554 0.020696
0.877828 0.170868 0.019126
0.913416 0.170181 0.017556
0.949005 0.169494 0.015987
0.984594 0.168807 0.014417
0.995182 0.168121 0.012847
0.995771 0.167434 0.011277
0.000000 0.221812 0.058428
0.000000 0.221125 0.056858
0.000000 0.220439 0.055288
0.024856 0.219752 0.053719
0.060444 0.219065 0.052149
0.096033 0.218378 0.050579
0.131622 0.217692 0.049009
0.167210 0.217005 0.047440
0.202799 0.216318 0.045870
0.238388 0.215631 0.044300
0.273976 0.214944 0.042730
0.309565 0.214258 0.041160
0.345153 0.213571 0.039591
0.380742 0.212884 0.038021
0.416331 0.212197 0.036451
0.451919 0.211511 0.034882
0.487508 0.210824 0.033312
0.523097 0.210137 0.031742
0.558685 0.209450 0.030172
0.594274 0.208764 0.028603
0.629863 0.208077 0.027033
0.665451 0.207390 0.025463
0.701040 0.206703 0.023893
0.736629 0.206017 0.022323
0.772217 0.205330 0.020754
0.807806 0.204643 0.019184
0.843395 0.203956 0.017614
0.878983 0.203269 0.016044
0.914572 0.202583 0.014475
0.950161 0.201896 0.012905
0.985749 0.201209 0.011335
0.996338 0.200522 0.009765
0.996927 0.199836 0.008196
0.000000 0.254214 0.055346
0.000000 0.253527 0.053776
0.000000 0.252840 0.052207
0.026011 0.252154 0.050637
0.061600 0.251467 0.049067
0.097189 0.250780 0.047497
0.132777 0.250093 0.045927
0.168366 0.249407 0.044358
0.203954 0.248720 0.042788
0.239543 0.248033 0.041218
0.275132 0.247346 0.039649
0.310720 0.246659 0.038079
0.346309 0.245973 0.036509
0.381898 0.245286 0.034939
0.417486 0.244599 0.033369
0.453075 0.243912 0.031800
0.488664 0.243226 0.030230
0.524252 0.242539 0.028660
0.559841 0.241852 0.027091
0.595430 0.241165 0.025521
0.631018 0.240479 0.023951
0.666607 0.239792 0.022381
0.702196 0.239105 0.020812
0.737784 0.238418 0.019242
0.773373 0.237731 0.017672
0.808962 0.237045 0.016102
0.844550 0.236358 0.014533
0.880139 0.235671 0.012963
0.915728 0.234984 0.011393
0.951316 0.234298 0.009823
0.986905 0.233611 0.008254
0.997494 0.232924 0.006684
0.998082 0.232237 0.005114
0.000000 0.286616 0.052264
0.000000 0.285929 0.050694
0.000000 0.285242 0.049125
0.027167 0.284555 0.047555
0.062756 0.283869 0.045985
0.098344 0.283182 0.044415
0.133933 0.282495 0.042846
0.169521 0.281808 0.041276
0.205110 0.281121 0.039706
0.240699 0.280435 0.038137
0.276287 0.279748 0.036567
0.311876 0.279061 0.034997
0.347465 0.278374 0.033427
0.383053 0.277688 0.031857
0.418642 0.277001 0.030288
0.454231 0.276314 0.028718
0.489819 0.275627 0.027148
0.525408 0.274941 0.025579
0.560997 0.274254 0.024009
0.596585 0.273567 0.022439
0.632174 0.272880 0.020869
0.667763 0.272194 0.019299
0.703351 0.271507 0.017730
0.738940 0.270820 0.016160
0.774529 0.270133 0.014590
0.810117 0.269446 0.013021
0.845706 0.268760 0.011451
0.881295 0.268073 0.009881
0.916883 0.267386 0.008311
0.952472 0.266699 0.006742
0.988061 0.266013 0.005172
0.998649 0.265326 0.003602
0.999238 0.264639 0.002032
0.000000 0.319017 0.049183
0.000000 0.318331 0.047613
0.000000 0.317644 0.046043
0.028323 0.316957 0.044473
0.063911 0.316270 0.042904
0.099500 0.315584 0.041334
0.135088 0.314897 0.039764
0.170677 0.314210 0.038194
0.206266 0.313523 0.036625
0.241854 0.312836 0.035055
0.277443 0.312150 0.033485
0.313032 0.311463 0.031915
0.348620 0.310776 0.030346
0.384209 0.310089 0.028776
0.419798 0.309403 0.027206
0.455386 0.308716 0.025636
0.490975 0.308029 0.024067
0.526564 0.307342 0.022497
0.562152 0.306656 0.020927
0.597741 0.305969 0.019357
0.633330 0.305282 0.017788
0.668918 0.304595 0.016218
0.704507 0.303908 0.014648
0.740096 0.303222 0.013078
0.775684 0.302535 0.011509
0.811273 0.301848 0.009939
0.846862 0.301161 0.008369
0.882450 0.300475 0.006799
0.918039 0.299788 0.005229
0.953628 0.299101 0.003660
0.989216 0.298414 0.002090
0.999805 0.297728 0.000520
1.000000 0.297500 0.000000
0.000000 0.351419 0.046101
0.000000 0.350732 0.044531
0.000000 0.350046 0.042961
0.029478 0.349359 0.041391
0.065067 0.348672 0.039822
0.100655 0.347985 0.038252
0.136244 0.347298 0.036682
0.171833 0.346612 0.035112
0.207421 0.345925 0.033543
0.243010 0.345238 0.031973
0.278599 0.344551 0.030403
0.314187 0.343865 0.028834
0.349776 0.343178 0.027264
0.385365 0.342491 0.025694
0.420953 0.341804 0.024124
0.456542 0.341118 0.022554
0.492131 0.340431 0.020985
0.527719 0.339744 0.019415
0.563308 0.339057 0.017845
0.598897 0.338371 0.016275
0.634485 0.337684 0.014706
0.670074 0.336997 0.013136
0.705663 0.336310 0.011566
0.741251 0.335623 0.009997
0.776840 0.334937 0.008427
0.812429 0.334250 0.006857
0.848017 0.333563 0.005287
0.883606 0.332876 0.003717
0.919195 0.332190 0.002148
0.954783 0.331503 0.000578
0.990000 0.331250 0.000000
1.000000 0.331250 0.000000
1.000000 0.331250 0.000000
0.000000 0.383821 0.043019
0.000000 0.383134 0.041449
0.000000 0.382447 0.039880
0.030634 0.381761 0.038310
0.066222 0.381074 0.036740
0.101811 0.380387 0.035170
0.137400 0.379700 0.033601
0.172988 0.379013 0.032031
0.208577 0.378327 0.030461
0.244166 0.377640 0.028891
0.279754 0.376953 0.027322
0.315343 0.376266 0.025752
0.350932 0.375580 0.024182
0.386520 0.374893 0.022612
0.422109 0.374206 0.021042
0.457698 0.373519 0.019473
0.493286 0.372833 0.017903
0.528875 0.372146 0.016333
0.564464 0.371459 0.014764
0.600052 0.370772 0.013194
0.635641 0.370086 0.011624
0.671230 0.369399 0.010054
0.706818 0.368712 0.008484
0.742407 0.368025 0.006915
0.777996 0.367338 0.005345
0.813584 0.366652 0.003775
0.849173 0.365965 0.002206
0.884762 0.365278 0.000636
0.920000 0.365000 0.000000
0.955000 0.365000 0.000000
0.990000 0.365000 0.000000
1.000000 0.365000 0.000000
1.000000 0.365000 0.000000
0.000000 0.416223 0.039937
0.000000 0.415536 0.038368
0.000000 0.414849 0.036798
0.031789 0.414162 0.035228
0.067378 0.413475 0.033658
0.102967 0.412789 0.032088
0.138555 0.412102 0.030519
0.174144 0.411415 0.028949
0.209733 0.410728 0.027379
0.245321 0.410042 0.025810
0.280910 0.409355 0.024240
0.316499 0.408668 0.022670
0.352087 0.407981 0.021100
0.387676 0.407295 0.019531
0.423265 0.406608 0.017961
0.458853 0.405921 0.016391
0.494442 0.405234 0.014821
0.530031 0.404548 0.013252
0.565619 0.403861 0.011682
0.601208 0.403174 0.010112
0.636797 0.402487 0.008542
0.672385 0.401800 0.006972
0.707974 0.401114 0.005403
0.743563 0.400427 0.003833
0.779151 0.399740 0.002263
0.814740 0.399053 0.000694
0.850000 0.398750 0.000000
0.885000 0.398750 0.000000
0.920000 0.398750 0.000000
0.955000 0.398750 0.000000
0.990000 0.398750 0.000000
1.000000 0.398750 0.000000
1.000000 0.398750 0.000000
0.000000 0.448624 0.036855
0.000000 0.447938 0.035286
0.000000 0.447251 0.033716
0.032945 0.446564 0.032146
0.068534 0.445877 0.030576
0.104122 0.445190 0.029007
0.139711 0.444504 0.027437
0.175300 0.443817 0.025867
0.210888 0.443130 0.024298
0.246477 0.442443 0.022728
0.282066 0.441757 0.021158
0.317654 0.441070 0.019588
0.353243 0.440383 0.018018
0.388832 0.439696 0.016449
0.424420 0.439010 0.014879
0.460009 0.438323 0.013309
0.495598 0.437636 0.011740
0.531186 0.436949 0.010170
0.566775 0.436262 0.008600
0.602364 0.435576 0.007030
0.637952 0.434889 0.005460
0.673541 0.434202 0.003891
0.709130 0.433515 0.002321
0.744718 0.432829 0.000751
0.780000 0.432500 0.000000
0.815000 0.432500 0.000000
0.850000 0.432500 0.000000
0.885000 0.432500 0.000000
0.920000 0.432500 0.000000
0.955000 0.432500 0.000000
0.990000 0.432500 0.000000
1.000000 0.432500 0.000000
1.000000 0.432500 0.000000
0.000000 0.481026 0.033774
0.000000 0.480339 0.032204
0.000000 0.479652 0.030634
0.034101 0.478966 0.029064
0.069689 0.478279 0.027495
0.105278 0.477592 0.025925
0.140867 0.476905 0.024355
0.176455 0.476219 0.022786
0.212044 0.475532 0.021216
0.247633 0.474845 0.019646
0.283221 0.474158 0.018076
0.318810 0.473472 0.016506
0.354399 0.472785 0.014937
0.389987 0.472098 0.013367
0.425576 0.471411 0.011797
0.461165 0.470725 0.010228
0.496753 0.470038 0.008658
0.532342 0.469351 0.007088
0.567931 0.468664 0.005518
0.603519 0.467977 0.003948
0.639108 0.467291 0.002379
0.674697 0.466604 0.000809
0.710000 0.466250 0.000000
0.745000 0.466250 0.000000
0.780000 0.466250 0.000000
0.815000 0.466250 0.000000
0.850000 0.466250 0.000000
0.885000 0.466250 0.000000
0.920000 0.466250 0.000000
0.955000 0.466250 0.000000
0.990000 0.466250 0.000000
1.000000 0.466250 0.000000
1.000000 0.466250 0.000000
0.000000 0.513428 0.030692
0.000000 0.512741 0.029122
0.000000 0.512054 0.027552
0.035256 0.511367 0.025983
0.070845 0.510681 0.024413
0.106434 0.509994 0.022843
0.142022 0.509307 0.021273
0.177611 0.508620 0.019704
0.213200 0.507934 0.018134
0.248788 0.507247 0.016564
0.284377 0.506560 0.014994
0.319966 0.505873 0.013425
0.355554 0.505187 0.011855
0.391143 0.504500 0.010285
0.426732 0.503813 0.008716
0.462320 0.503126 0.007146
0.497909 0.502440 0.005576
0.533498 0.501753 0.004006
0.569086 0.501066 0.002436
0.604675 0.500379 0.000867
0.640000 0.500000 0.000000
0.675000 0.500000 0.000000
0.710000 0.500000 0.000000
0.745000 0.500000 0.000000
0.780000 0.500000 0.000000
0.815000 0.500000 0.000000
0.850000 0.500000 0.000000
0.885000 0.500000 0.000000
0.920000 0.500000 0.000000
0.955000 0.500000 0.000000
0.990000 0.500000 0.000000
1.000000 0.500000 0.000000
1.000000 0.500000 0.000000
0.000000 0.545829 0.027610
0.000000 0.545143 0.026041
0.000823 0.544456 0.024471
0.036412 0.543769 0.022901
0.072001 0.543082 0.021331
0.107589 0.542396 0.019762
0.143178 0.541709 0.018192
0.178767 0.541022 0.016622
0.214355 0.540335 0.015052
0.249944 0.539649 0.013483
0.285533 0.538962 0.011913
0.321121 0.538275 0.010343
0.356710 0.537588 0.008773
0.392299 0.536902 0.007203
0.427887 0.536215 0.005634
0.463476 0.535528 0.004064
0.499065 0.534841 0.002494
0.534653 0.534154 0.000925
0.570000 0.533750 0.000000
0.605000 0.533750 0.000000
0.640000 0.533750 0.000000
0.675000 0.533750 0.000000
0.710000 0.533750 0.000000
0.745000 0.533750 0.000000
0.780000 0.533750 0.000000
0.815000 0.533750 0.000000
0.850000 0.533750 0.000000
0.885000 0.533750 0.000000
0.920000 0.533750 0.000000
0.955000 0.533750 0.000000
0.990000 0.533750 0.000000
1.000000 0.533750 0.000000
1.000000 0.533750 0.000000
0.000000 0.578231 0.024529
0.000000 0.577544 0.022959
0.001979 0.576858 0.021389
0.037568 0.576171 0.019819
0.073156 0.575484 0.018250
0.108745 0.574797 0.016680
0.144334 0.574111 0.015110
0.179922 0.573424 0.013540
0.215511 0.572737 0.011971
0.251100 0.572050 0.010401
0.286688 0.571364 0.008831
0.322277 0.570677 0.007261
0.357866 0.569990 0.005691
0.393454 0.569303 0.004122
0.429043 0.568616 0.002552
0.464632 0.567930 0.000982
0.500000 0.567500 0.000000
0.535000 0.567500 0.000000
0.570000 0.567500 0.000000
0.605000 0.567500 0.000000
0.640000 0.567500 0.000000
0.675000 0.567500 0.000000
0.710000 0.567500 0.000000
0.745000 0.567500 0.000000
0.780000 0.567500 0.000000
0.815000 0.567500 0.000000
0.850000 0.567500 0.000000
0.885000 0.567500 0.000000
0.920000 0.567500 0.000000
0.955000 0.567500 0.000000
0.990000 0.567500 0.000000
1.000000 0.567500 0.000000
1.000000 0.567500 0.000000
0.000000 0.610633 0.021447
0.000000 0.609946 0.019877
0.003135 0.609259 0.018307
0.038723 0.608573 0.016738
0.074312 0.607886 0.015168
0.109901 0.607199 0.013598
0.145489 0.606512 0.012028
0.181078 0.605826 0.010459
0.216667 0.605139 0.008889
0.252255 0.604452 0.007319
0.287844 0.603765 0.005749
0.323433 0.603079 0.004180
0.359021 0.602392 0.002610
0.394610 0.601705 0.001040
0.430000 0.601250 0.000000
0.465000 0.601250 0.000000
0.500000 0.601250 0.000000
0.535000 0.601250 0.000000
0.570000 0.601250 0.000000
0.605000 0.601250 0.000000
0.640000 0.601250 0.000000
0.675000 0.601250 0.000000
0.710000 0.601250 0.000000
0.745000 0.601250 0.000000
0.780000 0.601250 0.000000
0.815000 0.601250 0.000000
0.850000 0.601250 0.000000
0.885000 0.601250 0.000000
0.920000 0.601250 0.000000
0.955000 0.601250 0.000000
0.990000 0.601250 0.000000
1.000000 0.601250 0.000000
1.000000 0.601250 0.000000
0.000000 0.643035 0.018365
0.000000 0.642348 0.016795
0.004290 0.641661 0.015225
0.039879 0.640974 0.013656
0.075468 0.640288 0.012086
0.111056 0.639601 0.010516
0.146645 0.638914 0.008947
0.182234 0.638227 0.007377
0.217822 0.637541 0.005807
0.253411 0.636854 0.004237
0.289000 0.636167 0.002668
0.324588 0.635480 0.001098
0.360000 0.635000 0.000000
0.395000 0.635000 0.000000
0.430000 0.635000 0.000000
0.465000 0.635000 0.000000
0.500000 0.635000 0.000000
0.535000 0.635000 0.000000
0.570000 0.635000 0.000000
0.605000 0.635000 0.000000
0.640000 0.635000 0.000000
0.675000 0.635000 0.000000
0.710000 0.635000 0.000000
0.745000 0.635000 0.000000
0.780000 0.635000 0.000000
0.815000 0.635000 0.000000
0.850000 0.635000 0.000000
0.885000 0.635000 0.000000
0.920000 0.635000 0.000000
0.955000 0.635000 0.000000
0.990000 0.635000 0.000000
1.000000 0.635000 0.000000
1.000000 0.635000 0.000000
0.000000 0.675436 0.015283
0.000000 0.674750 0.013713
0.005446 0.674063 0.012144
0.041035 0.673376 0.010574
0.076623 0.672689 0.009004
0.112212 0.672003 0.007435
0.147801 0.671316 0.005865
0.183389 0.670629 0.004295
0.218978 0.669942 0.002725
0.254567 0.669256 0.001155
0.290000 0.668750 0.000000
0.325000 0.668750 0.000000
0.360000 0.668750 0.000000
0.395000 0.668750 0.000000
0.430000 0.668750 0.000000
0.465000 0.668750 0.000000
0.500000 0.668750 0.000000
0.535000 0.668750 0.000000
0.570000 0.668750 0.000000
0.605000 0.668750 0.000000
0.640000 0.668750 0.000000
0.675000 0.668750 0.000000
0.710000 0.668750 0.000000
0.745000 0.668750 0.000000
0.780000 0.668750 0.000000
0.815000 0.668750 0.000000
0.850000 0.668750 0.000000
0.885000 0.668750 0.000000
0.920000 0.668750 0.000000
0.955000 0.668750 0.000000
0.990000 0.668750 0.000000
1.000000 0.668750 0.000000
1.000000 0.668750 0.000000
0.000000 0.707838 0.012202
0.000000 0.707151 0.010632
0.006602 0.706465 0.009062
0.042190 0.705778 0.007492
0.077779 0.705091 0.005922
0.113368 0.704404 0.004353
0.148956 0.703718 0.002783
0.184545 0.703031 0.001213
0.220000 0.702500 0.000000
0.255000 0.702500 0.000000
0.290000 0.702500 0.000000
0.325000 0.702500 0.000000
0.360000 0.702500 0.000000
0.395000 0.702500 0.000000
0.430000 0.702500 0.000000
0.465000 0.702500 0.000000
0.500000 0.702500 0.000000
0.535000 0.702500 0.000000
0.570000 0.702500 0.000000
0.605000 0.702500 0.000000
0.640000 0.702500 0.000000
0.675000 0.702500 0.000000
0.710000 0.702500 0.000000
0.745000 0.702500 0.000000
0.780000 0.702500 0.000000
0.815000 0.702500 0.000000
0.850000 0.702500 0.000000
0.885000 0.702500 0.000000
0.920000 0.702500 0.000000
0.955000 0.702500 0.000000
0.990000 0.702500 0.000000
1.000000 0.702500 0.000000
1.000000 0.702500 0.000000
0.000000 0.740240 0.009120
0.000000 0.739553 0.007550
0.007757 0.738866 0.005980
0.043346 0.738180 0.004410
0.078935 0.737493 0.002841
0.114523 0.736806 0.001271
0.150000 0.736250 0.000000
0.185000 0.736250 0.000000
0.220000 0.736250 0.000000
0.255000 0.736250 0.000000
0.290000 0.736250 0.000000
0.325000 0.736250 0.000000
0.360000 0.736250 0.000000
0.395000 0.736250 0.000000
0.430000 0.736250 0.000000
0.465000 0.736250 0.000000
0.500000 0.736250 0.000000
0.535000 0.736250 0.000000
0.570000 0.736250 0.000000
0.605000 0.736250 0.000000
0.640000 0.736250 0.000000
0.675000 0.736250 0.000000
0.710000 0.736250 0.000000
0.745000 0.736250 0.000000
0.780000 0.736250 0.000000
0.815000 0.736250 0.000000
0.850000 0.736250 0.000000
0.885000 0.736250 0.000000
0.920000 0.736250 0.000000
0.955000 0.736250 0.000000
0.990000 0.736250 0.000000
1.000000 0.736250 0.000000
1.000000 0.736250 0.000000
0.000000 0.772642 0.006038
0.000000 0.771955 0.004468
0.008913 0.771268 0.002898
0.044502 0.770581 0.001329
0.080000 0.770000 0.000000
0.115000 0.770000 0.000000
0.150000 0.770000 0.000000
0.185000 0.770000 0.000000
0.220000 0.770000 0.000000
0.255000 0.770000 0.000000
0.290000 0.770000 0.000000
0.325000 0.770000 0.000000
0.360000 0.770000 0.000000
0.395000 0.770000 0.000000
0.430000 0.770000 0.000000
0.465000 0.770000 0.000000
0.500000 0.770000 0.000000
0.535000 0.770000 0.000000
0.570000 0.770000 0.000000
0.605000 0.770000 0.000000
0.640000 0.770000 0.000000
0.675000 0.770000 0.000000
0.710000 0.770000 0.000000
0.745000 0.770000 0.000000
0.780000 0.770000 0.000000
0.815000 0.770000 0.000000
0.850000 0.770000 0.000000
0.885000 0.770000 0.000000
0.920000 0.770000 0.000000
0.955000 0.770000 0.000000
0.990000 0.770000 0.000000
1.000000 0.770000 0.000000
1.000000 0.770000 0.000000
0.000000 0.805043 0.002956
0.000000 0.804357 0.001387
0.010000 0.803750 0.000000
0.045000 0.803750 0.000000
0.080000 0.803750 0.000000
0.115000 0.803750 0.000000
0.150000 0.803750 0.000000
0.185000 0.803750 0.000000
0.220000 0.803750 0.000000
0.255000 0.803750 0.000000
0.290000 0.803750 0.000000
0.325000 0.803750 0.000000
0.360000 0.803750 0.000000
0.395000 0.803750 0.000000
0.430000 0.803750 0.000000
0.465000 0.803750 0.000000
0.500000 0.803750 0.000000
0.535000 0.803750 0.000000
0.570000 0.803750 0.000000
0.605000 0.803750 0.000000
0.640000 0.803750 0.000000
0.675000 0.803750 0.000000
0.710000 0.803750 0.000000
0.745000 0.803750 0.000000
0.780000 0.803750 0.000000
0.815000 0.803750 0.000000
0.850000 0.803750 0.000000
0.885000 0.803750 0.000000
0.920000 0.803750 0.000000
0.955000 0.803750 0.000000
0.990000 0.803750 0.000000
1.000000 0.803750 0.000000
1.000000 0.803750 0.000000
0.000000 0.837500 0.000000
0.000000 0.837500 0.000000
0.010000 0.837500 0.000000
0.045000 0.837500 0.000000
0.080000 0.837500 0.000000
0.115000 0.837500 0.000000
0.150000 0.837500 0.000000
0.185000 0.837500 0.000000
0.220000 0.837500 0.000000
0.255000 0.837500 0.000000
0.290000 0.837500 0.000000
0.325000 0.837500 0.000000
0.360000 0.837500 0.000000
0.395000 0.837500 0.000000
0.430000 0.837500 0.000000
0.465000 0.837500 0.000000
0.500000 0.837500 0.000000
0.535000 0.837500 0.000000
0.570000 0.837500 0.000000
0.605000 0.837500 0.000000
0.640000 0.837500 0.000000
0.675000 0.837500 0.000000
0.710000 0.837500 0.000000
0.745000 0.837500 0.000000
0.780000 0.837500 0.000000
0.815000 0.837500 0.000000
0.850000 0.837500 0.000000
