docs/luts/fresh-teal-rec709.cube
TITLE "FreshLUTs??-??Rec709"
LUT_3D_SIZE 5
DOMAIN_MIN 0.0 0.0 0.0
DOMAIN_MAX 1.0 1.0 1.0
0.000000 0.018000 0.075000
0.221823 0.015174 0.063227
0.510889 0.012349 0.051454
0.799955 0.009523 0.039681
0.990698 0.006698 0.027907
0.000000 0.255217 0.051887
0.218492 0.246890 0.040114
0.507558 0.237606 0.028341
0.796624 0.228322 0.016567
1.000000 0.219995 0.003240
0.000000 0.523426 0.028774
0.213752 0.515099 0.017001
0.505395 0.505815 0.003840
0.800656 0.498102 0.000000
1.000000 0.492600 0.000000
0.000383 0.791634 0.004439
0.217621 0.784774 0.000000
0.511139 0.778316 0.000000
0.804658 0.771857 0.000000
1.000000 0.766356 0.000000
0.018716 1.000000 0.000000
0.223031 1.000000 0.000000
0.516550 1.000000 0.000000
0.810069 1.000000 0.000000
1.000000 1.000000 0.000000
0.000000 0.016923 0.316814
0.221221 0.014097 0.299539
0.510287 0.011272 0.281307
0.799353 0.008446 0.263076
0.992194 0.005620 0.245801
0.000000 0.252042 0.282665
0.217890 0.243715 0.265390
0.506956 0.234431 0.247159
0.796022 0.225147 0.228927
1.000000 0.216820 0.208379
0.000000 0.520251 0.247107
0.213150 0.511924 0.229833
0.507988 0.502640 0.208493
0.801753 0.496004 0.196785
1.000000 0.490502 0.186773
0.005073 0.788459 0.208608
0.218717 0.782676 0.197424
0.512236 0.776218 0.186455
0.805754 0.769760 0.175485
1.000000 0.764258 0.165473
0.021909 1.000000 0.187545
0.224127 1.000000 0.177533
0.517646 1.000000 0.166563
0.811165 1.000000 0.155594
1.000000 1.000000 0.145582
0.000000 0.015845 0.601463
0.220255 0.013020 0.584188
0.509321 0.010194 0.565956
0.798387 0.007369 0.547725
0.993690 0.004543 0.530450
0.000000 0.248503 0.567314
0.216924 0.240175 0.550039
0.505990 0.230892 0.531808
0.795953 0.221608 0.513093
1.000000 0.214284 0.495491
0.000000 0.516711 0.531756
0.212772 0.508384 0.514165
0.508966 0.500000 0.495172
0.802484 0.493542 0.484203
1.000000 0.488040 0.474191
0.008657 0.785716 0.494854
0.219448 0.780214 0.484842
0.512967 0.773756 0.473872
0.806486 0.767297 0.462903
1.000000 0.761796 0.452891
0.025103 1.000000 0.474963
0.224859 1.000000 0.464950
0.518378 1.000000 0.453981
0.811897 1.000000 0.443012
1.000000 1.000000 0.433000
0.000000 0.014768 0.886111
0.219289 0.011943 0.868837
0.508355 0.009117 0.850605
0.797421 0.006291 0.832374
0.995186 0.003466 0.815099
0.000000 0.244963 0.851963
0.215958 0.236636 0.834688
0.505024 0.227352 0.816456
0.798180 0.218068 0.796022
1.000000 0.211822 0.782909
0.000000 0.513171 0.816405
0.215000 0.504844 0.797094
0.509697 0.497538 0.782590
0.803216 0.491079 0.771621
1.000000 0.485578 0.761609
0.011851 0.783253 0.782272
0.220180 0.777752 0.772259
0.513699 0.771293 0.761290
0.807218 0.764835 0.750321
1.000000 0.759333 0.740309
0.028297 1.000000 0.762381
0.225591 1.000000 0.752368
0.519109 1.000000 0.741399
0.812628 1.000000 0.730430
1.000000 1.000000 0.720417
0.000000 0.013691 1.000000
0.218688 0.010865 1.000000
0.507754 0.008040 1.000000
0.796820 0.005214 1.000000
0.996683 0.002389 1.000000
0.000000 0.241788 1.000000
0.215357 0.233461 1.000000
0.504423 0.224177 1.000000
0.800310 0.215226 0.996078
1.000000 0.209724 0.991567
0.000000 0.509996 1.000000
0.217275 0.501898 0.996244
0.510793 0.495440 0.991733
0.804312 0.488982 0.987222
1.000000 0.483480 0.982711
0.015045 0.781156 0.991899
0.221276 0.775654 0.987388
0.514795 0.769196 0.982877
0.808314 0.762737 0.978366
1.000000 0.757236 0.973856
0.031491 1.000000 0.983043
0.226687 1.000000 0.978532
0.520206 1.000000 0.974022
0.813724 1.000000 0.969511
1.000000 1.000000 0.965000
