docs/luts/fresh-golden-forest-blue-water.cube
TITLE "FreshLUTs??-????"
LUT_3D_SIZE 9
DOMAIN_MIN 0.0 0.0 0.0
DOMAIN_MAX 1.0 1.0 1.0
0.000000 0.045000 0.000000
0.100328 0.041468 0.004709
0.242898 0.037936 0.009418
0.385469 0.034404 0.014128
0.528040 0.030872 0.018837
0.670611 0.027340 0.023546
0.813182 0.023808 0.028256
0.955752 0.020276 0.032965
1.000000 0.016744 0.037674
0.000000 0.128457 0.009245
0.096219 0.122653 0.013954
0.238789 0.115892 0.018664
0.381360 0.109130 0.023373
0.523931 0.102369 0.028082
0.666502 0.095608 0.032792
0.809073 0.088847 0.037501
0.951643 0.082086 0.042210
1.000000 0.076282 0.046919
0.000000 0.263566 0.018490
0.089762 0.257762 0.023200
0.232332 0.251001 0.027909
0.374903 0.244240 0.032618
0.517474 0.237478 0.037327
0.660045 0.230717 0.042037
0.802616 0.223956 0.046746
0.945186 0.217195 0.051455
1.000000 0.211391 0.054611
0.000000 0.398675 0.027736
0.083305 0.392871 0.032445
0.225875 0.386110 0.037154
0.368446 0.379349 0.041863
0.511017 0.372587 0.046573
0.653588 0.365826 0.051282
0.798470 0.359065 0.054520
0.944585 0.352829 0.056274
1.000000 0.350557 0.054018
0.000000 0.533784 0.036981
0.076848 0.527980 0.041690
0.219418 0.521219 0.046399
0.361989 0.514458 0.051109
0.506741 0.507696 0.054430
0.652856 0.501331 0.056357
0.798971 0.498102 0.054101
0.945086 0.494872 0.051846
1.000000 0.492600 0.049591
0.000000 0.668893 0.046226
0.070391 0.663089 0.050935
0.215012 0.656328 0.054340
0.361127 0.649832 0.056440
0.507242 0.646603 0.054184
0.653357 0.643374 0.051929
0.799472 0.640145 0.049673
0.945587 0.636915 0.047418
1.000000 0.634643 0.045163
0.001920 0.804002 0.054250
0.069398 0.798334 0.056523
0.215513 0.795104 0.054267
0.361628 0.791875 0.052012
0.507743 0.788646 0.049756
0.653858 0.785417 0.047501
0.799973 0.782188 0.045246
0.946088 0.778958 0.042990
1.000000 0.776686 0.040735
0.008878 0.942649 0.054350
0.069899 0.940377 0.052095
0.216014 0.937147 0.049839
0.362129 0.933918 0.047584
0.508244 0.930689 0.045329
0.654359 0.927460 0.043073
0.800474 0.924231 0.040818
0.946589 0.921001 0.038562
1.000000 0.918729 0.036307
0.015836 1.000000 0.049922
0.072748 1.000000 0.047667
0.218863 1.000000 0.045412
0.364978 1.000000 0.043156
0.511093 1.000000 0.040901
0.657208 1.000000 0.038645
0.803323 1.000000 0.036390
0.949438 1.000000 0.034135
1.000000 1.000000 0.031879
0.000000 0.043653 0.103529
0.099461 0.040121 0.105966
0.242032 0.036589 0.107446
0.384603 0.033058 0.108926
0.527174 0.029526 0.110406
0.669744 0.025994 0.111886
0.812315 0.022462 0.113366
0.954886 0.018930 0.114846
1.000000 0.015398 0.117283
0.000000 0.126244 0.108665
0.095352 0.120440 0.111102
0.237923 0.113679 0.112582
0.380494 0.106917 0.114062
0.523065 0.100156 0.115542
0.665635 0.093395 0.117022
0.808206 0.086634 0.118502
0.950777 0.079873 0.119982
1.000000 0.074069 0.122419
0.000000 0.261353 0.111454
0.088895 0.255549 0.113890
0.231466 0.248788 0.115370
0.374037 0.242026 0.116851
0.516608 0.235265 0.118331
0.659178 0.228504 0.119811
0.801749 0.221743 0.121291
0.944569 0.214982 0.122612
1.000000 0.209178 0.122794
0.000000 0.396462 0.114242
0.082438 0.390658 0.116679
0.225009 0.383897 0.118159
0.367580 0.377136 0.119639
0.510151 0.370374 0.121119
0.652840 0.363613 0.122523
0.798955 0.356852 0.121748
0.945070 0.351963 0.118477
1.000000 0.349691 0.113949
0.000000 0.531571 0.117030
0.075981 0.525767 0.119467
0.218552 0.519006 0.120947
0.361123 0.512245 0.122427
0.507226 0.505483 0.121659
0.653341 0.500464 0.118561
0.799456 0.497235 0.113077
0.945571 0.494006 0.107592
1.000000 0.491734 0.103064
0.000000 0.666680 0.119818
0.069524 0.660876 0.122255
0.215497 0.654115 0.121570
0.361612 0.648966 0.118646
0.507727 0.645737 0.113161
0.653842 0.642507 0.107676
0.799957 0.639278 0.102192
0.946072 0.636049 0.096707
1.000000 0.633777 0.092179
0.003272 0.801789 0.120525
0.069883 0.797467 0.118730
0.215998 0.794238 0.113245
0.362113 0.791009 0.107761
0.508228 0.787780 0.102276
0.654343 0.784550 0.096792
0.800458 0.781321 0.091307
0.946573 0.778092 0.085822
1.000000 0.775820 0.081295
0.010230 0.941783 0.112373
0.070384 0.939510 0.107845
0.216499 0.936281 0.102361
0.362614 0.933052 0.096876
0.508729 0.929823 0.091391
0.654844 0.926593 0.085907
0.800959 0.923364 0.080422
0.947074 0.920135 0.074938
1.000000 0.917863 0.070410
0.017187 1.000000 0.103836
0.073233 1.000000 0.099308
0.219348 1.000000 0.093824
0.365463 1.000000 0.088339
0.511578 1.000000 0.082855
0.657693 1.000000 0.077370
0.803808 1.000000 0.071885
0.949923 1.000000 0.066401
1.000000 1.000000 0.061873
0.000000 0.042307 0.249893
0.098230 0.038775 0.252330
0.240801 0.035243 0.253810
0.383372 0.031711 0.255290
0.525942 0.028179 0.256770
0.668513 0.024647 0.258250
0.811084 0.021115 0.259730
0.953655 0.017583 0.261211
1.000000 0.014051 0.263647
0.000000 0.123666 0.255030
0.094121 0.117862 0.257466
0.236692 0.111101 0.258947
0.379263 0.104340 0.260427
0.521833 0.097578 0.261907
0.664404 0.090817 0.263387
0.806975 0.084056 0.264867
0.949546 0.077295 0.266347
1.000000 0.071491 0.268784
0.000000 0.258775 0.257818
0.087664 0.252971 0.260255
0.230235 0.246210 0.261735
0.372806 0.239449 0.263215
0.515376 0.232688 0.264695
0.657947 0.225926 0.266175
0.800518 0.219165 0.267655
0.944689 0.212404 0.268117
1.000000 0.206600 0.268298
0.000000 0.393884 0.260606
0.081207 0.388080 0.263043
0.223778 0.381319 0.264523
0.366349 0.374558 0.266003
0.508919 0.367797 0.267483
0.652960 0.361035 0.268028
0.799075 0.354274 0.267253
0.945190 0.350732 0.262186
1.000000 0.348459 0.257658
0.000000 0.528993 0.263394
0.074750 0.523189 0.265831
0.217321 0.516428 0.267311
0.361231 0.509667 0.267939
0.507346 0.502906 0.267164
0.653461 0.499233 0.262270
0.799576 0.496004 0.256785
0.945691 0.492775 0.251301
1.000000 0.490502 0.246773
0.000000 0.664102 0.266183
0.069502 0.658298 0.267850
0.215617 0.651537 0.267075
0.361732 0.647735 0.262354
0.507847 0.644505 0.256870
0.653962 0.641276 0.251385
0.800077 0.638047 0.245901
0.946192 0.634818 0.240416
1.000000 0.632545 0.235888
0.004623 0.799212 0.266029
0.070003 0.796236 0.262439
0.216118 0.793007 0.256954
0.362233 0.789778 0.251470
0.508348 0.786548 0.245985
0.654463 0.783319 0.240500
0.800578 0.780090 0.235016
0.946693 0.776861 0.229531
1.000000 0.774588 0.225003
0.011581 0.940551 0.256082
0.070504 0.938279 0.251554
0.216619 0.935050 0.246069
0.362734 0.931821 0.240585
0.508849 0.928591 0.235100
0.654964 0.925362 0.229616
0.801079 0.922133 0.224131
0.947194 0.918904 0.218646
1.000000 0.916631 0.214119
0.018539 1.000000 0.247545
0.073353 1.000000 0.243017
0.219468 1.000000 0.237533
0.365583 1.000000 0.232048
0.511698 1.000000 0.226563
0.657813 1.000000 0.221079
0.803928 1.000000 0.215594
0.950043 1.000000 0.210110
1.000000 1.000000 0.205582
0.000000 0.040960 0.396258
0.096999 0.037428 0.398695
0.239570 0.033896 0.400175
0.382140 0.030364 0.401655
0.524711 0.026832 0.403135
0.667282 0.023300 0.404615
0.809853 0.019768 0.406095
0.952424 0.016237 0.407575
1.000000 0.012705 0.410012
0.000000 0.121088 0.401394
0.092890 0.115284 0.403831
0.235461 0.108523 0.405311
0.378031 0.101762 0.406791
0.520602 0.095001 0.408271
0.663173 0.088239 0.409751
0.805744 0.081478 0.411231
0.948315 0.074717 0.412711
1.000000 0.068913 0.415148
0.000000 0.256197 0.404182
0.086433 0.250393 0.406619
0.229004 0.243632 0.408099
0.371574 0.236871 0.409579
0.514145 0.230110 0.411059
0.656716 0.223349 0.412539
0.799287 0.216587 0.414019
0.944809 0.209826 0.413621
1.000000 0.205185 0.412252
0.000000 0.391307 0.406970
0.079976 0.385502 0.409407
0.222547 0.378741 0.410887
0.365117 0.371980 0.412367
0.507688 0.365219 0.413847
0.653080 0.358458 0.413532
0.799195 0.352730 0.411379
0.945310 0.349501 0.405895
1.000000 0.347228 0.401367
0.000000 0.526416 0.409759
0.073519 0.520611 0.412196
0.216090 0.513850 0.413676
0.361351 0.507089 0.413443
0.507466 0.501231 0.411464
0.653581 0.498002 0.405979
0.799696 0.494773 0.400494
0.945811 0.491544 0.395010
1.000000 0.489271 0.390482
0.000000 0.661525 0.412547
0.069622 0.655720 0.413354
0.215737 0.649733 0.411548
0.361852 0.646503 0.406063
0.507967 0.643274 0.400579
0.654082 0.640045 0.395094
0.800197 0.636816 0.389610
0.946312 0.633587 0.384125
1.000000 0.631314 0.379597
0.005974 0.797277 0.410675
0.070123 0.795005 0.406148
0.216238 0.791776 0.400663
0.362353 0.788546 0.395179
0.508468 0.785317 0.389694
0.654583 0.782088 0.384209
0.800698 0.778859 0.378725
0.946813 0.775630 0.373240
1.000000 0.773357 0.368712
0.012932 0.939320 0.399791
0.070624 0.937048 0.395263
0.216739 0.933819 0.389778
0.362854 0.930589 0.384294
0.508969 0.927360 0.378809
0.655084 0.924131 0.373325
0.801199 0.920902 0.367840
0.947314 0.917673 0.362355
1.000000 0.915400 0.357828
0.019890 1.000000 0.391254
0.073473 1.000000 0.386726
0.219588 1.000000 0.381241
0.365703 1.000000 0.375757
0.511818 1.000000 0.370272
0.657933 1.000000 0.364788
0.804048 1.000000 0.359303
0.950163 1.000000 0.353819
1.000000 1.000000 0.349291
0.000000 0.039613 0.542622
0.095768 0.036082 0.545059
0.238338 0.032550 0.546539
0.380909 0.029018 0.548019
0.523480 0.025486 0.549499
0.666051 0.021954 0.550979
0.808622 0.018422 0.552459
0.951192 0.014890 0.553939
1.000000 0.011358 0.556376
0.000000 0.118511 0.547758
0.091659 0.112706 0.550195
0.234229 0.105945 0.551675
0.376800 0.099184 0.553155
0.519371 0.092423 0.554635
0.661942 0.085662 0.556115
0.804513 0.078901 0.557595
0.947083 0.072139 0.559075
1.000000 0.066335 0.560947
0.000000 0.253620 0.550546
0.085202 0.247815 0.552983
0.227772 0.241054 0.554463
0.370343 0.234293 0.555943
0.512914 0.227532 0.557423
0.655485 0.220771 0.558904
0.798814 0.214010 0.559901
0.944929 0.207248 0.559126
1.000000 0.203954 0.555960
0.000000 0.388729 0.553335
0.078745 0.382924 0.555772
0.221315 0.376163 0.557252
0.363886 0.369402 0.558732
0.507085 0.362641 0.559812
0.653200 0.355880 0.559037
0.799315 0.351499 0.555088
0.945430 0.348269 0.549603
1.000000 0.345997 0.545076
0.000000 0.523838 0.556123
0.072288 0.518033 0.558560
0.215356 0.511272 0.559723
0.361471 0.504511 0.558948
0.507586 0.500000 0.555172
0.653701 0.496771 0.549688
0.799816 0.493542 0.544203
0.945931 0.490312 0.538719
1.000000 0.488040 0.534191
0.000367 0.658947 0.558677
0.069742 0.653142 0.558859
0.215857 0.648501 0.555257
0.361972 0.645272 0.549772
0.508087 0.642043 0.544288
0.654202 0.638814 0.538803
0.800317 0.635585 0.533318
0.946432 0.632355 0.527834
1.000000 0.630083 0.523306
0.007325 0.796046 0.554384
0.070243 0.793774 0.549857
0.216358 0.790544 0.544372
0.362473 0.787315 0.538887
0.508588 0.784086 0.533403
0.654703 0.780857 0.527918
0.800818 0.777628 0.522434
0.946933 0.774398 0.516949
1.000000 0.772126 0.512421
0.014283 0.938089 0.543500
0.070744 0.935817 0.538972
0.216859 0.932587 0.533487
0.362974 0.929358 0.528003
0.509089 0.926129 0.522518
0.655204 0.922900 0.517033
0.801319 0.919671 0.511549
0.947434 0.916441 0.506064
1.000000 0.914169 0.501536
0.021241 1.000000 0.534963
0.073593 1.000000 0.530435
0.219708 1.000000 0.524950
0.365823 1.000000 0.519466
0.511938 1.000000 0.513981
0.658053 1.000000 0.508497
0.804168 1.000000 0.503012
0.950283 1.000000 0.497527
1.000000 1.000000 0.493000
0.000000 0.038267 0.688986
0.094536 0.034735 0.691423
0.237107 0.031203 0.692903
0.379678 0.027671 0.694383
0.522249 0.024139 0.695863
0.664820 0.020607 0.697343
0.807390 0.017075 0.698823
0.949961 0.013543 0.700303
1.000000 0.010011 0.702740
0.000000 0.115933 0.694123
0.090427 0.110128 0.696559
0.232998 0.103367 0.698039
0.375569 0.096606 0.699520
0.518140 0.089845 0.701000
0.660711 0.083084 0.702480
0.803281 0.076323 0.703960
0.945852 0.069562 0.705440
1.000000 0.063757 0.706451
0.000000 0.251042 0.696911
0.083970 0.245237 0.699348
0.226541 0.238476 0.700828
0.369112 0.231715 0.702308
0.511683 0.224954 0.703788
0.654254 0.218193 0.705268
0.798934 0.211432 0.705405
0.945049 0.204995 0.704197
1.000000 0.202723 0.699669
0.000000 0.386151 0.699699
0.077513 0.380347 0.702136
0.220084 0.373585 0.703616
0.362655 0.366824 0.705096
0.507205 0.360063 0.705316
0.653320 0.353497 0.704282
0.799435 0.350267 0.698797
0.945550 0.347038 0.693312
1.000000 0.344766 0.688785
0.000000 0.521260 0.702487
0.071056 0.515456 0.704924
0.215476 0.508694 0.705227
0.361591 0.501998 0.704366
0.507706 0.498769 0.698881
0.653821 0.495540 0.693397
0.799936 0.492310 0.687912
0.946051 0.489081 0.682428
1.000000 0.486809 0.677900
0.001719 0.656369 0.704182
0.069862 0.650565 0.704363
0.215977 0.647270 0.698966
0.362092 0.644041 0.693481
0.508207 0.640812 0.687996
0.654322 0.637583 0.682512
0.800437 0.634353 0.677027
0.946552 0.631124 0.671543
1.000000 0.628852 0.667015
0.008677 0.794815 0.698093
0.070363 0.792542 0.693565
0.216478 0.789313 0.688081
0.362593 0.786084 0.682596
0.508708 0.782855 0.677112
0.654823 0.779626 0.671627
0.800938 0.776396 0.666143
0.947053 0.773167 0.660658
1.000000 0.770895 0.656130
0.015635 0.936858 0.687208
0.070864 0.934585 0.682681
0.216979 0.931356 0.677196
0.363094 0.928127 0.671711
0.509209 0.924898 0.666227
0.655324 0.921669 0.660742
0.801439 0.918439 0.655258
0.947554 0.915210 0.649773
1.000000 0.912938 0.645245
0.022593 1.000000 0.678672
0.073713 1.000000 0.674144
0.219828 1.000000 0.668659
0.365943 1.000000 0.663175
0.512058 1.000000 0.657690
0.658173 1.000000 0.652206
0.804288 1.000000 0.646721
0.950403 1.000000 0.641236
1.000000 1.000000 0.636709
0.000000 0.036920 0.835351
0.093305 0.033388 0.837787
0.235876 0.029856 0.839268
0.378447 0.026324 0.840748
0.521018 0.022792 0.842228
0.663588 0.019261 0.843708
0.806159 0.015729 0.845188
0.948730 0.012197 0.846668
1.000000 0.008665 0.849105
0.000000 0.113355 0.840487
0.089196 0.107551 0.842924
0.231767 0.100789 0.844404
0.374338 0.094028 0.845884
0.516909 0.087267 0.847364
0.659479 0.080506 0.848844
0.802050 0.073745 0.850324
0.944668 0.066984 0.851774
1.000000 0.061179 0.851955
0.000000 0.248464 0.843275
0.082739 0.242660 0.845712
0.225310 0.235898 0.847192
0.367881 0.229137 0.848672
0.510452 0.222376 0.850152
0.653022 0.215615 0.851632
0.799054 0.208854 0.850910
0.945169 0.203764 0.847906
1.000000 0.201492 0.843378
0.000000 0.383573 0.846063
0.076282 0.377769 0.848500
0.218853 0.371008 0.849980
0.361424 0.364246 0.851460
0.507325 0.357485 0.850821
0.653440 0.352265 0.847990
0.799555 0.349036 0.842506
0.945670 0.345807 0.837021
1.000000 0.343535 0.832493
0.000000 0.518682 0.848852
0.069825 0.512878 0.851288
0.215596 0.506117 0.850732
0.361711 0.500767 0.848075
0.507826 0.497538 0.842590
0.653941 0.494308 0.837106
0.800056 0.491079 0.831621
0.946171 0.487850 0.826136
1.000000 0.485578 0.821609
0.003070 0.653791 0.849686
0.069982 0.649268 0.848159
0.216097 0.646039 0.842675
0.362212 0.642810 0.837190
0.508327 0.639581 0.831705
0.654442 0.636351 0.826221
0.800557 0.633122 0.820736
0.946672 0.629893 0.815252
1.000000 0.627621 0.810724
0.010028 0.793584 0.841802
0.070483 0.791311 0.837274
0.216598 0.788082 0.831790
0.362713 0.784853 0.826305
0.508828 0.781624 0.820821
0.654943 0.778394 0.815336
0.801058 0.775165 0.809851
0.947173 0.771936 0.804367
1.000000 0.769664 0.799839
0.016986 0.935627 0.830917
0.070984 0.933354 0.826390
0.217099 0.930125 0.820905
0.363214 0.926896 0.815420
0.509329 0.923667 0.809936
0.655444 0.920437 0.804451
0.801559 0.917208 0.798967
0.947674 0.913979 0.793482
1.000000 0.911707 0.788954
0.023944 1.000000 0.822381
0.073833 1.000000 0.817853
0.219948 1.000000 0.812368
0.366063 1.000000 0.806884
0.512178 1.000000 0.801399
0.658293 1.000000 0.795914
0.804408 1.000000 0.790430
0.950523 1.000000 0.784945
1.000000 1.000000 0.780417
0.000000 0.035574 0.981715
0.092074 0.032042 0.984152
0.234645 0.028510 0.985632
0.377216 0.024978 0.987112
0.519786 0.021446 0.988592
0.662357 0.017914 0.990072
0.804928 0.014382 0.991552
0.947499 0.010850 0.993032
1.000000 0.007318 0.995469
0.000000 0.110777 0.986851
0.087965 0.104973 0.989288
0.230536 0.098212 0.990768
0.373107 0.091450 0.992248
0.515677 0.084689 0.993728
0.658248 0.077928 0.995208
0.800819 0.071167 0.996688
0.944789 0.064406 0.997278
1.000000 0.058602 0.997460
0.000000 0.245886 0.989639
0.081508 0.240082 0.992076
0.224079 0.233321 0.993556
0.366650 0.226560 0.995036
0.509220 0.219798 0.996516
0.653060 0.213037 0.997189
0.799175 0.206276 0.996414
0.945289 0.202533 0.991615
1.000000 0.200260 0.987087
0.000000 0.380995 0.992428
0.075051 0.375191 0.994865
0.217622 0.368430 0.996345
0.361331 0.361669 0.997100
0.507446 0.354907 0.996325
0.653560 0.351034 0.991699
0.799675 0.347805 0.986215
0.945790 0.344576 0.980730
1.000000 0.342303 0.976202
0.000000 0.516104 0.995216
0.069602 0.510300 0.997012
0.215717 0.503539 0.996236
0.361832 0.499536 0.991784
0.507946 0.496306 0.986299
0.654061 0.493077 0.980814
0.800176 0.489848 0.975330
0.946291 0.486619 0.969845
1.000000 0.484346 0.965318
0.004421 0.651213 0.995191
0.070103 0.648037 0.991868
0.216217 0.644808 0.986383
0.362332 0.641579 0.980899
0.508447 0.638349 0.975414
0.654562 0.635120 0.969930
0.800677 0.631891 0.964445
0.946792 0.628662 0.958961
1.000000 0.626389 0.954433
0.011379 0.792352 0.985511
0.070603 0.790080 0.980983
0.216718 0.786851 0.975499
0.362833 0.783622 0.970014
0.508948 0.780392 0.964529
0.655063 0.777163 0.959045
0.801178 0.773934 0.953560
0.947293 0.770705 0.948076
1.000000 0.768432 0.943548
0.018337 0.934395 0.974626
0.071104 0.932123 0.970098
0.217219 0.928894 0.964614
0.363334 0.925665 0.959129
0.509449 0.922435 0.953645
0.655564 0.919206 0.948160
0.801679 0.915977 0.942675
0.947794 0.912748 0.937191
1.000000 0.910475 0.932663
0.025295 1.000000 0.966089
0.073953 1.000000 0.961562
0.220068 1.000000 0.956077
0.366183 1.000000 0.950592
0.512298 1.000000 0.945108
0.658413 1.000000 0.939623
0.804528 1.000000 0.934139
0.950643 1.000000 0.928654
1.000000 1.000000 0.924126
0.000000 0.034227 1.000000
0.091208 0.030695 1.000000
0.233778 0.027163 1.000000
0.376349 0.023631 1.000000
0.518920 0.020099 1.000000
0.661491 0.016567 1.000000
0.804062 0.013035 1.000000
0.946632 0.009503 1.000000
1.000000 0.005972 1.000000
0.000000 0.108564 1.000000
0.087099 0.102760 1.000000
0.229669 0.095999 1.000000
0.372240 0.089237 1.000000
0.514811 0.082476 1.000000
0.657382 0.075715 1.000000
0.799953 0.068954 1.000000
0.945273 0.062193 1.000000
1.000000 0.057351 1.000000
0.000000 0.243673 1.000000
0.080642 0.237869 1.000000
0.223212 0.231108 1.000000
0.365783 0.224347 1.000000
0.508354 0.217585 1.000000
0.653544 0.210824 1.000000
0.799659 0.204896 1.000000
0.945774 0.201666 1.000000
1.000000 0.199394 1.000000
0.000000 0.378782 1.000000
0.074185 0.372978 1.000000
0.216755 0.366217 1.000000
0.361815 0.359456 1.000000
0.507930 0.353397 1.000000
0.654045 0.350168 1.000000
0.800160 0.346939 1.000000
0.946275 0.343709 1.000000
1.000000 0.341437 1.000000
0.000000 0.513891 1.000000
0.070086 0.508087 1.000000
0.216201 0.501898 1.000000
0.362316 0.498669 1.000000
0.508431 0.495440 1.000000
0.654546 0.492211 1.000000
0.800661 0.488982 1.000000
0.946776 0.485752 1.000000
1.000000 0.483480 1.000000
0.005773 0.649443 1.000000
0.070587 0.647171 1.000000
0.216702 0.643941 1.000000
0.362817 0.640712 1.000000
0.508932 0.637483 1.000000
0.655047 0.634254 1.000000
0.801162 0.631025 1.000000
0.947277 0.627795 1.000000
1.000000 0.625523 1.000000
0.012731 0.791486 1.000000
0.071088 0.789214 1.000000
0.217203 0.785984 1.000000
0.363318 0.782755 1.000000
0.509433 0.779526 1.000000
0.655548 0.776297 1.000000
0.801663 0.773068 1.000000
0.947778 0.769838 1.000000
1.000000 0.767566 1.000000
0.019689 0.933529 1.000000
0.071589 0.931257 1.000000
0.217704 0.928027 1.000000
0.363819 0.924798 1.000000
0.509934 0.921569 1.000000
0.656049 0.918340 1.000000
0.802164 0.915111 1.000000
0.948279 0.911881 1.000000
1.000000 0.909609 1.000000
0.026647 1.000000 1.000000
0.074438 1.000000 1.000000
0.220553 1.000000 1.000000
0.366668 1.000000 1.000000
0.512783 1.000000 1.000000
0.658898 1.000000 1.000000
0.805013 1.000000 1.000000
0.951128 1.000000 1.000000
1.000000 1.000000 1.000000
