docs/luts/fresh-teal-rec709.cube
TITLE "FreshLUTs??-??Rec709"
LUT_3D_SIZE 9
DOMAIN_MIN 0.0 0.0 0.0
DOMAIN_MAX 1.0 1.0 1.0
0.000000 0.018000 0.075000
0.077290 0.016587 0.069113
0.221823 0.015174 0.063227
0.366356 0.013762 0.057340
0.510889 0.012349 0.051454
0.655422 0.010936 0.045567
0.799955 0.009523 0.039681
0.944488 0.008111 0.033794
0.990698 0.006698 0.027907
0.000000 0.121113 0.063443
0.076329 0.117428 0.057557
0.220862 0.112786 0.051670
0.365395 0.108144 0.045784
0.509928 0.103502 0.039897
0.654461 0.098860 0.034011
0.798994 0.094218 0.028124
0.943527 0.089576 0.022238
0.994550 0.085891 0.016351
0.000000 0.255217 0.051887
0.073959 0.251532 0.046000
0.218492 0.246890 0.040114
0.363025 0.242248 0.034227
0.507558 0.237606 0.028341
0.652091 0.232964 0.022454
0.796624 0.228322 0.016567
0.941156 0.223680 0.010681
1.000000 0.219995 0.003240
0.000000 0.389321 0.040330
0.071589 0.385636 0.034444
0.216122 0.380994 0.028557
0.360655 0.376352 0.022671
0.505188 0.371710 0.016784
0.649721 0.367068 0.010897
0.796985 0.362426 0.003540
0.945415 0.357995 0.000000
1.000000 0.355722 0.000000
0.000000 0.523426 0.028774
0.069219 0.519741 0.022887
0.213752 0.515099 0.017001
0.358285 0.510457 0.011114
0.505395 0.505815 0.003840
0.653897 0.501331 0.000000
0.800656 0.498102 0.000000
0.947416 0.494872 0.000000
1.000000 0.492600 0.000000
0.000000 0.657530 0.017217
0.066849 0.653845 0.011331
0.213805 0.649203 0.004139
0.362379 0.644667 0.000000
0.509138 0.641438 0.000000
0.655898 0.638209 0.000000
0.802657 0.634979 0.000000
0.949417 0.631750 0.000000
1.000000 0.629478 0.000000
0.000383 0.791634 0.004439
0.070861 0.788003 0.000000
0.217621 0.784774 0.000000
0.364380 0.781545 0.000000
0.511139 0.778316 0.000000
0.657899 0.775086 0.000000
0.804658 0.771857 0.000000
0.951417 0.768628 0.000000
1.000000 0.766356 0.000000
0.010492 0.927153 0.000000
0.072862 0.924881 0.000000
0.219621 0.921652 0.000000
0.366381 0.918423 0.000000
0.513140 0.915193 0.000000
0.659900 0.911964 0.000000
0.806659 0.908735 0.000000
0.953418 0.905506 0.000000
1.000000 0.903233 0.000000
0.018716 1.000000 0.000000
0.076272 1.000000 0.000000
0.223031 1.000000 0.000000
0.369790 1.000000 0.000000
0.516550 1.000000 0.000000
0.663309 1.000000 0.000000
0.810069 1.000000 0.000000
0.956828 1.000000 0.000000
1.000000 1.000000 0.000000
0.000000 0.017461 0.174489
0.077172 0.016049 0.166330
0.221704 0.014636 0.157214
0.366237 0.013223 0.148099
0.510770 0.011810 0.138983
0.655303 0.010397 0.129867
0.799836 0.008985 0.120751
0.944369 0.007572 0.111636
0.991446 0.006159 0.103477
0.000000 0.119708 0.158119
0.076210 0.116023 0.149960
0.220743 0.111381 0.140845
0.365276 0.106739 0.131729
0.509809 0.102097 0.122613
0.654342 0.097455 0.113497
0.798875 0.092813 0.104381
0.943408 0.088171 0.095266
0.995298 0.084486 0.087107
0.000000 0.253812 0.140340
0.073840 0.250127 0.132182
0.218373 0.245485 0.123066
0.362906 0.240843 0.113950
0.507439 0.236201 0.104834
0.651972 0.231559 0.095718
0.796505 0.226917 0.086603
0.941332 0.222275 0.077329
1.000000 0.218590 0.066914
0.000000 0.387916 0.122562
0.071470 0.384231 0.114403
0.216003 0.379589 0.105287
0.360536 0.374947 0.096171
0.505069 0.370305 0.087055
0.649742 0.365663 0.077864
0.798464 0.361021 0.066493
0.946145 0.357128 0.058242
1.000000 0.354856 0.053714
0.000000 0.522021 0.104783
0.069100 0.518335 0.096624
0.213633 0.513694 0.087508
0.358166 0.509052 0.078392
0.506874 0.504410 0.067029
0.654628 0.500464 0.058561
0.801387 0.497235 0.053077
0.948146 0.494006 0.047592
1.000000 0.491734 0.043064
0.000000 0.656125 0.087004
0.066730 0.652440 0.078845
0.215284 0.647798 0.067565
0.363110 0.643801 0.058880
0.509869 0.640571 0.053396
0.656628 0.637342 0.047911
0.803388 0.634113 0.042427
0.950147 0.630884 0.036942
1.000000 0.628611 0.032414
0.002728 0.790229 0.067144
0.071592 0.787137 0.059200
0.218351 0.783908 0.053715
0.365111 0.780678 0.048230
0.511870 0.777449 0.042746
0.658629 0.774220 0.037261
0.805389 0.770991 0.031777
0.952148 0.767762 0.026292
1.000000 0.765489 0.021764
0.012089 0.926287 0.053077
0.073593 0.924015 0.048550
0.220352 0.920785 0.043065
0.367111 0.917556 0.037580
0.513871 0.914327 0.032096
0.660630 0.911098 0.026611
0.807390 0.907869 0.021127
0.954149 0.904639 0.015642
1.000000 0.902367 0.011114
0.020312 1.000000 0.043836
0.077002 1.000000 0.039308
0.223762 1.000000 0.033824
0.370521 1.000000 0.028339
0.517280 1.000000 0.022855
0.664040 1.000000 0.017370
0.810799 1.000000 0.011885
0.957559 1.000000 0.006401
1.000000 1.000000 0.001873
0.000000 0.016923 0.316814
0.076688 0.015510 0.308655
0.221221 0.014097 0.299539
0.365754 0.012684 0.290423
0.510287 0.011272 0.281307
0.654820 0.009859 0.272192
0.799353 0.008446 0.263076
0.943886 0.007033 0.253960
0.992194 0.005620 0.245801
0.000000 0.117938 0.300444
0.075727 0.114253 0.292285
0.220260 0.109611 0.283169
0.364793 0.104969 0.274053
0.509326 0.100327 0.264937
0.653859 0.095685 0.255822
0.798392 0.091043 0.246706
0.942925 0.086401 0.237590
0.996046 0.082716 0.229431
0.000000 0.252042 0.282665
0.073357 0.248357 0.274506
0.217890 0.243715 0.265390
0.362423 0.239073 0.256274
0.506956 0.234431 0.247159
0.651489 0.229789 0.238043
0.796022 0.225147 0.228927
0.942446 0.220505 0.218793
1.000000 0.216820 0.208379
0.000000 0.386147 0.264886
0.070987 0.382461 0.256727
0.215520 0.377819 0.247611
0.360053 0.373177 0.238496
0.504586 0.368535 0.229380
0.650856 0.363893 0.219329
0.799578 0.359252 0.207958
0.946511 0.355897 0.201951
1.000000 0.353625 0.197423
0.000000 0.520251 0.247107
0.068617 0.516566 0.238948
0.213150 0.511924 0.229833
0.359266 0.507282 0.219865
0.507988 0.502640 0.208493
0.654993 0.499233 0.202270
0.801753 0.496004 0.196785
0.948512 0.492775 0.191301
1.000000 0.490502 0.186773
0.000000 0.654355 0.229329
0.067676 0.650670 0.220400
0.216398 0.646028 0.209029
0.363475 0.642569 0.202589
0.510235 0.639340 0.197105
0.656994 0.636111 0.191620
0.803754 0.632882 0.186135
0.950513 0.629653 0.180651
1.000000 0.627380 0.176123
0.005073 0.788459 0.208608
0.071958 0.785906 0.202908
0.218717 0.782676 0.197424
0.365476 0.779447 0.191939
0.512236 0.776218 0.186455
0.658995 0.772989 0.180970
0.805754 0.769760 0.175485
0.952514 0.766530 0.170001
1.000000 0.764258 0.165473
0.013686 0.925056 0.196786
0.073958 0.922783 0.192258
0.220718 0.919554 0.186774
0.367477 0.916325 0.181289
0.514237 0.913096 0.175805
0.660996 0.909867 0.170320
0.807755 0.906637 0.164835
0.954515 0.903408 0.159351
1.000000 0.901136 0.154823
0.021909 1.000000 0.187545
0.077368 1.000000 0.183017
0.224127 1.000000 0.177533
0.370887 1.000000 0.172048
0.517646 1.000000 0.166563
0.664406 1.000000 0.161079
0.811165 1.000000 0.155594
0.957924 1.000000 0.150110
1.000000 1.000000 0.145582
0.000000 0.016384 0.459138
0.076205 0.014971 0.450979
0.220738 0.013558 0.441863
0.365271 0.012146 0.432748
0.509804 0.010733 0.423632
0.654337 0.009320 0.414516
0.798870 0.007907 0.405400
0.943403 0.006495 0.396285
0.992942 0.005082 0.388126
0.000000 0.116168 0.442768
0.075244 0.112483 0.434609
0.219777 0.107841 0.425493
0.364310 0.103199 0.416378
0.508843 0.098557 0.407262
0.653376 0.093915 0.398146
0.797909 0.089273 0.389030
0.942442 0.084631 0.379915
0.996794 0.080946 0.371756
0.000000 0.250273 0.424989
0.072874 0.246587 0.416830
0.217407 0.241945 0.407715
0.361940 0.237303 0.398599
0.506473 0.232661 0.389483
0.651006 0.228019 0.380367
0.795539 0.223377 0.371252
0.943560 0.218735 0.360258
1.000000 0.215516 0.351782
0.000000 0.384377 0.407211
0.070504 0.380692 0.399052
0.215037 0.376050 0.389936
0.359570 0.371408 0.380820
0.504103 0.366766 0.371704
0.651970 0.362124 0.360793
0.800118 0.357895 0.351144
0.946877 0.354666 0.345660
1.000000 0.352393 0.341132
0.000000 0.518481 0.389432
0.068134 0.514796 0.381273
0.212667 0.510154 0.372157
0.360380 0.505512 0.361329
0.508600 0.501231 0.351464
0.655359 0.498002 0.345979
0.802118 0.494773 0.340494
0.948878 0.491544 0.335010
1.000000 0.489271 0.330482
0.000000 0.652585 0.371653
0.068790 0.648900 0.361865
0.217082 0.644567 0.351783
0.363841 0.641338 0.346298
0.510601 0.638109 0.340814
0.657360 0.634880 0.335329
0.804119 0.631651 0.329844
0.950879 0.628421 0.324360
1.000000 0.626149 0.319832
0.007060 0.786947 0.351145
0.072323 0.784674 0.346617
0.219083 0.781445 0.341133
0.365842 0.778216 0.335648
0.512601 0.774987 0.330164
0.659361 0.771758 0.324679
0.806120 0.768528 0.319194
0.952880 0.765299 0.313710
1.000000 0.763027 0.309182
0.015283 0.923825 0.340495
0.074324 0.921552 0.335967
0.221084 0.918323 0.330483
0.367843 0.915094 0.324998
0.514602 0.911865 0.319514
0.661362 0.908635 0.314029
0.808121 0.905406 0.308544
0.954880 0.902177 0.303060
1.000000 0.899905 0.298532
0.023506 1.000000 0.331254
0.077734 1.000000 0.326726
0.224493 1.000000 0.321241
0.371253 1.000000 0.315757
0.518012 1.000000 0.310272
0.664771 1.000000 0.304788
0.811531 1.000000 0.299303
0.958290 1.000000 0.293819
1.000000 1.000000 0.289291
0.000000 0.015845 0.601463
0.075722 0.014433 0.593304
0.220255 0.013020 0.584188
0.364788 0.011607 0.575072
0.509321 0.010194 0.565956
0.653854 0.008782 0.556840
0.798387 0.007369 0.547725
0.942920 0.005956 0.538609
0.993690 0.004543 0.530450
0.000000 0.114398 0.585093
0.074761 0.110713 0.576934
0.219294 0.106071 0.567818
0.363827 0.101429 0.558702
0.508360 0.096787 0.549586
0.652893 0.092145 0.540471
0.797426 0.087503 0.531355
0.941959 0.082861 0.522239
0.998593 0.079176 0.513514
0.000000 0.248503 0.567314
0.072391 0.244817 0.559155
0.216924 0.240175 0.550039
0.361457 0.235534 0.540923
0.505990 0.230892 0.531808
0.650523 0.226250 0.522692
0.795953 0.221608 0.513093
0.944674 0.216966 0.501722
1.000000 0.214284 0.495491
0.000000 0.382607 0.549535
0.070021 0.378922 0.541376
0.214554 0.374280 0.532260
0.359087 0.369638 0.523145
0.504362 0.364996 0.513629
0.653084 0.360354 0.502258
0.800483 0.356664 0.494853
0.947243 0.353435 0.489369
1.000000 0.351162 0.484841
0.000000 0.516711 0.531756
0.067651 0.513026 0.523597
0.212772 0.508384 0.514165
0.361494 0.503742 0.502794
0.508966 0.500000 0.495172
0.655725 0.496771 0.489688
0.802484 0.493542 0.484203
0.949244 0.490312 0.478719
1.000000 0.488040 0.474191
0.000000 0.650815 0.513744
0.069904 0.647130 0.503329
0.217448 0.643336 0.495492
0.364207 0.640107 0.490007
0.510966 0.636878 0.484522
0.657726 0.633649 0.479038
0.804485 0.630419 0.473553
0.951245 0.627190 0.468069
1.000000 0.624918 0.463541
0.008657 0.785716 0.494854
0.072689 0.783443 0.490326
0.219448 0.780214 0.484842
0.366208 0.776985 0.479357
0.512967 0.773756 0.473872
0.659727 0.770526 0.468388
0.806486 0.767297 0.462903
0.953245 0.764068 0.457419
1.000000 0.761796 0.452891
0.016880 0.922593 0.484204
0.074690 0.920321 0.479676
0.221449 0.917092 0.474192
0.368209 0.913863 0.468707
0.514968 0.910633 0.463222
0.661727 0.907404 0.457738
0.808487 0.904175 0.452253
0.955246 0.900946 0.446769
1.000000 0.898673 0.442241
0.025103 1.000000 0.474963
0.078100 1.000000 0.470435
0.224859 1.000000 0.464950
0.371618 1.000000 0.459466
0.518378 1.000000 0.453981
0.665137 1.000000 0.448497
0.811897 1.000000 0.443012
0.958656 1.000000 0.437527
1.000000 1.000000 0.433000
0.000000 0.015307 0.743787
0.075239 0.013894 0.735628
0.219772 0.012481 0.726512
0.364305 0.011068 0.717396
0.508838 0.009656 0.708281
0.653371 0.008243 0.699165
0.797904 0.006830 0.690049
0.942437 0.005417 0.680933
0.994438 0.004005 0.672774
0.000000 0.112629 0.727417
0.074278 0.108943 0.719258
0.218811 0.104301 0.710142
0.363344 0.099659 0.701026
0.507877 0.095017 0.691911
0.652410 0.090375 0.682795
0.796943 0.085734 0.673679
0.941476 0.081092 0.664563
1.000000 0.077406 0.654979
0.000000 0.246733 0.709638
0.071908 0.243048 0.701479
0.216441 0.238406 0.692363
0.360974 0.233764 0.683248
0.505507 0.229122 0.674132
0.650040 0.224480 0.665016
0.797066 0.219838 0.654558
0.945608 0.215326 0.643728
1.000000 0.213053 0.639200
0.000000 0.380837 0.691859
0.069538 0.377152 0.683700
0.214071 0.372510 0.674585
0.358604 0.367868 0.665469
0.505476 0.363226 0.655093
0.654090 0.358662 0.644047
0.800849 0.355433 0.638562
0.947609 0.352203 0.633078
1.000000 0.349931 0.628550
0.000000 0.514941 0.674081
0.067168 0.511256 0.665922
0.213886 0.506614 0.655629
0.362572 0.501998 0.644366
0.509331 0.498769 0.638881
0.656091 0.495540 0.633397
0.802850 0.492310 0.627912
0.949609 0.489081 0.622428
1.000000 0.486809 0.617900
0.000033 0.649045 0.655208
0.071018 0.645360 0.644794
0.217813 0.642105 0.639200
0.364573 0.638876 0.633716
0.511332 0.635647 0.628231
0.658092 0.632417 0.622747
0.804851 0.629188 0.617262
0.951610 0.625959 0.611778
1.000000 0.623687 0.607250
0.010254 0.784484 0.638563
0.073055 0.782212 0.634035
0.219814 0.778983 0.628550
0.366574 0.775754 0.623066
0.513333 0.772524 0.617581
0.660092 0.769295 0.612097
0.806852 0.766066 0.606612
0.953611 0.762837 0.601128
1.000000 0.760564 0.596600
0.018477 0.921362 0.627913
0.075056 0.919090 0.623385
0.221815 0.915861 0.617900
0.368575 0.912631 0.612416
0.515334 0.909402 0.606931
0.662093 0.906173 0.601447
0.808853 0.902944 0.595962
0.955612 0.899715 0.590478
1.000000 0.897442 0.585950
0.026700 1.000000 0.618672
0.078465 1.000000 0.614144
0.225225 1.000000 0.608659
0.371984 1.000000 0.603175
0.518744 1.000000 0.597690
0.665503 1.000000 0.592206
0.812262 1.000000 0.586721
0.959022 1.000000 0.581236
1.000000 1.000000 0.576709
0.000000 0.014768 0.886111
0.074756 0.013355 0.877952
0.219289 0.011943 0.868837
0.363822 0.010530 0.859721
0.508355 0.009117 0.850605
0.652888 0.007704 0.841489
0.797421 0.006291 0.832374
0.941954 0.004879 0.823258
0.995186 0.003466 0.815099
0.000000 0.110859 0.869741
0.073795 0.107174 0.861582
0.218328 0.102532 0.852467
0.362861 0.097890 0.843351
0.507394 0.093248 0.834235
0.651927 0.088606 0.825119
0.796460 0.083964 0.816004
0.941049 0.079322 0.806858
1.000000 0.075637 0.796443
0.000000 0.244963 0.851963
0.071425 0.241278 0.843804
0.215958 0.236636 0.834688
0.360491 0.231994 0.825572
0.505024 0.227352 0.816456
0.649557 0.222710 0.807341
0.798180 0.218068 0.796022
0.945973 0.214094 0.787436
1.000000 0.211822 0.782909
0.000000 0.379067 0.834184
0.069055 0.375382 0.826025
0.213588 0.370740 0.816909
0.358121 0.366098 0.807793
0.506590 0.361456 0.796558
0.654456 0.357431 0.787756
0.801215 0.354201 0.782271
0.947974 0.350972 0.776786
1.000000 0.348700 0.772259
0.000000 0.513171 0.816405
0.066685 0.509486 0.808246
0.215000 0.504844 0.797094
0.362938 0.500767 0.788075
0.509697 0.497538 0.782590
0.656456 0.494308 0.777106
0.803216 0.491079 0.771621
0.949975 0.487850 0.766136
1.000000 0.485578 0.761609
0.002378 0.647276 0.796673
0.071420 0.644103 0.788394
0.218179 0.640874 0.782909
0.364939 0.637645 0.777425
0.511698 0.634415 0.771940
0.658457 0.631186 0.766456
0.805217 0.627957 0.760971
0.951976 0.624728 0.755486
1.000000 0.622455 0.750959
0.011851 0.783253 0.782272
0.073421 0.780981 0.777744
0.220180 0.777752 0.772259
0.366939 0.774522 0.766775
0.513699 0.771293 0.761290
0.660458 0.768064 0.755806
0.807218 0.764835 0.750321
0.953977 0.761606 0.744836
1.000000 0.759333 0.740309
0.020074 0.920131 0.771622
0.075422 0.917859 0.767094
0.222181 0.914629 0.761609
0.368940 0.911400 0.756125
0.515700 0.908171 0.750640
0.662459 0.904942 0.745156
0.809218 0.901713 0.739671
0.955978 0.898483 0.734186
1.000000 0.896211 0.729659
0.028297 1.000000 0.762381
0.078831 1.000000 0.757853
0.225591 1.000000 0.752368
0.372350 1.000000 0.746884
0.519109 1.000000 0.741399
0.665869 1.000000 0.735914
0.812628 1.000000 0.730430
0.959387 1.000000 0.724945
1.000000 1.000000 0.720417
0.000000 0.014229 1.000000
0.074273 0.012817 1.000000
0.218806 0.011404 1.000000
0.363339 0.009991 1.000000
0.507872 0.008578 0.992930
0.652405 0.007166 0.983814
0.796938 0.005753 0.974698
0.941471 0.004340 0.965582
0.995934 0.002927 0.957423
0.000000 0.109089 1.000000
0.073312 0.105404 1.000000
0.217845 0.100762 0.994791
0.362378 0.096120 0.985675
0.506911 0.091478 0.976560
0.651444 0.086836 0.967444
0.795977 0.082194 0.958328
0.942163 0.077552 0.948322
1.000000 0.073867 0.937908
0.000000 0.243193 0.994287
0.070942 0.239508 0.986128
0.215475 0.234866 0.977012
0.360008 0.230224 0.967897
0.504541 0.225582 0.958781
0.650573 0.220940 0.948858
0.799294 0.216298 0.937487
0.946339 0.212863 0.931145
1.000000 0.210591 0.926618
0.000000 0.377297 0.976508
0.068572 0.373612 0.968349
0.213105 0.368970 0.959234
0.358983 0.364328 0.949394
0.507704 0.359686 0.938023
0.654821 0.356199 0.931464
0.801581 0.352970 0.925980
0.948340 0.349741 0.920495
1.000000 0.347469 0.915968
0.000000 0.511402 0.958730
0.067393 0.507716 0.949929
0.216114 0.503074 0.938558
0.363303 0.499536 0.931784
0.510063 0.496306 0.926299
0.656822 0.493077 0.920814
0.803582 0.489848 0.915330
0.950341 0.486619 0.909845
1.000000 0.484346 0.905318
0.004723 0.645506 0.938137
0.071786 0.642872 0.932103
0.218545 0.639643 0.926618
0.365304 0.636413 0.921134
0.512064 0.633184 0.915649
0.658823 0.629955 0.910164
0.805582 0.626726 0.904680
0.952342 0.623497 0.899195
1.000000 0.621224 0.894668
0.013448 0.782022 0.925981
0.073786 0.779750 0.921453
0.220546 0.776520 0.915968
0.367305 0.773291 0.910484
0.514065 0.770062 0.904999
0.660824 0.766833 0.899514
0.807583 0.763604 0.894030
0.954343 0.760374 0.888545
1.000000 0.758102 0.884018
0.021671 0.918900 0.915331
0.075787 0.916627 0.910803
0.222547 0.913398 0.905318
0.369306 0.910169 0.899834
0.516065 0.906940 0.894349
0.662825 0.903711 0.888864
0.809584 0.900481 0.883380
0.956344 0.897252 0.877895
1.000000 0.894980 0.873368
0.029894 1.000000 0.906089
0.079197 1.000000 0.901562
0.225956 1.000000 0.896077
0.372716 1.000000 0.890592
0.519475 1.000000 0.885108
0.666234 1.000000 0.879623
0.812994 1.000000 0.874139
0.959753 1.000000 0.868654
1.000000 1.000000 0.864126
0.000000 0.013691 1.000000
0.074155 0.012278 1.000000
0.218688 0.010865 1.000000
0.363221 0.009452 1.000000
0.507754 0.008040 1.000000
0.652287 0.006627 1.000000
0.796820 0.005214 1.000000
0.941353 0.003801 1.000000
0.996683 0.002389 1.000000
0.000000 0.107684 1.000000
0.073194 0.103999 1.000000
0.217727 0.099357 1.000000
0.362260 0.094715 1.000000
0.506793 0.090073 1.000000
0.651326 0.085431 1.000000
0.795859 0.080789 1.000000
0.943642 0.076147 1.000000
1.000000 0.072847 0.995995
0.000000 0.241788 1.000000
0.070824 0.238103 1.000000
0.215357 0.233461 1.000000
0.359890 0.228819 1.000000
0.504423 0.224177 1.000000
0.652051 0.219535 1.000000
0.800310 0.215226 0.996078
0.947070 0.211997 0.993822
1.000000 0.209724 0.991567
0.000000 0.375892 1.000000
0.068454 0.372207 1.000000
0.212987 0.367565 1.000000
0.360461 0.362923 1.000000
0.508793 0.358562 0.996161
0.655552 0.355333 0.993905
0.802311 0.352104 0.991650
0.949071 0.348875 0.989394
1.000000 0.346602 0.987139
0.000000 0.509996 1.000000
0.068871 0.506311 1.000000
0.217275 0.501898 0.996244
0.364034 0.498669 0.993988
0.510793 0.495440 0.991733
0.657553 0.492211 0.989477
0.804312 0.488982 0.987222
0.951072 0.485752 0.984967
1.000000 0.483480 0.982711
0.006822 0.644278 0.996327
0.072516 0.642005 0.994071
0.219276 0.638776 0.991816
0.366035 0.635547 0.989560
0.512794 0.632318 0.987305
0.659554 0.629089 0.985050
0.806313 0.625859 0.982794
0.953072 0.622630 0.980539
1.000000 0.620358 0.978283
0.015045 0.781156 0.991899
0.074517 0.778883 0.989643
0.221276 0.775654 0.987388
0.368036 0.772425 0.985133
0.514795 0.769196 0.982877
0.661555 0.765966 0.980622
0.808314 0.762737 0.978366
0.955073 0.759508 0.976111
1.000000 0.757236 0.973856
0.023268 0.918033 0.987471
0.076518 0.915761 0.985216
0.223277 0.912532 0.982960
0.370037 0.909303 0.980705
0.516796 0.906073 0.978449
0.663555 0.902844 0.976194
0.810315 0.899615 0.973939
0.957074 0.896386 0.971683
1.000000 0.894113 0.969428
0.031491 1.000000 0.983043
0.079928 1.000000 0.980788
0.226687 1.000000 0.978532
0.373446 1.000000 0.976277
0.520206 1.000000 0.974022
0.666965 1.000000 0.971766
0.813724 1.000000 0.969511
0.960484 1.000000 0.967255
1.000000 1.000000 0.965000
