docs/luts/fresh-thriller.cube
TITLE "FreshLUTs??-??"
LUT_3D_SIZE 5
DOMAIN_MIN 0.0 0.0 0.0
DOMAIN_MAX 1.0 1.0 1.0
0.000000 0.015000 0.070000
0.137287 0.028791 0.075158
0.385133 0.055141 0.092874
0.632978 0.081490 0.110589
0.770265 0.095282 0.115747
0.026562 0.189978 0.084528
0.163849 0.203769 0.089686
0.411694 0.230119 0.107402
0.659540 0.256468 0.125118
0.796827 0.270259 0.130275
0.068973 0.443805 0.114906
0.206260 0.457596 0.120063
0.454105 0.483945 0.137779
0.701950 0.511604 0.161604
0.839238 0.527750 0.177750
0.111383 0.697632 0.145283
0.248670 0.712645 0.156145
0.496516 0.741349 0.184849
0.744361 0.770053 0.213554
0.881648 0.786199 0.229700
0.137945 0.876100 0.176100
0.275232 0.892246 0.192246
0.523077 0.920950 0.220950
0.770923 0.949654 0.249654
0.908210 0.965800 0.265800
0.005330 0.021284 0.219992
0.142617 0.035076 0.225150
0.390462 0.061425 0.242866
0.638307 0.087774 0.260582
0.775594 0.101566 0.265740
0.031891 0.196262 0.234521
0.169179 0.210054 0.239679
0.417024 0.236403 0.257394
0.664869 0.262752 0.275110
0.802156 0.276544 0.280268
0.074302 0.450089 0.264898
0.211589 0.463880 0.270056
0.459435 0.490230 0.287772
0.707280 0.518786 0.315786
0.844567 0.534932 0.331932
0.116713 0.703916 0.295275
0.254000 0.719827 0.310327
0.501845 0.748531 0.339031
0.749691 0.777235 0.367735
0.886978 0.793381 0.383881
0.143274 0.883282 0.330282
0.280562 0.899428 0.346428
0.528407 0.928132 0.375132
0.776252 0.956836 0.403836
0.913540 0.972982 0.419982
0.013395 0.030305 0.428721
0.150682 0.044096 0.433879
0.398527 0.070445 0.451594
0.646373 0.096795 0.469310
0.783660 0.110586 0.474468
0.039957 0.205282 0.443249
0.177244 0.219074 0.448407
0.425089 0.245423 0.466123
0.672935 0.271773 0.483839
0.810222 0.286401 0.492901
0.082368 0.459109 0.473627
0.219655 0.472901 0.478784
0.467500 0.500000 0.500000
0.715345 0.528704 0.528704
0.852633 0.544850 0.544850
0.124778 0.713599 0.507100
0.262066 0.729745 0.523246
0.509911 0.758449 0.551949
0.757756 0.787153 0.580654
0.895043 0.803299 0.596800
0.151340 0.893200 0.543200
0.288627 0.909346 0.559346
0.536472 0.938050 0.588050
0.784318 0.966754 0.616754
0.921605 0.982900 0.632900
0.021461 0.039325 0.637449
0.158748 0.053116 0.642607
0.406593 0.079466 0.660323
0.654438 0.105815 0.678039
0.791725 0.119606 0.683196
0.048022 0.214303 0.651978
0.185309 0.228094 0.657135
0.433155 0.254443 0.674851
0.681000 0.280793 0.692567
0.818287 0.296319 0.705819
0.090433 0.468129 0.682355
0.227720 0.481921 0.687513
0.475565 0.509918 0.712918
0.723411 0.538622 0.741622
0.860698 0.554768 0.757768
0.132844 0.723517 0.720017
0.270131 0.739663 0.736163
0.517976 0.768367 0.764868
0.765822 0.797071 0.793571
0.903109 0.813217 0.809717
0.159406 0.903118 0.756118
0.296693 0.919264 0.772264
0.544538 0.947968 0.800968
0.792383 0.976672 0.829672
0.929670 0.992818 0.845818
0.026790 0.045609 0.787442
0.164077 0.059400 0.792600
0.411922 0.085750 0.810315
0.659768 0.112099 0.828031
0.797055 0.125891 0.833189
0.053352 0.220587 0.801970
0.190639 0.234378 0.807128
0.438484 0.260728 0.824844
0.686330 0.287355 0.843854
0.823617 0.303501 0.860000
0.095763 0.474414 0.832347
0.233050 0.488396 0.838396
0.480895 0.517100 0.867100
0.728740 0.545804 0.895804
0.866028 0.561950 0.911950
0.138173 0.730699 0.874200
0.275460 0.746845 0.890346
0.523306 0.775549 0.919049
0.771151 0.804253 0.947753
0.908438 0.820399 0.963899
0.164735 0.910300 0.910300
0.302022 0.926446 0.926446
0.549867 0.955150 0.955150
0.797713 0.983854 0.983854
0.935000 1.000000 1.000000
