docs/luts/fresh-slog3-rec709.cube
TITLE "FreshLUTs??-SLog3Rec709"
LUT_3D_SIZE 9
DOMAIN_MIN 0.0 0.0 0.0
DOMAIN_MAX 1.0 1.0 1.0
0.000000 0.005000 0.018000
0.095000 0.005000 0.016587
0.230000 0.005000 0.015174
0.365000 0.005000 0.013762
0.500000 0.005000 0.012349
0.635000 0.005000 0.010936
0.770000 0.005000 0.009523
0.905000 0.005000 0.008111
1.000000 0.005000 0.006698
0.000000 0.103750 0.015226
0.095000 0.103750 0.013814
0.230000 0.103750 0.012401
0.365000 0.103750 0.010988
0.500000 0.103750 0.009575
0.635000 0.103750 0.008163
0.770000 0.103750 0.006750
0.905000 0.103750 0.005337
1.000000 0.103750 0.003924
0.000000 0.237500 0.012453
0.095000 0.237500 0.011040
0.230000 0.237500 0.009627
0.365000 0.237500 0.008215
0.500000 0.237500 0.006802
0.635000 0.237500 0.005389
0.770000 0.237500 0.003976
0.905000 0.237500 0.002563
1.000000 0.237500 0.001151
0.000000 0.371250 0.009679
0.095000 0.371250 0.008266
0.230000 0.371250 0.006854
0.365000 0.371250 0.005441
0.500000 0.371250 0.004028
0.635000 0.371250 0.002615
0.770504 0.371250 0.001203
0.906278 0.371250 0.000000
1.000000 0.371250 0.000000
0.000000 0.505000 0.006906
0.095000 0.505000 0.005493
0.230000 0.505000 0.004080
0.365000 0.505000 0.002667
0.500476 0.505000 0.001255
0.636249 0.505000 0.000000
0.772022 0.505000 0.000000
0.907796 0.505000 0.000000
1.000000 0.505000 0.000000
0.000000 0.638750 0.004132
0.095000 0.638750 0.002719
0.230447 0.638750 0.001307
0.366221 0.638750 0.000000
0.501994 0.638750 0.000000
0.637767 0.638750 0.000000
0.773541 0.638750 0.000000
0.909314 0.638750 0.000000
1.000000 0.638750 0.000000
0.000419 0.772500 0.001359
0.096192 0.772500 0.000000
0.231966 0.772500 0.000000
0.367739 0.772500 0.000000
0.503512 0.772500 0.000000
0.639285 0.772500 0.000000
0.775059 0.772500 0.000000
0.910832 0.772500 0.000000
1.000000 0.772500 0.000000
0.001937 0.906250 0.000000
0.097710 0.906250 0.000000
0.233484 0.906250 0.000000
0.369257 0.906250 0.000000
0.505030 0.906250 0.000000
0.640803 0.906250 0.000000
0.776577 0.906250 0.000000
0.912350 0.906250 0.000000
1.000000 0.906250 0.000000
0.003455 1.000000 0.000000
0.099228 1.000000 0.000000
0.235002 1.000000 0.000000
0.370775 1.000000 0.000000
0.506548 1.000000 0.000000
0.642322 1.000000 0.000000
0.778095 1.000000 0.000000
0.913868 1.000000 0.000000
1.000000 1.000000 0.000000
0.000000 0.005000 0.112461
0.095000 0.005000 0.111049
0.230000 0.005000 0.109636
0.365000 0.005000 0.108223
0.500000 0.005000 0.106810
0.635000 0.005000 0.105397
0.770000 0.005000 0.103985
0.905000 0.005000 0.102572
1.000000 0.005000 0.101159
0.000000 0.103750 0.109688
0.095000 0.103750 0.108275
0.230000 0.103750 0.106862
0.365000 0.103750 0.105449
0.500000 0.103750 0.104037
0.635000 0.103750 0.102624
0.770000 0.103750 0.101211
0.905000 0.103750 0.099798
1.000000 0.103750 0.098386
0.000000 0.237500 0.106914
0.095000 0.237500 0.105501
0.230000 0.237500 0.104089
0.365000 0.237500 0.102676
0.500000 0.237500 0.101263
0.635000 0.237500 0.099850
0.770000 0.237500 0.098438
0.905054 0.237500 0.097025
1.000000 0.237500 0.095612
0.000000 0.371250 0.104141
0.095000 0.371250 0.102728
0.230000 0.371250 0.101315
0.365000 0.371250 0.099902
0.500000 0.371250 0.098490
0.635026 0.371250 0.097077
0.770799 0.371250 0.095664
0.906572 0.371250 0.095000
1.000000 0.371250 0.095000
0.000000 0.505000 0.101367
0.095000 0.505000 0.099954
0.230000 0.505000 0.098541
0.365000 0.505000 0.097129
0.500771 0.505000 0.095716
0.636544 0.505000 0.095000
0.772317 0.505000 0.095000
0.908091 0.505000 0.095000
1.000000 0.505000 0.095000
0.000000 0.638750 0.098593
0.095000 0.638750 0.097181
0.230742 0.638750 0.095768
0.366516 0.638750 0.095000
0.502289 0.638750 0.095000
0.638062 0.638750 0.095000
0.773835 0.638750 0.095000
0.909609 0.638750 0.095000
1.000000 0.638750 0.095000
0.000714 0.772500 0.095820
0.096487 0.772500 0.095000
0.232260 0.772500 0.095000
0.368034 0.772500 0.095000
0.503807 0.772500 0.095000
0.639580 0.772500 0.095000
0.775353 0.772500 0.095000
0.911127 0.772500 0.095000
1.000000 0.772500 0.095000
0.002232 0.906250 0.095000
0.098005 0.906250 0.095000
0.233778 0.906250 0.095000
0.369552 0.906250 0.095000
0.505325 0.906250 0.095000
0.641098 0.906250 0.095000
0.776872 0.906250 0.095000
0.912645 0.906250 0.095000
1.000000 0.906250 0.095000
0.003750 1.000000 0.095000
0.099523 1.000000 0.095000
0.235297 1.000000 0.095000
0.371070 1.000000 0.095000
0.506843 1.000000 0.095000
0.642616 1.000000 0.095000
0.778390 1.000000 0.095000
0.914163 1.000000 0.095000
1.000000 1.000000 0.095000
0.000000 0.005000 0.246923
0.095000 0.005000 0.245510
0.230000 0.005000 0.244097
0.365000 0.005000 0.242684
0.500000 0.005000 0.241272
0.635000 0.005000 0.239859
0.770000 0.005000 0.238446
0.905000 0.005000 0.237033
1.000000 0.005000 0.235620
0.000000 0.103750 0.244149
0.095000 0.103750 0.242736
0.230000 0.103750 0.241324
0.365000 0.103750 0.239911
0.500000 0.103750 0.238498
0.635000 0.103750 0.237085
0.770000 0.103750 0.235672
0.905000 0.103750 0.234260
1.000000 0.103750 0.232847
0.000000 0.237500 0.241376
0.095000 0.237500 0.239963
0.230000 0.237500 0.238550
0.365000 0.237500 0.237137
0.500000 0.237500 0.235724
0.635000 0.237500 0.234312
0.770000 0.237500 0.232899
0.905349 0.237500 0.231486
1.000000 0.237500 0.230073
0.000000 0.371250 0.238602
0.095000 0.371250 0.237189
0.230000 0.371250 0.235776
0.365000 0.371250 0.234364
0.500000 0.371250 0.232951
0.635321 0.371250 0.231538
0.771094 0.371250 0.230125
0.906867 0.371250 0.230000
1.000000 0.371250 0.230000
0.000000 0.505000 0.235828
0.095000 0.505000 0.234416
0.230000 0.505000 0.233003
0.365292 0.505000 0.231590
0.501066 0.505000 0.230177
0.636839 0.505000 0.230000
0.772612 0.505000 0.230000
0.908385 0.505000 0.230000
1.000000 0.505000 0.230000
0.000000 0.638750 0.233055
0.095264 0.638750 0.231642
0.231037 0.638750 0.230229
0.366810 0.638750 0.230000
0.502584 0.638750 0.230000
0.638357 0.638750 0.230000
0.774130 0.638750 0.230000
0.909903 0.638750 0.230000
1.000000 0.638750 0.230000
0.001009 0.772500 0.230281
0.096782 0.772500 0.230000
0.232555 0.772500 0.230000
0.368328 0.772500 0.230000
0.504102 0.772500 0.230000
0.639875 0.772500 0.230000
0.775648 0.772500 0.230000
0.911422 0.772500 0.230000
1.000000 0.772500 0.230000
0.002527 0.906250 0.230000
0.098300 0.906250 0.230000
0.234073 0.906250 0.230000
0.369847 0.906250 0.230000
0.505620 0.906250 0.230000
0.641393 0.906250 0.230000
0.777166 0.906250 0.230000
0.912940 0.906250 0.230000
1.000000 0.906250 0.230000
0.004045 1.000000 0.230000
0.099818 1.000000 0.230000
0.235591 1.000000 0.230000
0.371365 1.000000 0.230000
0.507138 1.000000 0.230000
0.642911 1.000000 0.230000
0.778684 1.000000 0.230000
0.914458 1.000000 0.230000
1.000000 1.000000 0.230000
0.000000 0.005000 0.381384
0.095000 0.005000 0.379971
0.230000 0.005000 0.378558
0.365000 0.005000 0.377146
0.500000 0.005000 0.375733
0.635000 0.005000 0.374320
0.770000 0.005000 0.372907
0.905000 0.005000 0.371495
1.000000 0.005000 0.370082
0.000000 0.103750 0.378610
0.095000 0.103750 0.377198
0.230000 0.103750 0.375785
0.365000 0.103750 0.374372
0.500000 0.103750 0.372959
0.635000 0.103750 0.371547
0.770000 0.103750 0.370134
0.905000 0.103750 0.368721
1.000000 0.103750 0.367308
0.000000 0.237500 0.375837
0.095000 0.237500 0.374424
0.230000 0.237500 0.373011
0.365000 0.237500 0.371599
0.500000 0.237500 0.370186
0.635000 0.237500 0.368773
0.770000 0.237500 0.367360
0.905644 0.237500 0.365947
1.000000 0.237500 0.365000
0.000000 0.371250 0.373063
0.095000 0.371250 0.371651
0.230000 0.371250 0.370238
0.365000 0.371250 0.368825
0.500000 0.371250 0.367412
0.635616 0.371250 0.365999
0.771389 0.371250 0.365000
0.907162 0.371250 0.365000
1.000000 0.371250 0.365000
0.000000 0.505000 0.370290
0.095000 0.505000 0.368877
0.230000 0.505000 0.367464
0.365587 0.505000 0.366051
0.501360 0.505000 0.365000
0.637134 0.505000 0.365000
0.772907 0.505000 0.365000
0.908680 0.505000 0.365000
1.000000 0.505000 0.365000
0.000000 0.638750 0.367516
0.095559 0.638750 0.366103
0.231332 0.638750 0.365000
0.367105 0.638750 0.365000
0.502878 0.638750 0.365000
0.638652 0.638750 0.365000
0.774425 0.638750 0.365000
0.910198 0.638750 0.365000
1.000000 0.638750 0.365000
0.001303 0.772500 0.365000
0.097077 0.772500 0.365000
0.232850 0.772500 0.365000
0.368623 0.772500 0.365000
0.504397 0.772500 0.365000
0.640170 0.772500 0.365000
0.775943 0.772500 0.365000
0.911716 0.772500 0.365000
1.000000 0.772500 0.365000
0.002822 0.906250 0.365000
0.098595 0.906250 0.365000
0.234368 0.906250 0.365000
0.370141 0.906250 0.365000
0.505915 0.906250 0.365000
0.641688 0.906250 0.365000
0.777461 0.906250 0.365000
0.913234 0.906250 0.365000
1.000000 0.906250 0.365000
0.004340 1.000000 0.365000
0.100113 1.000000 0.365000
0.235886 1.000000 0.365000
0.371659 1.000000 0.365000
0.507433 1.000000 0.365000
0.643206 1.000000 0.365000
0.778979 1.000000 0.365000
0.914753 1.000000 0.365000
1.000000 1.000000 0.365000
0.000000 0.005000 0.515845
0.095000 0.005000 0.514433
0.230000 0.005000 0.513020
0.365000 0.005000 0.511607
0.500000 0.005000 0.510194
0.635000 0.005000 0.508782
0.770000 0.005000 0.507369
0.905000 0.005000 0.505956
1.000000 0.005000 0.504543
0.000000 0.103750 0.513072
0.095000 0.103750 0.511659
0.230000 0.103750 0.510246
0.365000 0.103750 0.508834
0.500000 0.103750 0.507421
0.635000 0.103750 0.506008
0.770000 0.103750 0.504595
0.905000 0.103750 0.503182
1.000000 0.103750 0.501770
0.000000 0.237500 0.510298
0.095000 0.237500 0.508885
0.230000 0.237500 0.507473
0.365000 0.237500 0.506060
0.500000 0.237500 0.504647
0.635000 0.237500 0.503234
0.770166 0.237500 0.501822
0.905939 0.237500 0.500409
1.000000 0.237500 0.500000
0.000000 0.371250 0.507525
0.095000 0.371250 0.506112
0.230000 0.371250 0.504699
0.365000 0.371250 0.503286
0.500137 0.371250 0.501874
0.635910 0.371250 0.500461
0.771684 0.371250 0.500000
0.907457 0.371250 0.500000
1.000000 0.371250 0.500000
0.000000 0.505000 0.504751
0.095000 0.505000 0.503338
0.230109 0.505000 0.501926
0.365882 0.505000 0.500513
0.501655 0.505000 0.500000
0.637428 0.505000 0.500000
0.773202 0.505000 0.500000
0.908975 0.505000 0.500000
1.000000 0.505000 0.500000
0.000080 0.638750 0.501978
0.095853 0.638750 0.500565
0.231627 0.638750 0.500000
0.367400 0.638750 0.500000
0.503173 0.638750 0.500000
0.638947 0.638750 0.500000
0.774720 0.638750 0.500000
0.910493 0.638750 0.500000
1.000000 0.638750 0.500000
0.001598 0.772500 0.500000
0.097372 0.772500 0.500000
0.233145 0.772500 0.500000
0.368918 0.772500 0.500000
0.504691 0.772500 0.500000
0.640465 0.772500 0.500000
0.776238 0.772500 0.500000
0.912011 0.772500 0.500000
1.000000 0.772500 0.500000
0.003116 0.906250 0.500000
0.098890 0.906250 0.500000
0.234663 0.906250 0.500000
0.370436 0.906250 0.500000
0.506209 0.906250 0.500000
0.641983 0.906250 0.500000
0.777756 0.906250 0.500000
0.913529 0.906250 0.500000
1.000000 0.906250 0.500000
0.004634 1.000000 0.500000
0.100408 1.000000 0.500000
0.236181 1.000000 0.500000
0.371954 1.000000 0.500000
0.507728 1.000000 0.500000
0.643501 1.000000 0.500000
0.779274 1.000000 0.500000
0.915047 1.000000 0.500000
1.000000 1.000000 0.500000
0.000000 0.005000 0.650307
0.095000 0.005000 0.648894
0.230000 0.005000 0.647481
0.365000 0.005000 0.646068
0.500000 0.005000 0.644656
0.635000 0.005000 0.643243
0.770000 0.005000 0.641830
0.905000 0.005000 0.640417
1.000000 0.005000 0.639005
0.000000 0.103750 0.647533
0.095000 0.103750 0.646120
0.230000 0.103750 0.644708
0.365000 0.103750 0.643295
0.500000 0.103750 0.641882
0.635000 0.103750 0.640469
0.770000 0.103750 0.639057
0.905000 0.103750 0.637644
1.000000 0.103750 0.636231
0.000000 0.237500 0.644760
0.095000 0.237500 0.643347
0.230000 0.237500 0.641934
0.365000 0.237500 0.640521
0.500000 0.237500 0.639108
0.635000 0.237500 0.637696
0.770460 0.237500 0.636283
0.906234 0.237500 0.635000
1.000000 0.237500 0.635000
0.000000 0.371250 0.641986
0.095000 0.371250 0.640573
0.230000 0.371250 0.639160
0.365000 0.371250 0.637748
0.500432 0.371250 0.636335
0.636205 0.371250 0.635000
0.771978 0.371250 0.635000
0.907752 0.371250 0.635000
1.000000 0.371250 0.635000
0.000000 0.505000 0.639212
0.095000 0.505000 0.637800
0.230403 0.505000 0.636387
0.366177 0.505000 0.635000
0.501950 0.505000 0.635000
0.637723 0.505000 0.635000
0.773497 0.505000 0.635000
0.909270 0.505000 0.635000
1.000000 0.505000 0.635000
0.000375 0.638750 0.636439
0.096148 0.638750 0.635026
0.231922 0.638750 0.635000
0.367695 0.638750 0.635000
0.503468 0.638750 0.635000
0.639241 0.638750 0.635000
0.775015 0.638750 0.635000
0.910788 0.638750 0.635000
1.000000 0.638750 0.635000
0.001893 0.772500 0.635000
0.097666 0.772500 0.635000
0.233440 0.772500 0.635000
0.369213 0.772500 0.635000
0.504986 0.772500 0.635000
0.640759 0.772500 0.635000
0.776533 0.772500 0.635000
0.912306 0.772500 0.635000
1.000000 0.772500 0.635000
0.003411 0.906250 0.635000
0.099184 0.906250 0.635000
0.234958 0.906250 0.635000
0.370731 0.906250 0.635000
0.506504 0.906250 0.635000
0.642278 0.906250 0.635000
0.778051 0.906250 0.635000
0.913824 0.906250 0.635000
1.000000 0.906250 0.635000
0.004929 1.000000 0.635000
0.100703 1.000000 0.635000
0.236476 1.000000 0.635000
0.372249 1.000000 0.635000
0.508022 1.000000 0.635000
0.643796 1.000000 0.635000
0.779569 1.000000 0.635000
0.915342 1.000000 0.635000
1.000000 1.000000 0.635000
0.000000 0.005000 0.784768
0.095000 0.005000 0.783355
0.230000 0.005000 0.781943
0.365000 0.005000 0.780530
0.500000 0.005000 0.779117
0.635000 0.005000 0.777704
0.770000 0.005000 0.776291
0.905000 0.005000 0.774879
1.000000 0.005000 0.773466
0.000000 0.103750 0.781995
0.095000 0.103750 0.780582
0.230000 0.103750 0.779169
0.365000 0.103750 0.777756
0.500000 0.103750 0.776343
0.635000 0.103750 0.774931
0.770000 0.103750 0.773518
0.905010 0.103750 0.772105
1.000000 0.103750 0.770692
0.000000 0.237500 0.779221
0.095000 0.237500 0.777808
0.230000 0.237500 0.776395
0.365000 0.237500 0.774983
0.500000 0.237500 0.773570
0.635000 0.237500 0.772157
0.770755 0.237500 0.770744
0.906528 0.237500 0.770000
1.000000 0.237500 0.770000
0.000000 0.371250 0.776447
0.095000 0.371250 0.775035
0.230000 0.371250 0.773622
0.365000 0.371250 0.772209
0.500727 0.371250 0.770796
0.636500 0.371250 0.770000
0.772273 0.371250 0.770000
0.908047 0.371250 0.770000
1.000000 0.371250 0.770000
0.000000 0.505000 0.773674
0.095000 0.505000 0.772261
0.230698 0.505000 0.770848
0.366472 0.505000 0.770000
0.502245 0.505000 0.770000
0.638018 0.505000 0.770000
0.773791 0.505000 0.770000
0.909565 0.505000 0.770000
1.000000 0.505000 0.770000
0.000670 0.638750 0.770900
0.096443 0.638750 0.770000
0.232216 0.638750 0.770000
0.367990 0.638750 0.770000
0.503763 0.638750 0.770000
0.639536 0.638750 0.770000
0.775309 0.638750 0.770000
0.911083 0.638750 0.770000
1.000000 0.638750 0.770000
0.002188 0.772500 0.770000
0.097961 0.772500 0.770000
0.233734 0.772500 0.770000
0.369508 0.772500 0.770000
0.505281 0.772500 0.770000
0.641054 0.772500 0.770000
0.776828 0.772500 0.770000
0.912601 0.772500 0.770000
1.000000 0.772500 0.770000
0.003706 0.906250 0.770000
0.099479 0.906250 0.770000
0.235253 0.906250 0.770000
0.371026 0.906250 0.770000
0.506799 0.906250 0.770000
0.642572 0.906250 0.770000
0.778346 0.906250 0.770000
0.914119 0.906250 0.770000
1.000000 0.906250 0.770000
0.005224 1.000000 0.770000
0.100997 1.000000 0.770000
0.236771 1.000000 0.770000
0.372544 1.000000 0.770000
0.508317 1.000000 0.770000
0.644091 1.000000 0.770000
0.779864 1.000000 0.770000
0.915637 1.000000 0.770000
1.000000 1.000000 0.770000
0.000000 0.005000 0.919229
0.095000 0.005000 0.917817
0.230000 0.005000 0.916404
0.365000 0.005000 0.914991
0.500000 0.005000 0.913578
0.635000 0.005000 0.912166
0.770000 0.005000 0.910753
0.905000 0.005000 0.909340
1.000000 0.005000 0.907927
0.000000 0.103750 0.916456
0.095000 0.103750 0.915043
0.230000 0.103750 0.913630
0.365000 0.103750 0.912218
0.500000 0.103750 0.910805
0.635000 0.103750 0.909392
0.770000 0.103750 0.907979
0.905305 0.103750 0.906566
1.000000 0.103750 0.905154
0.000000 0.237500 0.913682
0.095000 0.237500 0.912270
0.230000 0.237500 0.910857
0.365000 0.237500 0.909444
0.500000 0.237500 0.908031
0.635277 0.237500 0.906618
0.771050 0.237500 0.905206
0.906823 0.237500 0.905000
1.000000 0.237500 0.905000
0.000000 0.371250 0.910909
0.095000 0.371250 0.909496
0.230000 0.371250 0.908083
0.365248 0.371250 0.906670
0.501022 0.371250 0.905258
0.636795 0.371250 0.905000
0.772568 0.371250 0.905000
0.908341 0.371250 0.905000
1.000000 0.371250 0.905000
0.000000 0.505000 0.908135
0.095220 0.505000 0.906722
0.230993 0.505000 0.905310
0.366766 0.505000 0.905000
0.502540 0.505000 0.905000
0.638313 0.505000 0.905000
0.774086 0.505000 0.905000
0.909859 0.505000 0.905000
1.000000 0.505000 0.905000
0.000965 0.638750 0.905362
0.096738 0.638750 0.905000
0.232511 0.638750 0.905000
0.368284 0.638750 0.905000
0.504058 0.638750 0.905000
0.639831 0.638750 0.905000
0.775604 0.638750 0.905000
0.911378 0.638750 0.905000
1.000000 0.638750 0.905000
0.002483 0.772500 0.905000
0.098256 0.772500 0.905000
0.234029 0.772500 0.905000
0.369803 0.772500 0.905000
0.505576 0.772500 0.905000
0.641349 0.772500 0.905000
0.777122 0.772500 0.905000
0.912896 0.772500 0.905000
1.000000 0.772500 0.905000
0.004001 0.906250 0.905000
0.099774 0.906250 0.905000
0.235547 0.906250 0.905000
0.371321 0.906250 0.905000
0.507094 0.906250 0.905000
0.642867 0.906250 0.905000
0.778641 0.906250 0.905000
0.914414 0.906250 0.905000
1.000000 0.906250 0.905000
0.005519 1.000000 0.905000
0.101292 1.000000 0.905000
0.237066 1.000000 0.905000
0.372839 1.000000 0.905000
0.508612 1.000000 0.905000
0.644385 1.000000 0.905000
0.780159 1.000000 0.905000
0.915932 1.000000 0.905000
1.000000 1.000000 0.905000
0.000000 0.005000 1.000000
0.095000 0.005000 1.000000
0.230000 0.005000 1.000000
0.365000 0.005000 1.000000
0.500000 0.005000 1.000000
0.635000 0.005000 1.000000
0.770000 0.005000 1.000000
0.905000 0.005000 1.000000
1.000000 0.005000 1.000000
0.000000 0.103750 1.000000
0.095000 0.103750 1.000000
0.230000 0.103750 1.000000
0.365000 0.103750 1.000000
0.500000 0.103750 1.000000
0.635000 0.103750 1.000000
0.770000 0.103750 1.000000
0.905600 0.103750 1.000000
1.000000 0.103750 1.000000
0.000000 0.237500 1.000000
0.095000 0.237500 1.000000
0.230000 0.237500 1.000000
0.365000 0.237500 1.000000
0.500000 0.237500 1.000000
0.635572 0.237500 1.000000
0.771345 0.237500 1.000000
0.907118 0.237500 1.000000
1.000000 0.237500 1.000000
0.000000 0.371250 1.000000
0.095000 0.371250 1.000000
0.230000 0.371250 1.000000
0.365543 0.371250 1.000000
0.501316 0.371250 1.000000
0.637090 0.371250 1.000000
0.772863 0.371250 1.000000
0.908636 0.371250 1.000000
1.000000 0.371250 1.000000
0.000000 0.505000 1.000000
0.095515 0.505000 1.000000
0.231288 0.505000 1.000000
0.367061 0.505000 1.000000
0.502834 0.505000 1.000000
0.638608 0.505000 1.000000
0.774381 0.505000 1.000000
0.910154 0.505000 1.000000
1.000000 0.505000 1.000000
0.001259 0.638750 1.000000
0.097033 0.638750 1.000000
0.232806 0.638750 1.000000
0.368579 0.638750 1.000000
0.504353 0.638750 1.000000
0.640126 0.638750 1.000000
0.775899 0.638750 1.000000
0.911672 0.638750 1.000000
1.000000 0.638750 1.000000
0.002778 0.772500 1.000000
0.098551 0.772500 1.000000
0.234324 0.772500 1.000000
0.370097 0.772500 1.000000
0.505871 0.772500 1.000000
0.641644 0.772500 1.000000
0.777417 0.772500 1.000000
0.913191 0.772500 1.000000
1.000000 0.772500 1.000000
0.004296 0.906250 1.000000
0.100069 0.906250 1.000000
0.235842 0.906250 1.000000
0.371616 0.906250 1.000000
0.507389 0.906250 1.000000
0.643162 0.906250 1.000000
0.778935 0.906250 1.000000
0.914709 0.906250 1.000000
1.000000 0.906250 1.000000
0.005814 1.000000 1.000000
0.101587 1.000000 1.000000
0.237360 1.000000 1.000000
0.373134 1.000000 1.000000
0.508907 1.000000 1.000000
0.644680 1.000000 1.000000
0.780453 1.000000 1.000000
0.916227 1.000000 1.000000
1.000000 1.000000 1.000000
