docs/luts/fresh-bmpcc-neutral.cube
TITLE "FreshLUTs??-BMPCC??"
LUT_3D_SIZE 9
DOMAIN_MIN 0.0 0.0 0.0
DOMAIN_MAX 1.0 1.0 1.0
0.000000 0.000000 0.035000
0.098189 0.000000 0.034092
0.225116 0.000000 0.033722
0.352043 0.000000 0.033352
0.478970 0.000737 0.032982
0.605897 0.004056 0.032612
0.732824 0.007375 0.032242
0.859751 0.010694 0.031872
0.957940 0.013475 0.030964
0.004006 0.100780 0.033613
0.102195 0.103561 0.032705
0.229122 0.106880 0.032335
0.356049 0.110199 0.031965
0.482976 0.113518 0.031595
0.609903 0.116837 0.031225
0.736830 0.120156 0.030855
0.863757 0.123474 0.030485
0.961946 0.126255 0.029577
0.008541 0.228189 0.032755
0.106730 0.230970 0.031847
0.233657 0.234289 0.031477
0.360584 0.237607 0.031106
0.487511 0.240926 0.030736
0.614438 0.244245 0.030366
0.741365 0.247564 0.029996
0.868292 0.250883 0.029626
0.967280 0.253664 0.028718
0.013075 0.355598 0.031896
0.111264 0.358378 0.030988
0.238191 0.361697 0.030618
0.365118 0.365016 0.030248
0.492045 0.368335 0.029878
0.618972 0.371654 0.029508
0.746656 0.374973 0.029138
0.874743 0.378152 0.029177
0.974092 0.379990 0.031015
0.017610 0.483006 0.031038
0.115799 0.485787 0.030130
0.242726 0.489106 0.029760
0.369653 0.492425 0.029390
0.497294 0.495744 0.029020
0.625381 0.498957 0.028957
0.753468 0.501334 0.031334
0.881555 0.503711 0.033711
0.980903 0.505550 0.035550
0.022145 0.610415 0.030179
0.120333 0.613196 0.029271
0.247932 0.616514 0.028901
0.376019 0.619763 0.028738
0.504106 0.622140 0.031115
0.632192 0.624517 0.033492
0.760279 0.626894 0.035869
0.888366 0.629271 0.038246
0.987715 0.631110 0.040085
0.027308 0.737823 0.029321
0.126656 0.740568 0.028518
0.254743 0.742945 0.030895
0.382830 0.745322 0.033272
0.510917 0.747699 0.035649
0.639004 0.750076 0.038026
0.767091 0.752453 0.040403
0.895178 0.754830 0.042780
0.994527 0.756669 0.044619
0.034119 0.864289 0.031214
0.133468 0.866128 0.033053
0.261555 0.868505 0.035430
0.389642 0.870882 0.037807
0.517729 0.873259 0.040184
0.645816 0.875636 0.042561
0.773903 0.878013 0.044938
0.901990 0.880390 0.047315
1.000000 0.882229 0.049154
0.040403 0.975220 0.035220
0.139752 0.977059 0.037059
0.267838 0.979436 0.039436
0.395925 0.981813 0.041813
0.524012 0.984190 0.044190
0.652099 0.986567 0.046567
0.780186 0.988944 0.048944
0.908273 0.991321 0.051321
1.000000 0.993160 0.053160
0.000752 0.000000 0.138105
0.098941 0.000000 0.137197
0.225868 0.000000 0.136827
0.352795 0.000000 0.136457
0.479722 0.001849 0.136087
0.606649 0.005168 0.135717
0.733576 0.008487 0.135347
0.860504 0.011806 0.134977
0.958692 0.014586 0.134069
0.004759 0.101892 0.136718
0.102948 0.104673 0.135810
0.229875 0.107991 0.135440
0.356802 0.111310 0.135070
0.483729 0.114629 0.134700
0.610656 0.117948 0.134330
0.737583 0.121267 0.133960
0.864510 0.124586 0.133590
0.962699 0.127367 0.132682
0.009293 0.229300 0.135860
0.107482 0.232081 0.134952
0.234409 0.235400 0.134582
0.361336 0.238719 0.134212
0.488263 0.242038 0.133842
0.615190 0.245357 0.133471
0.742117 0.248676 0.133101
0.869126 0.251995 0.132731
0.968475 0.254775 0.131823
0.013828 0.356709 0.135001
0.112017 0.359490 0.134093
0.238944 0.362809 0.133723
0.365871 0.366128 0.133353
0.492798 0.369446 0.132983
0.619764 0.372765 0.132613
0.747851 0.376084 0.132243
0.875938 0.378904 0.133329
0.975286 0.380743 0.135168
0.018362 0.484118 0.134143
0.116551 0.486898 0.133235
0.243478 0.490217 0.132865
0.370405 0.493536 0.132495
0.498488 0.496855 0.132125
0.626575 0.499709 0.133109
0.754662 0.502086 0.135487
0.882749 0.504464 0.137864
0.982098 0.506302 0.139702
0.022897 0.611526 0.133284
0.121086 0.614307 0.132376
0.249126 0.617626 0.132006
0.377213 0.620515 0.132890
0.505300 0.622892 0.135267
0.633387 0.625269 0.137644
0.761474 0.627646 0.140021
0.889561 0.630023 0.142398
0.988910 0.631862 0.144237
0.028502 0.738935 0.132426
0.127851 0.741320 0.132670
0.255938 0.743697 0.135047
0.384025 0.746075 0.137425
0.512112 0.748452 0.139802
0.640199 0.750829 0.142179
0.768286 0.753206 0.144556
0.896373 0.755583 0.146933
0.995722 0.757422 0.148772
0.035314 0.865041 0.135366
0.134663 0.866880 0.137205
0.262750 0.869257 0.139582
0.390837 0.871634 0.141959
0.518924 0.874011 0.144336
0.647011 0.876388 0.146713
0.775098 0.878765 0.149090
0.903185 0.881142 0.151467
1.000000 0.882981 0.153306
0.041597 0.975972 0.139372
0.140946 0.977811 0.141211
0.269033 0.980188 0.143588
0.397120 0.982565 0.145965
0.525207 0.984942 0.148342
0.653294 0.987319 0.150719
0.781381 0.989696 0.153097
0.909468 0.992074 0.155474
1.000000 0.993912 0.157312
0.001642 0.000000 0.260147
0.099830 0.000000 0.259239
0.226757 0.000000 0.258869
0.353685 0.000000 0.258499
0.480612 0.003097 0.258129
0.607539 0.006416 0.257759
0.734466 0.009735 0.257389
0.861393 0.013054 0.257019
0.959582 0.015835 0.256110
0.005648 0.103140 0.258760
0.103837 0.105921 0.257852
0.230764 0.109240 0.257482
0.357691 0.112559 0.257112
0.484618 0.115878 0.256742
0.611545 0.119196 0.256372
0.738472 0.122515 0.256002
0.865399 0.125834 0.255632
0.963588 0.128615 0.254724
0.010182 0.230549 0.257902
0.108371 0.233329 0.256993
0.235298 0.236648 0.256623
0.362225 0.239967 0.256253
0.489152 0.243286 0.255883
0.616080 0.246605 0.255513
0.743007 0.249924 0.255143
0.870457 0.253243 0.254773
0.969806 0.256024 0.253865
0.014717 0.357957 0.257043
0.112906 0.360738 0.256135
0.239833 0.364057 0.255765
0.366760 0.367376 0.255395
0.493687 0.370695 0.255025
0.621095 0.374014 0.254655
0.749182 0.377333 0.254285
0.877269 0.379793 0.256418
0.976618 0.381632 0.258257
0.019252 0.485366 0.256185
0.117440 0.488147 0.255276
0.244367 0.491466 0.254906
0.371733 0.494785 0.254536
0.499820 0.498103 0.254166
0.627907 0.500599 0.256199
0.755994 0.502976 0.258576
0.884081 0.505353 0.260953
0.983430 0.507192 0.262792
0.023786 0.612775 0.255326
0.122371 0.615555 0.254418
0.250458 0.618874 0.254048
0.378545 0.621404 0.255979
0.506632 0.623781 0.258356
0.634719 0.626158 0.260733
0.762806 0.628535 0.263110
0.890892 0.630912 0.265487
0.990241 0.632751 0.267326
0.029834 0.740183 0.254468
0.129182 0.742210 0.255760
0.257269 0.744587 0.258137
0.385356 0.746964 0.260514
0.513443 0.749341 0.262891
0.641530 0.751718 0.265268
0.769617 0.754095 0.267645
0.897704 0.756472 0.270022
0.997053 0.758311 0.271861
0.036645 0.865930 0.258455
0.135994 0.867769 0.260294
0.264081 0.870146 0.262671
0.392168 0.872523 0.265048
0.520255 0.874900 0.267425
0.648342 0.877277 0.269802
0.776429 0.879654 0.272179
0.904516 0.882031 0.274556
1.000000 0.883870 0.276395
0.042929 0.976862 0.262462
0.142278 0.978700 0.264300
0.270365 0.981078 0.266678
0.398452 0.983455 0.269055
0.526538 0.985832 0.271432
0.654625 0.988209 0.273809
0.782712 0.990586 0.276186
0.910799 0.992963 0.278563
1.000000 0.994802 0.280402
0.002531 0.000000 0.382189
0.100720 0.000000 0.381280
0.227647 0.000000 0.380910
0.354574 0.001027 0.380540
0.481501 0.004346 0.380170
0.608428 0.007664 0.379800
0.735355 0.010983 0.379430
0.862282 0.014302 0.379060
0.960471 0.017083 0.378152
0.006537 0.104388 0.380802
0.104726 0.107169 0.379894
0.231653 0.110488 0.379524
0.358580 0.113807 0.379154
0.485507 0.117126 0.378784
0.612434 0.120445 0.378414
0.739361 0.123764 0.378044
0.866288 0.127083 0.377674
0.964477 0.129863 0.376765
0.011072 0.231797 0.379943
0.109260 0.234578 0.379035
0.236188 0.237897 0.378665
0.363115 0.241216 0.378295
0.490042 0.244534 0.377925
0.616969 0.247853 0.377555
0.743896 0.251172 0.377185
0.871789 0.254491 0.376815
0.971138 0.256962 0.376812
0.015606 0.359206 0.379085
0.113795 0.361986 0.378177
0.240722 0.365305 0.377807
0.367649 0.368624 0.377437
0.494576 0.371943 0.377067
0.622427 0.375262 0.376697
0.750514 0.378305 0.377130
0.878600 0.380682 0.379507
0.977949 0.382521 0.381346
0.020141 0.486614 0.378226
0.118330 0.489395 0.377318
0.245257 0.492714 0.376948
0.373064 0.496033 0.376578
0.501151 0.499111 0.376911
0.629238 0.501488 0.379288
0.757325 0.503865 0.381665
0.885412 0.506242 0.384042
0.984761 0.508081 0.385881
0.024675 0.614023 0.377368
0.123702 0.616804 0.376460
0.251789 0.619916 0.376691
0.379876 0.622293 0.379068
0.507963 0.624670 0.381445
0.636050 0.627047 0.383822
0.764137 0.629424 0.386199
0.892224 0.631802 0.388577
0.991573 0.633640 0.390415
0.031165 0.741260 0.377010
0.130514 0.743099 0.378849
0.258601 0.745476 0.381226
0.386688 0.747853 0.383603
0.514775 0.750230 0.385980
0.642862 0.752607 0.388357
0.770949 0.754984 0.390734
0.899036 0.757361 0.393111
0.998384 0.759200 0.394950
0.037977 0.866820 0.381545
0.137326 0.868658 0.383383
0.265413 0.871035 0.385760
0.393500 0.873412 0.388137
0.521587 0.875790 0.390515
0.649673 0.878167 0.392892
0.777760 0.880544 0.395269
0.905847 0.882921 0.397646
1.000000 0.884760 0.399485
0.044260 0.977751 0.385551
0.143609 0.979590 0.387390
0.271696 0.981967 0.389767
0.399783 0.984344 0.392144
0.527870 0.986721 0.394521
0.655957 0.989098 0.396898
0.784044 0.991475 0.399275
0.912131 0.993852 0.401652
1.000000 0.995691 0.403491
0.003420 0.000000 0.504230
0.101609 0.000000 0.503322
0.228536 0.000000 0.502952
0.355463 0.002275 0.502582
0.482390 0.005594 0.502212
0.609317 0.008913 0.501842
0.736244 0.012232 0.501472
0.863171 0.015551 0.501102
0.961360 0.018331 0.500194
0.007426 0.105637 0.502844
0.105615 0.108417 0.501935
0.232542 0.111736 0.501565
0.359469 0.115055 0.501195
0.486396 0.118374 0.500825
0.613323 0.121693 0.500455
0.740250 0.125012 0.500085
0.867177 0.128331 0.499715
0.965657 0.131112 0.498807
0.011961 0.233045 0.501985
0.110150 0.235826 0.501077
0.237077 0.239145 0.500707
0.364004 0.242464 0.500337
0.490931 0.245783 0.499967
0.617858 0.249102 0.499597
0.745033 0.252421 0.499227
0.873120 0.255739 0.498857
0.972469 0.257851 0.499901
0.016495 0.360454 0.501127
0.114684 0.363235 0.500219
0.241611 0.366554 0.499849
0.368538 0.369872 0.499479
0.495671 0.373191 0.499108
0.623758 0.376510 0.498738
0.751845 0.379195 0.500220
0.879932 0.381572 0.502597
0.979281 0.383410 0.504435
0.021030 0.487863 0.500268
0.119219 0.490643 0.499360
0.246309 0.493962 0.498990
0.374396 0.497281 0.498620
0.502483 0.500000 0.500000
0.630570 0.502377 0.502377
0.758657 0.504754 0.504754
0.886744 0.507131 0.507131
0.986092 0.508970 0.508970
0.025685 0.615271 0.499410
0.125034 0.618052 0.498502
0.253121 0.620805 0.499780
0.381208 0.623183 0.502158
0.509294 0.625560 0.504535
0.637381 0.627937 0.506912
0.765468 0.630314 0.509289
0.893555 0.632691 0.511666
0.992904 0.634530 0.513505
0.032497 0.742149 0.500099
0.131845 0.743988 0.501938
0.259932 0.746365 0.504315
0.388019 0.748742 0.506692
0.516106 0.751119 0.509069
0.644193 0.753496 0.511446
0.772280 0.755873 0.513823
0.900367 0.758250 0.516200
0.999716 0.760089 0.518039
0.039308 0.867709 0.504634
0.138657 0.869548 0.506473
0.266744 0.871925 0.508850
0.394831 0.874302 0.511227
0.522918 0.876679 0.513604
0.651005 0.879056 0.515981
0.779092 0.881433 0.518358
0.907179 0.883810 0.520735
1.000000 0.885649 0.522574
0.045592 0.978640 0.508640
0.144940 0.980479 0.510479
0.273027 0.982856 0.512856
0.401114 0.985233 0.515233
0.529201 0.987610 0.517610
0.657288 0.989987 0.519987
0.785375 0.992364 0.522364
0.913462 0.994741 0.524741
1.000000 0.996580 0.526580
0.004309 0.000000 0.626272
0.102498 0.000000 0.625364
0.229425 0.000204 0.624994
0.356352 0.003523 0.624624
0.483279 0.006842 0.624254
0.610206 0.010161 0.623884
0.737133 0.013480 0.623514
0.864060 0.016799 0.623144
0.962249 0.019580 0.622236
0.008315 0.106885 0.624886
0.106504 0.109666 0.623977
0.233431 0.112985 0.623607
0.360358 0.116304 0.623237
0.487285 0.119622 0.622867
0.614213 0.122941 0.622497
0.741140 0.126260 0.622127
0.868067 0.129579 0.621757
0.966989 0.132360 0.620849
0.012850 0.234294 0.624027
0.111039 0.237074 0.623119
0.237966 0.240393 0.622749
0.364893 0.243712 0.622379
0.491820 0.247031 0.622009
0.618747 0.250350 0.621639
0.746365 0.253669 0.621269
0.874452 0.256901 0.621151
0.973800 0.258740 0.622990
0.017385 0.361702 0.623169
0.115573 0.364483 0.622260
0.242501 0.367802 0.621890
0.369428 0.371121 0.621520
0.497002 0.374440 0.621150
0.625089 0.377707 0.620932
0.753176 0.380084 0.623309
0.881263 0.382461 0.625686
0.980612 0.384300 0.627525
0.021919 0.489111 0.622310
0.120108 0.491892 0.621402
0.247640 0.495210 0.621032
0.375727 0.498512 0.620712
0.503814 0.500889 0.623089
0.631901 0.503266 0.625466
0.759988 0.505643 0.627843
0.888075 0.508020 0.630220
0.987424 0.509859 0.632059
0.027016 0.616520 0.621452
0.126365 0.619300 0.620543
0.254452 0.621695 0.622870
0.382539 0.624072 0.625247
0.510626 0.626449 0.627624
0.638713 0.628826 0.630001
0.766800 0.631203 0.632378
0.894887 0.633580 0.634755
0.994236 0.635419 0.636594
0.033828 0.743038 0.623188
0.133177 0.744877 0.625027
0.261264 0.747254 0.627404
0.389351 0.749631 0.629781
0.517438 0.752008 0.632158
0.645525 0.754385 0.634535
0.773612 0.756762 0.636912
0.901699 0.759140 0.639290
1.000000 0.760978 0.641128
0.040640 0.868598 0.627723
0.139988 0.870437 0.629562
0.268075 0.872814 0.631939
0.396162 0.875191 0.634316
0.524249 0.877568 0.636693
0.652336 0.879945 0.639070
0.780423 0.882322 0.641447
0.908510 0.884699 0.643824
1.000000 0.886538 0.645663
0.046923 0.979529 0.631729
0.146272 0.981368 0.633568
0.274359 0.983745 0.635945
0.402446 0.986122 0.638322
0.530533 0.988499 0.640699
0.658620 0.990876 0.643076
0.786707 0.993253 0.645453
0.914794 0.995630 0.647830
1.000000 0.997469 0.649669
0.005198 0.000000 0.748314
0.103387 0.000000 0.747406
0.230314 0.001453 0.747036
0.357241 0.004772 0.746666
0.484168 0.008090 0.746296
0.611095 0.011409 0.745926
0.738023 0.014728 0.745556
0.864950 0.018047 0.745186
0.963138 0.020828 0.744278
0.009205 0.108133 0.746927
0.107394 0.110914 0.746019
0.234321 0.114233 0.745649
0.361248 0.117552 0.745279
0.488175 0.120871 0.744909
0.615102 0.124190 0.744539
0.742029 0.127509 0.744169
0.868971 0.130827 0.743799
0.968320 0.133608 0.742891
0.013739 0.235542 0.746069
0.111928 0.238323 0.745161
0.238855 0.241642 0.744791
0.365782 0.244960 0.744421
0.492709 0.248279 0.744051
0.619636 0.251598 0.743681
0.747696 0.254917 0.743311
0.875783 0.257790 0.744240
0.975132 0.259629 0.746079
0.018274 0.362951 0.745210
0.116463 0.365731 0.744302
0.243390 0.369050 0.743932
0.370317 0.372369 0.743562
0.498334 0.375688 0.743192
0.626421 0.378596 0.744021
0.754508 0.380973 0.746398
0.882595 0.383350 0.748775
0.981944 0.385189 0.750614
0.022808 0.490359 0.744352
0.120997 0.493140 0.743444
0.248972 0.496459 0.743074
0.377059 0.499401 0.743801
0.505146 0.501778 0.746178
0.633233 0.504155 0.748555
0.761320 0.506533 0.750933
0.889407 0.508910 0.753310
0.988755 0.510748 0.755148
0.028348 0.617768 0.743493
0.127696 0.620207 0.743582
0.255783 0.622584 0.745959
0.383870 0.624961 0.748336
0.511957 0.627338 0.750713
0.640044 0.629715 0.753090
0.768131 0.632092 0.755467
0.896218 0.634469 0.757844
0.995567 0.636308 0.759683
0.035159 0.743928 0.746278
0.134508 0.745766 0.748116
0.262595 0.748143 0.750493
0.390682 0.750521 0.752870
0.518769 0.752898 0.755248
0.646856 0.755275 0.757625
0.774943 0.757652 0.760002
0.903030 0.760029 0.762379
1.000000 0.761868 0.764218
0.041971 0.869487 0.750812
0.141320 0.871326 0.752651
0.269407 0.873703 0.755028
0.397494 0.876080 0.757405
0.525581 0.878457 0.759782
0.653668 0.880834 0.762159
0.781755 0.883211 0.764536
0.909842 0.885588 0.766913
1.000000 0.887427 0.768752
0.048255 0.980418 0.754818
0.147603 0.982257 0.756657
0.275690 0.984634 0.759034
0.403777 0.987011 0.761411
0.531864 0.989388 0.763788
0.659951 0.991765 0.766165
0.788038 0.994143 0.768543
0.916125 0.996520 0.770920
1.000000 0.998358 0.772758
0.006088 0.000000 0.870356
0.104276 0.000000 0.869448
0.231203 0.002701 0.869078
0.358131 0.006020 0.868708
0.485058 0.009339 0.868338
0.611985 0.012658 0.867968
0.738912 0.015977 0.867598
0.865839 0.019295 0.867228
0.964028 0.022076 0.866319
0.010094 0.109382 0.868969
0.108283 0.112162 0.868061
0.235210 0.115481 0.867691
0.362137 0.118800 0.867321
0.489064 0.122119 0.866951
0.615991 0.125438 0.866581
0.742918 0.128757 0.866211
0.870303 0.132076 0.865841
0.969652 0.134856 0.864933
0.014628 0.236790 0.868111
0.112817 0.239571 0.867202
0.239744 0.242890 0.866832
0.366671 0.246209 0.866462
0.493598 0.249528 0.866092
0.620941 0.252847 0.865722
0.749028 0.256165 0.865352
0.877115 0.258680 0.867330
0.976463 0.260518 0.869168
0.019163 0.364199 0.867252
0.117352 0.366980 0.866344
0.244279 0.370298 0.865974
0.371578 0.373617 0.865604
0.499665 0.376936 0.865234
0.627752 0.379485 0.867110
0.755839 0.381862 0.869487
0.883926 0.384239 0.871864
0.983275 0.386078 0.873703
0.023698 0.491607 0.866394
0.122216 0.494388 0.865486
0.250303 0.497707 0.865115
0.378390 0.500291 0.866891
0.506477 0.502668 0.869268
0.634564 0.505045 0.871645
0.762651 0.507422 0.874022
0.890738 0.509799 0.876399
0.990087 0.511638 0.878238
0.029679 0.619016 0.865535
0.129028 0.621096 0.866671
0.257115 0.623473 0.869048
0.385202 0.625850 0.871425
0.513289 0.628227 0.873802
0.641376 0.630604 0.876179
0.769463 0.632981 0.878556
0.897550 0.635358 0.880933
0.996898 0.637197 0.882772
0.036491 0.744817 0.869367
0.135840 0.746656 0.871206
0.263927 0.749033 0.873583
0.392014 0.751410 0.875960
0.520101 0.753787 0.878337
0.648188 0.756164 0.880714
0.776274 0.758541 0.883091
0.904361 0.760918 0.885468
1.000000 0.762757 0.887307
0.043303 0.870376 0.873901
0.142651 0.872215 0.875740
0.270738 0.874592 0.878117
0.398825 0.876969 0.880494
0.526912 0.879346 0.882871
0.654999 0.881723 0.885248
0.783086 0.884100 0.887625
0.911173 0.886477 0.890002
1.000000 0.888316 0.891841
0.049586 0.981308 0.877908
0.148935 0.983146 0.879746
0.277022 0.985523 0.882124
0.405109 0.987901 0.884501
0.533196 0.990278 0.886878
0.661283 0.992655 0.889255
0.789370 0.995032 0.891632
0.917457 0.997409 0.894009
1.000000 0.999248 0.895848
0.006840 0.000000 0.973461
0.105029 0.000494 0.972553
0.231956 0.003812 0.972183
0.358883 0.007131 0.971813
0.485810 0.010450 0.971443
0.612737 0.013769 0.971073
0.739664 0.017088 0.970703
0.866591 0.020407 0.970333
0.964780 0.023188 0.969425
0.010846 0.110493 0.972074
0.109035 0.113274 0.971166
0.235962 0.116593 0.970796
0.362889 0.119912 0.970426
0.489816 0.123231 0.970056
0.616743 0.126549 0.969686
0.743670 0.129868 0.969316
0.871497 0.133187 0.968946
0.970846 0.135711 0.968786
0.015381 0.237902 0.971216
0.113570 0.240682 0.970308
0.240497 0.244001 0.969938
0.367424 0.247320 0.969567
0.494351 0.250639 0.969197
0.622135 0.253958 0.968827
0.750222 0.257055 0.969105
0.878309 0.259432 0.971482
0.977658 0.261271 0.973321
0.019915 0.365310 0.970357
0.118104 0.368091 0.969449
0.245031 0.371410 0.969079
0.372773 0.374729 0.968709
0.500860 0.377860 0.968885
0.628947 0.380237 0.971262
0.757034 0.382615 0.973640
0.885121 0.384992 0.976017
0.984470 0.386830 0.977855
0.024450 0.492719 0.969499
0.123411 0.495500 0.968591
0.251498 0.498666 0.968666
0.379585 0.501043 0.971043
0.507672 0.503420 0.973420
0.635759 0.505797 0.975797
0.763846 0.508174 0.978174
0.891933 0.510551 0.980551
0.991281 0.512390 0.982390
0.030874 0.620010 0.968985
0.130223 0.621848 0.970823
0.258310 0.624225 0.973200
0.386396 0.626603 0.975578
0.514483 0.628980 0.977955
0.642570 0.631357 0.980332
0.770657 0.633734 0.982709
0.898744 0.636111 0.985086
0.998093 0.637950 0.986925
0.037686 0.745569 0.973519
0.137034 0.747408 0.975358
0.265121 0.749785 0.977735
0.393208 0.752162 0.980112
0.521295 0.754539 0.982489
0.649382 0.756916 0.984866
0.777469 0.759293 0.987243
0.905556 0.761670 0.989620
1.000000 0.763509 0.991459
0.044497 0.871129 0.978054
0.143846 0.872968 0.979893
0.271933 0.875345 0.982270
0.400020 0.877722 0.984647
0.528107 0.880099 0.987024
0.656194 0.882476 0.989401
0.784281 0.884853 0.991778
0.912368 0.887230 0.994155
1.000000 0.889069 0.995994
0.050781 0.982060 0.982060
0.150129 0.983899 0.983899
0.278216 0.986276 0.986276
0.406303 0.988653 0.988653
0.534390 0.991030 0.991030
0.662477 0.993407 0.993407
0.790564 0.995784 0.995784
0.918651 0.998161 0.998161
1.000000 1.000000 1.000000
