docs/luts/fresh-drone-real-estate-punch.cube
TITLE "FreshLUTs??-??????"
LUT_3D_SIZE 33
DOMAIN_MIN 0.0 0.0 0.0
DOMAIN_MAX 1.0 1.0 1.0
0.005500 0.009900 0.015400
0.005500 0.009900 0.015400
0.016201 0.009900 0.015400
0.053654 0.009900 0.015400
0.091108 0.009900 0.015400
0.128561 0.009900 0.015400
0.166015 0.009900 0.015400
0.203468 0.009900 0.015400
0.240922 0.009900 0.015400
0.278375 0.009900 0.015400
0.315829 0.009900 0.015400
0.353282 0.009900 0.015400
0.390736 0.009900 0.015400
0.428190 0.009900 0.015400
0.465643 0.009900 0.015400
0.503096 0.009900 0.015400
0.540550 0.009900 0.015400
0.578004 0.009900 0.015400
0.615457 0.009900 0.015400
0.652910 0.009900 0.015400
0.690364 0.009900 0.015400
0.727818 0.009900 0.015400
0.765271 0.009900 0.015400
0.802724 0.009900 0.015400
0.840178 0.009900 0.015400
0.877632 0.009900 0.015400
0.915085 0.009900 0.015400
0.952538 0.009900 0.015400
0.989992 0.009900 0.015400
1.000000 0.009900 0.015400
1.000000 0.009900 0.015400
1.000000 0.009900 0.015400
1.000000 0.009900 0.015400
0.005500 0.009900 0.015400
0.005500 0.009900 0.015400
0.016201 0.009900 0.015400
0.053654 0.009900 0.015400
0.091108 0.009900 0.015400
0.128561 0.009900 0.015400
0.166015 0.009900 0.015400
0.203468 0.009900 0.015400
0.240922 0.009900 0.015400
0.278375 0.009900 0.015400
0.315829 0.009900 0.015400
0.353282 0.009900 0.015400
0.390736 0.009900 0.015400
0.428190 0.009900 0.015400
0.465643 0.009900 0.015400
0.503096 0.009900 0.015400
0.540550 0.009900 0.015400
0.578004 0.009900 0.015400
0.615457 0.009900 0.015400
0.652910 0.009900 0.015400
0.690364 0.009900 0.015400
0.727818 0.009900 0.015400
0.765271 0.009900 0.015400
0.802724 0.009900 0.015400
0.840178 0.009900 0.015400
0.877632 0.009900 0.015400
0.915085 0.009900 0.015400
0.952538 0.009900 0.015400
0.989992 0.009900 0.015400
1.000000 0.009900 0.015400
1.000000 0.009900 0.015400
1.000000 0.009900 0.015400
1.000000 0.009900 0.015400
0.005500 0.020313 0.015400
0.005500 0.020313 0.015400
0.015614 0.020014 0.015400
0.053067 0.018967 0.015400
0.090521 0.017921 0.015400
0.127974 0.016874 0.015400
0.165428 0.015828 0.015400
0.202881 0.014781 0.015400
0.240335 0.013735 0.015400
0.277789 0.012688 0.015400
0.315242 0.011642 0.015400
0.352695 0.010595 0.015400
0.390149 0.009900 0.015400
0.427603 0.009900 0.015400
0.465056 0.009900 0.015400
0.502509 0.009900 0.015400
0.539963 0.009900 0.015400
0.577416 0.009900 0.015400
0.614870 0.009900 0.015400
0.652323 0.009900 0.015400
0.689777 0.009900 0.015400
0.727231 0.009900 0.015400
0.764684 0.009900 0.015400
0.802137 0.009900 0.015400
0.839591 0.009900 0.015400
0.877045 0.009900 0.015400
0.914498 0.009900 0.015400
0.951952 0.009900 0.015400
0.989405 0.009900 0.015400
1.000000 0.009900 0.015400
1.000000 0.009900 0.015400
1.000000 0.009900 0.015400
1.000000 0.009900 0.015400
0.005500 0.056758 0.015400
0.005500 0.056758 0.015400
0.013559 0.056459 0.015400
0.051013 0.055413 0.015400
0.088466 0.054366 0.015400
0.125920 0.053320 0.015400
0.163373 0.052273 0.015400
0.200827 0.051227 0.015400
0.238281 0.050180 0.015400
0.275734 0.049134 0.015400
0.313188 0.048087 0.015400
0.350641 0.047041 0.015400
0.388095 0.045994 0.015400
0.425548 0.044948 0.015400
0.463002 0.043901 0.015400
0.500455 0.042855 0.015400
0.537909 0.041808 0.015400
0.575362 0.040762 0.015400
0.612816 0.039715 0.015400
0.650269 0.038669 0.015400
0.687723 0.037622 0.015400
0.725176 0.036576 0.015400
0.762629 0.035529 0.015400
0.800083 0.034483 0.015400
0.837537 0.033436 0.015400
0.874990 0.032390 0.015400
0.912444 0.031343 0.015400
0.949897 0.030297 0.015400
0.987351 0.029250 0.015400
1.000000 0.028204 0.015400
1.000000 0.027157 0.015400
1.000000 0.026858 0.015400
1.000000 0.026858 0.015400
0.005500 0.093204 0.015400
0.005500 0.093204 0.015400
0.011505 0.092905 0.015400
0.048958 0.091858 0.015400
0.086412 0.090812 0.015400
0.123866 0.089765 0.015400
0.161319 0.088719 0.015400
0.198772 0.087672 0.015400
0.236226 0.086626 0.015400
0.273680 0.085579 0.015400
0.311133 0.084533 0.015400
0.348586 0.083486 0.015400
0.386040 0.082440 0.015400
0.423494 0.081393 0.015400
0.460947 0.080347 0.015400
0.498401 0.079300 0.015400
0.535854 0.078254 0.015400
0.573307 0.077207 0.015400
0.610761 0.076161 0.015400
0.648215 0.075114 0.015400
0.685668 0.074068 0.015400
0.723122 0.073021 0.015400
0.760575 0.071975 0.015400
0.798029 0.070928 0.015400
0.835482 0.069882 0.015400
0.872936 0.068835 0.015400
0.910389 0.067789 0.015400
0.947843 0.066742 0.015400
0.985296 0.065696 0.015400
1.000000 0.064649 0.015400
1.000000 0.063603 0.015400
1.000000 0.063304 0.015400
1.000000 0.063304 0.015400
0.005500 0.129650 0.015400
0.005500 0.129650 0.015400
0.009450 0.129350 0.015400
0.046904 0.128304 0.015400
0.084357 0.127257 0.015400
0.121811 0.126211 0.015400
0.159264 0.125164 0.015400
0.196718 0.124118 0.015400
0.234171 0.123072 0.015400
0.271625 0.122025 0.015400
0.309078 0.120979 0.015400
0.346532 0.119932 0.015400
0.383986 0.118885 0.015400
0.421439 0.117839 0.015400
0.458893 0.116792 0.015400
0.496346 0.115746 0.015400
0.533799 0.114699 0.015400
0.571253 0.113653 0.015400
0.608707 0.112606 0.015400
0.646160 0.111560 0.015400
0.683613 0.110513 0.015400
0.721067 0.109467 0.015400
0.758520 0.108420 0.015400
0.795974 0.107374 0.015400
0.833427 0.106327 0.015400
0.870881 0.105281 0.015400
0.908335 0.104234 0.015400
0.945788 0.103188 0.015400
0.983241 0.102141 0.015400
1.000000 0.101095 0.015400
1.000000 0.100048 0.015400
1.000000 0.099749 0.015400
1.000000 0.099749 0.015400
0.005500 0.166095 0.015400
0.005500 0.166095 0.015400
0.007396 0.165796 0.015400
0.044849 0.164749 0.015400
0.082303 0.163703 0.015400
0.119757 0.162656 0.015400
0.157210 0.161610 0.015400
0.194663 0.160563 0.015400
0.232117 0.159517 0.015400
0.269570 0.158470 0.015400
0.307024 0.157424 0.015400
0.344477 0.156377 0.015400
0.381931 0.155331 0.015400
0.419385 0.154284 0.015400
0.456838 0.153238 0.015400
0.494291 0.152191 0.015400
0.531745 0.151145 0.015400
0.569199 0.150098 0.015400
0.606652 0.149052 0.015400
0.644105 0.148005 0.015400
0.681559 0.146959 0.015400
0.719013 0.145912 0.015400
0.756466 0.144866 0.015400
0.793920 0.143819 0.015400
0.831373 0.142773 0.015400
0.868827 0.141726 0.015400
0.906280 0.140680 0.015400
0.943733 0.139633 0.015400
0.981187 0.138587 0.015400
1.000000 0.137540 0.015400
1.000000 0.136494 0.015400
1.000000 0.136195 0.015400
1.000000 0.136195 0.015400
0.005500 0.202540 0.015400
0.005500 0.202540 0.015400
0.005500 0.202241 0.015400
0.042795 0.201195 0.015400
0.080248 0.200148 0.015400
0.117702 0.199102 0.015400
0.155155 0.198055 0.015400
0.192609 0.197009 0.015400
0.230062 0.195962 0.015400
0.267516 0.194916 0.015400
0.304970 0.193869 0.015400
0.342423 0.192823 0.015400
0.379877 0.191776 0.015400
0.417330 0.190730 0.015400
0.454784 0.189683 0.015400
0.492237 0.188637 0.015400
0.529690 0.187590 0.015400
0.567144 0.186544 0.015400
0.604598 0.185497 0.015400
0.642051 0.184451 0.015400
0.679505 0.183404 0.015400
0.716958 0.182358 0.015400
0.754411 0.181311 0.015400
0.791865 0.180265 0.015400
0.829318 0.179218 0.015400
0.866772 0.178172 0.015400
0.904226 0.177125 0.015400
0.941679 0.176079 0.015400
0.979133 0.175032 0.015400
1.000000 0.173986 0.015400
1.000000 0.172939 0.015400
1.000000 0.172640 0.015400
1.000000 0.172640 0.015400
0.005500 0.238986 0.015400
0.005500 0.238986 0.015400
0.005500 0.238687 0.015400
0.040740 0.237640 0.015400
0.078194 0.236594 0.015400
0.115647 0.235547 0.015400
0.153101 0.234501 0.015400
0.190554 0.233454 0.015400
0.228008 0.232408 0.015400
0.265462 0.231361 0.015400
0.302915 0.230315 0.015400
0.340368 0.229268 0.015400
0.377822 0.228222 0.015400
0.415276 0.227175 0.015400
0.452729 0.226129 0.015400
0.490183 0.225082 0.015400
0.527636 0.224036 0.015400
0.565090 0.222989 0.015400
0.602543 0.221943 0.015400
0.639996 0.220896 0.015400
0.677450 0.219850 0.015400
0.714904 0.218803 0.015400
0.752357 0.217757 0.015400
0.789810 0.216710 0.015400
0.827264 0.215664 0.015400
0.864718 0.214617 0.015400
0.902171 0.213571 0.015400
0.939624 0.212524 0.015400
0.977078 0.211478 0.015400
1.000000 0.210431 0.015400
1.000000 0.209385 0.015400
1.000000 0.209086 0.015400
1.000000 0.209086 0.015400
0.005500 0.275432 0.015400
0.005500 0.275432 0.015400
0.005500 0.275133 0.015400
0.038686 0.274086 0.015400
0.076139 0.273040 0.015400
0.113593 0.271993 0.015400
0.151046 0.270947 0.015400
0.188500 0.269900 0.015400
0.225953 0.268854 0.015400
0.263407 0.267807 0.015400
0.300860 0.266761 0.015400
0.338314 0.265714 0.015400
0.375767 0.264668 0.015400
0.413221 0.263621 0.015400
0.450675 0.262575 0.015400
0.488128 0.261528 0.015400
0.525582 0.260482 0.015400
0.563035 0.259435 0.015400
0.600489 0.258389 0.015400
0.637942 0.257342 0.015400
0.675395 0.256296 0.015400
0.712849 0.255249 0.015400
0.750302 0.254202 0.015400
0.787756 0.253156 0.015400
0.825210 0.252109 0.015400
0.862663 0.251063 0.015400
0.900117 0.250016 0.015400
0.937570 0.248970 0.015400
0.975024 0.247923 0.015400
1.000000 0.246877 0.015400
1.000000 0.245830 0.015400
1.000000 0.245531 0.015400
1.000000 0.245531 0.015400
0.005500 0.311877 0.015400
0.005500 0.311877 0.015400
0.005500 0.311578 0.015400
0.036631 0.310532 0.015400
0.074085 0.309485 0.015400
0.111538 0.308439 0.015400
0.148992 0.307392 0.015400
0.186445 0.306345 0.015400
0.223899 0.305299 0.015400
0.261353 0.304253 0.015400
0.298806 0.303206 0.015400
0.336259 0.302160 0.015400
0.373713 0.301113 0.015400
0.411167 0.300067 0.015400
0.448620 0.299020 0.015400
0.486073 0.297974 0.015400
0.523527 0.296927 0.015400
0.560980 0.295880 0.015400
0.598434 0.294834 0.015400
0.635887 0.293787 0.015400
0.673341 0.292741 0.015400
0.710795 0.291694 0.015400
0.748248 0.290648 0.015400
0.785701 0.289602 0.015400
0.823155 0.288555 0.015400
0.860608 0.287509 0.015400
0.898062 0.286462 0.015400
0.935516 0.285415 0.015400
0.972969 0.284369 0.015400
1.000000 0.283322 0.015400
1.000000 0.282276 0.015400
1.000000 0.281977 0.015400
1.000000 0.281977 0.015400
0.005500 0.348322 0.015400
0.005500 0.348322 0.015400
0.005500 0.348023 0.015400
0.034577 0.346977 0.015400
0.072030 0.345930 0.015400
0.109484 0.344884 0.015400
0.146937 0.343837 0.015400
0.184391 0.342791 0.015400
0.221844 0.341745 0.015400
0.259298 0.340698 0.015400
0.296752 0.339651 0.015400
0.334205 0.338605 0.015400
0.371659 0.337558 0.015400
0.409112 0.336512 0.015400
0.446566 0.335465 0.015400
0.484019 0.334419 0.015400
0.521473 0.333372 0.015400
0.558926 0.332326 0.015400
0.596380 0.331279 0.015400
0.633833 0.330233 0.015400
0.671287 0.329186 0.015400
0.708740 0.328140 0.015400
0.746193 0.327093 0.015400
0.783647 0.326047 0.015400
0.821101 0.325000 0.015400
0.858554 0.323954 0.015400
0.896008 0.322907 0.015400
0.933461 0.321861 0.015400
0.970915 0.320815 0.015400
1.000000 0.319768 0.015400
1.000000 0.318721 0.015400
1.000000 0.318422 0.015400
1.000000 0.318422 0.015400
0.005500 0.384768 0.015400
0.005500 0.384768 0.015400
0.005500 0.384469 0.015400
0.032522 0.383422 0.015400
0.069976 0.382376 0.015400
0.107429 0.381329 0.015400
0.144883 0.380283 0.015400
0.182336 0.379237 0.015400
0.219790 0.378190 0.015400
0.257244 0.377144 0.015400
0.294697 0.376097 0.015400
0.332150 0.375051 0.015400
0.369604 0.374004 0.015400
0.407058 0.372957 0.015400
0.444511 0.371911 0.015400
0.481964 0.370864 0.015400
0.519418 0.369818 0.015400
0.556871 0.368772 0.015400
0.594325 0.367725 0.015400
0.631778 0.366679 0.015400
0.669232 0.365632 0.015400
0.706685 0.364586 0.015400
0.744139 0.363539 0.015400
0.781593 0.362492 0.015400
0.819046 0.361446 0.015400
0.856500 0.360399 0.015400
0.893953 0.359353 0.015400
0.931406 0.358306 0.015400
0.968860 0.357260 0.015400
1.000000 0.356213 0.015400
1.000000 0.355167 0.015400
1.000000 0.354868 0.015400
1.000000 0.354868 0.015400
0.005500 0.421214 0.015400
0.005500 0.421214 0.015400
0.005500 0.420915 0.015400
0.030468 0.419868 0.015400
0.067921 0.418822 0.015400
0.105375 0.417775 0.015400
0.142828 0.416729 0.015400
0.180282 0.415682 0.015400
0.217735 0.414636 0.015400
0.255189 0.413589 0.015400
0.292642 0.412543 0.015400
0.330096 0.411496 0.015400
0.367549 0.410450 0.015400
0.405003 0.409403 0.015400
0.442456 0.408357 0.015400
0.479910 0.407310 0.015400
0.517363 0.406264 0.015400
0.554817 0.405217 0.015400
0.592271 0.404171 0.015400
0.629724 0.403124 0.015400
0.667177 0.402078 0.015400
0.704631 0.401031 0.015400
0.742084 0.399985 0.015400
0.779538 0.398938 0.015400
0.816991 0.397892 0.015400
0.854445 0.396845 0.015400
0.891899 0.395799 0.015400
0.929352 0.394752 0.015400
0.966806 0.393706 0.015400
1.000000 0.392659 0.015400
1.000000 0.391613 0.015400
1.000000 0.391314 0.015400
1.000000 0.391314 0.015400
0.005500 0.457659 0.015400
0.005500 0.457659 0.015400
0.005500 0.457360 0.015400
0.028413 0.456314 0.015400
0.065867 0.455267 0.015400
0.103320 0.454221 0.015400
0.140774 0.453174 0.015400
0.178227 0.452128 0.015400
0.215681 0.451081 0.015400
0.253134 0.450035 0.015400
0.290588 0.448988 0.015400
0.328041 0.447942 0.015400
0.365495 0.446895 0.015400
0.402949 0.445849 0.015400
0.440402 0.444802 0.015400
0.477855 0.443756 0.015400
0.515309 0.442709 0.015400
0.552762 0.441663 0.015400
0.590216 0.440616 0.015400
0.627669 0.439570 0.015400
0.665123 0.438523 0.015400
0.702577 0.437476 0.015400
0.740030 0.436430 0.015400
0.777483 0.435384 0.015400
0.814937 0.434337 0.015400
0.852391 0.433291 0.015400
0.889844 0.432244 0.015400
0.927297 0.431198 0.015400
0.964751 0.430151 0.015400
1.000000 0.429104 0.015400
1.000000 0.428058 0.015400
1.000000 0.427759 0.015400
1.000000 0.427759 0.015400
0.005500 0.494105 0.015400
0.005500 0.494105 0.015400
0.005500 0.493806 0.015400
0.026359 0.492759 0.015400
0.063812 0.491712 0.015400
0.101266 0.490666 0.015400
0.138719 0.489619 0.015400
0.176173 0.488573 0.015400
0.213626 0.487526 0.015400
0.251080 0.486480 0.015400
0.288533 0.485434 0.015400
0.325987 0.484387 0.015400
0.363440 0.483341 0.015400
0.400894 0.482294 0.015400
0.438348 0.481247 0.015400
0.475801 0.480201 0.015400
0.513254 0.479154 0.015400
0.550708 0.478108 0.015400
0.588162 0.477061 0.015400
0.625615 0.476015 0.015400
0.663068 0.474969 0.015400
0.700522 0.473922 0.015400
0.737976 0.472876 0.015400
0.775429 0.471829 0.015400
0.812883 0.470782 0.015400
0.850336 0.469736 0.015400
0.887790 0.468689 0.015400
0.925243 0.467643 0.015400
0.962696 0.466596 0.015400
1.000000 0.465550 0.015400
1.000000 0.464503 0.015400
1.000000 0.464204 0.015400
1.000000 0.464204 0.015400
0.005500 0.530550 0.015400
0.005500 0.530550 0.015400
0.005500 0.530251 0.015400
0.024304 0.529205 0.015400
0.061758 0.528158 0.015400
0.099211 0.527112 0.015400
0.136665 0.526065 0.015400
0.174118 0.525019 0.015400
0.211572 0.523972 0.015400
0.249026 0.522926 0.015400
0.286479 0.521879 0.015400
0.323932 0.520833 0.015400
0.361386 0.519786 0.015400
0.398840 0.518740 0.015400
0.436293 0.517693 0.015400
0.473746 0.516647 0.015400
0.511200 0.515600 0.015400
0.548654 0.514553 0.015400
0.586107 0.513507 0.015400
0.623560 0.512460 0.015400
0.661014 0.511414 0.015400
0.698468 0.510367 0.015400
0.735921 0.509321 0.015400
0.773374 0.508274 0.015400
0.810828 0.507228 0.015400
0.848282 0.506181 0.015400
0.885735 0.505135 0.015400
0.923189 0.504089 0.015400
0.960642 0.503042 0.015400
0.998096 0.501996 0.015400
1.000000 0.500949 0.015400
1.000000 0.500650 0.015400
1.000000 0.500650 0.015400
0.005500 0.566996 0.015400
0.005500 0.566996 0.015400
0.005500 0.566697 0.015400
0.022250 0.565650 0.015400
0.059703 0.564604 0.015400
0.097157 0.563557 0.015400
0.134610 0.562511 0.015400
0.172064 0.561464 0.015400
0.209517 0.560418 0.015400
0.246971 0.559371 0.015400
0.284424 0.558325 0.015400
0.321878 0.557278 0.015400
0.359331 0.556232 0.015400
0.396785 0.555185 0.015400
0.434238 0.554139 0.015400
0.471692 0.553092 0.015400
0.509145 0.552046 0.015400
0.546599 0.550999 0.015400
0.584052 0.549953 0.015400
0.621506 0.548906 0.015400
0.658960 0.547860 0.015400
0.696413 0.546813 0.015400
0.733866 0.545767 0.015400
0.771320 0.544720 0.015400
0.808773 0.543674 0.015400
0.846227 0.542627 0.015400
0.883681 0.541581 0.015400
0.921134 0.540534 0.015400
0.958588 0.539488 0.015400
0.996041 0.538441 0.015400
1.000000 0.537394 0.015400
1.000000 0.537096 0.015400
1.000000 0.537096 0.015400
0.005500 0.603441 0.015400
0.005500 0.603441 0.015400
0.005500 0.603142 0.015400
0.020195 0.602096 0.015400
0.057649 0.601049 0.015400
0.095102 0.600003 0.015400
0.132556 0.598956 0.015400
0.170009 0.597910 0.015400
0.207463 0.596863 0.015400
0.244917 0.595817 0.015400
0.282370 0.594770 0.015400
0.319823 0.593724 0.015400
0.357277 0.592677 0.015400
0.394731 0.591631 0.015400
0.432184 0.590584 0.015400
0.469637 0.589538 0.015400
0.507091 0.588491 0.015400
0.544544 0.587445 0.015400
0.581998 0.586398 0.015400
0.619451 0.585352 0.015400
0.656905 0.584305 0.015400
0.694358 0.583259 0.015400
0.731812 0.582212 0.015400
0.769265 0.581166 0.015400
0.806719 0.580119 0.015400
0.844173 0.579073 0.015400
0.881626 0.578026 0.015400
0.919079 0.576980 0.015400
0.956533 0.575933 0.015400
0.993986 0.574887 0.015400
1.000000 0.573840 0.015400
1.000000 0.573541 0.015400
1.000000 0.573541 0.015400
0.005500 0.639887 0.015400
0.005500 0.639887 0.015400
0.005500 0.639587 0.015400
0.018141 0.638541 0.015400
0.055594 0.637495 0.015400
0.093048 0.636448 0.015400
0.130501 0.635401 0.015400
0.167955 0.634355 0.015400
0.205408 0.633309 0.015400
0.242862 0.632262 0.015400
0.280315 0.631216 0.015400
0.317769 0.630169 0.015400
0.355222 0.629123 0.015400
0.392676 0.628076 0.015400
0.430129 0.627030 0.015400
0.467583 0.625983 0.015400
0.505036 0.624937 0.015400
0.542490 0.623890 0.015400
0.579944 0.622843 0.015400
0.617397 0.621797 0.015400
0.654851 0.620750 0.015400
0.692304 0.619704 0.015400
0.729757 0.618657 0.015400
0.767211 0.617611 0.015400
0.804665 0.616564 0.015400
0.842118 0.615518 0.015400
0.879572 0.614471 0.015400
0.917025 0.613425 0.015400
0.954479 0.612379 0.015400
0.991932 0.611332 0.015400
1.000000 0.610286 0.015400
1.000000 0.609986 0.015400
1.000000 0.609986 0.015400
0.005500 0.676332 0.015400
0.005500 0.676332 0.015400
0.005500 0.676033 0.015400
0.016086 0.674987 0.015400
0.053540 0.673940 0.015400
0.090993 0.672894 0.015400
0.128447 0.671847 0.015400
0.165900 0.670801 0.015400
0.203354 0.669754 0.015400
0.240807 0.668708 0.015400
0.278261 0.667661 0.015400
0.315714 0.666615 0.015400
0.353168 0.665568 0.015400
0.390622 0.664521 0.015400
0.428075 0.663475 0.015400
0.465528 0.662429 0.015400
0.502982 0.661382 0.015400
0.540435 0.660336 0.015400
0.577889 0.659289 0.015400
0.615342 0.658243 0.015400
0.652796 0.657196 0.015400
0.690249 0.656150 0.015400
0.727703 0.655103 0.015400
0.765156 0.654057 0.015400
0.802610 0.653010 0.015400
0.840063 0.651964 0.015400
0.877517 0.650917 0.015400
0.914971 0.649871 0.015400
0.952424 0.648824 0.015400
0.989878 0.647778 0.015400
1.000000 0.646731 0.015400
1.000000 0.646432 0.015400
1.000000 0.646432 0.015400
0.005500 0.712778 0.015400
0.005500 0.712778 0.015400
0.005500 0.712479 0.015400
0.014032 0.711432 0.015400
0.051485 0.710386 0.015400
0.088939 0.709339 0.015400
0.126392 0.708293 0.015400
0.163846 0.707246 0.015400
0.201299 0.706200 0.015400
0.238753 0.705153 0.015400
0.276206 0.704107 0.015400
0.313660 0.703060 0.015400
0.351113 0.702014 0.015400
0.388567 0.700967 0.015400
0.426020 0.699921 0.015400
0.463474 0.698874 0.015400
0.500927 0.697828 0.015400
0.538381 0.696781 0.015400
0.575835 0.695735 0.015400
0.613288 0.694688 0.015400
0.650741 0.693642 0.015400
0.688195 0.692595 0.015400
0.725648 0.691549 0.015400
0.763102 0.690502 0.015400
0.800555 0.689456 0.015400
0.838009 0.688409 0.015400
0.875463 0.687363 0.015400
0.912916 0.686316 0.015400
0.950369 0.685270 0.015400
0.987823 0.684223 0.015400
1.000000 0.683177 0.015400
1.000000 0.682878 0.015400
1.000000 0.682878 0.015400
0.005500 0.749223 0.015400
0.005500 0.749223 0.015400
0.005500 0.748924 0.015400
0.011977 0.747877 0.015400
0.049431 0.746831 0.015400
0.086884 0.745785 0.015400
0.124338 0.744738 0.015400
0.161791 0.743691 0.015400
0.199245 0.742645 0.015400
0.236698 0.741599 0.015400
0.274152 0.740552 0.015400
0.311605 0.739506 0.015400
0.349059 0.738459 0.015400
0.386512 0.737413 0.015400
0.423966 0.736366 0.015400
0.461419 0.735320 0.015400
0.498873 0.734273 0.015400
0.536326 0.733227 0.015400
0.573780 0.732180 0.015400
0.611233 0.731133 0.015400
0.648687 0.730087 0.015400
0.686141 0.729040 0.015400
0.723594 0.727994 0.015400
0.761047 0.726947 0.015400
0.798501 0.725901 0.015400
0.835955 0.724854 0.015400
0.873408 0.723808 0.015400
0.910861 0.722761 0.015400
0.948315 0.721715 0.015400
0.985769 0.720668 0.015400
1.000000 0.719622 0.015400
1.000000 0.719323 0.015400
1.000000 0.719323 0.015400
0.005500 0.785669 0.015400
0.005500 0.785669 0.015400
0.005500 0.785370 0.015400
0.009923 0.784323 0.015400
0.047376 0.783277 0.015400
0.084830 0.782230 0.015400
0.122283 0.781184 0.015400
0.159737 0.780137 0.015400
0.197190 0.779091 0.015400
0.234644 0.778044 0.015400
0.272097 0.776998 0.015400
0.309551 0.775951 0.015400
0.347004 0.774904 0.015400
0.384458 0.773858 0.015400
0.421911 0.772811 0.015400
0.459365 0.771765 0.015400
0.496818 0.770719 0.015400
0.534272 0.769672 0.015400
0.571725 0.768625 0.015400
0.609179 0.767579 0.015400
0.646632 0.766533 0.015400
0.684086 0.765486 0.015400
0.721539 0.764440 0.015400
0.758993 0.763393 0.015400
0.796446 0.762347 0.015400
0.833900 0.761300 0.015400
0.871354 0.760254 0.015400
0.908807 0.759207 0.015400
0.946261 0.758161 0.015400
0.983714 0.757114 0.015400
1.000000 0.756068 0.015400
1.000000 0.755769 0.015400
1.000000 0.755769 0.015400
0.005500 0.822114 0.015400
0.005500 0.822114 0.015400
0.005500 0.821815 0.015400
0.007868 0.820769 0.015400
0.045322 0.819722 0.015400
0.082775 0.818676 0.015400
0.120229 0.817629 0.015400
0.157682 0.816583 0.015400
0.195136 0.815536 0.015400
0.232590 0.814490 0.015400
0.270043 0.813443 0.015400
0.307496 0.812397 0.015400
0.344950 0.811350 0.015400
0.382404 0.810304 0.015400
0.419857 0.809257 0.015400
0.457310 0.808211 0.015400
0.494764 0.807164 0.015400
0.532218 0.806118 0.015400
0.569671 0.805071 0.015400
0.607124 0.804025 0.015400
0.644578 0.802978 0.015400
0.682032 0.801932 0.015400
0.719485 0.800885 0.015400
0.756938 0.799839 0.015400
0.794392 0.798792 0.015400
0.831846 0.797746 0.015400
0.869299 0.796699 0.015400
0.906752 0.795653 0.015400
0.944206 0.794606 0.015400
0.981660 0.793560 0.015400
1.000000 0.792513 0.015400
1.000000 0.792214 0.015400
1.000000 0.792214 0.015400
0.005500 0.858560 0.015400
0.005500 0.858560 0.015400
0.005500 0.858261 0.015400
0.005814 0.857214 0.015400
0.043267 0.856168 0.015400
0.080721 0.855121 0.015400
0.118174 0.854075 0.015400
0.155628 0.853028 0.015400
0.193081 0.851982 0.015400
0.230535 0.850935 0.015400
0.267988 0.849889 0.015400
0.305442 0.848842 0.015400
0.342895 0.847796 0.015400
0.380349 0.846749 0.015400
0.417802 0.845703 0.015400
0.455256 0.844656 0.015400
0.492709 0.843610 0.015400
0.530163 0.842563 0.015400
0.567616 0.841517 0.015400
0.605070 0.840470 0.015400
0.642523 0.839424 0.015400
0.679977 0.838377 0.015400
0.717430 0.837331 0.015400
0.754884 0.836284 0.015400
0.792338 0.835238 0.015400
0.829791 0.834191 0.015400
0.867245 0.833145 0.015400
0.904698 0.832098 0.015400
0.942152 0.831052 0.015400
0.979605 0.830005 0.015400
1.000000 0.828959 0.015400
1.000000 0.828660 0.015400
1.000000 0.828660 0.015400
0.005500 0.895005 0.015400
0.005500 0.895005 0.015400
0.005500 0.894706 0.015400
0.005500 0.893660 0.015400
0.041213 0.892613 0.015400
0.078666 0.891567 0.015400
0.116120 0.890520 0.015400
0.153573 0.889474 0.015400
0.191027 0.888427 0.015400
0.228480 0.887381 0.015400
0.265934 0.886334 0.015400
0.303387 0.885288 0.015400
0.340841 0.884241 0.015400
0.378295 0.883195 0.015400
0.415748 0.882148 0.015400
0.453201 0.881102 0.015400
0.490655 0.880055 0.015400
0.528108 0.879009 0.015400
0.565562 0.877962 0.015400
0.603015 0.876916 0.015400
0.640469 0.875869 0.015400
0.677922 0.874823 0.015400
0.715376 0.873776 0.015400
0.752829 0.872730 0.015400
0.790283 0.871683 0.015400
0.827736 0.870637 0.015400
0.865190 0.869590 0.015400
