docs/luts/fresh-cinema-3.cube
TITLE "FreshLUTs??-??3"
LUT_3D_SIZE 9
DOMAIN_MIN 0.0 0.0 0.0
DOMAIN_MAX 1.0 1.0 1.0
0.000000 0.000000 0.045000
0.051402 0.000000 0.041468
0.205608 0.000000 0.037936
0.359814 0.000000 0.034404
0.514020 0.000000 0.030872
0.668226 0.000000 0.027340
0.822432 0.000000 0.023808
0.976638 0.000000 0.020276
1.000000 0.000000 0.016744
0.000000 0.049156 0.038066
0.049876 0.050127 0.034534
0.204082 0.049903 0.031002
0.358288 0.049679 0.027470
0.512494 0.049455 0.023938
0.666700 0.049230 0.020406
0.820906 0.049006 0.016874
0.975112 0.048782 0.013343
1.000000 0.049754 0.009811
0.000000 0.199633 0.031132
0.046471 0.200604 0.027600
0.200677 0.200380 0.024068
0.354883 0.200156 0.020536
0.509089 0.199932 0.017004
0.663295 0.199707 0.013472
0.817501 0.199483 0.009940
0.971707 0.199259 0.006409
1.000000 0.200231 0.002877
0.000000 0.350110 0.024198
0.043067 0.351082 0.020666
0.197273 0.350857 0.017134
0.351479 0.350633 0.013602
0.505685 0.350409 0.010070
0.659891 0.350185 0.006538
0.815568 0.349960 0.003007
0.972029 0.349503 0.000000
1.000000 0.348905 0.000000
0.000000 0.500587 0.017264
0.039662 0.501559 0.013732
0.193868 0.501335 0.010200
0.348074 0.501110 0.006668
0.503668 0.500886 0.003137
0.660129 0.500486 0.000000
0.816591 0.498692 0.000000
0.973052 0.496898 0.000000
1.000000 0.496300 0.000000
0.000000 0.651064 0.010330
0.036257 0.652036 0.006798
0.191768 0.651812 0.003266
0.348230 0.651469 0.000000
0.504691 0.649675 0.000000
0.661153 0.647881 0.000000
0.817614 0.646087 0.000000
0.974075 0.644293 0.000000
1.000000 0.643695 0.000000
0.001222 0.801541 0.003396
0.036330 0.802453 0.000000
0.192792 0.800659 0.000000
0.349253 0.798865 0.000000
0.505714 0.797071 0.000000
0.662176 0.795277 0.000000
0.818637 0.793483 0.000000
0.975098 0.791689 0.000000
1.000000 0.791091 0.000000
0.005650 0.950446 0.000000
0.037353 0.949848 0.000000
0.193815 0.948054 0.000000
0.350276 0.946260 0.000000
0.506738 0.944466 0.000000
0.663199 0.942672 0.000000
0.819660 0.940878 0.000000
0.976122 0.939084 0.000000
1.000000 0.938486 0.000000
0.010078 1.000000 0.000000
0.040255 1.000000 0.000000
0.196716 1.000000 0.000000
0.353178 1.000000 0.000000
0.509639 1.000000 0.000000
0.666101 1.000000 0.000000
0.822562 1.000000 0.000000
0.979023 1.000000 0.000000
1.000000 1.000000 0.000000
0.000000 0.000000 0.118723
0.051071 0.000000 0.114593
0.205277 0.000000 0.109267
0.359483 0.000000 0.103941
0.513689 0.000000 0.098615
0.667895 0.000000 0.093289
0.822101 0.000000 0.087963
0.976307 0.000000 0.082637
1.000000 0.000000 0.078507
0.000000 0.049423 0.110263
0.049545 0.050395 0.106133
0.203751 0.050171 0.100807
0.357957 0.049947 0.095481
0.512163 0.049722 0.090155
0.666369 0.049498 0.084829
0.820575 0.049274 0.079503
0.974781 0.049050 0.074177
1.000000 0.050021 0.070047
0.000000 0.199901 0.099924
0.046141 0.200872 0.095794
0.200347 0.200648 0.090468
0.354553 0.200424 0.085142
0.508759 0.200200 0.079816
0.662965 0.199975 0.074490
0.817171 0.199751 0.069164
0.971535 0.199527 0.063839
1.000000 0.200499 0.059709
0.000000 0.350378 0.089586
0.042736 0.351349 0.085456
0.196942 0.351125 0.080130
0.351148 0.350901 0.074804
0.505354 0.350677 0.069478
0.659635 0.350452 0.064152
0.816097 0.350228 0.058826
0.972558 0.349172 0.055372
1.000000 0.348574 0.054774
0.000000 0.500855 0.079247
0.039331 0.501827 0.075117
0.193537 0.501602 0.069791
0.347743 0.501378 0.064465
0.504197 0.501154 0.059139
0.660659 0.500155 0.055555
0.817120 0.498361 0.053761
0.973581 0.496567 0.051967
1.000000 0.495969 0.051369
0.000000 0.651332 0.068908
0.035927 0.652304 0.064779
0.192298 0.652080 0.059453
0.348759 0.651139 0.055739
0.505220 0.649345 0.053945
0.661682 0.647551 0.052151
0.818143 0.645757 0.050357
0.974605 0.643963 0.048563
1.000000 0.643365 0.047965
0.002082 0.801809 0.058570
0.036859 0.802122 0.055922
0.193321 0.800328 0.054128
0.349782 0.798534 0.052334
0.506244 0.796740 0.050540
0.662705 0.794946 0.048746
0.819166 0.793152 0.046952
0.975628 0.791358 0.045158
1.000000 0.790760 0.044560
0.006510 0.950116 0.053116
0.037883 0.949518 0.052518
0.194344 0.947724 0.050724
0.350805 0.945930 0.048930
0.507267 0.944136 0.047136
0.663728 0.942342 0.045342
0.820190 0.940548 0.043548
0.976651 0.938754 0.041754
1.000000 0.938156 0.041156
0.010937 1.000000 0.051589
0.040784 1.000000 0.050991
0.197246 1.000000 0.049197
0.353707 1.000000 0.047403
0.510168 1.000000 0.045609
0.666630 1.000000 0.043815
0.823091 1.000000 0.042021
0.979553 1.000000 0.040227
1.000000 1.000000 0.039629
0.000000 0.000000 0.264926
0.050422 0.000000 0.260796
0.204628 0.000000 0.255470
0.358834 0.000000 0.250145
0.513040 0.000000 0.244819
0.667246 0.000000 0.239493
0.821452 0.000000 0.234167
0.975658 0.000000 0.228841
1.000000 0.000000 0.224711
0.000000 0.049372 0.256466
0.048895 0.050344 0.252336
0.203101 0.050120 0.247010
0.357307 0.049895 0.241684
0.511513 0.049671 0.236358
0.665719 0.049447 0.231033
0.819925 0.049223 0.225707
0.974131 0.048998 0.220381
1.000000 0.049970 0.216251
0.000000 0.199849 0.246128
0.045491 0.200821 0.241998
0.199697 0.200597 0.236672
0.353903 0.200373 0.231346
0.508109 0.200148 0.226020
0.662315 0.199924 0.220694
0.816521 0.199700 0.215368
0.971745 0.199476 0.210042
1.000000 0.200447 0.205912
0.000000 0.350326 0.235789
0.042086 0.351298 0.231659
0.196292 0.351074 0.226333
0.350498 0.350850 0.221007
0.504704 0.350625 0.215681
0.659846 0.350401 0.210355
0.816307 0.350177 0.205030
0.972768 0.348522 0.202922
1.000000 0.347924 0.202324
0.000000 0.500804 0.225451
0.038682 0.501775 0.221321
0.192888 0.501551 0.215995
0.347946 0.501327 0.210669
0.504407 0.501103 0.205343
0.660869 0.499506 0.203106
0.817330 0.497712 0.201312
0.973792 0.495918 0.199518
1.000000 0.495320 0.198920
0.000000 0.651281 0.215112
0.036046 0.652253 0.210982
0.192508 0.652028 0.205656
0.348969 0.650489 0.203289
0.505431 0.648695 0.201495
0.661892 0.646901 0.199701
0.818353 0.645107 0.197907
0.974815 0.643313 0.196113
1.000000 0.642715 0.195515
0.002942 0.801758 0.204774
0.037070 0.801472 0.203472
0.193531 0.799678 0.201678
0.349992 0.797884 0.199884
0.506454 0.796090 0.198090
0.662915 0.794296 0.196296
0.819377 0.792502 0.194502
0.975838 0.790708 0.192708
1.000000 0.790110 0.192110
0.007370 0.949466 0.200666
0.038093 0.948868 0.200068
0.194554 0.947074 0.198274
0.351016 0.945280 0.196480
0.507477 0.943486 0.194686
0.663938 0.941692 0.192892
0.820400 0.939898 0.191098
0.976861 0.938104 0.189304
1.000000 0.937506 0.188706
0.011797 1.000000 0.199140
0.040994 1.000000 0.198542
0.197456 1.000000 0.196748
0.353917 1.000000 0.194954
0.510379 1.000000 0.193160
0.666840 1.000000 0.191366
0.823301 1.000000 0.189572
0.979763 1.000000 0.187778
1.000000 1.000000 0.187180
0.000000 0.000000 0.411130
0.049772 0.000000 0.407000
0.203978 0.000000 0.401674
0.358184 0.000000 0.396348
0.512390 0.000000 0.391022
0.666596 0.000000 0.385696
0.820802 0.000000 0.380370
0.975008 0.000000 0.375044
1.000000 0.000000 0.370914
0.000000 0.049321 0.402670
0.048246 0.050293 0.398540
0.202452 0.050068 0.393214
0.356658 0.049844 0.387888
0.510864 0.049620 0.382562
0.665070 0.049396 0.377236
0.819276 0.049171 0.371910
0.973482 0.048947 0.366584
1.000000 0.049919 0.362454
0.000000 0.199798 0.392331
0.044841 0.200770 0.388201
0.199047 0.200546 0.382875
0.353253 0.200321 0.377549
0.507459 0.200097 0.372224
0.661665 0.199873 0.366898
0.815871 0.199649 0.361572
0.971955 0.199424 0.356246
1.000000 0.199879 0.353279
0.000000 0.350275 0.381993
0.041436 0.351247 0.377863
0.195642 0.351023 0.372537
0.349848 0.350798 0.367211
0.504054 0.350574 0.361885
0.660056 0.350350 0.356559
0.816517 0.349666 0.352266
0.972978 0.347872 0.350472
1.000000 0.347274 0.349874
0.000000 0.500752 0.371654
0.038032 0.501724 0.367524
0.192238 0.501500 0.362198
0.348156 0.501276 0.356872
0.504617 0.500650 0.352450
0.661079 0.498856 0.350656
0.817540 0.497062 0.348862
0.974002 0.495268 0.347068
1.000000 0.494670 0.346470
0.000000 0.651229 0.361316
0.036257 0.652201 0.357186
0.192718 0.651633 0.352633
0.349179 0.649839 0.350839
0.505641 0.648045 0.349045
0.662102 0.646251 0.347251
0.818563 0.644457 0.345457
0.975025 0.642663 0.343663
1.000000 0.642065 0.343065
0.003802 0.801421 0.351621
0.037280 0.800823 0.351023
0.193741 0.799029 0.349229
0.350202 0.797235 0.347435
0.506664 0.795441 0.345641
0.663125 0.793647 0.343847
0.819587 0.791853 0.342053
0.976048 0.790059 0.340259
1.000000 0.789461 0.339661
0.008230 0.948816 0.348216
0.038303 0.948218 0.347618
0.194764 0.946424 0.345824
0.351226 0.944630 0.344030
0.507687 0.942836 0.342236
0.664148 0.941042 0.340442
0.820610 0.939248 0.338648
0.977071 0.937454 0.336854
1.000000 0.936856 0.336256
0.012657 1.000000 0.346690
0.041205 1.000000 0.346092
0.197666 1.000000 0.344298
0.354127 1.000000 0.342504
0.510589 1.000000 0.340710
0.667050 1.000000 0.338916
0.823511 1.000000 0.337122
0.979973 1.000000 0.335328
1.000000 1.000000 0.334730
0.000000 0.000000 0.557334
0.049122 0.000000 0.553204
0.203328 0.000000 0.547878
0.357534 0.000000 0.542552
0.511740 0.000000 0.537226
0.665946 0.000000 0.531900
0.820152 0.000000 0.526574
0.974358 0.000000 0.521248
1.000000 0.000000 0.517118
0.000000 0.049270 0.548873
0.047596 0.050241 0.544743
0.201802 0.050017 0.539417
0.356008 0.049793 0.534092
0.510214 0.049569 0.528766
0.664420 0.049344 0.523440
0.818626 0.049120 0.518114
0.972832 0.048896 0.512788
1.000000 0.049868 0.508658
0.000000 0.199747 0.538535
0.044191 0.200718 0.534405
0.198397 0.200494 0.529079
0.352603 0.200270 0.523753
0.506809 0.200046 0.518427
0.661015 0.199821 0.513101
0.815704 0.199597 0.507775
0.972165 0.199373 0.502449
1.000000 0.199229 0.500829
0.000000 0.350224 0.528196
0.040787 0.351196 0.524066
0.194993 0.350971 0.518740
0.349199 0.350747 0.513414
0.503804 0.350523 0.508089
0.660266 0.350299 0.502763
0.816727 0.349017 0.499817
0.973189 0.347223 0.498023
1.000000 0.346625 0.497425
0.000000 0.500701 0.517858
0.037382 0.501673 0.513728
0.191905 0.501449 0.508402
0.348366 0.501224 0.503076
0.504828 0.500000 0.500000
0.661289 0.498206 0.498206
0.817750 0.496412 0.496412
0.974212 0.494618 0.494618
1.000000 0.494020 0.494020
0.000234 0.651178 0.507519
0.036467 0.652150 0.503389
0.192928 0.650983 0.500183
0.349389 0.649189 0.498389
0.505851 0.647395 0.496595
0.662312 0.645601 0.494801
0.818774 0.643807 0.493007
0.975235 0.642013 0.491213
1.000000 0.641415 0.490615
0.004662 0.800771 0.499171
0.037490 0.800173 0.498573
0.193951 0.798379 0.496779
0.350413 0.796585 0.494985
0.506874 0.794791 0.493191
0.663335 0.792997 0.491397
0.819797 0.791203 0.489603
0.976258 0.789409 0.487809
1.000000 0.788811 0.487211
0.009089 0.948166 0.495766
0.038513 0.947568 0.495168
0.194974 0.945774 0.493374
0.351436 0.943980 0.491580
0.507897 0.942186 0.489786
0.664359 0.940392 0.487992
0.820820 0.938598 0.486198
0.977281 0.936804 0.484404
1.000000 0.936206 0.483806
0.013517 1.000000 0.494240
0.041415 1.000000 0.493642
0.197876 1.000000 0.491848
0.354337 1.000000 0.490054
0.510799 1.000000 0.488260
0.667260 1.000000 0.486466
0.823722 1.000000 0.484672
0.980183 1.000000 0.482878
1.000000 1.000000 0.482280
0.000000 0.000000 0.703537
0.048472 0.000000 0.699407
0.202678 0.000000 0.694081
0.356884 0.000000 0.688755
0.511090 0.000000 0.683429
0.665296 0.000000 0.678103
0.819502 0.000000 0.672777
0.973708 0.000000 0.667452
1.000000 0.000000 0.663322
0.000000 0.049218 0.695077
0.046946 0.050190 0.690947
0.201152 0.049966 0.685621
0.355358 0.049742 0.680295
0.509564 0.049517 0.674969
0.663770 0.049293 0.669643
0.817976 0.049069 0.664317
0.972182 0.048845 0.658991
1.000000 0.049816 0.654861
0.000000 0.199695 0.684738
0.043541 0.200667 0.680608
0.197747 0.200443 0.675283
0.351953 0.200219 0.669957
0.506159 0.199994 0.664631
0.660365 0.199770 0.659305
0.815914 0.199546 0.653979
0.972375 0.199177 0.648977
1.000000 0.198579 0.648379
0.000000 0.350173 0.674400
0.040137 0.351144 0.670270
0.194343 0.350920 0.664944
0.348549 0.350696 0.659618
0.504014 0.350472 0.654292
0.660476 0.350161 0.649161
0.816937 0.348367 0.647367
0.973399 0.346573 0.645573
1.000000 0.345975 0.644975
0.000000 0.500650 0.664061
0.036732 0.501621 0.659931
0.192115 0.501397 0.654605
0.348576 0.501144 0.649344
0.505038 0.499350 0.647550
0.661499 0.497556 0.645756
0.817960 0.495762 0.643962
0.974422 0.493968 0.642168
1.000000 0.493370 0.641570
0.001094 0.651127 0.653723
0.036677 0.652099 0.649593
0.193138 0.650334 0.647734
0.349600 0.648540 0.645940
0.506061 0.646746 0.644146
0.662522 0.644952 0.642352
0.818984 0.643158 0.640558
0.975445 0.641364 0.638764
1.000000 0.640766 0.638166
0.005522 0.800121 0.646721
0.037700 0.799523 0.646123
0.194161 0.797729 0.644329
0.350623 0.795935 0.642535
0.507084 0.794141 0.640741
0.663545 0.792347 0.638947
0.820007 0.790553 0.637153
0.976468 0.788759 0.635359
1.000000 0.788161 0.634761
0.009949 0.947516 0.643316
0.038723 0.946918 0.642718
0.195185 0.945124 0.640924
0.351646 0.943330 0.639130
0.508107 0.941536 0.637336
0.664569 0.939742 0.635542
0.821030 0.937948 0.633748
0.977491 0.936154 0.631954
1.000000 0.935556 0.631356
0.014377 1.000000 0.641790
0.041625 1.000000 0.641192
0.198086 1.000000 0.639398
0.354548 1.000000 0.637604
0.511009 1.000000 0.635810
0.667470 1.000000 0.634016
0.823932 1.000000 0.632222
0.980393 1.000000 0.630428
1.000000 1.000000 0.629830
0.000000 0.000000 0.849741
0.047822 0.000000 0.845611
0.202028 0.000000 0.840285
0.356234 0.000000 0.834959
0.510440 0.000000 0.829633
0.664646 0.000000 0.824307
0.818852 0.000000 0.818981
0.973058 0.000000 0.813655
1.000000 0.000000 0.809525
0.000000 0.049167 0.841281
0.046296 0.050139 0.837151
0.200502 0.049914 0.831825
0.354708 0.049690 0.826499
0.508914 0.049466 0.821173
0.663120 0.049242 0.815847
0.817326 0.049017 0.810521
0.971562 0.048793 0.805195
1.000000 0.049765 0.801065
0.000000 0.199644 0.830942
0.042892 0.200616 0.826812
0.197098 0.200392 0.821486
0.351304 0.200167 0.816160
0.505510 0.199943 0.810834
0.659716 0.199719 0.805508
0.816124 0.199495 0.800182
0.972586 0.198528 0.796528
1.000000 0.197930 0.795930
0.000000 0.350121 0.820603
0.039487 0.351093 0.816473
0.193693 0.350869 0.811148
0.347899 0.350644 0.805822
0.504225 0.350420 0.800496
0.660686 0.349511 0.796711
0.817147 0.347717 0.794917
0.973609 0.345923 0.793123
1.000000 0.345325 0.792525
0.000000 0.500598 0.810265
0.036082 0.501570 0.806135
0.192325 0.501346 0.800809
0.348786 0.500494 0.796894
0.505248 0.498700 0.795100
0.661709 0.496906 0.793306
0.818171 0.495112 0.791512
0.974632 0.493318 0.789718
1.000000 0.492720 0.789120
0.001954 0.651076 0.799926
0.036887 0.651478 0.797078
0.193348 0.649684 0.795284
0.349810 0.647890 0.793490
0.506271 0.646096 0.791696
0.662732 0.644302 0.789902
0.819194 0.642508 0.788108
0.975655 0.640714 0.786314
1.000000 0.640116 0.785716
0.006381 0.799471 0.794271
0.037910 0.798873 0.793673
0.194371 0.797079 0.791879
0.350833 0.795285 0.790085
0.507294 0.793491 0.788291
0.663756 0.791697 0.786497
0.820217 0.789903 0.784703
0.976678 0.788109 0.782909
1.000000 0.787511 0.782311
0.010809 0.946867 0.790867
0.038933 0.946269 0.790269
0.195395 0.944475 0.788475
0.351856 0.942681 0.786681
0.508317 0.940887 0.784887
0.664779 0.939093 0.783093
0.821240 0.937299 0.781299
0.977702 0.935505 0.779505
1.000000 0.934907 0.778907
0.015237 1.000000 0.789340
0.041835 1.000000 0.788742
0.198296 1.000000 0.786948
0.354758 1.000000 0.785154
0.511219 1.000000 0.783360
0.667680 1.000000 0.781566
0.824142 1.000000 0.779772
0.980603 1.000000 0.777978
1.000000 1.000000 0.777380
0.000000 0.000000 0.995944
0.047173 0.000000 0.991814
0.201379 0.000000 0.986488
0.355585 0.000000 0.981162
0.509791 0.000000 0.975836
0.663997 0.000000 0.970511
0.818203 0.000000 0.965185
0.972409 0.000000 0.959859
1.000000 0.000000 0.955729
0.000000 0.049116 0.987484
0.045646 0.050087 0.983354
0.199852 0.049863 0.978028
0.354058 0.049639 0.972702
0.508264 0.049415 0.967376
0.662470 0.049190 0.962050
0.816676 0.048966 0.956724
0.971772 0.048742 0.951399
1.000000 0.049714 0.947269
0.000000 0.199593 0.977146
0.042242 0.200565 0.973016
0.196448 0.200340 0.967690
0.350654 0.200116 0.962364
0.504860 0.199892 0.957038
0.659873 0.199668 0.951712
0.816334 0.199443 0.946386
0.972796 0.197878 0.944078
1.000000 0.197280 0.943480
0.000000 0.350070 0.966807
0.038837 0.351042 0.962677
0.193043 0.350817 0.957351
0.347973 0.350593 0.952025
0.504435 0.350369 0.946699
0.660896 0.348861 0.944261
0.817358 0.347067 0.942467
0.973819 0.345273 0.940673
1.000000 0.344675 0.940075
0.000000 0.500547 0.956468
0.036074 0.501519 0.952339
0.192535 0.501295 0.947013
0.348997 0.499845 0.944445
0.505458 0.498051 0.942651
0.661919 0.496257 0.940857
0.818381 0.494463 0.939063
0.974842 0.492669 0.937269
1.000000 0.492071 0.936671
0.002814 0.651024 0.946130
0.037097 0.650828 0.944628
0.193558 0.649034 0.942834
0.350020 0.647240 0.941040
0.506481 0.645446 0.939246
0.662943 0.643652 0.937452
0.819404 0.641858 0.935658
0.975865 0.640064 0.933864
1.000000 0.639466 0.933266
0.007241 0.798821 0.941821
0.038120 0.798223 0.941223
0.194582 0.796429 0.939429
0.351043 0.794635 0.937635
0.507504 0.792841 0.935841
0.663966 0.791047 0.934047
0.820427 0.789253 0.932253
0.976888 0.787459 0.930459
1.000000 0.786861 0.929861
0.011669 0.946217 0.938417
0.039143 0.945619 0.937819
0.195605 0.943825 0.936025
0.352066 0.942031 0.934231
0.508528 0.940237 0.932437
0.664989 0.938443 0.930643
0.821450 0.936649 0.928849
0.977912 0.934855 0.927055
1.000000 0.934257 0.926457
0.016097 1.000000 0.936891
0.042045 1.000000 0.936293
0.198506 1.000000 0.934499
0.354968 1.000000 0.932705
0.511429 1.000000 0.930911
0.667891 1.000000 0.929117
0.824352 1.000000 0.927323
0.980813 1.000000 0.925529
1.000000 1.000000 0.924931
0.000000 0.000000 1.000000
0.046842 0.000000 1.000000
0.201048 0.000000 1.000000
0.355254 0.000000 1.000000
0.509460 0.000000 1.000000
0.663666 0.000000 1.000000
0.817872 0.000000 1.000000
0.972078 0.000000 1.000000
1.000000 0.000000 1.000000
0.000000 0.049384 1.000000
0.045316 0.050355 1.000000
0.199522 0.050131 1.000000
0.353728 0.049907 1.000000
0.507934 0.049683 1.000000
0.662140 0.049458 1.000000
0.816346 0.049234 1.000000
0.972302 0.049010 1.000000
1.000000 0.049554 1.000000
0.000000 0.199861 1.000000
0.041911 0.200832 1.000000
0.196117 0.200608 1.000000
0.350323 0.200384 1.000000
0.504529 0.200160 1.000000
0.660402 0.199935 1.000000
0.816864 0.199341 1.000000
0.973325 0.197547 1.000000
1.000000 0.196949 1.000000
0.000000 0.350338 1.000000
0.038507 0.351310 1.000000
0.192713 0.351085 1.000000
0.348503 0.350861 1.000000
0.504964 0.350325 1.000000
0.661425 0.348531 1.000000
0.817887 0.346737 1.000000
0.974348 0.344943 1.000000
1.000000 0.344345 1.000000
0.000000 0.500815 1.000000
0.036603 0.501787 1.000000
0.193064 0.501308 1.000000
0.349526 0.499514 1.000000
0.505987 0.497720 1.000000
0.662449 0.495926 1.000000
0.818910 0.494132 1.000000
0.975371 0.492338 1.000000
1.000000 0.491740 1.000000
0.003673 0.651095 1.000000
0.037626 0.650497 1.000000
0.194088 0.648703 1.000000
0.350549 0.646909 1.000000
0.507010 0.645115 1.000000
0.663472 0.643321 1.000000
0.819933 0.641527 1.000000
0.976395 0.639733 1.000000
1.000000 0.639135 1.000000
0.008101 0.798491 1.000000
0.038649 0.797893 1.000000
0.195111 0.796099 1.000000
0.351572 0.794305 1.000000
0.508034 0.792511 1.000000
0.664495 0.790717 1.000000
0.820956 0.788923 1.000000
0.977418 0.787129 1.000000
1.000000 0.786531 1.000000
0.012529 0.945886 1.000000
0.039673 0.945288 1.000000
0.196134 0.943494 1.000000
0.352595 0.941700 1.000000
0.509057 0.939906 1.000000
0.665518 0.938112 1.000000
0.821980 0.936318 1.000000
0.978441 0.934524 1.000000
1.000000 0.933926 1.000000
0.016957 1.000000 1.000000
0.042574 1.000000 1.000000
0.199036 1.000000 1.000000
0.355497 1.000000 1.000000
0.511958 1.000000 1.000000
0.668420 1.000000 1.000000
0.824881 1.000000 1.000000
0.981343 1.000000 1.000000
1.000000 1.000000 1.000000
