docs/luts/fresh-clean-cinematic.cube
TITLE "FreshLUTs??-????"
LUT_3D_SIZE 9
DOMAIN_MIN 0.0 0.0 0.0
DOMAIN_MAX 1.0 1.0 1.0
0.002400 0.002400 0.002400
0.110858 0.003058 0.003058
0.239035 0.003835 0.003835
0.367213 0.004613 0.004613
0.495390 0.005390 0.005390
0.623567 0.006167 0.006167
0.751745 0.006945 0.006945
0.879922 0.007722 0.007722
0.988380 0.008380 0.008380
0.003691 0.111491 0.003691
0.112149 0.112149 0.004349
0.240327 0.112927 0.005127
0.368504 0.113704 0.005904
0.496681 0.114481 0.006681
0.624859 0.115259 0.007459
0.753036 0.116036 0.008236
0.881214 0.116814 0.009014
0.989671 0.117471 0.009671
0.005218 0.240418 0.005218
0.113675 0.241075 0.005875
0.241853 0.241853 0.006653
0.370030 0.242630 0.007430
0.498208 0.243408 0.008208
0.626385 0.244185 0.008985
0.754562 0.244962 0.009762
0.882740 0.245740 0.010540
0.991198 0.246398 0.011198
0.006744 0.369344 0.006744
0.115202 0.370002 0.007402
0.243379 0.370779 0.008179
0.371556 0.371556 0.008956
0.499734 0.372334 0.009734
0.627911 0.373111 0.010511
0.756089 0.373889 0.011289
0.884266 0.374666 0.012066
0.992724 0.375324 0.012724
0.008270 0.498270 0.008270
0.116728 0.498928 0.008928
0.244905 0.499705 0.009705
0.373083 0.500483 0.010483
0.501260 0.501260 0.011260
0.629437 0.502037 0.012037
0.757615 0.502815 0.012815
0.885792 0.503592 0.013592
0.994250 0.504250 0.014250
0.009796 0.627196 0.009796
0.118254 0.627854 0.010454
0.246431 0.628631 0.011231
0.374609 0.629409 0.012009
0.502786 0.630186 0.012786
0.630964 0.630964 0.013564
0.759141 0.631741 0.014341
0.887318 0.632518 0.015118
0.995776 0.633176 0.015776
0.011322 0.756122 0.011322
0.119780 0.756780 0.011980
0.247958 0.757558 0.012758
0.376135 0.758335 0.013535
0.504312 0.759112 0.014312
0.632490 0.759890 0.015090
0.760667 0.760667 0.015867
0.888845 0.761445 0.016645
0.997302 0.762102 0.017302
0.012849 0.885049 0.012849
0.121306 0.885706 0.013506
0.249484 0.886484 0.014284
0.377661 0.887261 0.015061
0.505839 0.888039 0.015839
0.634016 0.888816 0.016616
0.762193 0.889593 0.017393
0.890371 0.890371 0.018171
0.998829 0.891029 0.018829
0.014140 0.994140 0.014140
0.122598 0.994798 0.014798
0.250775 0.995575 0.015575
0.378953 0.996353 0.016353
0.507130 0.997130 0.017130
0.635307 0.997907 0.017907
0.763485 0.998685 0.018685
0.891662 0.999462 0.019462
1.000000 1.000000 0.020120
0.002651 0.002651 0.110451
0.111109 0.003309 0.111109
0.239286 0.004086 0.111886
0.367463 0.004863 0.112663
0.495641 0.005641 0.113441
0.623818 0.006418 0.114218
0.751996 0.007196 0.114996
0.880173 0.007973 0.115773
0.988631 0.008631 0.116431
0.003942 0.111742 0.111742
0.112400 0.112400 0.112400
0.240577 0.113177 0.113177
0.368755 0.113955 0.113955
0.496932 0.114732 0.114732
0.625110 0.115510 0.115510
0.753287 0.116287 0.116287
0.881464 0.117064 0.117064
0.989922 0.117722 0.117722
0.005468 0.240668 0.113268
0.113926 0.241326 0.113926
0.242104 0.242104 0.114704
0.370281 0.242881 0.115481
0.498458 0.243658 0.116258
0.626636 0.244436 0.117036
0.754813 0.245213 0.117813
0.882991 0.245991 0.118591
0.991448 0.246648 0.119248
0.006995 0.369595 0.114795
0.115452 0.370252 0.115452
0.243630 0.371030 0.116230
0.371807 0.371807 0.117007
0.499985 0.372585 0.117785
0.628162 0.373362 0.118562
0.756339 0.374139 0.119339
0.884517 0.374917 0.120117
0.992975 0.375575 0.120775
0.008521 0.498521 0.116321
0.116979 0.499179 0.116979
0.245156 0.499956 0.117756
0.373333 0.500733 0.118533
0.501511 0.501511 0.119311
0.629688 0.502288 0.120088
0.757866 0.503066 0.120866
0.886043 0.503843 0.121643
0.994501 0.504501 0.122301
0.010047 0.627447 0.117847
0.118505 0.628105 0.118505
0.246682 0.628882 0.119282
0.374860 0.629660 0.120060
0.503037 0.630437 0.120837
0.631214 0.631214 0.121614
0.759392 0.631992 0.122392
0.887569 0.632769 0.123169
0.996027 0.633427 0.123827
0.011573 0.756373 0.119373
0.120031 0.757031 0.120031
0.248208 0.757808 0.120808
0.376386 0.758586 0.121586
0.504563 0.759363 0.122363
0.632741 0.760141 0.123141
0.760918 0.760918 0.123918
0.889095 0.761695 0.124695
0.997553 0.762353 0.125353
0.013099 0.885299 0.120899
0.121557 0.885957 0.121557
0.249735 0.886735 0.122335
0.377912 0.887512 0.123112
0.506089 0.888289 0.123889
0.634267 0.889067 0.124667
0.762444 0.889844 0.125444
0.890622 0.890622 0.126222
0.999079 0.891279 0.126879
0.014391 0.994391 0.122191
0.122849 0.995049 0.122849
0.251026 0.995826 0.123626
0.379203 0.996603 0.124403
0.507381 0.997381 0.125181
0.635558 0.998158 0.125958
0.763736 0.998936 0.126736
0.891913 0.999713 0.127513
1.000000 1.000000 0.128171
0.002947 0.002947 0.238147
0.111405 0.003605 0.238805
0.239582 0.004382 0.239582
0.367760 0.005160 0.240360
0.495937 0.005937 0.241137
0.624115 0.006715 0.241915
0.752292 0.007492 0.242692
0.880469 0.008269 0.243469
0.988927 0.008927 0.244127
0.004239 0.112039 0.239439
0.112696 0.112696 0.240096
0.240874 0.113474 0.240874
0.369051 0.114251 0.241651
0.497229 0.115029 0.242429
0.625406 0.115806 0.243206
0.753583 0.116583 0.243983
0.881761 0.117361 0.244761
0.990219 0.118019 0.245419
0.005765 0.240965 0.240965
0.114223 0.241623 0.241623
0.242400 0.242400 0.242400
0.370577 0.243177 0.243177
0.498755 0.243955 0.243955
0.626932 0.244732 0.244732
0.755110 0.245510 0.245510
0.883287 0.246287 0.246287
0.991745 0.246945 0.246945
0.007291 0.369891 0.242491
0.115749 0.370549 0.243149
0.243926 0.371326 0.243926
0.372104 0.372104 0.244704
0.500281 0.372881 0.245481
0.628458 0.373658 0.246258
0.756636 0.374436 0.247036
0.884813 0.375213 0.247813
0.993271 0.375871 0.248471
0.008817 0.498817 0.244017
0.117275 0.499475 0.244675
0.245452 0.500252 0.245452
0.373630 0.501030 0.246230
0.501807 0.501807 0.247007
0.629985 0.502585 0.247785
0.758162 0.503362 0.248562
0.886339 0.504139 0.249339
0.994797 0.504797 0.249997
0.010343 0.627743 0.245543
0.118801 0.628401 0.246201
0.246979 0.629179 0.246979
0.375156 0.629956 0.247756
0.503333 0.630733 0.248533
0.631511 0.631511 0.249311
0.759688 0.632288 0.250088
0.887866 0.633066 0.250866
0.996323 0.633723 0.251523
0.011870 0.756670 0.247070
0.120327 0.757327 0.247727
0.248505 0.758105 0.248505
0.376682 0.758882 0.249282
0.504860 0.759660 0.250060
0.633037 0.760437 0.250837
0.761214 0.761214 0.251614
0.889392 0.761992 0.252392
0.997850 0.762650 0.253050
0.013396 0.885596 0.248596
0.121854 0.886254 0.249254
0.250031 0.887031 0.250031
0.378208 0.887808 0.250808
0.506386 0.888586 0.251586
0.634563 0.889363 0.252363
0.762741 0.890141 0.253141
0.890918 0.890918 0.253918
0.999376 0.891576 0.254576
0.014687 0.994687 0.249887
0.123145 0.995345 0.250545
0.251322 0.996122 0.251322
0.379500 0.996900 0.252100
0.507677 0.997677 0.252877
0.635855 0.998455 0.253655
0.764032 0.999232 0.254432
0.892209 1.000000 0.255209
1.000000 1.000000 0.255867
0.003244 0.003244 0.365844
0.111701 0.003901 0.366501
0.239879 0.004679 0.367279
0.368056 0.005456 0.368056
0.496234 0.006234 0.368834
0.624411 0.007011 0.369611
0.752588 0.007788 0.370388
0.880766 0.008566 0.371166
0.989224 0.009224 0.371824
0.004535 0.112335 0.367135
0.112993 0.112993 0.367793
0.241170 0.113770 0.368570
0.369348 0.114548 0.369348
0.497525 0.115325 0.370125
0.625702 0.116102 0.370902
0.753880 0.116880 0.371680
0.882057 0.117657 0.372457
0.990515 0.118315 0.373115
0.006061 0.241261 0.368661
0.114519 0.241919 0.369319
0.242696 0.242696 0.370096
0.370874 0.243474 0.370874
0.499051 0.244251 0.371651
0.627229 0.245029 0.372429
0.755406 0.245806 0.373206
0.883583 0.246583 0.373983
0.992041 0.247241 0.374641
0.007587 0.370187 0.370187
0.116045 0.370845 0.370845
0.244223 0.371623 0.371623
0.372400 0.372400 0.372400
0.500577 0.373177 0.373177
0.628755 0.373955 0.373955
0.756932 0.374732 0.374732
0.885110 0.375510 0.375510
0.993567 0.376167 0.376167
0.009114 0.499114 0.371714
0.117571 0.499771 0.372371
0.245749 0.500549 0.373149
0.373926 0.501326 0.373926
0.502104 0.502104 0.374704
0.630281 0.502881 0.375481
0.758458 0.503658 0.376258
0.886636 0.504436 0.377036
0.995094 0.505094 0.377694
0.010640 0.628040 0.373240
0.119098 0.628698 0.373898
0.247275 0.629475 0.374675
0.375452 0.630252 0.375452
0.503630 0.631030 0.376230
0.631807 0.631807 0.377007
0.759985 0.632585 0.377785
0.888162 0.633362 0.378562
0.996620 0.634020 0.379220
0.012166 0.756966 0.374766
0.120624 0.757624 0.375424
0.248801 0.758401 0.376201
0.376979 0.759179 0.376979
0.505156 0.759956 0.377756
0.633333 0.760733 0.378533
0.761511 0.761511 0.379311
0.889688 0.762288 0.380088
0.998146 0.762946 0.380746
0.013692 0.885892 0.376292
0.122150 0.886550 0.376950
0.250327 0.887327 0.377727
0.378505 0.888105 0.378505
0.506682 0.888882 0.379282
0.634860 0.889660 0.380060
0.763037 0.890437 0.380837
0.891214 0.891214 0.381614
0.999672 0.891872 0.382272
0.014984 0.994984 0.377584
0.123441 0.995641 0.378241
0.251619 0.996419 0.379019
0.379796 0.997196 0.379796
0.507974 0.997974 0.380574
0.636151 0.998751 0.381351
0.764328 0.999528 0.382128
0.892506 1.000000 0.382906
1.000000 1.000000 0.383564
0.003540 0.003540 0.493540
0.111998 0.004198 0.494198
0.240175 0.004975 0.494975
0.368353 0.005753 0.495753
0.496530 0.006530 0.496530
0.624707 0.007307 0.497307
0.752885 0.008085 0.498085
0.881062 0.008862 0.498862
0.989520 0.009520 0.499520
0.004831 0.112631 0.494831
0.113289 0.113289 0.495489
0.241467 0.114067 0.496267
0.369644 0.114844 0.497044
0.497821 0.115621 0.497821
0.625999 0.116399 0.498599
0.754176 0.117176 0.499376
0.882354 0.117954 0.500154
0.990811 0.118611 0.500811
0.006358 0.241558 0.496358
0.114815 0.242215 0.497015
0.242993 0.242993 0.497793
0.371170 0.243770 0.498570
0.499348 0.244548 0.499348
0.627525 0.245325 0.500125
0.755702 0.246102 0.500902
0.883880 0.246880 0.501680
0.992338 0.247538 0.502338
0.007884 0.370484 0.497884
0.116342 0.371142 0.498542
0.244519 0.371919 0.499319
0.372696 0.372696 0.500096
0.500874 0.373474 0.500874
0.629051 0.374251 0.501651
0.757229 0.375029 0.502429
0.885406 0.375806 0.503206
0.993864 0.376464 0.503864
0.009410 0.499410 0.499410
0.117868 0.500068 0.500068
0.246045 0.500845 0.500845
0.374223 0.501623 0.501623
0.502400 0.502400 0.502400
0.630577 0.503177 0.503177
0.758755 0.503955 0.503955
0.886932 0.504732 0.504732
0.995390 0.505390 0.505390
0.010936 0.628336 0.500936
0.119394 0.628994 0.501594
0.247571 0.629771 0.502371
0.375749 0.630549 0.503149
0.503926 0.631326 0.503926
0.632104 0.632104 0.504704
0.760281 0.632881 0.505481
0.888458 0.633658 0.506258
0.996916 0.634316 0.506916
0.012462 0.757262 0.502462
0.120920 0.757920 0.503120
0.249098 0.758698 0.503898
0.377275 0.759475 0.504675
0.505452 0.760252 0.505452
0.633630 0.761030 0.506230
0.761807 0.761807 0.507007
0.889985 0.762585 0.507785
0.998442 0.763242 0.508442
0.013989 0.886189 0.503989
0.122446 0.886846 0.504646
0.250624 0.887624 0.505424
0.378801 0.888401 0.506201
0.506979 0.889179 0.506979
0.635156 0.889956 0.507756
0.763333 0.890733 0.508533
0.891511 0.891511 0.509311
0.999969 0.892169 0.509969
0.015280 0.995280 0.505280
0.123738 0.995938 0.505938
0.251915 0.996715 0.506715
0.380093 0.997493 0.507493
0.508270 0.998270 0.508270
0.636447 0.999047 0.509047
0.764625 0.999825 0.509825
0.892802 1.000000 0.510602
1.000000 1.000000 0.511260
0.003836 0.003836 0.621236
0.112294 0.004494 0.621894
0.240472 0.005272 0.622672
0.368649 0.006049 0.623449
0.496826 0.006826 0.624226
0.625004 0.007604 0.625004
0.753181 0.008381 0.625781
0.881359 0.009159 0.626559
0.989816 0.009816 0.627216
0.005128 0.112928 0.622528
0.113586 0.113586 0.623186
0.241763 0.114363 0.623963
0.369940 0.115140 0.624740
0.498118 0.115918 0.625518
0.626295 0.116695 0.626295
0.754473 0.117473 0.627073
0.882650 0.118250 0.627850
0.991108 0.118908 0.628508
0.006654 0.241854 0.624054
0.115112 0.242512 0.624712
0.243289 0.243289 0.625489
0.371467 0.244067 0.626267
0.499644 0.244844 0.627044
0.627821 0.245621 0.627821
0.755999 0.246399 0.628599
0.884176 0.247176 0.629376
0.992634 0.247834 0.630034
0.008180 0.370780 0.625580
0.116638 0.371438 0.626238
0.244815 0.372215 0.627015
0.372993 0.372993 0.627793
0.501170 0.373770 0.628570
0.629348 0.374548 0.629348
0.757525 0.375325 0.630125
0.885702 0.376102 0.630902
0.994160 0.376760 0.631560
0.009706 0.499706 0.627106
0.118164 0.500364 0.627764
0.246342 0.501142 0.628542
0.374519 0.501919 0.629319
0.502696 0.502696 0.630096
0.630874 0.503474 0.630874
0.759051 0.504251 0.631651
0.887229 0.505029 0.632429
0.995686 0.505686 0.633086
0.011233 0.628633 0.628633
0.119690 0.629290 0.629290
0.247868 0.630068 0.630068
0.376045 0.630845 0.630845
0.504223 0.631623 0.631623
0.632400 0.632400 0.632400
0.760577 0.633177 0.633177
0.888755 0.633955 0.633955
0.997213 0.634613 0.634613
0.012759 0.757559 0.630159
0.121217 0.758217 0.630817
0.249394 0.758994 0.631594
0.377571 0.759771 0.632371
0.505749 0.760549 0.633149
0.633926 0.761326 0.633926
0.762104 0.762104 0.634704
0.890281 0.762881 0.635481
0.998739 0.763539 0.636139
0.014285 0.886485 0.631685
0.122743 0.887143 0.632343
0.250920 0.887920 0.633120
0.379098 0.888698 0.633898
0.507275 0.889475 0.634675
0.635452 0.890252 0.635452
0.763630 0.891030 0.636230
0.891807 0.891807 0.637007
1.000000 0.892465 0.637665
0.015576 0.995576 0.632976
0.124034 0.996234 0.633634
0.252212 0.997012 0.634412
0.380389 0.997789 0.635189
0.508566 0.998566 0.635966
0.636744 0.999344 0.636744
0.764921 1.000000 0.637521
0.893099 1.000000 0.638299
1.000000 1.000000 0.638956
0.004133 0.004133 0.748933
0.112591 0.004791 0.749591
0.240768 0.005568 0.750368
0.368945 0.006345 0.751145
0.497123 0.007123 0.751923
0.625300 0.007900 0.752700
0.753478 0.008678 0.753478
0.881655 0.009455 0.754255
0.990113 0.010113 0.754913
0.005424 0.113224 0.750224
0.113882 0.113882 0.750882
0.242059 0.114659 0.751659
0.370237 0.115437 0.752437
0.498414 0.116214 0.753214
0.626592 0.116992 0.753992
0.754769 0.117769 0.754769
0.882946 0.118546 0.755546
0.991404 0.119204 0.756204
0.006950 0.242150 0.751750
0.115408 0.242808 0.752408
0.243586 0.243586 0.753186
0.371763 0.244363 0.753963
0.499940 0.245140 0.754740
0.628118 0.245918 0.755518
0.756295 0.246695 0.756295
0.884473 0.247473 0.757073
0.992930 0.248130 0.757730
0.008477 0.371077 0.753277
0.116934 0.371734 0.753934
0.245112 0.372512 0.754712
0.373289 0.373289 0.755489
0.501467 0.374067 0.756267
0.629644 0.374844 0.757044
0.757821 0.375621 0.757821
0.885999 0.376399 0.758599
0.994457 0.377057 0.759257
0.010003 0.500003 0.754803
0.118461 0.500661 0.755461
0.246638 0.501438 0.756238
0.374815 0.502215 0.757015
0.502993 0.502993 0.757793
0.631170 0.503770 0.758570
0.759348 0.504548 0.759348
0.887525 0.505325 0.760125
0.995983 0.505983 0.760783
0.011529 0.628929 0.756329
0.119987 0.629587 0.756987
0.248164 0.630364 0.757764
0.376342 0.631142 0.758542
0.504519 0.631919 0.759319
0.632696 0.632696 0.760096
0.760874 0.633474 0.760874
0.889051 0.634251 0.761651
0.997509 0.634909 0.762309
0.013055 0.757855 0.757855
0.121513 0.758513 0.758513
0.249690 0.759290 0.759290
0.377868 0.760068 0.760068
0.506045 0.760845 0.760845
0.634223 0.761623 0.761623
0.762400 0.762400 0.762400
0.890577 0.763177 0.763177
0.999035 0.763835 0.763835
0.014581 0.886781 0.759381
0.123039 0.887439 0.760039
0.251217 0.888217 0.760817
0.379394 0.888994 0.761594
0.507571 0.889771 0.762371
0.635749 0.890549 0.763149
0.763926 0.891326 0.763926
0.892104 0.892104 0.764704
1.000000 0.892761 0.765361
0.015873 0.995873 0.760673
0.124331 0.996531 0.761331
0.252508 0.997308 0.762108
0.380685 0.998085 0.762885
0.508863 0.998863 0.763663
0.637040 0.999640 0.764440
0.765218 1.000000 0.765218
0.893395 1.000000 0.765995
1.000000 1.000000 0.766653
0.004429 0.004429 0.876629
0.112887 0.005087 0.877287
0.241064 0.005864 0.878064
0.369242 0.006642 0.878842
0.497419 0.007419 0.879619
0.625597 0.008197 0.880397
0.753774 0.008974 0.881174
0.881951 0.009751 0.881951
0.990409 0.010409 0.882609
0.005721 0.113521 0.877921
0.114178 0.114178 0.878578
0.242356 0.114956 0.879356
0.370533 0.115733 0.880133
0.498711 0.116511 0.880911
0.626888 0.117288 0.881688
0.755065 0.118065 0.882465
0.883243 0.118843 0.883243
0.991701 0.119501 0.883901
0.007247 0.242447 0.879447
0.115705 0.243105 0.880105
0.243882 0.243882 0.880882
0.372059 0.244659 0.881659
0.500237 0.245437 0.882437
0.628414 0.246214 0.883214
0.756592 0.246992 0.883992
0.884769 0.247769 0.884769
0.993227 0.248427 0.885427
0.008773 0.371373 0.880973
0.117231 0.372031 0.881631
0.245408 0.372808 0.882408
0.373586 0.373586 0.883186
0.501763 0.374363 0.883963
0.629940 0.375140 0.884740
0.758118 0.375918 0.885518
0.886295 0.376695 0.886295
0.994753 0.377353 0.886953
0.010299 0.500299 0.882499
0.118757 0.500957 0.883157
0.246934 0.501734 0.883934
0.375112 0.502512 0.884712
0.503289 0.503289 0.885489
0.631467 0.504067 0.886267
0.759644 0.504844 0.887044
0.887821 0.505621 0.887821
0.996279 0.506279 0.888479
0.011825 0.629225 0.884025
0.120283 0.629883 0.884683
0.248461 0.630661 0.885461
0.376638 0.631438 0.886238
0.504815 0.632215 0.887015
0.632993 0.632993 0.887793
0.761170 0.633770 0.888570
0.889348 0.634548 0.889348
0.997805 0.635205 0.890005
0.013352 0.758152 0.885552
0.121809 0.758809 0.886209
0.249987 0.759587 0.886987
0.378164 0.760364 0.887764
0.506342 0.761142 0.888542
0.634519 0.761919 0.889319
0.762696 0.762696 0.890096
0.890874 0.763474 0.890874
0.999332 0.764132 0.891532
0.014878 0.887078 0.887078
0.123336 0.887736 0.887736
0.251513 0.888513 0.888513
0.379690 0.889290 0.889290
0.507868 0.890068 0.890068
0.636045 0.890845 0.890845
0.764223 0.891623 0.891623
0.892400 0.892400 0.892400
1.000000 0.893058 0.893058
0.016169 0.996169 0.888369
0.124627 0.996827 0.889027
0.252804 0.997604 0.889804
0.380982 0.998382 0.890582
0.509159 0.999159 0.891359
0.637337 0.999937 0.892137
0.765514 1.000000 0.892914
0.893691 1.000000 0.893691
1.000000 1.000000 0.894349
0.004680 0.004680 0.984680
0.113138 0.005338 0.985338
0.241315 0.006115 0.986115
0.369493 0.006893 0.986893
0.497670 0.007670 0.987670
0.625847 0.008447 0.988447
0.754025 0.009225 0.989225
0.882202 0.010002 0.990002
0.990660 0.010660 0.990660
0.005971 0.113771 0.985971
0.114429 0.114429 0.986629
0.242607 0.115207 0.987407
0.370784 0.115984 0.988184
0.498961 0.116761 0.988961
0.627139 0.117539 0.989739
0.755316 0.118316 0.990516
0.883494 0.119094 0.991294
0.991951 0.119751 0.991951
0.007498 0.242698 0.987498
0.115955 0.243355 0.988155
0.244133 0.244133 0.988933
0.372310 0.244910 0.989710
0.500488 0.245688 0.990488
0.628665 0.246465 0.991265
0.756842 0.247242 0.992042
0.885020 0.248020 0.992820
0.993478 0.248678 0.993478
0.009024 0.371624 0.989024
0.117482 0.372282 0.989682
0.245659 0.373059 0.990459
0.373836 0.373836 0.991236
0.502014 0.374614 0.992014
0.630191 0.375391 0.992791
0.758369 0.376169 0.993569
0.886546 0.376946 0.994346
0.995004 0.377604 0.995004
0.010550 0.500550 0.990550
0.119008 0.501208 0.991208
0.247185 0.501985 0.991985
0.375363 0.502763 0.992763
0.503540 0.503540 0.993540
0.631717 0.504317 0.994317
0.759895 0.505095 0.995095
0.888072 0.505872 0.995872
0.996530 0.506530 0.996530
0.012076 0.629476 0.992076
0.120534 0.630134 0.992734
0.248711 0.630911 0.993511
0.376889 0.631689 0.994289
0.505066 0.632466 0.995066
0.633244 0.633244 0.995844
0.761421 0.634021 0.996621
0.889598 0.634798 0.997398
0.998056 0.635456 0.998056
0.013602 0.758402 0.993602
0.122060 0.759060 0.994260
0.250238 0.759838 0.995038
0.378415 0.760615 0.995815
0.506592 0.761392 0.996592
0.634770 0.762170 0.997370
0.762947 0.762947 0.998147
0.891125 0.763725 0.998925
0.999582 0.764382 0.999582
0.015129 0.887329 0.995129
0.123586 0.887986 0.995786
0.251764 0.888764 0.996564
0.379941 0.889541 0.997341
0.508119 0.890319 0.998119
0.636296 0.891096 0.998896
0.764473 0.891873 0.999673
0.892651 0.892651 1.000000
1.000000 0.893309 1.000000
0.016420 0.996420 0.996420
0.124878 0.997078 0.997078
0.253055 0.997855 0.997855
0.381233 0.998633 0.998633
0.509410 0.999410 0.999410
0.637587 1.000000 1.000000
0.765765 1.000000 1.000000
0.893942 1.000000 1.000000
1.000000 1.000000 1.000000
