docs/luts/fresh-orange-teal-blockbuster.cube
TITLE "FreshLUTs??-????"
LUT_3D_SIZE 33
DOMAIN_MIN 0.0 0.0 0.0
DOMAIN_MAX 1.0 1.0 1.0
0.000000 0.012000 0.085000
0.000000 0.011765 0.083332
0.000000 0.011529 0.081664
0.020853 0.011294 0.079996
0.059626 0.011058 0.078329
0.098400 0.010823 0.076661
0.137173 0.010587 0.074993
0.175947 0.010352 0.073325
0.214720 0.010116 0.071657
0.253494 0.009881 0.069989
0.292268 0.009645 0.068321
0.331041 0.009410 0.066654
0.369815 0.009174 0.064986
0.408588 0.008939 0.063318
0.447362 0.008704 0.061650
0.486135 0.008468 0.059982
0.524909 0.008233 0.058314
0.563682 0.007997 0.056646
0.602456 0.007762 0.054979
0.641229 0.007526 0.053311
0.680003 0.007291 0.051643
0.718776 0.007055 0.049975
0.757550 0.006820 0.048307
0.796323 0.006584 0.046639
0.835097 0.006349 0.044971
0.873871 0.006113 0.043304
0.912644 0.005878 0.041636
0.951418 0.005643 0.039968
0.988735 0.005407 0.038300
0.989226 0.005172 0.036632
0.989716 0.004936 0.034964
0.990207 0.004701 0.033296
0.990698 0.004465 0.031629
0.000000 0.011538 0.081726
0.000000 0.011302 0.080058
0.000000 0.011067 0.078390
0.021816 0.010831 0.076722
0.060589 0.010596 0.075054
0.099363 0.010360 0.073386
0.138136 0.010125 0.071718
0.176910 0.009890 0.070051
0.215684 0.009654 0.068383
0.254457 0.009419 0.066715
0.293231 0.009183 0.065047
0.332004 0.008948 0.063379
0.370778 0.008712 0.061711
0.409551 0.008477 0.060043
0.448325 0.008241 0.058376
0.487098 0.008006 0.056708
0.525872 0.007770 0.055040
0.564645 0.007535 0.053372
0.603419 0.007299 0.051704
0.642192 0.007064 0.050036
0.680966 0.006828 0.048368
0.719739 0.006593 0.046701
0.758513 0.006358 0.045033
0.797287 0.006122 0.043365
0.836060 0.005887 0.041697
0.874834 0.005651 0.040029
0.913607 0.005416 0.038361
0.952381 0.005180 0.036693
0.989698 0.004945 0.035026
0.990189 0.004709 0.033358
0.990679 0.004474 0.031690
0.991170 0.004238 0.030022
0.991661 0.004003 0.028354
0.000000 0.039938 0.078451
0.000000 0.039703 0.076783
0.000000 0.039266 0.075116
0.020842 0.037763 0.073448
0.059615 0.036261 0.071780
0.098389 0.034758 0.070112
0.137162 0.033256 0.068444
0.175936 0.031753 0.066776
0.214709 0.030251 0.065108
0.253483 0.028748 0.063441
0.292257 0.027246 0.061773
0.331030 0.025743 0.060105
0.369804 0.024241 0.058437
0.408577 0.022738 0.056769
0.447351 0.021236 0.055101
0.486124 0.019733 0.053433
0.524898 0.018231 0.051766
0.563671 0.016728 0.050098
0.602445 0.015226 0.048430
0.641218 0.013724 0.046762
0.679992 0.012221 0.045094
0.718765 0.010719 0.043426
0.757539 0.009216 0.041758
0.796312 0.007714 0.040091
0.835086 0.006211 0.038423
0.873860 0.005189 0.036755
0.912633 0.004953 0.035087
0.951407 0.004718 0.033419
0.990180 0.004483 0.031751
0.991152 0.004247 0.030083
0.991642 0.004012 0.028416
0.992133 0.003776 0.026748
0.992624 0.003541 0.025080
0.000000 0.074899 0.075177
0.000000 0.074663 0.073509
0.000000 0.074226 0.071841
0.019427 0.072724 0.070173
0.058201 0.071221 0.068505
0.096975 0.069719 0.066838
0.135748 0.068216 0.065170
0.174522 0.066714 0.063502
0.213295 0.065211 0.061834
0.252069 0.063709 0.060166
0.290842 0.062206 0.058498
0.329616 0.060704 0.056830
0.368389 0.059201 0.055163
0.407163 0.057699 0.053495
0.445936 0.056196 0.051827
0.484710 0.054694 0.050159
0.523483 0.053191 0.048491
0.562257 0.051689 0.046823
0.601031 0.050186 0.045155
0.639804 0.048684 0.043488
0.678578 0.047181 0.041820
0.717351 0.045679 0.040152
0.756125 0.044177 0.038484
0.794898 0.042674 0.036816
0.833672 0.041172 0.035148
0.872445 0.039669 0.033480
0.911219 0.038167 0.031813
0.949992 0.036664 0.030145
0.988766 0.035162 0.028477
0.992115 0.033659 0.026809
0.992606 0.032157 0.025141
0.993096 0.031719 0.023473
0.993587 0.031484 0.021805
0.000000 0.109859 0.071903
0.000000 0.109624 0.070235
0.000000 0.109186 0.068567
0.018013 0.107684 0.066899
0.056787 0.106181 0.065231
0.095560 0.104679 0.063563
0.134334 0.103176 0.061895
0.173107 0.101674 0.060228
0.211881 0.100172 0.058560
0.250654 0.098669 0.056892
0.289428 0.097167 0.055224
0.328201 0.095664 0.053556
0.366975 0.094162 0.051888
0.405749 0.092659 0.050220
0.444522 0.091157 0.048553
0.483296 0.089654 0.046885
0.522069 0.088152 0.045217
0.560843 0.086649 0.043549
0.599616 0.085147 0.041881
0.638390 0.083644 0.040213
0.677163 0.082142 0.038545
0.715937 0.080639 0.036878
0.754710 0.079137 0.035210
0.793484 0.077634 0.033542
0.832257 0.076132 0.031874
0.871031 0.074629 0.030206
0.909804 0.073127 0.028538
0.948578 0.071625 0.026870
0.987352 0.070122 0.025203
0.993078 0.068620 0.023535
0.993569 0.067117 0.021867
0.994059 0.066680 0.020199
0.994550 0.066444 0.018531
0.000000 0.144820 0.068628
0.000000 0.144584 0.066960
0.000000 0.144147 0.065292
0.016599 0.142644 0.063625
0.055372 0.141142 0.061957
0.094146 0.139639 0.060289
0.132919 0.138137 0.058621
0.171693 0.136634 0.056953
0.210467 0.135132 0.055285
0.249240 0.133629 0.053617
0.288014 0.132127 0.051950
0.326787 0.130625 0.050282
0.365561 0.129122 0.048614
0.404334 0.127620 0.046946
0.443108 0.126117 0.045278
0.481881 0.124615 0.043610
0.520655 0.123112 0.041942
0.559428 0.121610 0.040275
0.598202 0.120107 0.038607
0.636975 0.118605 0.036939
0.675749 0.117102 0.035271
0.714523 0.115600 0.033603
0.753296 0.114097 0.031935
0.792070 0.112595 0.030267
0.830843 0.111092 0.028600
0.869617 0.109590 0.026932
0.908390 0.108087 0.025264
0.947164 0.106585 0.023596
0.985937 0.105082 0.021928
0.994041 0.103580 0.020260
0.994532 0.102077 0.018592
0.995022 0.101640 0.016925
0.995513 0.101405 0.015257
0.000000 0.179780 0.065354
0.000000 0.179544 0.063686
0.000000 0.179107 0.062018
0.015185 0.177605 0.060350
0.053958 0.176102 0.058682
0.092732 0.174600 0.057015
0.131505 0.173097 0.055347
0.170279 0.171595 0.053679
0.209052 0.170092 0.052011
0.247826 0.168590 0.050343
0.286599 0.167087 0.048675
0.325373 0.165585 0.047007
0.364146 0.164082 0.045340
0.402920 0.162580 0.043672
0.441693 0.161077 0.042004
0.480467 0.159575 0.040336
0.519241 0.158073 0.038668
0.558014 0.156570 0.037000
0.596788 0.155068 0.035332
0.635561 0.153565 0.033665
0.674335 0.152063 0.031997
0.713108 0.150560 0.030329
0.751882 0.149058 0.028661
0.790655 0.147555 0.026993
0.829429 0.146053 0.025325
0.868202 0.144550 0.023657
0.906976 0.143048 0.021990
0.945749 0.141545 0.020322
0.984523 0.140043 0.018654
0.995004 0.138540 0.016986
0.995495 0.137038 0.015318
0.995985 0.136601 0.013650
0.996476 0.136365 0.011982
0.000000 0.214740 0.062079
0.000000 0.214505 0.060412
0.000000 0.214068 0.058744
0.013770 0.212565 0.057076
0.052544 0.211063 0.055408
0.091317 0.209560 0.053740
0.130091 0.208058 0.052072
0.168864 0.206555 0.050404
0.207638 0.205053 0.048737
0.246411 0.203550 0.047069
0.285185 0.202048 0.045401
0.323959 0.200545 0.043733
0.362732 0.199043 0.042065
0.401506 0.197540 0.040397
0.440279 0.196038 0.038729
0.479053 0.194535 0.037062
0.517826 0.193033 0.035394
0.556600 0.191530 0.033726
0.595373 0.190028 0.032058
0.634147 0.188525 0.030390
0.672920 0.187023 0.028722
0.711694 0.185521 0.027054
0.750467 0.184018 0.025387
0.789241 0.182516 0.023719
0.828015 0.181013 0.022051
0.866788 0.179511 0.020383
0.905562 0.178008 0.018715
0.944335 0.176506 0.017047
0.983109 0.175003 0.015379
0.995967 0.173501 0.013712
0.996458 0.171998 0.012044
0.996948 0.171561 0.010376
0.998397 0.171326 0.008261
0.000000 0.249701 0.058805
0.000000 0.249465 0.057137
0.000000 0.249028 0.055469
0.012356 0.247525 0.053802
0.051130 0.246023 0.052134
0.089903 0.244521 0.050466
0.128677 0.243018 0.048798
0.167450 0.241516 0.047130
0.206224 0.240013 0.045462
0.244997 0.238511 0.043794
0.283771 0.237008 0.042127
0.322544 0.235506 0.040459
0.361318 0.234003 0.038791
0.400091 0.232501 0.037123
0.438865 0.230998 0.035455
0.477638 0.229496 0.033787
0.516412 0.227993 0.032119
0.555185 0.226491 0.030452
0.593959 0.224988 0.028784
0.632733 0.223486 0.027116
0.671506 0.221983 0.025448
0.710280 0.220481 0.023780
0.749053 0.218978 0.022112
0.787827 0.217476 0.020444
0.826600 0.215973 0.018777
0.865374 0.214471 0.017109
0.904147 0.212969 0.015441
0.942921 0.211466 0.013773
0.981694 0.209964 0.012105
0.996930 0.208461 0.010437
0.998334 0.206959 0.008343
1.000000 0.206521 0.006111
1.000000 0.206286 0.003880
0.000000 0.284661 0.055531
0.000000 0.284426 0.053863
0.000000 0.283988 0.052195
0.010942 0.282486 0.050527
0.049715 0.280983 0.048859
0.088489 0.279481 0.047191
0.127262 0.277978 0.045524
0.166036 0.276476 0.043856
0.204809 0.274973 0.042188
0.243583 0.273471 0.040520
0.282356 0.271969 0.038852
0.321130 0.270466 0.037184
0.359903 0.268964 0.035516
0.398677 0.267461 0.033849
0.437451 0.265959 0.032181
0.476224 0.264456 0.030513
0.514998 0.262954 0.028845
0.553771 0.261451 0.027177
0.592545 0.259949 0.025509
0.631318 0.258446 0.023841
0.670092 0.256944 0.022174
0.708865 0.255441 0.020506
0.747639 0.253939 0.018838
0.786412 0.252436 0.017170
0.825186 0.250934 0.015502
0.863959 0.249431 0.013834
0.902733 0.247929 0.012166
0.941507 0.246426 0.010499
0.981149 0.244924 0.008425
0.999970 0.243422 0.006194
1.000000 0.241919 0.003962
1.000000 0.241482 0.001730
1.000000 0.241246 0.000000
0.000000 0.319621 0.052256
0.000000 0.319386 0.050589
0.000000 0.318949 0.048921
0.009527 0.317446 0.047253
0.048301 0.315944 0.045585
0.087074 0.314441 0.043917
0.125848 0.312939 0.042249
0.164622 0.311436 0.040581
0.203395 0.309934 0.038914
0.242169 0.308431 0.037246
0.280942 0.306929 0.035578
0.319716 0.305426 0.033910
0.358489 0.303924 0.032242
0.397263 0.302422 0.030574
0.436036 0.300919 0.028906
0.474810 0.299417 0.027239
0.513583 0.297914 0.025571
0.552357 0.296412 0.023903
0.591130 0.294909 0.022235
0.629904 0.293407 0.020567
0.668677 0.291904 0.018899
0.707451 0.290402 0.017231
0.746225 0.288899 0.015564
0.784998 0.287397 0.013896
0.823772 0.285894 0.012228
0.862545 0.284392 0.010560
0.902143 0.282889 0.008507
0.942125 0.281387 0.006276
0.982107 0.279884 0.004044
1.000000 0.278382 0.001812
1.000000 0.276879 0.000000
1.000000 0.276442 0.000000
1.000000 0.276364 0.000000
0.000000 0.354582 0.048982
0.000000 0.354346 0.047314
0.000000 0.353909 0.045646
0.008113 0.352407 0.043978
0.046887 0.350904 0.042311
0.085660 0.349402 0.040643
0.124434 0.347899 0.038975
0.163207 0.346397 0.037307
0.201981 0.344894 0.035639
0.240754 0.343392 0.033971
0.279528 0.341889 0.032303
0.318301 0.340387 0.030636
0.357075 0.338884 0.028968
0.395848 0.337382 0.027300
0.434622 0.335879 0.025632
0.473395 0.334377 0.023964
0.512169 0.332874 0.022296
0.550943 0.331372 0.020628
0.589716 0.329870 0.018961
0.628490 0.328367 0.017293
0.667263 0.326865 0.015625
0.706037 0.325362 0.013957
0.744810 0.323860 0.012289
0.783584 0.322357 0.010621
0.823137 0.320855 0.008589
0.863119 0.319352 0.006358
0.903101 0.317850 0.004126
0.943083 0.316347 0.001894
0.983064 0.314845 0.000000
1.000000 0.313342 0.000000
1.000000 0.311989 0.000000
1.000000 0.311787 0.000000
1.000000 0.311787 0.000000
0.000000 0.389542 0.045708
0.000000 0.389307 0.044040
0.000000 0.388870 0.042372
0.006699 0.387367 0.040704
0.045472 0.385865 0.039036
0.084246 0.384362 0.037368
0.123019 0.382860 0.035701
0.161793 0.381357 0.034033
0.200566 0.379855 0.032365
0.239340 0.378352 0.030697
0.278114 0.376850 0.029029
0.316887 0.375347 0.027361
0.355661 0.373845 0.025693
0.394434 0.372342 0.024026
0.433208 0.370840 0.022358
0.471981 0.369337 0.020690
0.510755 0.367835 0.019022
0.549528 0.366332 0.017354
0.588302 0.364830 0.015686
0.627075 0.363327 0.014018
0.665849 0.361825 0.012351
0.704622 0.360322 0.010683
0.744131 0.358820 0.008672
0.784113 0.357318 0.006440
0.824095 0.355815 0.004208
0.864077 0.354313 0.001976
0.904058 0.352810 0.000000
0.944040 0.351308 0.000000
0.983730 0.349945 0.000000
1.000000 0.348678 0.000000
1.000000 0.347411 0.000000
1.000000 0.347209 0.000000
1.000000 0.347209 0.000000
0.000000 0.424503 0.042433
0.000000 0.424267 0.040765
0.000000 0.423830 0.039098
0.005284 0.422327 0.037430
0.044058 0.420825 0.035762
0.082832 0.419322 0.034094
0.121605 0.417820 0.032426
0.160379 0.416318 0.030758
0.199152 0.414815 0.029090
0.237926 0.413313 0.027423
0.276699 0.411810 0.025755
0.315473 0.410308 0.024087
0.354246 0.408805 0.022419
0.393020 0.407303 0.020751
0.431793 0.405800 0.019083
0.470567 0.404298 0.017415
0.509340 0.402795 0.015748
0.548114 0.401293 0.014080
0.586887 0.399790 0.012412
0.625661 0.398288 0.010744
0.665126 0.396785 0.008754
0.705107 0.395283 0.006522
0.745089 0.393780 0.004290
0.785071 0.392278 0.002059
0.825053 0.390775 0.000000
0.865034 0.389273 0.000000
0.904742 0.387902 0.000000
0.944234 0.386635 0.000000
0.983725 0.385368 0.000000
1.000000 0.384101 0.000000
1.000000 0.382834 0.000000
1.000000 0.382632 0.000000
1.000000 0.382632 0.000000
0.000000 0.459463 0.039159
0.000000 0.459228 0.037491
0.000000 0.458790 0.035823
0.003870 0.457288 0.034155
0.042644 0.455785 0.032488
0.081417 0.454283 0.030820
0.120191 0.452780 0.029152
0.158964 0.451278 0.027484
0.197738 0.449775 0.025816
0.236511 0.448273 0.024148
0.275285 0.446770 0.022480
0.314058 0.445268 0.020813
0.352832 0.443766 0.019145
0.391606 0.442263 0.017477
0.430379 0.440761 0.015809
0.469153 0.439258 0.014141
0.507926 0.437756 0.012473
0.546700 0.436253 0.010805
0.586120 0.434751 0.008836
0.626102 0.433248 0.006604
0.666083 0.431746 0.004372
0.706065 0.430243 0.002141
0.746047 0.428741 0.000000
0.786029 0.427238 0.000000
0.825755 0.425859 0.000000
0.865246 0.424592 0.000000
0.904737 0.423325 0.000000
0.944228 0.422058 0.000000
0.983720 0.420791 0.000000
1.000000 0.419524 0.000000
1.000000 0.418257 0.000000
1.000000 0.418055 0.000000
1.000000 0.418055 0.000000
0.000000 0.494423 0.035885
0.000000 0.494188 0.034217
0.000000 0.493751 0.032549
0.002456 0.492248 0.030881
0.041229 0.490746 0.029213
0.080003 0.489243 0.027545
0.118776 0.487741 0.025877
0.157550 0.486238 0.024210
0.196324 0.484736 0.022542
0.235097 0.483233 0.020874
0.273871 0.481731 0.019206
0.312644 0.480228 0.017538
0.351418 0.478726 0.015870
0.390191 0.477223 0.014202
0.428965 0.475721 0.012535
0.467738 0.474218 0.010867
0.507114 0.472716 0.008918
0.547096 0.471214 0.006686
0.587077 0.469711 0.004454
0.627059 0.468209 0.002223
0.667041 0.466706 0.000000
0.707023 0.465204 0.000000
0.746767 0.463815 0.000000
0.786258 0.462548 0.000000
0.825749 0.461281 0.000000
0.865241 0.460014 0.000000
0.904732 0.458747 0.000000
0.944223 0.457480 0.000000
0.983714 0.456213 0.000000
1.000000 0.454946 0.000000
1.000000 0.453679 0.000000
1.000000 0.453477 0.000000
1.000000 0.453477 0.000000
0.000000 0.529384 0.032610
0.000000 0.529148 0.030942
0.000000 0.528711 0.029275
0.001042 0.527209 0.027607
0.039815 0.525706 0.025939
0.078589 0.524204 0.024271
0.117362 0.522701 0.022603
0.156136 0.521199 0.020935
0.194909 0.519696 0.019267
0.233683 0.518194 0.017600
0.272456 0.516691 0.015932
0.311230 0.515189 0.014264
0.350003 0.513686 0.012596
0.388777 0.512184 0.010928
0.428108 0.510681 0.009000
0.468090 0.509179 0.006768
0.508072 0.507676 0.004537
0.548053 0.506174 0.002305
0.588035 0.504671 0.000073
0.628017 0.503169 0.000000
0.667779 0.501772 0.000000
0.707270 0.500505 0.000000
0.746762 0.499238 0.000000
0.786253 0.497971 0.000000
0.825744 0.496704 0.000000
0.865235 0.495437 0.000000
0.904726 0.494170 0.000000
0.944218 0.492903 0.000000
0.983709 0.491636 0.000000
1.000000 0.490369 0.000000
1.000000 0.489102 0.000000
1.000000 0.488900 0.000000
1.000000 0.488900 0.000000
0.000000 0.564344 0.029336
0.000000 0.564109 0.027668
0.000000 0.563671 0.026000
0.000000 0.562169 0.024332
0.038401 0.560666 0.022664
0.077174 0.559164 0.020997
0.115948 0.557662 0.019329
0.154721 0.556159 0.017661
0.193495 0.554657 0.015993
0.232268 0.553154 0.014325
0.271042 0.551652 0.012657
0.309816 0.550149 0.010989
0.349102 0.548647 0.009082
0.389084 0.547144 0.006850
0.429066 0.545642 0.004619
0.469048 0.544139 0.002387
0.509029 0.542637 0.000155
0.549011 0.541134 0.000000
0.588791 0.539729 0.000000
0.628283 0.538462 0.000000
0.667774 0.537195 0.000000
0.707265 0.535928 0.000000
0.746756 0.534661 0.000000
0.786247 0.533394 0.000000
0.825739 0.532127 0.000000
0.865230 0.530860 0.000000
0.904721 0.529593 0.000000
0.944212 0.528326 0.000000
0.983704 0.527058 0.000000
1.000000 0.525791 0.000000
1.000000 0.524524 0.000000
1.000000 0.524323 0.000000
1.000000 0.524323 0.000000
0.000000 0.599305 0.026062
0.000000 0.599069 0.024394
0.000000 0.598632 0.022726
0.000000 0.597129 0.021058
0.036986 0.595627 0.019390
0.075760 0.594124 0.017722
0.114534 0.592622 0.016054
0.153307 0.591119 0.014387
0.192081 0.589617 0.012719
0.230854 0.588114 0.011051
0.270096 0.586612 0.009164
0.310078 0.585110 0.006932
0.350060 0.583607 0.004701
0.390042 0.582105 0.002469
0.430024 0.580602 0.000237
0.470005 0.579100 0.000000
0.509804 0.577685 0.000000
0.549295 0.576418 0.000000
0.588786 0.575151 0.000000
0.628277 0.573884 0.000000
0.667768 0.572617 0.000000
0.707260 0.571350 0.000000
0.746751 0.570083 0.000000
0.786242 0.568816 0.000000
0.825733 0.567549 0.000000
0.865225 0.566282 0.000000
0.904716 0.565015 0.000000
0.944207 0.563748 0.000000
0.983698 0.562481 0.000000
1.000000 0.561214 0.000000
1.000000 0.559947 0.000000
1.000000 0.559745 0.000000
1.000000 0.559745 0.000000
0.000000 0.634265 0.022787
0.000000 0.634030 0.021119
0.000000 0.633592 0.019451
0.000000 0.632090 0.017784
0.035572 0.630587 0.016116
0.074346 0.629085 0.014448
0.113119 0.627582 0.012780
0.151893 0.626080 0.011112
0.191091 0.624577 0.009246
0.231072 0.623075 0.007015
0.271054 0.621572 0.004783
0.311036 0.620070 0.002551
0.351018 0.618567 0.000319
0.391000 0.617065 0.000000
0.430816 0.615642 0.000000
0.470307 0.614375 0.000000
0.509798 0.613108 0.000000
0.549289 0.611841 0.000000
0.588781 0.610574 0.000000
0.628272 0.609307 0.000000
0.667763 0.608040 0.000000
0.707254 0.606773 0.000000
0.746746 0.605506 0.000000
0.786237 0.604239 0.000000
0.825728 0.602972 0.000000
0.865219 0.601705 0.000000
0.904711 0.600438 0.000000
0.944202 0.599171 0.000000
0.983693 0.597904 0.000000
1.000000 0.596637 0.000000
1.000000 0.595370 0.000000
1.000000 0.595168 0.000000
1.000000 0.595168 0.000000
0.000000 0.669225 0.019513
0.000000 0.668990 0.017845
0.000000 0.668553 0.016177
0.000000 0.667050 0.014509
0.034158 0.665548 0.012841
0.072931 0.664045 0.011174
0.112085 0.662543 0.009328
0.152067 0.661040 0.007097
0.192048 0.659538 0.004865
0.232030 0.658035 0.002633
0.272012 0.656533 0.000402
0.311994 0.655030 0.000000
0.351828 0.653599 0.000000
0.391319 0.652332 0.000000
0.430810 0.651065 0.000000
0.470302 0.649798 0.000000
0.509793 0.648531 0.000000
0.549284 0.647264 0.000000
0.588775 0.645997 0.000000
0.628267 0.644730 0.000000
0.667758 0.643463 0.000000
0.707249 0.642196 0.000000
0.746740 0.640929 0.000000
0.786232 0.639662 0.000000
0.825723 0.638394 0.000000
0.865214 0.637127 0.000000
0.904705 0.635860 0.000000
0.944196 0.634593 0.000000
0.983688 0.633326 0.000000
1.000000 0.632059 0.000000
1.000000 0.630792 0.000000
1.000000 0.630591 0.000000
1.000000 0.630591 0.000000
0.000000 0.704186 0.016238
0.000000 0.703950 0.014571
0.000000 0.703513 0.012903
0.000000 0.702011 0.011235
0.033079 0.700508 0.009410
0.073061 0.699006 0.007179
0.113043 0.697503 0.004947
0.153024 0.696001 0.002715
0.193006 0.694498 0.000484
0.232988 0.692996 0.000000
0.272840 0.691555 0.000000
0.312331 0.690288 0.000000
0.351823 0.689021 0.000000
0.391314 0.687754 0.000000
0.430805 0.686487 0.000000
0.470296 0.685220 0.000000
0.509788 0.683953 0.000000
0.549279 0.682686 0.000000
0.588770 0.681419 0.000000
0.628261 0.680152 0.000000
0.667752 0.678885 0.000000
0.707244 0.677618 0.000000
0.746735 0.676351 0.000000
0.786226 0.675084 0.000000
0.825717 0.673817 0.000000
0.865209 0.672550 0.000000
0.904700 0.671283 0.000000
0.944191 0.670016 0.000000
0.983682 0.668749 0.000000
1.000000 0.667482 0.000000
1.000000 0.666215 0.000000
1.000000 0.666013 0.000000
1.000000 0.666013 0.000000
0.000000 0.739146 0.012964
0.000000 0.738911 0.011296
0.000000 0.738473 0.009493
0.000000 0.736971 0.007261
0.034037 0.735468 0.005029
0.074018 0.733966 0.002797
0.114000 0.732463 0.000566
0.153982 0.730961 0.000000
0.193852 0.729512 0.000000
0.233344 0.728245 0.000000
0.272835 0.726978 0.000000
0.312326 0.725711 0.000000
0.351817 0.724444 0.000000
0.391309 0.723177 0.000000
0.430800 0.721910 0.000000
0.470291 0.720643 0.000000
0.509782 0.719376 0.000000
0.549273 0.718109 0.000000
0.588765 0.716842 0.000000
0.628256 0.715575 0.000000
0.667747 0.714308 0.000000
0.707238 0.713041 0.000000
0.746730 0.711774 0.000000
0.786221 0.710507 0.000000
0.825712 0.709240 0.000000
0.865203 0.707973 0.000000
0.904695 0.706706 0.000000
0.944186 0.705439 0.000000
0.983677 0.704172 0.000000
1.000000 0.702905 0.000000
1.000000 0.701638 0.000000
1.000000 0.701436 0.000000
1.000000 0.701436 0.000000
0.000000 0.774107 0.009575
0.000000 0.773871 0.007343
0.000794 0.773434 0.005111
0.002493 0.771931 0.002880
0.034994 0.770429 0.000648
0.074976 0.768926 0.000000
0.114865 0.767469 0.000000
0.154356 0.766202 0.000000
0.193847 0.764935 0.000000
0.233338 0.763668 0.000000
0.272830 0.762401 0.000000
0.312321 0.761134 0.000000
0.351812 0.759867 0.000000
0.391303 0.758600 0.000000
0.430794 0.757333 0.000000
0.470286 0.756066 0.000000
0.509777 0.754799 0.000000
0.549268 0.753532 0.000000
0.588759 0.752265 0.000000
0.628251 0.750998 0.000000
0.667742 0.749731 0.000000
0.707233 0.748463 0.000000
0.746724 0.747196 0.000000
0.786216 0.745929 0.000000
0.825707 0.744662 0.000000
0.865198 0.743395 0.000000
0.904689 0.742128 0.000000
0.944180 0.740861 0.000000
0.983672 0.739594 0.000000
1.000000 0.738327 0.000000
1.000000 0.737060 0.000000
1.000000 0.736859 0.000000
1.000000 0.736859 0.000000
0.000732 0.809067 0.005193
0.002430 0.808831 0.002962
0.004129 0.808394 0.000730
0.005828 0.806892 0.000000
0.035877 0.805425 0.000000
0.075368 0.804158 0.000000
0.114859 0.802891 0.000000
0.154351 0.801624 0.000000
0.193842 0.800357 0.000000
0.233333 0.799090 0.000000
0.272824 0.797823 0.000000
0.312315 0.796556 0.000000
0.351807 0.795289 0.000000
0.391298 0.794022 0.000000
0.430789 0.792755 0.000000
0.470280 0.791488 0.000000
0.509772 0.790221 0.000000
0.549263 0.788954 0.000000
0.588754 0.787687 0.000000
0.628245 0.786420 0.000000
0.667737 0.785153 0.000000
0.707228 0.783886 0.000000
0.746719 0.782619 0.000000
0.786210 0.781352 0.000000
0.825701 0.780085 0.000000
0.865193 0.778818 0.000000
0.904684 0.777551 0.000000
0.944175 0.776284 0.000000
0.983666 0.775017 0.000000
1.000000 0.773750 0.000000
1.000000 0.772483 0.000000
1.000000 0.772281 0.000000
1.000000 0.772281 0.000000
0.004067 0.844027 0.000812
0.005766 0.843792 0.000000
0.007407 0.843382 0.000000
0.008615 0.842115 0.000000
0.035872 0.840848 0.000000
0.075363 0.839581 0.000000
0.114854 0.838314 0.000000
0.154345 0.837047 0.000000
0.193836 0.835780 0.000000
0.233328 0.834513 0.000000
0.272819 0.833246 0.000000
0.312310 0.831979 0.000000
0.351801 0.830712 0.000000
0.391293 0.829445 0.000000
0.430784 0.828178 0.000000
0.470275 0.826911 0.000000
0.509766 0.825644 0.000000
0.549258 0.824377 0.000000
0.588749 0.823110 0.000000
0.628240 0.821843 0.000000
0.667731 0.820576 0.000000
0.707222 0.819309 0.000000
0.746714 0.818042 0.000000
0.786205 0.816775 0.000000
0.825696 0.815508 0.000000
0.865187 0.814241 0.000000
0.904679 0.812974 0.000000
0.944170 0.811707 0.000000
0.983661 0.810440 0.000000
1.000000 0.809173 0.000000
1.000000 0.807906 0.000000
1.000000 0.807704 0.000000
1.000000 0.807704 0.000000
0.007363 0.879007 0.000000
0.008571 0.879007 0.000000
0.009779 0.878805 0.000000
0.010987 0.877538 0.000000
0.035866 0.876271 0.000000
0.075357 0.875004 0.000000
0.114849 0.873737 0.000000
0.154340 0.872470 0.000000
0.193831 0.871203 0.000000
0.233322 0.869936 0.000000
0.272814 0.868669 0.000000
0.312305 0.867402 0.000000
0.351796 0.866135 0.000000
0.391287 0.864868 0.000000
0.430779 0.863601 0.000000
0.470270 0.862334 0.000000
0.509761 0.861067 0.000000
0.549252 0.859799 0.000000
0.588743 0.858532 0.000000
0.628235 0.857265 0.000000
0.667726 0.855998 0.000000
0.707217 0.854731 0.000000
0.746708 0.853464 0.000000
0.786200 0.852197 0.000000
0.825691 0.850930 0.000000
0.865182 0.849663 0.000000
0.904673 0.848396 0.000000
