docs/luts/fresh-cinematic-canon.cube
TITLE "FreshLUTs??-????"
LUT_3D_SIZE 9
DOMAIN_MIN 0.0 0.0 0.0
DOMAIN_MAX 1.0 1.0 1.0
0.000000 0.008000 0.000000
0.109974 0.008000 0.000000
0.245824 0.008000 0.000000
0.381675 0.008000 0.000000
0.517525 0.008000 0.000000
0.653375 0.008000 0.000000
0.789226 0.008000 0.000000
0.925076 0.008000 0.000000
1.000000 0.008000 0.000000
0.000000 0.124099 0.000000
0.106635 0.122511 0.000000
0.242486 0.120548 0.000000
0.378336 0.118586 0.000000
0.514186 0.116624 0.000000
0.650037 0.114662 0.000000
0.785887 0.112700 0.000000
0.921737 0.110737 0.000000
1.000000 0.109149 0.000000
0.000000 0.255508 0.000000
0.102857 0.253919 0.000000
0.238707 0.251957 0.000000
0.374557 0.249995 0.000000
0.510408 0.248033 0.000000
0.646258 0.246070 0.000000
0.782108 0.244108 0.000000
0.917959 0.242146 0.000000
1.000000 0.240558 0.000000
0.000000 0.386916 0.000000
0.099078 0.385328 0.000000
0.234928 0.383366 0.000000
0.370779 0.381404 0.000000
0.506629 0.379441 0.000000
0.642479 0.377479 0.000000
0.779380 0.375517 0.000000
0.916841 0.373555 0.000000
1.000000 0.371966 0.000000
0.000000 0.518325 0.000000
0.095299 0.516737 0.000000
0.231149 0.514774 0.000000
0.367000 0.512812 0.000000
0.503841 0.510850 0.000000
0.641303 0.508888 0.000000
0.778764 0.506926 0.000000
0.916225 0.504963 0.000000
1.000000 0.503375 0.000000
0.000000 0.649734 0.000000
0.091520 0.648145 0.000000
0.228303 0.646183 0.000000
0.365764 0.644221 0.000000
0.503225 0.642259 0.000000
0.640687 0.640297 0.000000
0.778148 0.638334 0.000000
0.915609 0.636372 0.000000
1.000000 0.634784 0.000000
0.000873 0.781142 0.000000
0.090225 0.779554 0.000000
0.227687 0.777592 0.000000
0.365148 0.775630 0.000000
0.502609 0.773667 0.000000
0.640070 0.771705 0.000000
0.777532 0.769743 0.000000
0.914993 0.767781 0.000000
1.000000 0.766192 0.000000
0.004036 0.912551 0.000000
0.089609 0.910963 0.000000
0.227070 0.909000 0.000000
0.364532 0.907038 0.000000
0.501993 0.905076 0.000000
0.639454 0.903114 0.000000
0.776916 0.901152 0.000000
0.914377 0.899189 0.000000
1.000000 0.897601 0.000000
0.007198 1.000000 0.000000
0.089433 1.000000 0.000000
0.226895 1.000000 0.000000
0.364356 1.000000 0.000000
0.501817 1.000000 0.000000
0.639279 1.000000 0.000000
0.776740 1.000000 0.000000
0.914201 1.000000 0.000000
1.000000 1.000000 0.000000
0.000000 0.008000 0.118897
0.109262 0.008000 0.118250
0.245112 0.008000 0.117230
0.380962 0.008000 0.116209
0.516813 0.008000 0.115189
0.652663 0.008000 0.114169
0.788513 0.008000 0.113148
0.924363 0.008000 0.112128
1.000000 0.008000 0.111481
0.000000 0.123386 0.117407
0.105923 0.121798 0.116761
0.241773 0.119836 0.115740
0.377624 0.117874 0.114720
0.513474 0.115911 0.113699
0.649324 0.113949 0.112679
0.785175 0.111987 0.111659
0.921025 0.110025 0.110638
1.000000 0.108436 0.109992
0.000000 0.254795 0.115477
0.102144 0.253207 0.114831
0.237994 0.251244 0.113810
0.373845 0.249282 0.112790
0.509695 0.247320 0.111770
0.645545 0.245358 0.110749
0.781396 0.243396 0.109729
0.917359 0.241434 0.108709
1.000000 0.239845 0.108062
0.000000 0.386204 0.113548
0.098365 0.384615 0.112901
0.234216 0.382653 0.111881
0.370066 0.380691 0.110860
0.505916 0.378729 0.109840
0.641821 0.376767 0.108820
0.779282 0.374804 0.107799
0.916743 0.372842 0.106280
1.000000 0.371254 0.104691
0.000000 0.517613 0.111618
0.094587 0.516024 0.110971
0.230437 0.514062 0.109951
0.366287 0.512100 0.108931
0.503743 0.510138 0.107910
0.641204 0.508175 0.106425
0.778666 0.506213 0.104463
0.916127 0.504251 0.102501
1.000000 0.502663 0.100912
0.000000 0.649021 0.109688
0.090808 0.647433 0.109041
0.228204 0.645471 0.108021
0.365666 0.643508 0.106571
0.503127 0.641546 0.104609
0.640588 0.639584 0.102646
0.778050 0.637622 0.100684
0.915511 0.635660 0.098722
1.000000 0.634071 0.097134
0.001487 0.780430 0.107758
0.090127 0.778841 0.106716
0.227588 0.776879 0.104754
0.365050 0.774917 0.102792
0.502511 0.772955 0.100830
0.639972 0.770993 0.098868
0.777434 0.769031 0.096905
0.914895 0.767068 0.094943
1.000000 0.765480 0.093355
0.004650 0.911839 0.104526
0.089511 0.910250 0.102938
0.226972 0.908288 0.100975
0.364434 0.906326 0.099013
0.501895 0.904364 0.097051
0.639356 0.902401 0.095089
0.776817 0.900439 0.093127
0.914279 0.898477 0.091164
1.000000 0.896889 0.089576
0.007812 1.000000 0.101187
0.089335 1.000000 0.099599
0.226796 1.000000 0.097637
0.364258 1.000000 0.095675
0.501719 1.000000 0.093712
0.639180 1.000000 0.091750
0.776642 1.000000 0.089788
0.914103 1.000000 0.087826
1.000000 1.000000 0.086237
0.000000 0.008000 0.249793
0.108549 0.008000 0.249147
0.244399 0.008000 0.248126
0.380250 0.008000 0.247106
0.516100 0.008000 0.246086
0.651950 0.008000 0.245065
0.787801 0.008000 0.244045
0.923651 0.008000 0.243025
1.000000 0.008000 0.242378
0.000000 0.122674 0.248304
0.105210 0.121086 0.247657
0.241061 0.119123 0.246637
0.376911 0.117161 0.245616
0.512761 0.115199 0.244596
0.648612 0.113237 0.243576
0.784462 0.111275 0.242555
0.920312 0.109312 0.241535
1.000000 0.107724 0.240888
0.000000 0.254083 0.246374
0.101432 0.252494 0.245727
0.237282 0.250532 0.244707
0.373132 0.248570 0.243687
0.508983 0.246608 0.242666
0.644833 0.244645 0.241646
0.780683 0.242683 0.240626
0.917261 0.240721 0.239605
1.000000 0.239133 0.238959
0.000000 0.385491 0.244444
0.097653 0.383903 0.243798
0.233503 0.381941 0.242777
0.369354 0.379978 0.241757
0.505204 0.378016 0.240737
0.641722 0.376054 0.239716
0.779184 0.374092 0.238696
0.916645 0.372130 0.236817
1.000000 0.370541 0.235229
0.000000 0.516900 0.242514
0.093874 0.515312 0.241868
0.229724 0.513349 0.240847
0.366184 0.511387 0.239827
0.503645 0.509425 0.238807
0.641106 0.507463 0.236963
0.778567 0.505501 0.235001
0.916029 0.503538 0.233038
1.000000 0.501950 0.231450
0.000000 0.648309 0.240585
0.090645 0.646720 0.239938
0.228106 0.644758 0.238918
0.365567 0.642796 0.237108
0.503029 0.640834 0.235146
0.640490 0.638872 0.233184
0.777951 0.636909 0.231222
0.915413 0.634947 0.229260
1.000000 0.633359 0.227671
0.002101 0.779717 0.238655
0.090029 0.778129 0.237254
0.227490 0.776167 0.235292
0.364951 0.774205 0.233330
0.502413 0.772242 0.231367
0.639874 0.770280 0.229405
0.777335 0.768318 0.227443
0.914797 0.766356 0.225481
1.000000 0.764767 0.223892
0.005264 0.911126 0.235064
0.089413 0.909538 0.233475
0.226874 0.907575 0.231513
0.364335 0.905613 0.229551
0.501797 0.903651 0.227589
0.639258 0.901689 0.225626
0.776719 0.899727 0.223664
0.914180 0.897764 0.221702
1.000000 0.896176 0.220114
0.008427 1.000000 0.231725
0.089237 1.000000 0.230137
0.226698 1.000000 0.228174
0.364159 1.000000 0.226212
0.501621 1.000000 0.224250
0.639082 1.000000 0.222288
0.776543 1.000000 0.220326
0.914005 1.000000 0.218363
1.000000 1.000000 0.216775
0.000000 0.008000 0.380690
0.107837 0.008000 0.380043
0.243687 0.008000 0.379023
0.379537 0.008000 0.378003
0.515387 0.008000 0.376982
0.651238 0.008000 0.375962
0.787088 0.008000 0.374942
0.922938 0.008000 0.373921
1.000000 0.008000 0.373275
0.000000 0.121961 0.379200
0.104498 0.120373 0.378554
0.240348 0.118411 0.377533
0.376199 0.116449 0.376513
0.512049 0.114486 0.375493
0.647899 0.112524 0.374472
0.783750 0.110562 0.373452
0.919600 0.108600 0.372432
1.000000 0.107011 0.371785
0.000000 0.253370 0.377271
0.100719 0.251782 0.376624
0.236569 0.249819 0.375604
0.372420 0.247857 0.374583
0.508270 0.245895 0.373563
0.644120 0.243933 0.372543
0.779971 0.241971 0.371522
0.917163 0.240009 0.370502
1.000000 0.238420 0.369545
0.000000 0.384779 0.375341
0.096940 0.383190 0.374694
0.232791 0.381228 0.373674
0.368641 0.379266 0.372654
0.504491 0.377304 0.371633
0.641624 0.375342 0.370613
0.779085 0.373379 0.369317
0.916547 0.371417 0.367355
1.000000 0.369829 0.365766
0.000000 0.516188 0.373411
0.093162 0.514599 0.372764
0.229012 0.512637 0.371744
0.366085 0.510675 0.370724
0.503547 0.508713 0.369463
0.641008 0.506750 0.367500
0.778469 0.504788 0.365538
0.915930 0.502826 0.363576
1.000000 0.501238 0.361987
0.000000 0.647596 0.371481
0.090547 0.646008 0.370835
0.228008 0.644046 0.369608
0.365469 0.642083 0.367646
0.502930 0.640121 0.365684
0.640392 0.638159 0.363722
0.777853 0.636197 0.361759
0.915314 0.634235 0.359797
1.000000 0.632646 0.358209
0.002716 0.779005 0.369380
0.089930 0.777416 0.367791
0.227392 0.775454 0.365829
0.364853 0.773492 0.363867
0.502314 0.771530 0.361905
0.639776 0.769568 0.359943
0.777237 0.767606 0.357980
0.914698 0.765643 0.356018
1.000000 0.764055 0.354430
0.005878 0.910414 0.365601
0.089314 0.908825 0.364013
0.226776 0.906863 0.362050
0.364237 0.904901 0.360088
0.501698 0.902939 0.358126
0.639160 0.900976 0.356164
0.776621 0.899014 0.354202
0.914082 0.897052 0.352239
1.000000 0.895464 0.350651
0.009041 1.000000 0.362262
0.089139 1.000000 0.360674
0.226600 1.000000 0.358712
0.364061 1.000000 0.356750
0.501522 1.000000 0.354787
0.638984 1.000000 0.352825
0.776445 1.000000 0.350863
0.913906 1.000000 0.348901
1.000000 1.000000 0.347313
0.000000 0.008000 0.511586
0.107124 0.008000 0.510940
0.242974 0.008000 0.509919
0.378825 0.008000 0.508899
0.514675 0.008000 0.507879
0.650525 0.008000 0.506858
0.786376 0.008000 0.505838
0.922226 0.008000 0.504818
1.000000 0.008000 0.504171
0.000000 0.121249 0.510097
0.103785 0.119661 0.509450
0.239636 0.117698 0.508430
0.375486 0.115736 0.507410
0.511336 0.113774 0.506389
0.647187 0.111812 0.505369
0.783037 0.109850 0.504349
0.918887 0.107887 0.503328
1.000000 0.106299 0.502682
0.000000 0.252658 0.508167
0.100007 0.251069 0.507521
0.235857 0.249107 0.506500
0.371707 0.247145 0.505480
0.507558 0.245183 0.504460
0.643408 0.243220 0.503439
0.779603 0.241258 0.502419
0.917064 0.239296 0.501399
1.000000 0.237708 0.500083
0.000000 0.384066 0.506237
0.096228 0.382478 0.505591
0.232078 0.380516 0.504570
0.367929 0.378553 0.503550
0.504064 0.376591 0.502530
0.641526 0.374629 0.501509
0.778987 0.372667 0.499854
0.916448 0.370705 0.497892
1.000000 0.369116 0.496304
0.000000 0.515475 0.504308
0.092449 0.513887 0.503661
0.228526 0.511924 0.502641
0.365987 0.509962 0.501620
0.503448 0.508000 0.500000
0.640910 0.506038 0.498038
0.778371 0.504076 0.496076
0.915832 0.502113 0.494113
1.000000 0.500525 0.492525
0.000167 0.646884 0.502378
0.090448 0.645295 0.501731
0.227910 0.643333 0.500146
0.365371 0.641371 0.498183
0.502832 0.639409 0.496221
0.640293 0.637447 0.494259
0.777755 0.635484 0.492297
0.915216 0.633522 0.490335
1.000000 0.631934 0.488746
0.003330 0.778292 0.499917
0.089832 0.776704 0.498329
0.227293 0.774742 0.496367
0.364755 0.772780 0.494405
0.502216 0.770817 0.492442
0.639677 0.768855 0.490480
0.777139 0.766893 0.488518
0.914600 0.764931 0.486556
1.000000 0.763342 0.484967
0.006492 0.909701 0.496139
0.089216 0.908113 0.494550
0.226677 0.906150 0.492588
0.364139 0.904188 0.490626
0.501600 0.902226 0.488664
0.639061 0.900264 0.486701
0.776523 0.898302 0.484739
0.913984 0.896339 0.482777
1.000000 0.894751 0.481189
0.009655 1.000000 0.492800
0.089040 1.000000 0.491212
0.226502 1.000000 0.489249
0.363963 1.000000 0.487287
0.501424 1.000000 0.485325
0.638885 1.000000 0.483363
0.776347 1.000000 0.481401
0.913808 1.000000 0.479438
1.000000 1.000000 0.477850
0.000000 0.008000 0.642483
0.106412 0.008000 0.641836
0.242262 0.008000 0.640816
0.378112 0.008000 0.639796
0.513962 0.008000 0.638775
0.649813 0.008000 0.637755
0.785663 0.008000 0.636735
0.921513 0.008000 0.635714
1.000000 0.008000 0.635068
0.000000 0.120536 0.640993
0.103073 0.118948 0.640347
0.238923 0.116986 0.639327
0.374774 0.115024 0.638306
0.510624 0.113061 0.637286
0.646474 0.111099 0.636266
0.782325 0.109137 0.635245
0.918175 0.107175 0.634225
1.000000 0.105586 0.633578
0.000000 0.251945 0.639064
0.099294 0.250357 0.638417
0.235144 0.248394 0.637397
0.370995 0.246432 0.636376
0.506845 0.244470 0.635356
0.642695 0.242508 0.634336
0.779505 0.240546 0.633315
0.916966 0.238584 0.632209
1.000000 0.236995 0.630620
0.000000 0.383354 0.637134
0.095515 0.381765 0.636487
0.231366 0.379803 0.635467
0.367216 0.377841 0.634447
0.503966 0.375879 0.633426
0.641427 0.373917 0.632354
0.778889 0.371954 0.630392
0.916350 0.369992 0.628430
1.000000 0.368404 0.626841
0.000000 0.514763 0.635204
0.091737 0.513174 0.634558
0.228427 0.511212 0.633537
0.365889 0.509250 0.632500
0.503350 0.507288 0.630537
0.640811 0.505325 0.628575
0.778273 0.503363 0.626613
0.915734 0.501401 0.624651
1.000000 0.499812 0.623062
0.000781 0.646171 0.633274
0.090350 0.644583 0.632628
0.227811 0.642621 0.630683
0.365273 0.640658 0.628721
0.502734 0.638696 0.626759
0.640195 0.636734 0.624796
0.777657 0.634772 0.622834
0.915118 0.632810 0.620872
1.000000 0.631221 0.619284
0.003944 0.777580 0.630455
0.089734 0.775991 0.628866
0.227195 0.774029 0.626904
0.364657 0.772067 0.624942
0.502118 0.770105 0.622980
0.639579 0.768143 0.621018
0.777040 0.766181 0.619055
0.914502 0.764218 0.617093
1.000000 0.762630 0.615505
0.007107 0.908989 0.626676
0.089118 0.907400 0.625088
0.226579 0.905438 0.623125
0.364040 0.903476 0.621163
0.501502 0.901514 0.619201
0.638963 0.899551 0.617239
0.776424 0.897589 0.615277
0.913886 0.895627 0.613314
1.000000 0.894039 0.611726
0.010269 1.000000 0.623337
0.088942 1.000000 0.621749
0.226403 1.000000 0.619787
0.363865 1.000000 0.617825
0.501326 1.000000 0.615862
0.638787 1.000000 0.613900
0.776248 1.000000 0.611938
0.913710 1.000000 0.609976
1.000000 1.000000 0.608387
0.000000 0.008000 0.773380
0.105699 0.008000 0.772733
0.241549 0.008000 0.771713
0.377400 0.008000 0.770692
0.513250 0.008000 0.769672
0.649100 0.008000 0.768652
0.784951 0.008000 0.767631
0.920801 0.008000 0.766611
1.000000 0.008000 0.765964
0.000000 0.119824 0.771890
0.102360 0.118236 0.771244
0.238211 0.116273 0.770223
0.374061 0.114311 0.769203
0.509911 0.112349 0.768182
0.645762 0.110387 0.767162
0.781612 0.108425 0.766142
0.917484 0.106462 0.765121
1.000000 0.104874 0.764475
0.000000 0.251233 0.769960
0.098582 0.249644 0.769314
0.234432 0.247682 0.768293
0.370282 0.245720 0.767273
0.506133 0.243758 0.766253
0.641983 0.241795 0.765232
0.779407 0.239833 0.764212
0.916868 0.237871 0.762746
1.000000 0.236283 0.761158
0.000000 0.382641 0.768031
0.094803 0.381053 0.767384
0.230653 0.379091 0.766364
0.366504 0.377128 0.765343
0.503868 0.375166 0.764323
0.641329 0.373204 0.762892
0.778790 0.371242 0.760929
0.916252 0.369280 0.758967
1.000000 0.367691 0.757379
0.000000 0.514050 0.766101
0.091024 0.512462 0.765454
0.228329 0.510499 0.764434
0.365790 0.508537 0.763037
0.503252 0.506575 0.761075
0.640713 0.504613 0.759113
0.778174 0.502651 0.757151
0.915636 0.500688 0.755188
1.000000 0.499100 0.753600
0.001395 0.645459 0.764171
0.090252 0.643870 0.763183
0.227713 0.641908 0.761221
0.365174 0.639946 0.759258
0.502636 0.637984 0.757296
0.640097 0.636022 0.755334
0.777558 0.634059 0.753372
0.915020 0.632097 0.751410
1.000000 0.630509 0.749821
0.004558 0.776867 0.760992
0.089636 0.775279 0.759404
0.227097 0.773317 0.757442
0.364558 0.771355 0.755480
0.502020 0.769392 0.753517
0.639481 0.767430 0.751555
0.776942 0.765468 0.749593
0.914403 0.763506 0.747631
1.000000 0.761917 0.746042
0.007721 0.908276 0.757214
0.089020 0.906688 0.755625
0.226481 0.904725 0.753663
0.363942 0.902763 0.751701
0.501403 0.900801 0.749739
0.638865 0.898839 0.747776
0.776326 0.896877 0.745814
0.913787 0.894914 0.743852
1.000000 0.893326 0.742264
0.010884 1.000000 0.753875
0.088844 1.000000 0.752287
0.226305 1.000000 0.750324
0.363766 1.000000 0.748362
0.501228 1.000000 0.746400
0.638689 1.000000 0.744438
0.776150 1.000000 0.742476
0.913611 1.000000 0.740513
1.000000 1.000000 0.738925
0.000000 0.008000 0.904276
0.104987 0.008000 0.903630
0.240837 0.008000 0.902609
0.376687 0.008000 0.901589
0.512538 0.008000 0.900569
0.648388 0.008000 0.899548
0.784238 0.008000 0.898528
0.920088 0.008000 0.897508
1.000000 0.008000 0.896861
0.000000 0.119111 0.902787
0.101648 0.117523 0.902140
0.237498 0.115561 0.901120
0.373349 0.113599 0.900099
0.509199 0.111636 0.899079
0.645049 0.109674 0.898059
0.780900 0.107712 0.897038
0.917386 0.105750 0.896018
1.000000 0.104161 0.895371
0.000000 0.250520 0.900857
0.097869 0.248932 0.900210
0.233719 0.246970 0.899190
0.369570 0.245007 0.898170
0.505420 0.243045 0.897149
0.641847 0.241083 0.896129
0.779308 0.239121 0.895109
0.916770 0.237159 0.893284
1.000000 0.235570 0.891695
0.000000 0.381929 0.898927
0.094090 0.380340 0.898281
0.229941 0.378378 0.897260
0.366308 0.376416 0.896240
0.503770 0.374454 0.895220
0.641231 0.372492 0.893429
0.778692 0.370529 0.891467
0.916153 0.368567 0.889505
1.000000 0.366979 0.887916
0.000000 0.513338 0.896997
0.090770 0.511749 0.896351
0.228231 0.509787 0.895330
0.365692 0.507825 0.893575
0.503153 0.505862 0.891613
0.640615 0.503900 0.889650
0.778076 0.501938 0.887688
0.915537 0.499976 0.885726
1.000000 0.498387 0.884138
0.002010 0.644746 0.895068
0.090153 0.643158 0.893720
0.227615 0.641196 0.891758
0.365076 0.639233 0.889796
0.502537 0.637271 0.887834
0.639999 0.635309 0.885872
0.777460 0.633347 0.883909
0.914921 0.631385 0.881947
1.000000 0.629796 0.880359
0.005172 0.776155 0.891530
0.089537 0.774566 0.889941
0.226999 0.772604 0.887979
0.364460 0.770642 0.886017
0.501921 0.768680 0.884055
0.639383 0.766718 0.882093
0.776844 0.764756 0.880131
0.914305 0.762793 0.878168
1.000000 0.761205 0.876580
0.008335 0.907564 0.887751
0.088921 0.905975 0.886163
0.226383 0.904013 0.884200
0.363844 0.902051 0.882238
0.501305 0.900089 0.880276
0.638766 0.898126 0.878314
0.776228 0.896164 0.876352
0.913689 0.894202 0.874390
1.000000 0.892614 0.872801
0.011498 1.000000 0.884413
0.088745 1.000000 0.882824
0.226207 1.000000 0.880862
0.363668 1.000000 0.878900
0.501129 1.000000 0.876938
0.638591 1.000000 0.874975
0.776052 1.000000 0.873013
0.913513 1.000000 0.871051
1.000000 1.000000 0.869463
0.000000 0.008000 0.990873
0.104274 0.008000 0.991815
0.240124 0.008000 0.992757
0.375975 0.008000 0.993698
0.511825 0.008000 0.994640
0.647675 0.008000 0.995582
0.783526 0.008000 0.996524
0.919376 0.008000 0.997466
1.000000 0.008000 0.998408
0.000000 0.118399 0.992722
0.100935 0.116811 0.993664
0.236786 0.114848 0.994606
0.372636 0.112886 0.995547
0.508486 0.110924 0.996489
0.644337 0.108962 0.997431
0.780187 0.107000 0.998373
0.917287 0.105037 0.999315
1.000000 0.103449 1.000000
0.000000 0.249808 0.994571
0.097157 0.248219 0.995513
0.233007 0.246257 0.996455
0.368857 0.244295 0.997396
0.504708 0.242333 0.998338
0.641749 0.240370 0.999280
0.779210 0.238408 1.000000
0.916671 0.236446 1.000000
1.000000 0.234858 1.000000
0.000000 0.381216 0.996420
0.093378 0.379628 0.997362
0.229228 0.377666 0.998304
0.366210 0.375703 0.999246
0.503671 0.373741 1.000000
0.641133 0.371779 1.000000
0.778594 0.369817 1.000000
0.916055 0.367855 1.000000
1.000000 0.366266 1.000000
0.000000 0.512625 0.998269
0.090671 0.511037 0.999211
0.228133 0.509074 1.000000
0.365594 0.507112 1.000000
0.503055 0.505150 1.000000
0.640516 0.503188 1.000000
0.777978 0.501226 1.000000
0.915439 0.499263 1.000000
1.000000 0.497675 1.000000
0.002624 0.644034 1.000000
0.090055 0.642445 1.000000
0.227516 0.640483 1.000000
0.364978 0.638521 1.000000
0.502439 0.636559 1.000000
0.639900 0.634597 1.000000
0.777362 0.632634 1.000000
0.914823 0.630672 1.000000
1.000000 0.629084 1.000000
0.005787 0.775442 1.000000
0.089439 0.773854 1.000000
0.226900 0.771892 1.000000
0.364362 0.769930 1.000000
0.501823 0.767967 1.000000
0.639284 0.766005 1.000000
0.776746 0.764043 1.000000
0.914207 0.762081 1.000000
1.000000 0.760492 1.000000
0.008949 0.906851 1.000000
0.088823 0.905263 1.000000
0.226284 0.903300 1.000000
0.363746 0.901338 1.000000
0.501207 0.899376 1.000000
0.638668 0.897414 1.000000
0.776129 0.895452 1.000000
0.913591 0.893490 1.000000
1.000000 0.891901 1.000000
0.012112 1.000000 1.000000
0.088647 1.000000 1.000000
0.226108 1.000000 1.000000
0.363570 1.000000 1.000000
0.501031 1.000000 1.000000
0.638492 1.000000 1.000000
0.775954 1.000000 1.000000
0.913415 1.000000 1.000000
1.000000 1.000000 1.000000
