docs/luts/fresh-night-glow.cube
TITLE "FreshLUTs??-????"
LUT_3D_SIZE 5
DOMAIN_MIN 0.0 0.0 0.0
DOMAIN_MAX 1.0 1.0 1.0
0.012000 0.014000 0.107875
0.245330 0.011802 0.091223
0.531925 0.009605 0.074465
0.819615 0.007407 0.057603
1.000000 0.005209 0.040637
0.008302 0.238132 0.075084
0.231780 0.232658 0.058226
0.519428 0.225977 0.041263
0.808171 0.219274 0.024195
1.000000 0.213744 0.007023
0.004604 0.515301 0.041889
0.216276 0.510430 0.024825
0.506163 0.504347 0.007657
0.800038 0.497982 0.000000
1.000000 0.492600 0.000000
0.001952 0.794903 0.008290
0.206373 0.790059 0.000000
0.500661 0.783481 0.000000
0.794949 0.776903 0.000000
1.000000 0.771521 0.000000
0.008638 1.000000 0.000000
0.203162 1.000000 0.000000
0.497451 1.000000 0.000000
0.791739 1.000000 0.000000
1.000000 1.000000 0.000000
0.011282 0.013162 0.315909
0.242931 0.010964 0.294801
0.529731 0.008767 0.272370
0.817625 0.006569 0.249782
1.000000 0.004371 0.228224
0.007584 0.236228 0.274100
0.229365 0.230747 0.252703
0.517219 0.224060 0.229973
0.806167 0.217350 0.207086
1.000000 0.211814 0.185239
0.003886 0.513627 0.229859
0.213845 0.508750 0.208165
0.505413 0.502660 0.185128
0.799643 0.496112 0.177512
1.000000 0.490730 0.172130
0.002709 0.793460 0.185018
0.205977 0.788189 0.177989
0.500266 0.781611 0.171411
0.794554 0.775033 0.164833
1.000000 0.769651 0.159451
0.010112 1.000000 0.172570
0.202767 1.000000 0.167188
0.497055 1.000000 0.160610
0.791344 1.000000 0.154032
1.000000 1.000000 0.148650
0.010564 0.012324 0.618843
0.239715 0.010127 0.598927
0.526719 0.007929 0.577685
0.814816 0.005731 0.556287
1.000000 0.003534 0.535921
0.006866 0.233507 0.579373
0.226132 0.228019 0.559168
0.514189 0.221322 0.537628
0.803754 0.214604 0.515931
1.000000 0.209119 0.500719
0.003167 0.511134 0.537468
0.210864 0.506249 0.516966
0.504138 0.500000 0.500000
0.798426 0.493422 0.493422
1.000000 0.488040 0.488040
0.003996 0.790881 0.499281
0.204761 0.785499 0.493899
0.499049 0.778921 0.487321
0.793338 0.772343 0.480743
1.000000 0.766961 0.475361
0.011586 1.000000 0.488480
0.201551 1.000000 0.483098
0.495839 1.000000 0.476520
0.790127 1.000000 0.469942
1.000000 1.000000 0.464560
0.009845 0.011486 0.922706
0.236495 0.009289 0.903982
0.523702 0.007091 0.883931
0.812003 0.004893 0.863723
1.000000 0.002696 0.844548
0.006147 0.230783 0.885577
0.222894 0.225287 0.866563
0.511155 0.218581 0.846213
0.802397 0.211854 0.825706
1.000000 0.206429 0.816629
0.002449 0.508637 0.846008
0.209081 0.503744 0.826698
0.502922 0.497310 0.815910
0.797210 0.490732 0.809332
1.000000 0.485350 0.803950
0.005470 0.788190 0.815190
0.203545 0.782808 0.809808
0.497833 0.776230 0.803230
0.792121 0.769652 0.796652
1.000000 0.764270 0.791270
0.013060 1.000000 0.804390
0.200334 1.000000 0.799008
0.494623 1.000000 0.792430
0.788911 1.000000 0.785852
1.000000 1.000000 0.780470
0.009127 0.010648 1.000000
0.234086 0.008451 1.000000
0.521498 0.006253 1.000000
0.810005 0.004055 1.000000
1.000000 0.001858 1.000000
0.005429 0.228870 1.000000
0.220471 0.223368 1.000000
0.508937 0.216656 1.000000
0.801903 0.209941 1.000000
1.000000 0.204559 1.000000
0.001731 0.506955 1.000000
0.208238 0.502018 1.000000
0.502526 0.495440 1.000000
0.796815 0.488862 1.000000
1.000000 0.483480 1.000000
0.006944 0.786321 1.000000
0.203149 0.780939 1.000000
0.497438 0.774361 1.000000
0.791726 0.767783 1.000000
1.000000 0.762401 1.000000
0.014534 1.000000 1.000000
0.199939 1.000000 1.000000
0.494227 1.000000 1.000000
0.788516 1.000000 1.000000
1.000000 1.000000 1.000000
