docs/luts/fresh-cine-color-arrival.cube
TITLE "FreshLUTs??-?????"
LUT_3D_SIZE 33
DOMAIN_MIN 0.0 0.0 0.0
DOMAIN_MAX 1.0 1.0 1.0
0.000000 0.010000 0.055000
0.000000 0.009804 0.053921
0.000000 0.009608 0.052842
0.015596 0.011138 0.053489
0.044906 0.014029 0.055497
0.074216 0.016920 0.057505
0.103526 0.019811 0.059513
0.132836 0.022702 0.061521
0.162146 0.025593 0.063529
0.191456 0.028484 0.065537
0.220767 0.031375 0.067545
0.250077 0.034266 0.069553
0.279387 0.037157 0.071561
0.308697 0.040048 0.073569
0.338007 0.042939 0.075577
0.367317 0.045830 0.077585
0.396628 0.048721 0.079593
0.425938 0.051611 0.081601
0.455248 0.054502 0.083609
0.484558 0.057393 0.085617
0.513868 0.060284 0.087625
0.543178 0.063175 0.089633
0.572488 0.066066 0.091641
0.601799 0.068957 0.093649
0.631109 0.071848 0.095657
0.660419 0.074739 0.097664
0.689729 0.077630 0.099672
0.719039 0.080521 0.101680
0.748349 0.083412 0.103688
0.777659 0.086303 0.105696
0.793909 0.087833 0.106344
0.793582 0.087637 0.105265
0.793255 0.087441 0.104186
0.000000 0.009615 0.052881
0.000000 0.009419 0.051802
0.000000 0.009222 0.050723
0.014954 0.010753 0.051370
0.044264 0.013644 0.053378
0.073574 0.016535 0.055386
0.102884 0.019426 0.057394
0.132194 0.022317 0.059402
0.161504 0.025208 0.061410
0.190814 0.028099 0.063418
0.220125 0.030990 0.065426
0.249435 0.033881 0.067434
0.278745 0.036771 0.069442
0.308055 0.039662 0.071450
0.337365 0.042553 0.073458
0.366675 0.045444 0.075466
0.395985 0.048335 0.077474
0.425296 0.051226 0.079482
0.454606 0.054117 0.081490
0.483916 0.057008 0.083498
0.513226 0.059899 0.085506
0.542536 0.062790 0.087514
0.571846 0.065681 0.089522
0.601156 0.068572 0.091530
0.630467 0.071463 0.093538
0.659777 0.074354 0.095546
0.689087 0.077245 0.097554
0.718397 0.080136 0.099562
0.747707 0.083027 0.101570
0.777017 0.085918 0.103578
0.793267 0.087448 0.104225
0.792940 0.087252 0.103146
0.792613 0.087056 0.102067
0.000360 0.018073 0.052406
0.000033 0.017877 0.051327
0.000000 0.017681 0.050248
0.015955 0.019211 0.050895
0.045265 0.022102 0.052903
0.074575 0.024993 0.054911
0.103886 0.027884 0.056919
0.133196 0.030775 0.058927
0.162506 0.033666 0.060935
0.191816 0.036557 0.062943
0.221126 0.039448 0.064951
0.250436 0.042339 0.066959
0.279746 0.045230 0.068967
0.309057 0.048121 0.070975
0.338367 0.051012 0.072983
0.367677 0.053903 0.074991
0.396987 0.056794 0.076999
0.426297 0.059685 0.079007
0.455607 0.062576 0.081015
0.484917 0.065467 0.083023
0.514228 0.068357 0.085031
0.543538 0.071248 0.087039
0.572848 0.074139 0.089047
0.602158 0.077030 0.091055
0.631468 0.079921 0.093063
0.660778 0.082812 0.095071
0.690088 0.085703 0.097079
0.719399 0.088594 0.099087
0.748709 0.091485 0.101095
0.778019 0.094376 0.103103
0.794269 0.095907 0.103750
0.793942 0.095710 0.102671
0.793615 0.095514 0.101592
0.005470 0.048641 0.056040
0.005143 0.048444 0.054961
0.004816 0.048248 0.053882
0.021066 0.049779 0.054529
0.050376 0.052670 0.056537
0.079686 0.055561 0.058545
0.108996 0.058451 0.060553
0.138306 0.061342 0.062561
0.167616 0.064233 0.064569
0.196927 0.067124 0.066577
0.226237 0.070015 0.068585
0.255547 0.072906 0.070593
0.284857 0.075797 0.072601
0.314167 0.078688 0.074609
0.343477 0.081579 0.076617
0.372787 0.084470 0.078625
0.402098 0.087361 0.080633
0.431408 0.090252 0.082641
0.460718 0.093143 0.084649
0.490028 0.096034 0.086657
0.519338 0.098925 0.088665
0.548648 0.101816 0.090673
0.577958 0.104707 0.092681
0.607269 0.107598 0.094689
0.636579 0.110489 0.096697
0.665889 0.113380 0.098705
0.695199 0.116271 0.100713
0.724509 0.119162 0.102721
0.753819 0.122053 0.104729
0.783129 0.124943 0.106736
0.799379 0.126474 0.107384
0.799052 0.126278 0.106305
0.798725 0.126082 0.105226
0.010581 0.079208 0.059674
0.010254 0.079012 0.058595
0.009927 0.078815 0.057516
0.026176 0.080346 0.058163
0.055486 0.083237 0.060171
0.084797 0.086128 0.062179
0.114107 0.089019 0.064187
0.143417 0.091910 0.066195
0.172727 0.094801 0.068203
0.202037 0.097692 0.070211
0.231347 0.100583 0.072219
0.260657 0.103474 0.074227
0.289968 0.106365 0.076235
0.319278 0.109256 0.078243
0.348588 0.112147 0.080251
0.377898 0.115037 0.082259
0.407208 0.117928 0.084267
0.436518 0.120819 0.086275
0.465828 0.123710 0.088283
0.495139 0.126601 0.090291
0.524449 0.129492 0.092299
0.553759 0.132383 0.094307
0.583069 0.135274 0.096315
0.612379 0.138165 0.098323
0.641689 0.141056 0.100331
0.670999 0.143947 0.102338
0.700310 0.146838 0.104346
0.729620 0.149729 0.106354
0.758930 0.152620 0.108362
0.788240 0.155511 0.110370
0.804490 0.157041 0.111018
0.804163 0.156845 0.109939
0.803836 0.156649 0.108859
0.015691 0.109775 0.063308
0.015364 0.109579 0.062229
0.015037 0.109383 0.061149
0.031287 0.110913 0.061797
0.060597 0.113804 0.063805
0.089907 0.116695 0.065813
0.119217 0.119586 0.067821
0.148527 0.122477 0.069829
0.177838 0.125368 0.071837
0.207148 0.128259 0.073845
0.236458 0.131150 0.075853
0.265768 0.134041 0.077861
0.295078 0.136932 0.079869
0.324388 0.139823 0.081877
0.353698 0.142714 0.083885
0.383009 0.145605 0.085893
0.412319 0.148496 0.087901
0.441629 0.151387 0.089909
0.470939 0.154278 0.091917
0.500249 0.157169 0.093925
0.529559 0.160060 0.095933
0.558869 0.162951 0.097940
0.588180 0.165842 0.099948
0.617490 0.168732 0.101956
0.646800 0.171623 0.103964
0.676110 0.174514 0.105972
0.705420 0.177405 0.107980
0.734730 0.180296 0.109988
0.764040 0.183187 0.111996
0.793351 0.186078 0.114004
0.809600 0.187609 0.114652
0.809273 0.187413 0.113573
0.808946 0.187216 0.112493
0.020802 0.140343 0.066942
0.020475 0.140146 0.065863
0.020148 0.139950 0.064783
0.036397 0.141481 0.065431
0.065708 0.144372 0.067439
0.095018 0.147263 0.069447
0.124328 0.150154 0.071455
0.153638 0.153045 0.073463
0.182948 0.155936 0.075471
0.212258 0.158826 0.077479
0.241568 0.161717 0.079487
0.270879 0.164608 0.081495
0.300189 0.167499 0.083503
0.329499 0.170390 0.085511
0.358809 0.173281 0.087519
0.388119 0.176172 0.089527
0.417429 0.179063 0.091535
0.446739 0.181954 0.093543
0.476050 0.184845 0.095550
0.505360 0.187736 0.097558
0.534670 0.190627 0.099566
0.563980 0.193518 0.101574
0.593290 0.196409 0.103582
0.622600 0.199300 0.105590
0.651910 0.202191 0.107598
0.681221 0.205082 0.109606
0.710531 0.207973 0.111614
0.739841 0.210864 0.113622
0.769151 0.213755 0.115630
0.798461 0.216646 0.117638
0.814711 0.218176 0.118286
0.814384 0.217980 0.117206
0.814057 0.217784 0.116127
0.025912 0.170910 0.070576
0.025585 0.170714 0.069496
0.025258 0.170518 0.068417
0.041508 0.172048 0.069065
0.070818 0.174939 0.071073
0.100128 0.177830 0.073081
0.129438 0.180721 0.075089
0.158749 0.183612 0.077097
0.188059 0.186503 0.079105
0.217369 0.189394 0.081113
0.246679 0.192285 0.083121
0.275989 0.195176 0.085129
0.305299 0.198067 0.087137
0.334609 0.200958 0.089145
0.363920 0.203849 0.091152
0.393230 0.206740 0.093160
0.422540 0.209631 0.095168
0.451850 0.212522 0.097176
0.481160 0.215412 0.099184
0.510470 0.218303 0.101192
0.539780 0.221194 0.103200
0.569091 0.224085 0.105208
0.598401 0.226976 0.107216
0.627711 0.229867 0.109224
0.657021 0.232758 0.111232
0.686331 0.235649 0.113240
0.715641 0.238540 0.115248
0.744951 0.241431 0.117256
0.774262 0.244322 0.119264
0.803572 0.247213 0.121272
0.819821 0.248744 0.121920
0.819494 0.248547 0.120840
0.819167 0.248351 0.119761
0.031023 0.201477 0.074210
0.030696 0.201281 0.073130
0.030369 0.201085 0.072051
0.046619 0.202616 0.072699
0.075929 0.205506 0.074707
0.105239 0.208397 0.076715
0.134549 0.211288 0.078723
0.163859 0.214179 0.080731
0.193169 0.217070 0.082739
0.222479 0.219961 0.084747
0.251790 0.222852 0.086754
0.281100 0.225743 0.088762
0.310410 0.228634 0.090770
0.339720 0.231525 0.092778
0.369030 0.234416 0.094786
0.398340 0.237307 0.096794
0.427650 0.240198 0.098802
0.456961 0.243089 0.100810
0.486271 0.245980 0.102818
0.515581 0.248871 0.104826
0.544891 0.251762 0.106834
0.574201 0.254653 0.108842
0.603511 0.257544 0.110850
0.632821 0.260435 0.112858
0.662132 0.263326 0.114866
0.691442 0.266217 0.116874
0.720752 0.269108 0.118882
0.750062 0.271998 0.120890
0.779372 0.274889 0.122898
0.808682 0.277780 0.124906
0.824932 0.279311 0.125553
0.824605 0.279115 0.124474
0.824278 0.278918 0.123395
0.036134 0.232045 0.077843
0.035806 0.231849 0.076764
0.035479 0.231652 0.075685
0.051729 0.233183 0.076333
0.081039 0.236074 0.078341
0.110349 0.238965 0.080349
0.139660 0.241856 0.082357
0.168970 0.244747 0.084364
0.198280 0.247638 0.086372
0.227590 0.250529 0.088380
0.256900 0.253420 0.090388
0.286210 0.256311 0.092396
0.315520 0.259202 0.094404
0.344831 0.262092 0.096412
0.374141 0.264983 0.098420
0.403451 0.267874 0.100428
0.432761 0.270765 0.102436
0.462071 0.273656 0.104444
0.491381 0.276547 0.106452
0.520691 0.279438 0.108460
0.550002 0.282329 0.110468
0.579312 0.285220 0.112476
0.608622 0.288111 0.114484
0.637932 0.291002 0.116492
0.667242 0.293893 0.118500
0.696552 0.296784 0.120508
0.725862 0.299675 0.122516
0.755173 0.302566 0.124524
0.784483 0.305457 0.126532
0.813793 0.308348 0.128540
0.830043 0.309878 0.129187
0.829716 0.309682 0.128108
0.829389 0.309486 0.127029
0.041244 0.262612 0.081477
0.040917 0.262416 0.080398
0.040590 0.262220 0.079319
0.056840 0.263750 0.079966
0.086150 0.266641 0.081974
0.115460 0.269532 0.083982
0.144770 0.272423 0.085990
0.174080 0.275314 0.087998
0.203390 0.278205 0.090006
0.232701 0.281096 0.092014
0.262011 0.283987 0.094022
0.291321 0.286878 0.096030
0.320631 0.289769 0.098038
0.349941 0.292660 0.100046
0.379251 0.295551 0.102054
0.408561 0.298442 0.104062
0.437872 0.301333 0.106070
0.467182 0.304224 0.108078
0.496492 0.307115 0.110086
0.525802 0.310006 0.112094
0.555112 0.312897 0.114102
0.584422 0.315787 0.116110
0.613732 0.318678 0.118118
0.643043 0.321569 0.120126
0.672353 0.324460 0.122134
0.701663 0.327351 0.124142
0.730973 0.330242 0.126150
0.760283 0.333133 0.128158
0.789593 0.336024 0.130166
0.818903 0.338915 0.132174
0.835153 0.340446 0.132821
0.834826 0.340249 0.131742
0.834499 0.340184 0.131384
0.046355 0.293180 0.085111
0.046028 0.292983 0.084032
0.045701 0.292787 0.082953
0.061950 0.294318 0.083600
0.091260 0.297209 0.085608
0.120571 0.300100 0.087616
0.149881 0.302991 0.089624
0.179191 0.305881 0.091632
0.208501 0.308772 0.093640
0.237811 0.311663 0.095648
0.267121 0.314554 0.097656
0.296431 0.317445 0.099664
0.325742 0.320336 0.101672
0.355052 0.323227 0.103680
0.384362 0.326118 0.105688
0.413672 0.329009 0.107696
0.442982 0.331900 0.109704
0.472292 0.334791 0.111712
0.501602 0.337682 0.113720
0.530913 0.340573 0.115728
0.560223 0.343464 0.117736
0.589533 0.346355 0.119744
0.618843 0.349246 0.121752
0.648153 0.352137 0.123760
0.677463 0.355028 0.125768
0.706773 0.357919 0.127776
0.736084 0.360810 0.129784
0.765394 0.363701 0.131792
0.794704 0.366592 0.133800
0.824014 0.369483 0.135808
0.840264 0.371137 0.137137
0.839937 0.371137 0.137137
0.839610 0.371137 0.137137
0.051465 0.323747 0.088745
0.051138 0.323551 0.087666
0.050811 0.323355 0.086587
0.067061 0.324885 0.087234
0.096371 0.327776 0.089242
0.125681 0.330667 0.091250
0.154991 0.333558 0.093258
0.184301 0.336449 0.095266
0.213612 0.339340 0.097274
0.242922 0.342231 0.099282
0.272232 0.345122 0.101290
0.301542 0.348013 0.103298
0.330852 0.350904 0.105306
0.360162 0.353795 0.107314
0.389472 0.356686 0.109322
0.418783 0.359577 0.111330
0.448093 0.362467 0.113338
0.477403 0.365358 0.115346
0.506713 0.368249 0.117354
0.536023 0.371140 0.119362
0.565333 0.374031 0.121370
0.594643 0.376922 0.123378
0.623954 0.379813 0.125386
0.653264 0.382704 0.127394
0.682574 0.385595 0.129402
0.711884 0.388486 0.131410
0.741194 0.391377 0.133418
0.770504 0.394268 0.135426
0.799814 0.397276 0.138076
0.829125 0.400363 0.141163
0.845374 0.402090 0.142890
0.845047 0.402090 0.142890
0.844720 0.402090 0.142890
0.056576 0.354314 0.092379
0.056249 0.354118 0.091300
0.055922 0.353922 0.090221
0.072171 0.355452 0.090868
0.101482 0.358343 0.092876
0.130792 0.361234 0.094884
0.160102 0.364125 0.096892
0.189412 0.367016 0.098900
0.218722 0.369907 0.100908
0.248032 0.372798 0.102916
0.277342 0.375689 0.104924
0.306653 0.378580 0.106932
0.335963 0.381471 0.108940
0.365273 0.384362 0.110948
0.394583 0.387253 0.112956
0.423893 0.390144 0.114964
0.453203 0.393035 0.116972
0.482513 0.395926 0.118980
0.511824 0.398817 0.120988
0.541134 0.401708 0.122996
0.570444 0.404599 0.125004
0.599754 0.407490 0.127012
0.629064 0.410381 0.129020
0.658374 0.413272 0.131028
0.687684 0.416163 0.133036
0.716995 0.419053 0.135044
0.746305 0.422054 0.137654
0.775615 0.425141 0.140741
0.804925 0.428228 0.143828
0.834235 0.431315 0.146915
0.850485 0.433042 0.148642
0.850158 0.433042 0.148642
0.849831 0.433042 0.148642
0.061686 0.384882 0.096013
0.061359 0.384686 0.094934
0.061032 0.384489 0.093855
0.077282 0.386020 0.094502
0.106592 0.388911 0.096510
0.135902 0.391802 0.098518
0.165212 0.394693 0.100526
0.194523 0.397584 0.102534
0.223833 0.400475 0.104542
0.253143 0.403366 0.106550
0.282453 0.406256 0.108558
0.311763 0.409147 0.110566
0.341073 0.412038 0.112574
0.370383 0.414929 0.114582
0.399694 0.417820 0.116590
0.429004 0.420711 0.118598
0.458314 0.423602 0.120606
0.487624 0.426493 0.122614
0.516934 0.429384 0.124622
0.546244 0.432275 0.126630
0.575554 0.435166 0.128638
0.604865 0.438057 0.130646
0.634175 0.440948 0.132654
0.663485 0.443839 0.134662
0.692795 0.446832 0.137232
0.722105 0.449919 0.140319
0.751415 0.453007 0.143407
0.780725 0.456094 0.146494
0.810036 0.459181 0.149581
0.839346 0.462268 0.152668
0.855595 0.463995 0.154395
0.855268 0.463995 0.154395
0.854941 0.463995 0.154395
0.066797 0.415449 0.099647
0.066470 0.415253 0.098568
0.066143 0.415057 0.097488
0.082393 0.416587 0.098136
0.111703 0.419478 0.100144
0.141013 0.422369 0.102152
0.170323 0.425260 0.104160
0.199633 0.428151 0.106168
0.228943 0.431042 0.108176
0.258253 0.433933 0.110184
0.287564 0.436824 0.112192
0.316874 0.439715 0.114200
0.346184 0.442606 0.116208
0.375494 0.445497 0.118216
0.404804 0.448388 0.120224
0.434114 0.451279 0.122232
0.463424 0.454170 0.124240
0.492735 0.457061 0.126248
0.522045 0.459952 0.128256
0.551355 0.462842 0.130264
0.580665 0.465733 0.132271
0.609975 0.468624 0.134279
0.639285 0.471610 0.136810
0.668595 0.474698 0.139898
0.697906 0.477785 0.142985
0.727216 0.480872 0.146072
0.756526 0.483959 0.149159
0.785836 0.487046 0.152246
0.815146 0.490133 0.155334
0.844456 0.493221 0.158421
0.860706 0.494947 0.160147
0.860379 0.494947 0.160147
0.860052 0.494947 0.160147
0.071907 0.446017 0.103281
0.071580 0.445820 0.102202
0.071253 0.445624 0.101122
0.087503 0.447155 0.101770
0.116813 0.450046 0.103778
0.146123 0.452936 0.105786
0.175434 0.455827 0.107794
0.204744 0.458718 0.109802
0.234054 0.461609 0.111810
0.263364 0.464500 0.113818
0.292674 0.467391 0.115826
0.321984 0.470282 0.117834
0.351294 0.473173 0.119842
0.380605 0.476064 0.121850
0.409915 0.478955 0.123858
0.439225 0.481846 0.125866
0.468535 0.484737 0.127874
0.497845 0.487628 0.129881
0.527155 0.490519 0.131889
0.556465 0.493410 0.133897
0.585776 0.496389 0.136389
0.615086 0.499476 0.139476
0.644396 0.502563 0.142563
0.673706 0.505650 0.145650
0.703016 0.508737 0.148737
0.732326 0.511825 0.151825
0.761636 0.514912 0.154912
0.790947 0.517999 0.157999
0.820257 0.521086 0.161086
0.849567 0.524173 0.164173
0.865817 0.525900 0.165900
0.865490 0.525900 0.165900
0.865163 0.525900 0.165900
0.077018 0.476584 0.106915
0.076691 0.476388 0.105835
0.076364 0.476191 0.104756
0.092614 0.477722 0.105404
0.121924 0.480613 0.107412
0.151234 0.483504 0.109420
0.180544 0.486395 0.111428
0.209854 0.489286 0.113436
0.239164 0.492177 0.115444
0.268475 0.495068 0.117452
0.297785 0.497959 0.119460
0.327095 0.500850 0.121468
0.356405 0.503741 0.123476
0.385715 0.506632 0.125483
0.415025 0.509522 0.127491
0.444335 0.512413 0.129499
0.473646 0.515304 0.131507
0.502956 0.518195 0.133515
0.532266 0.521167 0.135967
0.561576 0.524254 0.139054
0.590886 0.527341 0.142141
0.620196 0.530428 0.145228
0.649506 0.533516 0.148316
0.678817 0.536603 0.151403
0.708127 0.539690 0.154490
0.737437 0.542777 0.157577
0.766747 0.545864 0.160664
0.796057 0.548952 0.163752
0.825367 0.552039 0.166839
0.854677 0.555126 0.169926
0.870927 0.556853 0.171653
0.870600 0.556853 0.171653
0.870273 0.556853 0.171653
0.082129 0.507151 0.110549
0.081802 0.506955 0.109469
0.081475 0.506759 0.108390
0.097724 0.508289 0.109038
0.127034 0.511180 0.111046
0.156345 0.514071 0.113054
0.185655 0.516962 0.115062
0.214965 0.519853 0.117070
0.244275 0.522744 0.119078
0.273585 0.525635 0.121085
0.302895 0.528526 0.123093
0.332205 0.531417 0.125101
0.361516 0.534308 0.127109
0.390826 0.537199 0.129117
0.420136 0.540090 0.131125
0.449446 0.542981 0.133133
0.478756 0.545945 0.135545
0.508066 0.549032 0.138632
0.537376 0.552120 0.141720
0.566687 0.555207 0.144807
0.595997 0.558294 0.147894
0.625307 0.561381 0.150981
0.654617 0.564468 0.154068
0.683927 0.567555 0.157155
0.713237 0.570643 0.160243
0.742547 0.573730 0.163330
0.771858 0.576817 0.166417
0.801168 0.579904 0.169504
0.830478 0.582991 0.172591
0.859788 0.586078 0.175678
0.876038 0.587805 0.177405
0.875711 0.587805 0.177405
0.875384 0.587805 0.177405
0.087239 0.537719 0.114182
0.086912 0.537522 0.113103
0.086585 0.537326 0.112024
0.102835 0.538857 0.112672
0.132145 0.541748 0.114680
0.161455 0.544639 0.116687
0.190765 0.547530 0.118695
0.220075 0.550421 0.120703
0.249386 0.553311 0.122711
0.278696 0.556202 0.124719
0.308006 0.559093 0.126727
0.337316 0.561984 0.128735
0.366626 0.564875 0.130743
0.395936 0.567766 0.132751
0.425246 0.570723 0.135123
0.454557 0.573811 0.138211
0.483867 0.576898 0.141298
0.513177 0.579985 0.144385
0.542487 0.583072 0.147472
0.571797 0.586159 0.150559
0.601107 0.589247 0.153647
0.630417 0.592334 0.156734
0.659728 0.595421 0.159821
0.689038 0.598508 0.162908
0.718348 0.601595 0.165995
0.747658 0.604682 0.169082
0.776968 0.607770 0.172170
0.806278 0.610857 0.175257
0.835588 0.613944 0.178344
0.864899 0.617031 0.181431
0.881148 0.618758 0.183158
0.880821 0.618758 0.183158
0.880494 0.618758 0.183158
0.092350 0.568286 0.117816
0.092023 0.568090 0.116737
0.091696 0.567894 0.115658
0.107945 0.569424 0.116305
0.137256 0.572315 0.118313
0.166566 0.575206 0.120321
0.195876 0.578097 0.122329
0.225186 0.580988 0.124337
0.254496 0.583879 0.126345
0.283806 0.586770 0.128353
0.313116 0.589661 0.130361
0.342427 0.592552 0.132369
0.371737 0.595502 0.134702
0.401047 0.598589 0.137789
0.430357 0.601676 0.140876
0.459667 0.604763 0.143963
0.488977 0.607850 0.147050
0.518287 0.610938 0.150138
0.547598 0.614025 0.153225
0.576908 0.617112 0.156312
0.606218 0.620199 0.159399
0.635528 0.623286 0.162486
0.664838 0.626373 0.165573
0.694148 0.629461 0.168661
0.723458 0.632548 0.171748
0.752769 0.635635 0.174835
0.782079 0.638722 0.177922
0.811389 0.641809 0.181009
0.840699 0.644896 0.184096
0.870009 0.647984 0.187184
0.886259 0.649710 0.188910
0.885932 0.649710 0.188910
0.885605 0.649710 0.188910
0.097460 0.598853 0.121450
0.097133 0.598657 0.120371
0.096806 0.598461 0.119292
0.113056 0.599991 0.119939
0.142366 0.602882 0.121947
0.171676 0.605773 0.123955
0.200986 0.608664 0.125963
0.230297 0.611555 0.127971
0.259607 0.614446 0.129979
0.288917 0.617337 0.131987
0.318227 0.620280 0.134280
0.347537 0.623367 0.137367
0.376847 0.626454 0.140454
0.406157 0.629541 0.143541
0.435468 0.632629 0.146629
0.464778 0.635716 0.149716
0.494088 0.638803 0.152803
0.523398 0.641890 0.155890
0.552708 0.644977 0.158977
0.582018 0.648065 0.162065
0.611328 0.651152 0.165152
0.640639 0.654239 0.168239
0.669949 0.657326 0.171326
0.699259 0.660413 0.174413
0.728569 0.663500 0.177500
0.757879 0.666588 0.180588
0.787189 0.669675 0.183675
0.816499 0.672762 0.186762
0.845810 0.675849 0.189849
0.875120 0.678936 0.192936
0.891369 0.680663 0.194663
0.891042 0.680663 0.194663
0.890715 0.680663 0.194663
0.102571 0.629421 0.125084
0.102244 0.629225 0.124005
0.101917 0.629028 0.122926
0.118167 0.630559 0.123573
0.147477 0.633450 0.125581
0.176787 0.636341 0.127589
0.206097 0.639232 0.129597
0.235407 0.642123 0.131605
0.264717 0.645058 0.133858
0.294027 0.648145 0.136945
0.323338 0.651233 0.140033
0.352648 0.654320 0.143120
0.381958 0.657407 0.146207
0.411268 0.660494 0.149294
0.440578 0.663581 0.152381
0.469888 0.666668 0.155468
0.499198 0.669756 0.158556
0.528509 0.672843 0.161643
0.557819 0.675930 0.164730
0.587129 0.679017 0.167817
0.616439 0.682104 0.170904
0.645749 0.685191 0.173991
0.675059 0.688279 0.177079
0.704369 0.691366 0.180166
0.733680 0.694453 0.183253
0.762990 0.697540 0.186340
0.792300 0.700627 0.189427
0.821610 0.703715 0.192515
0.850920 0.706802 0.195602
0.880230 0.709889 0.198689
0.896480 0.711616 0.200416
0.896153 0.711616 0.200416
0.895826 0.711616 0.200416
0.107681 0.659988 0.128718
0.107354 0.659792 0.127639
0.107027 0.659596 0.126560
0.123277 0.661126 0.127207
0.152587 0.664017 0.129215
0.181897 0.666908 0.131223
0.211208 0.669836 0.133436
0.240518 0.672924 0.136524
0.269828 0.676011 0.139611
0.299138 0.679098 0.142698
0.328448 0.682185 0.145785
0.357758 0.685272 0.148872
0.387068 0.688360 0.151959
0.416379 0.691447 0.155047
0.445689 0.694534 0.158134
0.474999 0.697621 0.161221
0.504309 0.700708 0.164308
0.533619 0.703795 0.167395
0.562929 0.706883 0.170483
0.592239 0.709970 0.173570
0.621550 0.713057 0.176657
0.650860 0.716144 0.179744
0.680170 0.719231 0.182831
0.709480 0.722318 0.185918
0.738790 0.725406 0.189006
0.768100 0.728493 0.192093
0.797410 0.731580 0.195180
0.826721 0.734667 0.198267
0.856031 0.737754 0.201354
0.885341 0.740841 0.204441
0.901591 0.742568 0.206168
0.901264 0.742568 0.206168
0.900936 0.742568 0.206168
0.112792 0.690556 0.132352
0.112465 0.690359 0.131273
0.112138 0.690163 0.130194
0.128388 0.691694 0.130841
0.157698 0.694615 0.133015
0.187008 0.697702 0.136102
0.216318 0.700789 0.139189
0.245628 0.703876 0.142276
0.274938 0.706963 0.145363
0.304249 0.710051 0.148451
0.333559 0.713138 0.151538
0.362869 0.716225 0.154625
0.392179 0.719312 0.157712
0.421489 0.722399 0.160799
0.450799 0.725486 0.163886
0.480109 0.728574 0.166974
0.509420 0.731661 0.170061
0.538730 0.734748 0.173148
0.568040 0.737835 0.176235
0.597350 0.740922 0.179322
0.626660 0.744009 0.182410
0.655970 0.747097 0.185497
0.685280 0.750184 0.188584
0.714591 0.753271 0.191671
0.743901 0.756358 0.194758
0.773211 0.759445 0.197845
0.802521 0.762533 0.200933
0.831831 0.765620 0.204020
0.861141 0.768707 0.207107
0.890451 0.771794 0.210194
0.906701 0.773521 0.211921
0.906374 0.773521 0.211921
0.906047 0.773521 0.211921
0.117903 0.721123 0.135986
0.117576 0.720927 0.134907
0.117249 0.720753 0.133953
0.133498 0.722480 0.135680
0.162808 0.725567 0.138767
0.192119 0.728654 0.141854
0.221429 0.731742 0.144942
0.250739 0.734829 0.148029
0.280049 0.737916 0.151116
0.309359 0.741003 0.154203
0.338669 0.744090 0.157290
0.367979 0.747178 0.160378
0.397290 0.750265 0.163465
0.426600 0.753352 0.166552
0.455910 0.756439 0.169639
0.485220 0.759526 0.172726
0.514530 0.762613 0.175813
0.543840 0.765701 0.178901
0.573150 0.768788 0.181988
0.602461 0.771875 0.185075
0.631771 0.774962 0.188162
0.661081 0.778049 0.191249
0.690391 0.781136 0.194336
0.719701 0.784224 0.197424
0.749011 0.787311 0.200511
0.778321 0.790398 0.203598
0.807632 0.793485 0.206685
0.836942 0.796572 0.209772
0.866252 0.799660 0.212859
0.895562 0.802747 0.215947
0.911812 0.804473 0.217673
0.911485 0.804473 0.217673
0.911158 0.804473 0.217673
0.123013 0.751706 0.139706
0.122686 0.751706 0.139706
0.122359 0.751706 0.139706
0.138609 0.753433 0.141433
0.167919 0.756520 0.144520
0.197229 0.759607 0.147607
0.226539 0.762694 0.150694
0.255849 0.765781 0.153781
0.285160 0.768869 0.156869
0.314470 0.771956 0.159956
0.343780 0.775043 0.163043
0.373090 0.778130 0.166130
0.402400 0.781217 0.169217
0.431710 0.784304 0.172304
0.461020 0.787392 0.175392
0.490331 0.790479 0.178479
0.519641 0.793566 0.181566
0.548951 0.796653 0.184653
0.578261 0.799740 0.187740
0.607571 0.802828 0.190828
0.636881 0.805915 0.193915
0.666191 0.809002 0.197002
0.695502 0.812089 0.200089
0.724812 0.815176 0.203176
0.754122 0.818263 0.206263
0.783432 0.821351 0.209351
0.812742 0.824438 0.212438
