docs/luts/fresh-sony-slog3-correction.cube
TITLE "FreshLUTs??-SonySLog3??"
LUT_3D_SIZE 33
DOMAIN_MIN 0.0 0.0 0.0
DOMAIN_MAX 1.0 1.0 1.0
0.011977 0.014017 0.029977
0.024153 0.014090 0.029697
0.055813 0.014282 0.029536
0.087473 0.014474 0.029375
0.119133 0.014666 0.029214
0.150793 0.014858 0.029052
0.182452 0.015050 0.028891
0.214112 0.015242 0.028730
0.245772 0.015434 0.028569
0.277432 0.015627 0.028408
0.309092 0.015819 0.028247
0.340752 0.016011 0.028085
0.372411 0.016203 0.027924
0.404071 0.016395 0.027763
0.435731 0.016587 0.027602
0.467391 0.016779 0.027441
0.499051 0.016971 0.027280
0.530710 0.017163 0.027118
0.562370 0.017355 0.026957
0.594030 0.017547 0.026796
0.625690 0.017739 0.026635
0.657350 0.017931 0.026474
0.689010 0.018123 0.026312
0.720669 0.018315 0.026151
0.752329 0.018507 0.025990
0.783989 0.018699 0.025829
0.815649 0.018891 0.025668
0.847309 0.019083 0.025507
0.878968 0.019275 0.025345
0.910628 0.019467 0.025184
0.942288 0.019659 0.025023
0.973948 0.019851 0.024862
0.986125 0.019925 0.024583
0.012176 0.030892 0.029483
0.024353 0.030965 0.029204
0.056013 0.031157 0.029042
0.087673 0.031349 0.028881
0.119333 0.031542 0.028720
0.150992 0.031734 0.028559
0.182652 0.031926 0.028398
0.214312 0.032118 0.028236
0.245972 0.032310 0.028075
0.277632 0.032502 0.027914
0.309291 0.032694 0.027753
0.340951 0.032886 0.027592
0.372611 0.033078 0.027431
0.404271 0.033270 0.027269
0.435931 0.033462 0.027108
0.467591 0.033654 0.026947
0.499250 0.033846 0.026786
0.530910 0.034038 0.026625
0.562570 0.034230 0.026464
0.594230 0.034422 0.026302
0.625890 0.034614 0.026141
0.657549 0.034806 0.025980
0.689209 0.034998 0.025819
0.720869 0.035190 0.025658
0.752529 0.035382 0.025497
0.784189 0.035574 0.025335
0.815849 0.035766 0.025174
0.847508 0.035958 0.025013
0.879168 0.036150 0.024852
0.910828 0.036342 0.024691
0.942488 0.036534 0.024529
0.974148 0.036726 0.024368
0.986325 0.036800 0.024089
0.012550 0.062494 0.029164
0.024727 0.062568 0.028884
0.056387 0.062760 0.028723
0.088047 0.062952 0.028562
0.119707 0.063144 0.028401
0.151367 0.063336 0.028240
0.183026 0.063528 0.028078
0.214686 0.063720 0.027917
0.246346 0.063912 0.027756
0.278006 0.064104 0.027595
0.309666 0.064296 0.027434
0.341325 0.064488 0.027272
0.372985 0.064680 0.027111
0.404645 0.064872 0.026950
0.436305 0.065064 0.026789
0.467965 0.065256 0.026628
0.499625 0.065448 0.026467
0.531284 0.065640 0.026305
0.562944 0.065832 0.026144
0.594604 0.066024 0.025983
0.626264 0.066216 0.025822
0.657924 0.066408 0.025661
0.689583 0.066600 0.025500
0.721243 0.066792 0.025338
0.752903 0.066984 0.025177
0.784563 0.067176 0.025016
0.816223 0.067368 0.024855
0.847883 0.067560 0.024694
0.879542 0.067752 0.024533
0.911202 0.067944 0.024371
0.942862 0.068136 0.024210
0.974522 0.068328 0.024049
0.986699 0.068402 0.023770
0.012924 0.094096 0.028844
0.025101 0.094170 0.028565
0.056761 0.094362 0.028404
0.088421 0.094554 0.028243
0.120081 0.094746 0.028081
0.151741 0.094938 0.027920
0.183400 0.095130 0.027759
0.215060 0.095322 0.027598
0.246720 0.095514 0.027437
0.278380 0.095706 0.027276
0.310040 0.095898 0.027114
0.341700 0.096090 0.026953
0.373359 0.096282 0.026792
0.405019 0.096474 0.026631
0.436679 0.096667 0.026470
0.468339 0.096859 0.026309
0.499999 0.097051 0.026147
0.531658 0.097243 0.025986
0.563318 0.097435 0.025825
0.594978 0.097627 0.025664
0.626638 0.097819 0.025503
0.658298 0.098011 0.025341
0.689958 0.098203 0.025180
0.721617 0.098395 0.025019
0.753277 0.098587 0.024858
0.784937 0.098779 0.024697
0.816597 0.098971 0.024536
0.848257 0.099163 0.024374
0.879916 0.099355 0.024213
0.911576 0.099547 0.024052
0.943236 0.099739 0.023891
0.974896 0.099931 0.023730
0.987073 0.100005 0.023450
0.013299 0.125699 0.028525
0.025475 0.125773 0.028246
0.057135 0.125965 0.028084
0.088795 0.126157 0.027923
0.120455 0.126349 0.027762
0.152115 0.126541 0.027601
0.183775 0.126733 0.027440
0.215434 0.126925 0.027279
0.247094 0.127117 0.027117
0.278754 0.127309 0.026956
0.310414 0.127501 0.026795
0.342074 0.127693 0.026634
0.373733 0.127885 0.026473
0.405393 0.128077 0.026312
0.437053 0.128269 0.026150
0.468713 0.128461 0.025989
0.500373 0.128653 0.025828
0.532033 0.128845 0.025667
0.563692 0.129037 0.025506
0.595352 0.129229 0.025345
0.627012 0.129421 0.025183
0.658672 0.129613 0.025022
0.690332 0.129805 0.024861
0.721991 0.129997 0.024700
0.753651 0.130189 0.024539
0.785311 0.130381 0.024377
0.816971 0.130573 0.024216
0.848631 0.130765 0.024055
0.880291 0.130957 0.023894
0.911950 0.131149 0.023733
0.943610 0.131341 0.023572
0.975270 0.131533 0.023410
0.987447 0.131607 0.023131
0.013673 0.157301 0.028206
0.025850 0.157375 0.027926
0.057509 0.157567 0.027765
0.089169 0.157759 0.027604
0.120829 0.157951 0.027443
0.152489 0.158143 0.027282
0.184149 0.158335 0.027121
0.215808 0.158527 0.026959
0.247468 0.158719 0.026798
0.279128 0.158911 0.026637
0.310788 0.159103 0.026476
0.342448 0.159295 0.026315
0.374108 0.159487 0.026153
0.405767 0.159679 0.025992
0.437427 0.159871 0.025831
0.469087 0.160063 0.025670
0.500747 0.160255 0.025509
0.532407 0.160447 0.025348
0.564066 0.160639 0.025186
0.595726 0.160831 0.025025
0.627386 0.161023 0.024864
0.659046 0.161215 0.024703
0.690706 0.161407 0.024542
0.722366 0.161600 0.024381
0.754025 0.161792 0.024219
0.785685 0.161984 0.024058
0.817345 0.162176 0.023897
0.849005 0.162368 0.023736
0.880665 0.162560 0.023575
0.912324 0.162752 0.023413
0.943984 0.162944 0.023252
0.975644 0.163136 0.023091
0.987821 0.163209 0.022812
0.014047 0.188904 0.027886
0.026224 0.188978 0.027607
0.057883 0.189170 0.027446
0.089543 0.189362 0.027285
0.121203 0.189554 0.027124
0.152863 0.189746 0.026962
0.184523 0.189938 0.026801
0.216183 0.190130 0.026640
0.247842 0.190322 0.026479
0.279502 0.190514 0.026318
0.311162 0.190706 0.026157
0.342822 0.190898 0.025995
0.374482 0.191090 0.025834
0.406141 0.191282 0.025673
0.437801 0.191474 0.025512
0.469461 0.191666 0.025351
0.501121 0.191858 0.025189
0.532781 0.192050 0.025028
0.564441 0.192242 0.024867
0.596100 0.192434 0.024706
0.627760 0.192626 0.024545
0.659420 0.192818 0.024384
0.691080 0.193010 0.024222
0.722740 0.193202 0.024061
0.754399 0.193394 0.023900
0.786059 0.193586 0.023739
0.817719 0.193778 0.023578
0.849379 0.193970 0.023417
0.881039 0.194162 0.023255
0.912699 0.194354 0.023094
0.944358 0.194546 0.022933
0.976018 0.194738 0.022772
0.988195 0.194812 0.022492
0.014421 0.220506 0.027567
0.026598 0.220580 0.027288
0.058258 0.220772 0.027127
0.089917 0.220964 0.026965
0.121577 0.221156 0.026804
0.153237 0.221348 0.026643
0.184897 0.221540 0.026482
0.216557 0.221732 0.026321
0.248216 0.221924 0.026160
0.279876 0.222116 0.025998
0.311536 0.222308 0.025837
0.343196 0.222500 0.025676
0.374856 0.222692 0.025515
0.406516 0.222884 0.025354
0.438175 0.223076 0.025193
0.469835 0.223268 0.025031
0.501495 0.223460 0.024870
0.533155 0.223652 0.024709
0.564815 0.223844 0.024548
0.596474 0.224036 0.024387
0.628134 0.224228 0.024225
0.659794 0.224420 0.024064
0.691454 0.224612 0.023903
0.723114 0.224804 0.023742
0.754774 0.224996 0.023581
0.786433 0.225188 0.023420
0.818093 0.225380 0.023258
0.849753 0.225572 0.023097
0.881413 0.225764 0.022936
0.913073 0.225956 0.022775
0.944732 0.226148 0.022614
0.976392 0.226340 0.022453
0.988697 0.226414 0.022173
0.014795 0.252109 0.027248
0.026972 0.252182 0.026969
0.058632 0.252374 0.026807
0.090291 0.252566 0.026646
0.121951 0.252758 0.026485
0.153611 0.252950 0.026324
0.185271 0.253142 0.026163
0.216931 0.253334 0.026001
0.248591 0.253526 0.025840
0.280250 0.253718 0.025679
0.311910 0.253911 0.025518
0.343570 0.254103 0.025357
0.375230 0.254295 0.025196
0.406890 0.254487 0.025034
0.438549 0.254679 0.024873
0.470209 0.254871 0.024712
0.501869 0.255063 0.024551
0.533529 0.255255 0.024390
0.565189 0.255447 0.024229
0.596849 0.255639 0.024067
0.628508 0.255831 0.023906
0.660168 0.256023 0.023745
0.691828 0.256215 0.023584
0.723488 0.256407 0.023423
0.755148 0.256599 0.023261
0.786807 0.256791 0.023100
0.818467 0.256983 0.022939
0.850127 0.257175 0.022778
0.881787 0.257367 0.022617
0.913447 0.257559 0.022456
0.945228 0.257751 0.022294
0.977049 0.257943 0.022133
0.989387 0.258017 0.021854
0.015169 0.283711 0.026929
0.027346 0.283785 0.026649
0.059006 0.283977 0.026488
0.090666 0.284169 0.026327
0.122325 0.284361 0.026166
0.153985 0.284553 0.026005
0.185645 0.284745 0.025843
0.217305 0.284937 0.025682
0.248965 0.285129 0.025521
0.280624 0.285321 0.025360
0.312284 0.285513 0.025199
0.343944 0.285705 0.025037
0.375604 0.285897 0.024876
0.407264 0.286089 0.024715
0.438924 0.286281 0.024554
0.470583 0.286473 0.024393
0.502243 0.286665 0.024232
0.533903 0.286857 0.024070
0.565563 0.287049 0.023909
0.597223 0.287241 0.023748
0.628882 0.287433 0.023587
0.660542 0.287625 0.023426
0.692202 0.287817 0.023265
0.723862 0.288009 0.023103
0.755522 0.288201 0.022942
0.787182 0.288393 0.022781
0.818841 0.288585 0.022620
0.850501 0.288777 0.022459
0.882277 0.288969 0.022297
0.914098 0.289161 0.022136
0.945919 0.289353 0.021975
0.977740 0.289545 0.021814
0.990078 0.289619 0.021535
0.015543 0.315313 0.026609
0.027720 0.315387 0.026330
0.059380 0.315579 0.026169
0.091040 0.315771 0.026008
0.122700 0.315963 0.025846
0.154359 0.316155 0.025685
0.186019 0.316347 0.025524
0.217679 0.316539 0.025363
0.249339 0.316731 0.025202
0.280999 0.316923 0.025041
0.312658 0.317115 0.024879
0.344318 0.317307 0.024718
0.375978 0.317499 0.024557
0.407638 0.317691 0.024396
0.439298 0.317883 0.024235
0.470958 0.318075 0.024073
0.502617 0.318267 0.023912
0.534277 0.318459 0.023751
0.565937 0.318651 0.023590
0.597597 0.318844 0.023429
0.629257 0.319036 0.023268
0.660916 0.319228 0.023106
0.692576 0.319420 0.022945
0.724236 0.319612 0.022784
0.755896 0.319804 0.022623
0.787556 0.319996 0.022462
0.819325 0.320188 0.022301
0.851146 0.320380 0.022139
0.882967 0.320572 0.021978
0.914788 0.320764 0.021817
0.946609 0.320956 0.021656
0.978430 0.321148 0.021495
0.990768 0.321222 0.021451
0.015917 0.346916 0.026290
0.028094 0.346990 0.026011
0.059754 0.347182 0.025849
0.091414 0.347374 0.025688
0.123074 0.347566 0.025527
0.154733 0.347758 0.025366
0.186393 0.347950 0.025205
0.218053 0.348142 0.025044
0.249713 0.348334 0.024882
0.281373 0.348526 0.024721
0.313033 0.348718 0.024560
0.344692 0.348910 0.024399
0.376352 0.349102 0.024238
0.408012 0.349294 0.024077
0.439672 0.349486 0.023915
0.471332 0.349678 0.023754
0.502991 0.349870 0.023593
0.534651 0.350062 0.023432
0.566311 0.350254 0.023271
0.597971 0.350446 0.023109
0.629631 0.350638 0.022948
0.661291 0.350830 0.022787
0.692950 0.351022 0.022626
0.724610 0.351214 0.022465
0.756374 0.351406 0.022304
0.788195 0.351598 0.022142
0.820016 0.351790 0.021981
0.851837 0.351982 0.021820
0.883658 0.352174 0.021659
0.915479 0.352366 0.021498
0.947299 0.352558 0.021560
0.979120 0.352750 0.021752
0.991458 0.352824 0.021826
0.016291 0.378518 0.025971
0.028468 0.378592 0.025691
0.060128 0.378784 0.025530
0.091788 0.378976 0.025369
0.123448 0.379168 0.025208
0.155108 0.379360 0.025047
0.186767 0.379552 0.024885
0.218427 0.379744 0.024724
0.250087 0.379936 0.024563
0.281747 0.380128 0.024402
0.313407 0.380320 0.024241
0.345066 0.380512 0.024080
0.376726 0.380704 0.023918
0.408386 0.380896 0.023757
0.440046 0.381088 0.023596
0.471706 0.381280 0.023435
0.503366 0.381472 0.023274
0.535025 0.381664 0.023113
0.566685 0.381856 0.022951
0.598345 0.382048 0.022790
0.630005 0.382240 0.022629
0.661665 0.382432 0.022468
0.693422 0.382624 0.022307
0.725243 0.382816 0.022145
0.757064 0.383008 0.021984
0.788885 0.383200 0.021823
0.820706 0.383392 0.021662
0.852527 0.383584 0.021501
0.884348 0.383776 0.021550
0.916169 0.383969 0.021742
0.947990 0.384161 0.021934
0.979811 0.384353 0.022126
0.992149 0.384426 0.022200
0.016666 0.410121 0.025651
0.028842 0.410194 0.025372
0.060502 0.410386 0.025211
0.092162 0.410578 0.025050
0.123822 0.410770 0.024889
0.155482 0.410962 0.024727
0.187141 0.411155 0.024566
0.218801 0.411347 0.024405
0.250461 0.411539 0.024244
0.282121 0.411731 0.024083
0.313781 0.411923 0.023921
0.345441 0.412115 0.023760
0.377100 0.412307 0.023599
0.408760 0.412499 0.023438
0.440420 0.412691 0.023277
0.472080 0.412883 0.023116
0.503740 0.413075 0.022954
0.535399 0.413267 0.022793
0.567059 0.413459 0.022632
0.598719 0.413651 0.022471
0.630471 0.413843 0.022310
0.662292 0.414035 0.022149
0.694113 0.414227 0.021987
0.725934 0.414419 0.021826
0.757755 0.414611 0.021665
0.789576 0.414803 0.021504
0.821397 0.414995 0.021540
0.853217 0.415187 0.021732
0.885038 0.415379 0.021924
0.916859 0.415571 0.022116
0.948680 0.415763 0.022308
0.980501 0.415955 0.022500
0.992839 0.416029 0.022574
0.017040 0.441723 0.025332
0.029216 0.441797 0.025053
0.060876 0.441989 0.024892
0.092536 0.442181 0.024730
0.124196 0.442373 0.024569
0.155856 0.442565 0.024408
0.187516 0.442757 0.024247
0.219175 0.442949 0.024086
0.250835 0.443141 0.023925
0.282495 0.443333 0.023763
0.314155 0.443525 0.023602
0.345815 0.443717 0.023441
0.377474 0.443909 0.023280
0.409134 0.444101 0.023119
0.440794 0.444293 0.022957
0.472454 0.444485 0.022796
0.504114 0.444677 0.022635
0.535774 0.444869 0.022474
0.567520 0.445061 0.022313
0.599340 0.445253 0.022152
0.631161 0.445445 0.021990
0.662982 0.445637 0.021829
0.694803 0.445829 0.021668
0.726624 0.446021 0.021507
0.758445 0.446213 0.021530
0.790266 0.446405 0.021722
0.822087 0.446597 0.021914
0.853908 0.446789 0.022106
0.885729 0.446981 0.022298
0.917550 0.447173 0.022490
0.949371 0.447365 0.022682
0.981191 0.447557 0.022874
0.993529 0.447631 0.022948
0.017414 0.473325 0.025013
0.029591 0.473399 0.024733
0.061250 0.473591 0.024572
0.092910 0.473783 0.024411
0.124570 0.473975 0.024250
0.156230 0.474167 0.024089
0.187890 0.474359 0.023928
0.219549 0.474551 0.023766
0.251209 0.474743 0.023605
0.282869 0.474935 0.023444
0.314529 0.475127 0.023283
0.346189 0.475319 0.023122
0.377849 0.475511 0.022961
0.409508 0.475703 0.022799
0.441168 0.475895 0.022638
0.472828 0.476088 0.022477
0.504568 0.476280 0.022316
0.536389 0.476472 0.022155
0.568210 0.476664 0.021993
0.600031 0.476856 0.021832
0.631852 0.477048 0.021671
0.663673 0.477240 0.021510
0.695494 0.477432 0.021520
0.727315 0.477624 0.021712
0.759135 0.477816 0.021904
0.790956 0.478008 0.022096
0.822777 0.478200 0.022288
0.854598 0.478392 0.022480
0.886419 0.478584 0.022672
0.918240 0.478776 0.022864
0.950061 0.478968 0.023056
0.981882 0.479160 0.023248
0.994220 0.479234 0.023322
0.017788 0.504928 0.024694
0.029965 0.505002 0.024414
0.061624 0.505194 0.024253
0.093284 0.505386 0.024092
0.124944 0.505578 0.023931
0.156604 0.505770 0.023769
0.188264 0.505962 0.023608
0.219924 0.506154 0.023447
0.251583 0.506346 0.023286
0.283243 0.506538 0.023125
0.314903 0.506730 0.022964
0.346563 0.506922 0.022802
0.378223 0.507114 0.022641
0.409882 0.507306 0.022480
0.441617 0.507498 0.022319
0.473438 0.507690 0.022158
0.505258 0.507882 0.021997
0.537079 0.508074 0.021835
0.568900 0.508266 0.021674
0.600721 0.508458 0.021513
0.632542 0.508650 0.021510
0.664363 0.508842 0.021702
0.696184 0.509034 0.021894
0.728005 0.509226 0.022086
0.759826 0.509418 0.022278
0.791647 0.509610 0.022470
0.823468 0.509802 0.022662
0.855289 0.509994 0.022854
0.887109 0.510186 0.023046
0.918930 0.510378 0.023238
0.950751 0.510570 0.023430
0.982572 0.510762 0.023622
0.994910 0.510836 0.023696
0.018162 0.536530 0.024374
0.030339 0.536604 0.024095
0.061999 0.536796 0.023934
0.093658 0.536988 0.023773
0.125318 0.537180 0.023611
0.156978 0.537372 0.023450
0.188638 0.537564 0.023289
0.220298 0.537756 0.023128
0.251958 0.537948 0.022967
0.283617 0.538140 0.022805
0.315277 0.538332 0.022644
0.346937 0.538524 0.022483
0.378665 0.538716 0.022322
0.410486 0.538908 0.022161
0.442307 0.539100 0.022000
0.474128 0.539292 0.021838
0.505949 0.539484 0.021677
0.537770 0.539676 0.021516
0.569591 0.539868 0.021500
0.601412 0.540060 0.021692
0.633233 0.540252 0.021884
0.665053 0.540444 0.022076
0.696874 0.540636 0.022268
0.728695 0.540828 0.022460
0.760516 0.541020 0.022652
0.792337 0.541213 0.022844
0.824158 0.541405 0.023036
0.855979 0.541597 0.023228
0.887800 0.541789 0.023420
0.919621 0.541981 0.023612
0.951442 0.542173 0.023804
0.983263 0.542365 0.023996
0.995601 0.542438 0.024070
0.018536 0.568133 0.024055
0.030713 0.568207 0.023776
0.062373 0.568399 0.023614
0.094033 0.568591 0.023453
0.125692 0.568783 0.023292
0.157352 0.568975 0.023131
0.189012 0.569167 0.022970
0.220672 0.569359 0.022809
0.252332 0.569551 0.022647
0.283991 0.569743 0.022486
0.315714 0.569935 0.022325
0.347535 0.570127 0.022164
0.379356 0.570319 0.022003
0.411176 0.570511 0.021841
0.442997 0.570703 0.021680
0.474818 0.570895 0.021519
0.506639 0.571087 0.021490
0.538460 0.571279 0.021682
0.570281 0.571471 0.021874
0.602102 0.571663 0.022066
0.633923 0.571855 0.022258
0.665744 0.572047 0.022450
0.697565 0.572239 0.022642
0.729386 0.572431 0.022834
0.761207 0.572623 0.023026
0.793027 0.572815 0.023218
0.824848 0.573007 0.023410
0.856669 0.573199 0.023602
0.888490 0.573391 0.023794
0.920311 0.573583 0.023986
0.952132 0.573775 0.024178
0.983953 0.573967 0.024370
0.996291 0.574041 0.024444
0.018910 0.599735 0.023736
0.031087 0.599809 0.023456
0.062747 0.600001 0.023295
0.094407 0.600193 0.023134
0.126066 0.600385 0.022973
0.157726 0.600577 0.022812
0.189386 0.600769 0.022650
0.221046 0.600961 0.022489
0.252762 0.601153 0.022328
0.284583 0.601345 0.022167
0.316404 0.601537 0.022006
0.348225 0.601729 0.021845
0.380046 0.601921 0.021683
0.411867 0.602113 0.021522
0.443688 0.602305 0.021480
0.475509 0.602497 0.021672
0.507330 0.602689 0.021864
0.539151 0.602881 0.022056
0.570971 0.603073 0.022248
0.602792 0.603265 0.022440
0.634613 0.603457 0.022632
0.666434 0.603649 0.022824
0.698255 0.603841 0.023016
0.730076 0.604033 0.023208
0.761897 0.604225 0.023400
0.793718 0.604417 0.023592
0.825539 0.604609 0.023784
0.857360 0.604801 0.023976
0.889181 0.604993 0.024168
0.921002 0.605185 0.024360
0.952822 0.605377 0.024552
0.984643 0.605569 0.024745
0.996981 0.605643 0.024818
0.019284 0.631337 0.023416
0.031461 0.631411 0.023137
0.063121 0.631603 0.022976
0.094781 0.631795 0.022815
0.126441 0.631987 0.022653
0.158100 0.632179 0.022492
0.189811 0.632371 0.022331
0.221632 0.632563 0.022170
0.253453 0.632755 0.022009
0.285274 0.632947 0.021848
0.317094 0.633139 0.021686
0.348915 0.633332 0.021525
0.380736 0.633524 0.021470
0.412557 0.633716 0.021662
0.444378 0.633908 0.021854
0.476199 0.634100 0.022046
0.508020 0.634292 0.022238
0.539841 0.634484 0.022430
0.571662 0.634676 0.022622
0.603483 0.634868 0.022814
0.635304 0.635060 0.023006
0.667125 0.635252 0.023198
0.698945 0.635444 0.023390
0.730766 0.635636 0.023582
0.762587 0.635828 0.023774
0.794408 0.636020 0.023967
0.826229 0.636212 0.024159
0.858050 0.636404 0.024351
0.889871 0.636596 0.024543
0.921692 0.636788 0.024735
0.953513 0.636980 0.024927
0.985334 0.637172 0.025119
0.997672 0.637246 0.025192
0.019658 0.662940 0.023097
0.031835 0.663014 0.022818
0.063495 0.663206 0.022657
0.095155 0.663398 0.022495
0.126859 0.663590 0.022334
0.158680 0.663782 0.022173
0.190501 0.663974 0.022012
0.222322 0.664166 0.021851
0.254143 0.664358 0.021689
0.285964 0.664550 0.021528
0.317785 0.664742 0.021460
0.349606 0.664934 0.021652
0.381427 0.665126 0.021844
0.413248 0.665318 0.022036
0.445069 0.665510 0.022228
0.476889 0.665702 0.022420
0.508710 0.665894 0.022612
0.540531 0.666086 0.022804
0.572352 0.666278 0.022996
0.604173 0.666470 0.023189
0.635994 0.666662 0.023381
0.667815 0.666854 0.023573
0.699636 0.667046 0.023765
0.731457 0.667238 0.023957
0.763278 0.667430 0.024149
0.795099 0.667622 0.024341
0.826920 0.667814 0.024533
0.858740 0.668006 0.024725
0.890561 0.668198 0.024917
0.922382 0.668390 0.025109
0.954203 0.668582 0.025301
0.986024 0.668774 0.025493
0.998362 0.668848 0.025567
0.020032 0.694542 0.022778
0.032209 0.694616 0.022498
0.063908 0.694808 0.022337
0.095729 0.695000 0.022176
0.127550 0.695192 0.022015
0.159371 0.695384 0.021854
0.191192 0.695576 0.021693
0.223012 0.695768 0.021531
0.254833 0.695960 0.021450
0.286654 0.696152 0.021642
0.318475 0.696344 0.021834
0.350296 0.696536 0.022026
0.382117 0.696728 0.022218
0.413938 0.696920 0.022411
0.445759 0.697112 0.022603
0.477580 0.697304 0.022795
0.509401 0.697496 0.022987
0.541222 0.697688 0.023179
0.573043 0.697880 0.023371
0.604863 0.698072 0.023563
0.636684 0.698265 0.023755
0.668505 0.698457 0.023947
0.700326 0.698649 0.024139
0.732147 0.698841 0.024331
0.763968 0.699033 0.024523
0.795789 0.699225 0.024715
0.827610 0.699417 0.024907
0.859431 0.699609 0.025099
0.891252 0.699801 0.025291
0.923073 0.699993 0.025483
0.954894 0.700185 0.025675
0.986714 0.700377 0.025867
0.999052 0.700451 0.025941
0.020439 0.726145 0.022458
0.032777 0.726219 0.022179
0.064598 0.726411 0.022018
0.096419 0.726603 0.021857
0.128240 0.726795 0.021696
0.160061 0.726987 0.021534
0.191882 0.727179 0.021440
0.223703 0.727371 0.021632
0.255524 0.727563 0.021825
0.287345 0.727755 0.022017
0.319166 0.727947 0.022209
0.350987 0.728139 0.022401
0.382807 0.728331 0.022593
0.414628 0.728523 0.022785
0.446449 0.728715 0.022977
0.478270 0.728907 0.023169
0.510091 0.729099 0.023361
0.541912 0.729291 0.023553
0.573733 0.729483 0.023745
0.605554 0.729675 0.023937
0.637375 0.729867 0.024129
0.669196 0.730059 0.024321
0.701017 0.730251 0.024513
0.732838 0.730443 0.024705
0.764658 0.730635 0.024897
0.796479 0.730827 0.025089
0.828300 0.731019 0.025281
0.860121 0.731211 0.025473
0.891942 0.731403 0.025665
0.923763 0.731595 0.025857
0.955584 0.731787 0.026049
0.987405 0.731979 0.026241
0.999743 0.732053 0.026315
0.021130 0.757747 0.022139
0.033468 0.757821 0.021860
0.065289 0.758013 0.021699
0.097110 0.758205 0.021537
0.128930 0.758397 0.021431
0.160751 0.758589 0.021623
0.192572 0.758781 0.021815
0.224393 0.758973 0.022007
0.256214 0.759165 0.022199
0.288035 0.759357 0.022391
0.319856 0.759549 0.022583
0.351677 0.759741 0.022775
0.383498 0.759933 0.022967
0.415319 0.760125 0.023159
0.447140 0.760317 0.023351
0.478961 0.760509 0.023543
0.510781 0.760701 0.023735
0.542602 0.760893 0.023927
0.574423 0.761085 0.024119
0.606244 0.761277 0.024311
0.638065 0.761469 0.024503
0.669886 0.761661 0.024695
0.701707 0.761853 0.024887
0.733528 0.762045 0.025079
0.765349 0.762237 0.025271
0.797170 0.762429 0.025463
0.828991 0.762621 0.025655
0.860812 0.762813 0.025847
0.892632 0.763005 0.026039
0.924453 0.763197 0.026231
0.956274 0.763390 0.026423
0.988095 0.763582 0.026615
1.000000 0.763655 0.026689
0.021820 0.789350 0.021820
0.034158 0.789423 0.021541
0.065979 0.789615 0.021421
0.097800 0.789807 0.021613
0.129621 0.789999 0.021805
0.161442 0.790191 0.021997
0.193263 0.790383 0.022189
0.225084 0.790576 0.022381
0.256905 0.790768 0.022573
0.288725 0.790960 0.022765
0.320546 0.791152 0.022957
0.352367 0.791344 0.023149
0.384188 0.791536 0.023341
0.416009 0.791728 0.023533
0.447830 0.791920 0.023725
0.479651 0.792112 0.023917
0.511472 0.792304 0.024109
0.543293 0.792496 0.024301
0.575114 0.792688 0.024493
0.606935 0.792880 0.024685
0.638756 0.793072 0.024877
0.670576 0.793264 0.025069
0.702397 0.793456 0.025261
0.734218 0.793648 0.025453
0.766039 0.793840 0.025645
0.797860 0.794032 0.025837
0.829681 0.794224 0.026029
0.861502 0.794416 0.026221
0.893323 0.794608 0.026413
0.925144 0.794800 0.026605
0.956965 0.794992 0.026797
0.988786 0.795184 0.026989
1.000000 0.795258 0.027063
0.022511 0.820952 0.021529
0.034848 0.821026 0.021603
0.066669 0.821218 0.021795
0.098490 0.821410 0.021987
0.130311 0.821602 0.022179
0.162132 0.821794 0.022371
0.193953 0.821986 0.022563
0.225774 0.822178 0.022755
0.257595 0.822370 0.022947
0.289416 0.822562 0.023139
0.321237 0.822754 0.023331
0.353058 0.822946 0.023523
0.384879 0.823138 0.023715
0.416699 0.823330 0.023907
0.448520 0.823522 0.024099
0.480341 0.823714 0.024291
0.512162 0.823906 0.024483
0.543983 0.824098 0.024675
0.575804 0.824290 0.024867
0.607625 0.824482 0.025059
0.639446 0.824674 0.025251
0.671267 0.824866 0.025443
0.703088 0.825058 0.025635
0.734909 0.825250 0.025827
0.766730 0.825442 0.026019
0.798550 0.825634 0.026211
0.830371 0.825826 0.026403
