docs/luts/fresh-teal-rec709.cube
TITLE "FreshLUTs??-??Rec709"
LUT_3D_SIZE 33
DOMAIN_MIN 0.0 0.0 0.0
DOMAIN_MAX 1.0 1.0 1.0
0.000000 0.018000 0.075000
0.000000 0.017647 0.073528
0.005023 0.017294 0.072057
0.041157 0.016940 0.070585
0.077290 0.016587 0.069113
0.113423 0.016234 0.067642
0.149556 0.015881 0.066170
0.185690 0.015528 0.064699
0.221823 0.015174 0.063227
0.257956 0.014821 0.061755
0.294089 0.014468 0.060284
0.330223 0.014115 0.058812
0.366356 0.013762 0.057340
0.402489 0.013408 0.055869
0.438622 0.013055 0.054397
0.474756 0.012702 0.052925
0.510889 0.012349 0.051454
0.547022 0.011996 0.049982
0.583155 0.011643 0.048510
0.619288 0.011289 0.047039
0.655422 0.010936 0.045567
0.691555 0.010583 0.044096
0.727688 0.010230 0.042624
0.763821 0.009877 0.041152
0.799955 0.009523 0.039681
0.836088 0.009170 0.038209
0.872221 0.008817 0.036737
0.908354 0.008464 0.035266
0.944488 0.008111 0.033794
0.980621 0.007757 0.032322
0.989716 0.007404 0.030851
0.990207 0.007051 0.029379
0.990698 0.006698 0.027907
0.000000 0.020535 0.072111
0.000000 0.020182 0.070639
0.005840 0.019171 0.069168
0.041973 0.018010 0.067696
0.078106 0.016850 0.066224
0.114239 0.015689 0.064753
0.150373 0.015187 0.063281
0.186506 0.014834 0.061809
0.222639 0.014481 0.060338
0.258772 0.014128 0.058866
0.294906 0.013775 0.057394
0.331039 0.013421 0.055923
0.367172 0.013068 0.054451
0.403305 0.012715 0.052980
0.439439 0.012362 0.051508
0.475572 0.012009 0.050036
0.511705 0.011656 0.048565
0.547838 0.011302 0.047093
0.583972 0.010949 0.045621
0.620105 0.010596 0.044150
0.656238 0.010243 0.042678
0.692371 0.009890 0.041206
0.728505 0.009536 0.039735
0.764638 0.009183 0.038263
0.800771 0.008830 0.036791
0.836904 0.008477 0.035320
0.873038 0.008124 0.033848
0.909171 0.007770 0.032377
0.945304 0.007417 0.030905
0.981437 0.007064 0.029433
0.990679 0.006711 0.027962
0.991170 0.006358 0.026490
0.991661 0.006004 0.025018
0.000000 0.054061 0.069222
0.000000 0.053708 0.067750
0.005247 0.052697 0.066278
0.041380 0.051536 0.064807
0.077514 0.050376 0.063335
0.113647 0.049215 0.061864
0.149780 0.048055 0.060392
0.185913 0.046894 0.058920
0.222047 0.045734 0.057449
0.258180 0.044573 0.055977
0.294313 0.043413 0.054505
0.330446 0.042252 0.053034
0.366580 0.041092 0.051562
0.402713 0.039931 0.050090
0.438846 0.038771 0.048619
0.474979 0.037610 0.047147
0.511113 0.036450 0.045675
0.547246 0.035289 0.044204
0.583379 0.034129 0.042732
0.619512 0.032968 0.041261
0.655646 0.031808 0.039789
0.691779 0.030647 0.038317
0.727912 0.029487 0.036846
0.764045 0.028326 0.035374
0.800179 0.027166 0.033902
0.836312 0.026005 0.032431
0.872445 0.024845 0.030959
0.908578 0.023684 0.029487
0.944712 0.022524 0.028016
0.980845 0.021363 0.026544
0.991642 0.020203 0.025073
0.992133 0.019192 0.023601
0.992624 0.018839 0.022129
0.000000 0.087587 0.066333
0.000000 0.087234 0.064861
0.004655 0.086223 0.063389
0.040788 0.085062 0.061918
0.076921 0.083902 0.060446
0.113054 0.082741 0.058974
0.149188 0.081581 0.057503
0.185321 0.080420 0.056031
0.221454 0.079260 0.054559
0.257587 0.078099 0.053088
0.293721 0.076939 0.051616
0.329854 0.075778 0.050145
0.365987 0.074618 0.048673
0.402120 0.073457 0.047201
0.438254 0.072297 0.045730
0.474387 0.071136 0.044258
0.510520 0.069976 0.042786
0.546653 0.068815 0.041315
0.582787 0.067655 0.039843
0.618920 0.066494 0.038371
0.655053 0.065334 0.036900
0.691186 0.064173 0.035428
0.727320 0.063013 0.033956
0.763453 0.061852 0.032485
0.799586 0.060692 0.031013
0.835719 0.059531 0.029542
0.871853 0.058371 0.028070
0.907986 0.057210 0.026598
0.944119 0.056050 0.025127
0.980252 0.054889 0.023655
0.992606 0.053729 0.022183
0.993096 0.052718 0.020712
0.993587 0.052365 0.019240
0.000000 0.121113 0.063443
0.000000 0.120760 0.061972
0.004062 0.119749 0.060500
0.040195 0.118588 0.059029
0.076329 0.117428 0.057557
0.112462 0.116267 0.056085
0.148595 0.115107 0.054614
0.184728 0.113946 0.053142
0.220862 0.112786 0.051670
0.256995 0.111625 0.050199
0.293128 0.110465 0.048727
0.329261 0.109304 0.047255
0.365395 0.108144 0.045784
0.401528 0.106983 0.044312
0.437661 0.105823 0.042840
0.473794 0.104662 0.041369
0.509928 0.103502 0.039897
0.546061 0.102341 0.038426
0.582194 0.101181 0.036954
0.618327 0.100020 0.035482
0.654461 0.098860 0.034011
0.690594 0.097699 0.032539
0.726727 0.096539 0.031067
0.762860 0.095378 0.029596
0.798994 0.094218 0.028124
0.835127 0.093057 0.026652
0.871260 0.091897 0.025181
0.907393 0.090736 0.023709
0.943527 0.089576 0.022238
0.979660 0.088416 0.020766
0.993569 0.087255 0.019294
0.994059 0.086244 0.017823
0.994550 0.085891 0.016351
0.000000 0.154639 0.060554
0.000000 0.154286 0.059083
0.003470 0.153275 0.057611
0.039603 0.152114 0.056139
0.075736 0.150954 0.054668
0.111869 0.149793 0.053196
0.148003 0.148633 0.051724
0.184136 0.147472 0.050253
0.220269 0.146312 0.048781
0.256402 0.145151 0.047310
0.292536 0.143991 0.045838
0.328669 0.142830 0.044366
0.364802 0.141670 0.042895
0.400935 0.140509 0.041423
0.437069 0.139349 0.039951
0.473202 0.138188 0.038480
0.509335 0.137028 0.037008
0.545468 0.135867 0.035536
0.581602 0.134707 0.034065
0.617735 0.133546 0.032593
0.653868 0.132386 0.031121
0.690001 0.131226 0.029650
0.726135 0.130065 0.028178
0.762268 0.128905 0.026707
0.798401 0.127744 0.025235
0.834534 0.126584 0.023763
0.870668 0.125423 0.022292
0.906801 0.124263 0.020820
0.942934 0.123102 0.019348
0.979067 0.121942 0.017877
0.994532 0.120781 0.016405
0.995022 0.119770 0.014933
0.995513 0.119417 0.013462
0.000000 0.188165 0.057665
0.000000 0.187812 0.056194
0.002877 0.186801 0.054722
0.039010 0.185640 0.053250
0.075144 0.184480 0.051779
0.111277 0.183319 0.050307
0.147410 0.182159 0.048835
0.183543 0.180998 0.047364
0.219677 0.179838 0.045892
0.255810 0.178677 0.044420
0.291943 0.177517 0.042949
0.328076 0.176357 0.041477
0.364210 0.175196 0.040005
0.400343 0.174036 0.038534
0.436476 0.172875 0.037062
0.472609 0.171715 0.035591
0.508743 0.170554 0.034119
0.544876 0.169394 0.032647
0.581009 0.168233 0.031176
0.617142 0.167073 0.029704
0.653276 0.165912 0.028232
0.689409 0.164752 0.026761
0.725542 0.163591 0.025289
0.761675 0.162431 0.023817
0.797809 0.161270 0.022346
0.833942 0.160110 0.020874
0.870075 0.158949 0.019403
0.906208 0.157789 0.017931
0.942341 0.156628 0.016459
0.978475 0.155468 0.014988
0.995495 0.154307 0.013516
0.995985 0.153296 0.012044
0.996476 0.152943 0.010573
0.000000 0.221691 0.054776
0.000000 0.221338 0.053304
0.002285 0.220327 0.051833
0.038418 0.219167 0.050361
0.074551 0.218006 0.048889
0.110684 0.216846 0.047418
0.146818 0.215685 0.045946
0.182951 0.214525 0.044475
0.219084 0.213364 0.043003
0.255217 0.212204 0.041531
0.291351 0.211043 0.040060
0.327484 0.209883 0.038588
0.363617 0.208722 0.037116
0.399750 0.207562 0.035645
0.435884 0.206401 0.034173
0.472017 0.205241 0.032701
0.508150 0.204080 0.031230
0.544283 0.202920 0.029758
0.580417 0.201759 0.028286
0.616550 0.200599 0.026815
0.652683 0.199438 0.025343
0.688816 0.198278 0.023872
0.724950 0.197117 0.022400
0.761083 0.195957 0.020928
0.797216 0.194796 0.019457
0.833349 0.193636 0.017985
0.869482 0.192475 0.016513
0.905616 0.191315 0.015042
0.941749 0.190154 0.013570
0.977882 0.188994 0.012098
0.996458 0.187833 0.010627
0.996948 0.186822 0.009155
0.998269 0.186469 0.007237
0.000000 0.255217 0.051887
0.000000 0.254864 0.050415
0.001692 0.253853 0.048944
0.037825 0.252693 0.047472
0.073959 0.251532 0.046000
0.110092 0.250372 0.044529
0.146225 0.249211 0.043057
0.182358 0.248051 0.041585
0.218492 0.246890 0.040114
0.254625 0.245730 0.038642
0.290758 0.244569 0.037170
0.326891 0.243409 0.035699
0.363025 0.242248 0.034227
0.399158 0.241088 0.032756
0.435291 0.239927 0.031284
0.471424 0.238767 0.029812
0.507558 0.237606 0.028341
0.543691 0.236446 0.026869
0.579824 0.235285 0.025397
0.615957 0.234125 0.023926
0.652091 0.232964 0.022454
0.688224 0.231804 0.020982
0.724357 0.230643 0.019511
0.760490 0.229483 0.018039
0.796624 0.228322 0.016567
0.832757 0.227162 0.015096
0.868890 0.226001 0.013624
0.905023 0.224841 0.012153
0.941156 0.223680 0.010681
0.977290 0.222520 0.009209
0.998212 0.221359 0.007311
0.999750 0.220348 0.005276
1.000000 0.219995 0.003240
0.000000 0.288743 0.048998
0.000000 0.288390 0.047526
0.001100 0.287379 0.046054
0.037233 0.286219 0.044583
0.073366 0.285058 0.043111
0.109499 0.283898 0.041640
0.145633 0.282737 0.040168
0.181766 0.281577 0.038696
0.217899 0.280416 0.037225
0.254032 0.279256 0.035753
0.290166 0.278095 0.034281
0.326299 0.276935 0.032810
0.362432 0.275774 0.031338
0.398565 0.274614 0.029866
0.434699 0.273453 0.028395
0.470832 0.272293 0.026923
0.506965 0.271132 0.025451
0.543098 0.269972 0.023980
0.579232 0.268811 0.022508
0.615365 0.267651 0.021037
0.651498 0.266490 0.019565
0.687631 0.265330 0.018093
0.723765 0.264169 0.016622
0.759898 0.263009 0.015150
0.796031 0.261848 0.013678
0.832164 0.260688 0.012207
0.868297 0.259527 0.010735
0.904431 0.258367 0.009263
0.941317 0.257206 0.007386
0.978497 0.256046 0.005351
1.000000 0.254885 0.003315
1.000000 0.253874 0.001280
1.000000 0.253521 0.000000
0.000000 0.322269 0.046109
0.000000 0.321916 0.044637
0.000507 0.320905 0.043165
0.036640 0.319745 0.041694
0.072774 0.318584 0.040222
0.108907 0.317424 0.038750
0.145040 0.316263 0.037279
0.181173 0.315103 0.035807
0.217307 0.313942 0.034335
0.253440 0.312782 0.032864
0.289573 0.311621 0.031392
0.325706 0.310461 0.029921
0.361840 0.309300 0.028449
0.397973 0.308140 0.026977
0.434106 0.306979 0.025506
0.470239 0.305819 0.024034
0.506373 0.304658 0.022562
0.542506 0.303498 0.021091
0.578639 0.302337 0.019619
0.614772 0.301177 0.018147
0.650906 0.300016 0.016676
0.687039 0.298856 0.015204
0.723172 0.297695 0.013733
0.759305 0.296535 0.012261
0.795438 0.295374 0.010789
0.831572 0.294214 0.009318
0.868419 0.293053 0.007461
0.905600 0.291893 0.005426
0.942780 0.290732 0.003390
0.979961 0.289572 0.001355
1.000000 0.288411 0.000000
1.000000 0.287400 0.000000
1.000000 0.287283 0.000000
0.000000 0.355795 0.043219
0.000000 0.355442 0.041748
0.000000 0.354431 0.040276
0.036048 0.353271 0.038805
0.072181 0.352110 0.037333
0.108314 0.350950 0.035861
0.144448 0.349789 0.034390
0.180581 0.348629 0.032918
0.216714 0.347468 0.031446
0.252847 0.346308 0.029975
0.288981 0.345147 0.028503
0.325114 0.343987 0.027031
0.361247 0.342826 0.025560
0.397380 0.341666 0.024088
0.433514 0.340505 0.022616
0.469647 0.339345 0.021145
0.505780 0.338184 0.019673
0.541913 0.337024 0.018202
0.578047 0.335863 0.016730
0.614180 0.334703 0.015258
0.650313 0.333542 0.013787
0.686446 0.332382 0.012315
0.722579 0.331221 0.010843
0.758713 0.330061 0.009372
0.795522 0.328900 0.007536
0.832702 0.327740 0.005501
0.869883 0.326579 0.003465
0.907063 0.325419 0.001430
0.944243 0.324258 0.000000
0.981424 0.323098 0.000000
1.000000 0.322161 0.000000
1.000000 0.321503 0.000000
1.000000 0.321503 0.000000
0.000000 0.389321 0.040330
0.000000 0.388968 0.038859
0.000000 0.387957 0.037387
0.035455 0.386797 0.035915
0.071589 0.385636 0.034444
0.107722 0.384476 0.032972
0.143855 0.383315 0.031500
0.179988 0.382155 0.030029
0.216122 0.380994 0.028557
0.252255 0.379834 0.027086
0.288388 0.378673 0.025614
0.324521 0.377513 0.024142
0.360655 0.376352 0.022671
0.396788 0.375192 0.021199
0.432921 0.374031 0.019727
0.469054 0.372871 0.018256
0.505188 0.371710 0.016784
0.541321 0.370550 0.015312
0.577454 0.369389 0.013841
0.613587 0.368229 0.012369
0.649721 0.367068 0.010897
0.685854 0.365908 0.009426
0.722624 0.364747 0.007611
0.759805 0.363587 0.005576
0.796985 0.362426 0.003540
0.834166 0.361266 0.001505
0.871346 0.360105 0.000000
0.908526 0.358945 0.000000
0.945415 0.357995 0.000000
0.982105 0.357187 0.000000
1.000000 0.356380 0.000000
1.000000 0.355722 0.000000
1.000000 0.355722 0.000000
0.000000 0.422848 0.037441
0.000000 0.422494 0.035970
0.000000 0.421483 0.034498
0.034863 0.420323 0.033026
0.070996 0.419162 0.031555
0.107129 0.418002 0.030083
0.143263 0.416841 0.028611
0.179396 0.415681 0.027140
0.215529 0.414520 0.025668
0.251662 0.413360 0.024196
0.287796 0.412199 0.022725
0.323929 0.411039 0.021253
0.360062 0.409878 0.019781
0.396195 0.408718 0.018310
0.432329 0.407557 0.016838
0.468462 0.406397 0.015367
0.504595 0.405236 0.013895
0.540728 0.404076 0.012423
0.576862 0.402915 0.010952
0.612995 0.401755 0.009480
0.649727 0.400594 0.007686
0.686907 0.399434 0.005650
0.724088 0.398273 0.003615
0.761268 0.397113 0.001579
0.798448 0.395952 0.000000
0.835629 0.394792 0.000000
0.872535 0.393829 0.000000
0.909225 0.393021 0.000000
0.945915 0.392214 0.000000
0.982605 0.391407 0.000000
1.000000 0.390599 0.000000
1.000000 0.389942 0.000000
1.000000 0.389942 0.000000
0.000000 0.456374 0.034552
0.000000 0.456020 0.033080
0.000000 0.455009 0.031609
0.034270 0.453849 0.030137
0.070404 0.452688 0.028665
0.106537 0.451528 0.027194
0.142670 0.450367 0.025722
0.178803 0.449207 0.024251
0.214937 0.448046 0.022779
0.251070 0.446886 0.021307
0.287203 0.445725 0.019836
0.323336 0.444565 0.018364
0.359470 0.443404 0.016892
0.395603 0.442244 0.015421
0.431736 0.441083 0.013949
0.467869 0.439923 0.012477
0.504003 0.438762 0.011006
0.540136 0.437602 0.009534
0.576829 0.436441 0.007761
0.614010 0.435281 0.005725
0.651190 0.434121 0.003690
0.688371 0.432960 0.001654
0.725551 0.431800 0.000000
0.762731 0.430639 0.000000
0.799656 0.429663 0.000000
0.836346 0.428855 0.000000
0.873036 0.428048 0.000000
0.909725 0.427241 0.000000
0.946415 0.426433 0.000000
0.983105 0.425626 0.000000
1.000000 0.424819 0.000000
1.000000 0.424161 0.000000
1.000000 0.424161 0.000000
0.000000 0.489900 0.031663
0.000000 0.489546 0.030191
0.000000 0.488535 0.028720
0.033678 0.487375 0.027248
0.069811 0.486214 0.025776
0.105944 0.485054 0.024305
0.142078 0.483893 0.022833
0.178211 0.482733 0.021361
0.214344 0.481572 0.019890
0.250477 0.480412 0.018418
0.286611 0.479252 0.016946
0.322744 0.478091 0.015475
0.358877 0.476931 0.014003
0.395010 0.475770 0.012532
0.431144 0.474610 0.011060
0.467277 0.473449 0.009588
0.503932 0.472289 0.007836
0.541112 0.471128 0.005800
0.578293 0.469968 0.003765
0.615473 0.468807 0.001729
0.652653 0.467647 0.000000
0.689834 0.466486 0.000000
0.726776 0.465497 0.000000
0.763466 0.464689 0.000000
0.800156 0.463882 0.000000
0.836846 0.463075 0.000000
0.873536 0.462268 0.000000
0.910226 0.461460 0.000000
0.946916 0.460653 0.000000
0.983605 0.459846 0.000000
1.000000 0.459038 0.000000
1.000000 0.458381 0.000000
1.000000 0.458381 0.000000
0.000000 0.523426 0.028774
0.000000 0.523073 0.027302
0.000000 0.522062 0.025830
0.033085 0.520901 0.024359
0.069219 0.519741 0.022887
0.105352 0.518580 0.021416
0.141485 0.517420 0.019944
0.177618 0.516259 0.018472
0.213752 0.515099 0.017001
0.249885 0.513938 0.015529
0.286018 0.512778 0.014057
0.322151 0.511617 0.012586
0.358285 0.510457 0.011114
0.394418 0.509296 0.009642
0.431034 0.508136 0.007911
0.468215 0.506975 0.005875
0.505395 0.505815 0.003840
0.542575 0.504654 0.001804
0.579756 0.503494 0.000000
0.616936 0.502333 0.000000
0.653897 0.501331 0.000000
0.690587 0.500524 0.000000
0.727277 0.499716 0.000000
0.763966 0.498909 0.000000
0.800656 0.498102 0.000000
0.837346 0.497294 0.000000
0.874036 0.496487 0.000000
0.910726 0.495680 0.000000
0.947416 0.494872 0.000000
0.984106 0.494065 0.000000
1.000000 0.493258 0.000000
1.000000 0.492600 0.000000
1.000000 0.492600 0.000000
0.000000 0.556952 0.025885
0.000000 0.556599 0.024413
0.000000 0.555588 0.022941
0.032493 0.554427 0.021470
0.068626 0.553267 0.019998
0.104759 0.552106 0.018526
0.140893 0.550946 0.017055
0.177026 0.549785 0.015583
0.213159 0.548625 0.014111
0.249292 0.547464 0.012640
0.285426 0.546304 0.011168
0.321559 0.545143 0.009697
0.358137 0.543983 0.007985
0.395317 0.542822 0.005950
0.432498 0.541662 0.003914
0.469678 0.540501 0.001879
0.506858 0.539341 0.000000
0.544039 0.538180 0.000000
0.581017 0.537165 0.000000
0.617707 0.536358 0.000000
0.654397 0.535550 0.000000
0.691087 0.534743 0.000000
0.727777 0.533936 0.000000
0.764467 0.533128 0.000000
0.801157 0.532321 0.000000
0.837846 0.531514 0.000000
0.874536 0.530706 0.000000
0.911226 0.529899 0.000000
0.947916 0.529092 0.000000
0.984606 0.528285 0.000000
1.000000 0.527477 0.000000
1.000000 0.526819 0.000000
1.000000 0.526819 0.000000
0.000000 0.590478 0.022995
0.000000 0.590125 0.021524
0.000000 0.589114 0.020052
0.031900 0.587953 0.018581
0.068034 0.586793 0.017109
0.104167 0.585632 0.015637
0.140300 0.584472 0.014166
0.176433 0.583311 0.012694
0.212567 0.582151 0.011222
0.248700 0.580990 0.009751
0.285239 0.579830 0.008060
0.322420 0.578669 0.006025
0.359600 0.577509 0.003989
0.396780 0.576348 0.001954
0.433961 0.575188 0.000000
0.471141 0.574027 0.000000
0.508138 0.572999 0.000000
0.544828 0.572192 0.000000
0.581518 0.571384 0.000000
0.618208 0.570577 0.000000
0.654897 0.569770 0.000000
0.691587 0.568962 0.000000
0.728277 0.568155 0.000000
0.764967 0.567348 0.000000
0.801657 0.566541 0.000000
0.838347 0.565733 0.000000
0.875036 0.564926 0.000000
0.911726 0.564119 0.000000
0.948416 0.563311 0.000000
0.985106 0.562504 0.000000
1.000000 0.561697 0.000000
1.000000 0.561039 0.000000
1.000000 0.561039 0.000000
0.000000 0.624004 0.020106
0.000000 0.623651 0.018635
0.000000 0.622640 0.017163
0.031308 0.621479 0.015691
0.067441 0.620319 0.014220
0.103574 0.619158 0.012748
0.139708 0.617998 0.011276
0.175841 0.616837 0.009805
0.212342 0.615677 0.008135
0.249522 0.614516 0.006100
0.286703 0.613356 0.004064
0.323883 0.612195 0.002029
0.361063 0.611035 0.000000
0.398244 0.609874 0.000000
0.435259 0.608833 0.000000
0.471948 0.608026 0.000000
0.508638 0.607218 0.000000
0.545328 0.606411 0.000000
0.582018 0.605604 0.000000
0.618708 0.604796 0.000000
0.655398 0.603989 0.000000
0.692087 0.603182 0.000000
0.728777 0.602375 0.000000
0.765467 0.601567 0.000000
0.802157 0.600760 0.000000
0.838847 0.599953 0.000000
0.875537 0.599145 0.000000
0.912227 0.598338 0.000000
0.948916 0.597531 0.000000
0.985606 0.596723 0.000000
1.000000 0.595916 0.000000
1.000000 0.595258 0.000000
1.000000 0.595258 0.000000
0.000000 0.657530 0.017217
0.000000 0.657177 0.015746
0.000000 0.656166 0.014274
0.030715 0.655005 0.012802
0.066849 0.653845 0.011331
0.102982 0.652684 0.009859
0.139444 0.651524 0.008210
0.176625 0.650363 0.006175
0.213805 0.649203 0.004139
0.250985 0.648042 0.002104
0.288166 0.646882 0.000068
0.325346 0.645721 0.000000
0.362379 0.644667 0.000000
0.399069 0.643860 0.000000
0.435759 0.643052 0.000000
0.472449 0.642245 0.000000
0.509138 0.641438 0.000000
0.545828 0.640631 0.000000
0.582518 0.639823 0.000000
0.619208 0.639016 0.000000
0.655898 0.638209 0.000000
0.692588 0.637401 0.000000
0.729278 0.636594 0.000000
0.765967 0.635787 0.000000
0.802657 0.634979 0.000000
0.839347 0.634172 0.000000
0.876037 0.633365 0.000000
0.912727 0.632558 0.000000
0.949417 0.631750 0.000000
0.986106 0.630943 0.000000
1.000000 0.630136 0.000000
1.000000 0.629478 0.000000
1.000000 0.629478 0.000000
0.000000 0.691056 0.014328
0.000000 0.690703 0.012856
0.000000 0.689692 0.011385
0.030123 0.688531 0.009913
0.066547 0.687371 0.008285
0.103727 0.686210 0.006249
0.140907 0.685050 0.004214
0.178088 0.683889 0.002179
0.215268 0.682729 0.000143
0.252449 0.681568 0.000000
0.289500 0.680501 0.000000
0.326189 0.679694 0.000000
0.362879 0.678886 0.000000
0.399569 0.678079 0.000000
0.436259 0.677272 0.000000
0.472949 0.676465 0.000000
0.509639 0.675657 0.000000
0.546329 0.674850 0.000000
0.583018 0.674043 0.000000
0.619708 0.673235 0.000000
0.656398 0.672428 0.000000
0.693088 0.671621 0.000000
0.729778 0.670813 0.000000
0.766468 0.670006 0.000000
0.803157 0.669199 0.000000
0.839847 0.668392 0.000000
0.876537 0.667584 0.000000
0.913227 0.666777 0.000000
0.949917 0.665970 0.000000
0.986607 0.665162 0.000000
1.000000 0.664355 0.000000
1.000000 0.663697 0.000000
1.000000 0.663697 0.000000
0.000000 0.724582 0.011439
0.000000 0.724229 0.009967
0.000000 0.723218 0.008360
0.030830 0.722057 0.006324
0.068010 0.720897 0.004289
0.105190 0.719736 0.002253
0.142371 0.718576 0.000218
0.179551 0.717415 0.000000
0.216620 0.716335 0.000000
0.253310 0.715528 0.000000
0.290000 0.714720 0.000000
0.326690 0.713913 0.000000
0.363379 0.713106 0.000000
0.400069 0.712299 0.000000
0.436759 0.711491 0.000000
0.473449 0.710684 0.000000
0.510139 0.709877 0.000000
0.546829 0.709069 0.000000
0.583519 0.708262 0.000000
0.620208 0.707455 0.000000
0.656898 0.706647 0.000000
0.693588 0.705840 0.000000
0.730278 0.705033 0.000000
0.766968 0.704226 0.000000
0.803658 0.703418 0.000000
0.840347 0.702611 0.000000
0.877037 0.701804 0.000000
0.913727 0.700996 0.000000
0.950417 0.700189 0.000000
0.987107 0.699382 0.000000
1.000000 0.698574 0.000000
1.000000 0.697917 0.000000
1.000000 0.697917 0.000000
0.000000 0.758108 0.008435
0.000000 0.757755 0.006399
0.000439 0.756744 0.004364
0.032293 0.755583 0.002328
0.069473 0.754423 0.000293
0.106654 0.753262 0.000000
0.143741 0.752169 0.000000
0.180430 0.751362 0.000000
0.217120 0.750555 0.000000
0.253810 0.749747 0.000000
0.290500 0.748940 0.000000
0.327190 0.748133 0.000000
0.363880 0.747325 0.000000
0.400570 0.746518 0.000000
0.437259 0.745711 0.000000
0.473949 0.744903 0.000000
0.510639 0.744096 0.000000
0.547329 0.743289 0.000000
0.584019 0.742482 0.000000
0.620709 0.741674 0.000000
0.657398 0.740867 0.000000
0.694088 0.740060 0.000000
0.730778 0.739252 0.000000
0.767468 0.738445 0.000000
0.804158 0.737638 0.000000
0.840848 0.736830 0.000000
0.877538 0.736023 0.000000
0.914227 0.735216 0.000000
0.950917 0.734409 0.000000
0.987607 0.733601 0.000000
1.000000 0.732794 0.000000
1.000000 0.732136 0.000000
1.000000 0.732136 0.000000
0.000383 0.791634 0.004439
0.001920 0.791281 0.002403
0.003458 0.790270 0.000368
0.033756 0.789109 0.000000
0.070861 0.788003 0.000000
0.107551 0.787196 0.000000
0.144241 0.786389 0.000000
0.180931 0.785581 0.000000
0.217621 0.784774 0.000000
0.254310 0.783967 0.000000
0.291000 0.783159 0.000000
0.327690 0.782352 0.000000
0.364380 0.781545 0.000000
0.401070 0.780738 0.000000
0.437760 0.779930 0.000000
0.474449 0.779123 0.000000
0.511139 0.778316 0.000000
0.547829 0.777508 0.000000
0.584519 0.776701 0.000000
0.621209 0.775894 0.000000
0.657899 0.775086 0.000000
0.694589 0.774279 0.000000
0.731278 0.773472 0.000000
0.767968 0.772664 0.000000
0.804658 0.771857 0.000000
0.841348 0.771050 0.000000
0.878038 0.770243 0.000000
0.914728 0.769435 0.000000
0.951417 0.768628 0.000000
0.988107 0.767821 0.000000
1.000000 0.767013 0.000000
1.000000 0.766356 0.000000
1.000000 0.766356 0.000000
0.003401 0.825160 0.000443
0.004939 0.824807 0.000000
0.006419 0.823837 0.000000
0.034672 0.823030 0.000000
0.071361 0.822223 0.000000
0.108051 0.821415 0.000000
0.144741 0.820608 0.000000
0.181431 0.819801 0.000000
0.218121 0.818993 0.000000
0.254811 0.818186 0.000000
0.291500 0.817379 0.000000
0.328190 0.816572 0.000000
0.364880 0.815764 0.000000
0.401570 0.814957 0.000000
0.438260 0.814150 0.000000
0.474950 0.813342 0.000000
0.511640 0.812535 0.000000
0.548329 0.811728 0.000000
0.585019 0.810920 0.000000
0.621709 0.810113 0.000000
0.658399 0.809306 0.000000
0.695089 0.808499 0.000000
0.731779 0.807691 0.000000
0.768468 0.806884 0.000000
0.805158 0.806077 0.000000
0.841848 0.805269 0.000000
0.878538 0.804462 0.000000
0.915228 0.803655 0.000000
0.951918 0.802847 0.000000
0.988607 0.802040 0.000000
1.000000 0.801233 0.000000
1.000000 0.800575 0.000000
1.000000 0.800575 0.000000
0.006381 0.858715 0.000000
0.007428 0.858715 0.000000
0.008475 0.858057 0.000000
0.035172 0.857249 0.000000
0.071862 0.856442 0.000000
0.108551 0.855635 0.000000
0.145241 0.854828 0.000000
0.181931 0.854020 0.000000
0.218621 0.853213 0.000000
0.255311 0.852406 0.000000
0.292001 0.851598 0.000000
0.328691 0.850791 0.000000
0.365380 0.849984 0.000000
0.402070 0.849176 0.000000
0.438760 0.848369 0.000000
0.475450 0.847562 0.000000
0.512140 0.846755 0.000000
0.548830 0.845947 0.000000
0.585519 0.845140 0.000000
0.622209 0.844333 0.000000
0.658899 0.843525 0.000000
0.695589 0.842718 0.000000
0.732279 0.841911 0.000000
0.768969 0.841103 0.000000
0.805658 0.840296 0.000000
0.842348 0.839489 0.000000
0.879038 0.838682 0.000000
