docs/luts/fresh-kodak-portra-bmd.cube
TITLE "FreshLUTs??-KodakPortraBMD"
LUT_3D_SIZE 9
DOMAIN_MIN 0.0 0.0 0.0
DOMAIN_MAX 1.0 1.0 1.0
0.039426 0.033026 0.015266
0.151621 0.037421 0.019661
0.263816 0.041816 0.024056
0.376012 0.046212 0.028452
0.488207 0.050607 0.032847
0.600402 0.055002 0.037242
0.712598 0.059398 0.041638
0.824793 0.063793 0.046033
0.936988 0.068188 0.050428
0.047967 0.148267 0.023807
0.160162 0.152662 0.028202
0.272357 0.157057 0.032597
0.384553 0.161453 0.036993
0.496748 0.165848 0.041388
0.608943 0.170243 0.045783
0.721138 0.174638 0.050178
0.833334 0.179034 0.054574
0.945529 0.183429 0.058969
0.056507 0.263508 0.032348
0.168703 0.267903 0.036743
0.280898 0.272298 0.041138
0.393093 0.276693 0.045533
0.505289 0.281089 0.049929
0.617484 0.285484 0.054324
0.729679 0.289879 0.058719
0.841875 0.294275 0.063115
0.954070 0.298670 0.067510
0.065048 0.378748 0.040888
0.177244 0.383144 0.045284
0.289439 0.387539 0.049679
0.401634 0.391934 0.054074
0.513830 0.396330 0.058470
0.626025 0.400725 0.062865
0.738220 0.405120 0.067260
0.850415 0.409515 0.071655
0.962611 0.413911 0.076051
0.073589 0.493989 0.049429
0.185784 0.498385 0.053825
0.297980 0.502780 0.058220
0.410175 0.507175 0.062615
0.522370 0.511570 0.067010
0.634566 0.515966 0.071406
0.746761 0.520361 0.075801
0.858956 0.524756 0.080196
0.971152 0.529152 0.084592
0.082130 0.609230 0.057970
0.194325 0.613625 0.062365
0.306521 0.618021 0.066761
0.418716 0.622416 0.071156
0.530911 0.626811 0.075551
0.643107 0.631207 0.079947
0.755302 0.635602 0.084342
0.867497 0.639997 0.088737
0.979692 0.644392 0.093132
0.090671 0.724471 0.066511
0.202866 0.728866 0.070906
0.315061 0.733262 0.075301
0.427257 0.737657 0.079697
0.539452 0.742052 0.084092
0.651647 0.746447 0.088487
0.763843 0.750843 0.092883
0.876038 0.755238 0.097278
0.988233 0.759633 0.101673
0.099212 0.839712 0.075052
0.211407 0.844107 0.079447
0.323602 0.848502 0.083842
0.435798 0.852898 0.088238
0.547993 0.857293 0.092633
0.660188 0.861688 0.097028
0.772384 0.866084 0.101424
0.884579 0.870479 0.105819
0.996774 0.874874 0.110214
0.107753 0.954953 0.083593
0.219948 0.959348 0.087988
0.332143 0.963743 0.092383
0.444338 0.968139 0.096778
0.556534 0.972534 0.101174
0.668729 0.976929 0.105569
0.780924 0.981324 0.109964
0.893120 0.985720 0.114360
1.000000 0.990115 0.118755
0.041033 0.034633 0.120273
0.153228 0.039029 0.124669
0.265424 0.043424 0.129064
0.377619 0.047819 0.133459
0.489814 0.052214 0.137854
0.602010 0.056610 0.142250
0.714205 0.061005 0.146645
0.826400 0.065400 0.151040
0.938596 0.069796 0.155436
0.049574 0.149874 0.128814
0.161769 0.154269 0.133209
0.273965 0.158665 0.137605
0.386160 0.163060 0.142000
0.498355 0.167455 0.146395
0.610551 0.171851 0.150791
0.722746 0.176246 0.155186
0.834941 0.180641 0.159581
0.947136 0.185036 0.163976
0.058115 0.265115 0.137355
0.170310 0.269510 0.141750
0.282506 0.273906 0.146146
0.394701 0.278301 0.150541
0.506896 0.282696 0.154936
0.619091 0.287091 0.159331
0.731287 0.291487 0.163727
0.843482 0.295882 0.168122
0.955677 0.300277 0.172517
0.066656 0.380356 0.145896
0.178851 0.384751 0.150291
0.291046 0.389146 0.154686
0.403242 0.393542 0.159082
0.515437 0.397937 0.163477
0.627632 0.402332 0.167872
0.739828 0.406728 0.172268
0.852023 0.411123 0.176663
0.964218 0.415518 0.181058
0.075197 0.495597 0.154437
0.187392 0.499992 0.158832
0.299587 0.504387 0.163227
0.411782 0.508783 0.167623
0.523978 0.513178 0.172018
0.636173 0.517573 0.176413
0.748368 0.521968 0.180808
0.860564 0.526364 0.185204
0.972759 0.530759 0.189599
0.083737 0.610837 0.162977
0.195933 0.615233 0.167373
0.308128 0.619628 0.171768
0.420323 0.624023 0.176163
0.532519 0.628419 0.180559
0.644714 0.632814 0.184954
0.756909 0.637209 0.189349
0.869105 0.641605 0.193745
0.981300 0.646000 0.198140
0.092278 0.726078 0.171518
0.204474 0.730474 0.175914
0.316669 0.734869 0.180309
0.428864 0.739264 0.184704
0.541060 0.743659 0.189100
0.653255 0.748055 0.193495
0.765450 0.752450 0.197890
0.877645 0.756845 0.202285
0.989841 0.761241 0.206681
0.100819 0.841319 0.180059
0.213014 0.845714 0.184454
0.325210 0.850110 0.188850
0.437405 0.854505 0.193245
0.549600 0.858900 0.197640
0.661796 0.863296 0.202036
0.773991 0.867691 0.206431
0.886186 0.872086 0.210826
0.998382 0.876482 0.215222
0.109360 0.956560 0.188600
0.221555 0.960955 0.192995
0.333751 0.965351 0.197391
0.445946 0.969746 0.201786
0.558141 0.974141 0.206181
0.670337 0.978537 0.210577
0.782532 0.982932 0.214972
0.894727 0.987327 0.219367
1.000000 0.991722 0.223762
0.042641 0.036241 0.225281
0.154836 0.040636 0.229676
0.267031 0.045031 0.234071
0.379226 0.049427 0.238466
0.491422 0.053822 0.242862
0.603617 0.058217 0.247257
0.715812 0.062612 0.251652
0.828008 0.067008 0.256048
0.940203 0.071403 0.260443
0.051181 0.151481 0.233821
0.163377 0.155877 0.238217
0.275572 0.160272 0.242612
0.387767 0.164667 0.247007
0.499963 0.169063 0.251403
0.612158 0.173458 0.255798
0.724353 0.177853 0.260193
0.836549 0.182249 0.264589
0.948744 0.186644 0.268984
0.059722 0.266722 0.242362
0.171918 0.271118 0.246758
0.284113 0.275513 0.251153
0.396308 0.279908 0.255548
0.508503 0.284304 0.259943
0.620699 0.288699 0.264339
0.732894 0.293094 0.268734
0.845089 0.297489 0.273129
0.957285 0.301885 0.277525
0.068263 0.381963 0.250903
0.180458 0.386358 0.255298
0.292654 0.390754 0.259694
0.404849 0.395149 0.264089
0.517044 0.399544 0.268484
0.629240 0.403940 0.272880
0.741435 0.408335 0.277275
0.853630 0.412730 0.281670
0.965826 0.417126 0.286066
0.076804 0.497204 0.259444
0.188999 0.501599 0.263839
0.301195 0.505995 0.268235
0.413390 0.510390 0.272630
0.525585 0.514785 0.277025
0.637781 0.519181 0.281421
0.749976 0.523576 0.285816
0.862171 0.527971 0.290211
0.974366 0.532366 0.294606
0.085345 0.612445 0.267985
0.197540 0.616840 0.272380
0.309735 0.621235 0.276775
0.421931 0.625631 0.281171
0.534126 0.630026 0.285566
0.646321 0.634421 0.289961
0.758517 0.638817 0.294357
0.870712 0.643212 0.298752
0.982907 0.647607 0.303147
0.093886 0.727686 0.276526
0.206081 0.732081 0.280921
0.318276 0.736476 0.285316
0.430472 0.740872 0.289712
0.542667 0.745267 0.294107
0.654862 0.749662 0.298502
0.767058 0.754057 0.302898
0.879253 0.758453 0.307293
0.991448 0.762848 0.311688
0.102427 0.842927 0.285067
0.214622 0.847322 0.289462
0.326817 0.851717 0.293857
0.439012 0.856112 0.298252
0.551208 0.860508 0.302648
0.663403 0.864903 0.307043
0.775598 0.869298 0.311438
0.887794 0.873694 0.315834
0.999989 0.878089 0.320229
0.110967 0.958167 0.293607
0.223163 0.962563 0.298003
0.335358 0.966958 0.302398
0.447553 0.971353 0.306793
0.559749 0.975749 0.311189
0.671944 0.980144 0.315584
0.784139 0.984539 0.319979
0.896334 0.988934 0.324375
1.000000 0.993330 0.328770
0.044248 0.037848 0.330288
0.156443 0.042243 0.334683
0.268639 0.046639 0.339079
0.380834 0.051034 0.343474
0.493029 0.055429 0.347869
0.605225 0.059825 0.352264
0.717420 0.064220 0.356660
0.829615 0.068615 0.361055
0.941810 0.073010 0.365450
0.052789 0.153089 0.338829
0.164984 0.157484 0.343224
0.277179 0.161879 0.347619
0.389375 0.166275 0.352015
0.501570 0.170670 0.356410
0.613765 0.175065 0.360805
0.725961 0.179461 0.365201
0.838156 0.183856 0.369596
0.950351 0.188251 0.373991
0.061330 0.268330 0.347370
0.173525 0.272725 0.351765
0.285720 0.277120 0.356160
0.397916 0.281516 0.360556
0.510111 0.285911 0.364951
0.622306 0.290306 0.369346
0.734502 0.294702 0.373741
0.846697 0.299097 0.378137
0.958892 0.303492 0.382532
0.069871 0.383571 0.355911
0.182066 0.387966 0.360306
0.294261 0.392361 0.364701
0.406456 0.396756 0.369096
0.518652 0.401152 0.373492
0.630847 0.405547 0.377887
0.743042 0.409942 0.382282
0.855238 0.414338 0.386678
0.967433 0.418733 0.391073
0.078411 0.498811 0.364451
0.190607 0.503207 0.368847
0.302802 0.507602 0.373242
0.414997 0.511997 0.377637
0.527193 0.516393 0.382033
0.639388 0.520788 0.386428
0.751583 0.525183 0.390823
0.863779 0.529578 0.395219
0.975974 0.533974 0.399614
0.086952 0.614052 0.372992
0.199148 0.618448 0.377388
0.311343 0.622843 0.381783
0.423538 0.627238 0.386178
0.535733 0.631633 0.390573
0.647929 0.636029 0.394969
0.760124 0.640424 0.399364
0.872319 0.644819 0.403759
0.984515 0.649215 0.408155
0.095493 0.729293 0.381533
0.207688 0.733688 0.385928
0.319884 0.738084 0.390324
0.432079 0.742479 0.394719
0.544274 0.746874 0.399114
0.656470 0.751270 0.403510
0.768665 0.755665 0.407905
0.880860 0.760060 0.412300
0.993055 0.764455 0.416695
0.104034 0.844534 0.390074
0.216229 0.848929 0.394469
0.328425 0.853325 0.398865
0.440620 0.857720 0.403260
0.552815 0.862115 0.407655
0.665010 0.866510 0.412050
0.777206 0.870906 0.416446
0.889401 0.875301 0.420841
1.000000 0.879696 0.425236
0.112575 0.959775 0.398615
0.224770 0.964170 0.403010
0.336965 0.968565 0.407405
0.449161 0.972961 0.411801
0.561356 0.977356 0.416196
0.673551 0.981751 0.420591
0.785747 0.986147 0.424987
0.897942 0.990542 0.429382
1.000000 0.994937 0.433777
0.045855 0.039455 0.435295
0.158051 0.043851 0.439691
0.270246 0.048246 0.444086
0.382441 0.052641 0.448481
0.494637 0.057037 0.452877
0.606832 0.061432 0.457272
0.719027 0.065827 0.461667
0.831222 0.070223 0.466063
0.943418 0.074618 0.470458
0.054396 0.154696 0.443836
0.166592 0.159092 0.448232
0.278787 0.163487 0.452627
0.390982 0.167882 0.457022
0.503177 0.172277 0.461417
0.615373 0.176673 0.465813
0.727568 0.181068 0.470208
0.839763 0.185463 0.474603
0.951959 0.189859 0.478999
0.062937 0.269937 0.452377
0.175132 0.274332 0.456772
0.287328 0.278728 0.461168
0.399523 0.283123 0.465563
0.511718 0.287518 0.469958
0.623914 0.291914 0.474354
0.736109 0.296309 0.478749
0.848304 0.300704 0.483144
0.960500 0.305100 0.487540
0.071478 0.385178 0.460918
0.183673 0.389573 0.465313
0.295869 0.393969 0.469709
0.408064 0.398364 0.474104
0.520259 0.402759 0.478499
0.632454 0.407154 0.482894
0.744650 0.411550 0.487290
0.856845 0.415945 0.491685
0.969040 0.420340 0.496080
0.080019 0.500419 0.469459
0.192214 0.504814 0.473854
0.304409 0.509209 0.478249
0.416605 0.513605 0.482645
0.528800 0.518000 0.487040
0.640995 0.522395 0.491435
0.753191 0.526791 0.495831
0.865386 0.531186 0.500226
0.977581 0.535581 0.504621
0.088560 0.615660 0.478000
0.200755 0.620055 0.482395
0.312950 0.624450 0.486790
0.425146 0.628846 0.491186
0.537341 0.633241 0.495581
0.649536 0.637636 0.499976
0.761731 0.642031 0.504371
0.873927 0.646427 0.508767
0.986122 0.650822 0.513162
0.097100 0.730900 0.486541
0.209296 0.735296 0.490936
0.321491 0.739691 0.495331
0.433686 0.744086 0.499726
0.545882 0.748482 0.504122
0.658077 0.752877 0.508517
0.770272 0.757272 0.512912
0.882468 0.761668 0.517308
0.994663 0.766063 0.521703
0.105641 0.846141 0.495081
0.217837 0.850537 0.499477
0.330032 0.854932 0.503872
0.442227 0.859327 0.508267
0.554423 0.863723 0.512663
0.666618 0.868118 0.517058
0.778813 0.872513 0.521453
0.891008 0.876908 0.525848
1.000000 0.881304 0.530244
0.114182 0.961382 0.503622
0.226377 0.965777 0.508018
0.338573 0.970173 0.512413
0.450768 0.974568 0.516808
0.562963 0.978963 0.521203
0.675159 0.983359 0.525599
0.787354 0.987754 0.529994
0.899549 0.992149 0.534389
1.000000 0.996545 0.538785
0.047463 0.041063 0.540303
0.159658 0.045458 0.544698
0.271853 0.049853 0.549093
0.384049 0.054249 0.553489
0.496244 0.058644 0.557884
0.608439 0.063039 0.562279
0.720635 0.067435 0.566675
0.832830 0.071830 0.571070
0.945025 0.076225 0.575465
0.056004 0.156304 0.548844
0.168199 0.160699 0.553239
0.280394 0.165094 0.557634
0.392590 0.169490 0.562030
0.504785 0.173885 0.566425
0.616980 0.178280 0.570820
0.729175 0.182675 0.575215
0.841371 0.187071 0.579611
0.953566 0.191466 0.584006
0.064545 0.271545 0.557384
0.176740 0.275940 0.561780
0.288935 0.280335 0.566175
0.401130 0.284730 0.570570
0.513326 0.289126 0.574966
0.625521 0.293521 0.579361
0.737716 0.297916 0.583756
0.849912 0.302312 0.588152
0.962107 0.306707 0.592547
0.073085 0.386785 0.565925
0.185281 0.391181 0.570321
0.297476 0.395576 0.574716
0.409671 0.399971 0.579111
0.521867 0.404367 0.583507
0.634062 0.408762 0.587902
0.746257 0.413157 0.592297
0.858452 0.417552 0.596692
0.970648 0.421948 0.601088
0.081626 0.502026 0.574466
0.193821 0.506421 0.578862
0.306017 0.510817 0.583257
0.418212 0.515212 0.587652
0.530407 0.519607 0.592047
0.642603 0.524003 0.596443
0.754798 0.528398 0.600838
0.866993 0.532793 0.605233
0.979189 0.537189 0.609629
0.090167 0.617267 0.583007
0.202362 0.621662 0.587402
0.314558 0.626058 0.591798
0.426753 0.630453 0.596193
0.538948 0.634848 0.600588
0.651144 0.639244 0.604984
0.763339 0.643639 0.609379
0.875534 0.648034 0.613774
0.987729 0.652429 0.618169
0.098708 0.732508 0.591548
0.210903 0.736903 0.595943
0.323099 0.741298 0.600338
0.435294 0.745694 0.604734
0.547489 0.750089 0.609129
0.659684 0.754484 0.613524
0.771880 0.758880 0.617920
0.884075 0.763275 0.622315
0.996270 0.767670 0.626710
0.107249 0.847749 0.600089
0.219444 0.852144 0.604484
0.331639 0.856539 0.608879
0.443835 0.860935 0.613275
0.556030 0.865330 0.617670
0.668225 0.869725 0.622065
0.780421 0.874121 0.626461
0.892616 0.878516 0.630856
1.000000 0.882911 0.635251
0.115790 0.962990 0.608630
0.227985 0.967385 0.613025
0.340180 0.971780 0.617420
0.452375 0.976175 0.621815
0.564571 0.980571 0.626211
0.676766 0.984966 0.630606
0.788961 0.989361 0.635001
0.901157 0.993757 0.639397
1.000000 0.998152 0.643792
0.049070 0.042670 0.645310
0.161266 0.047066 0.649706
0.273461 0.051461 0.654101
0.385656 0.055856 0.658496
0.497851 0.060251 0.662891
0.610047 0.064647 0.667287
0.722242 0.069042 0.671682
0.834437 0.073437 0.676077
0.946633 0.077833 0.680473
0.057611 0.157911 0.653851
0.169806 0.162306 0.658246
0.282002 0.166702 0.662642
0.394197 0.171097 0.667037
0.506392 0.175492 0.671432
0.618588 0.179888 0.675828
0.730783 0.184283 0.680223
0.842978 0.188678 0.684618
0.955173 0.193073 0.689013
0.066152 0.273152 0.662392
0.178347 0.277547 0.666787
0.290542 0.281942 0.671183
0.402738 0.286338 0.675578
0.514933 0.290733 0.679973
0.627128 0.295128 0.684368
0.739324 0.299524 0.688764
0.851519 0.303919 0.693159
0.963714 0.308314 0.697554
0.074693 0.388393 0.670933
0.186888 0.392788 0.675328
0.299083 0.397183 0.679723
0.411279 0.401579 0.684119
0.523474 0.405974 0.688514
0.635669 0.410369 0.692909
0.747865 0.414765 0.697305
0.860060 0.419160 0.701700
0.972255 0.423555 0.706095
0.083234 0.503634 0.679474
0.195429 0.508029 0.683869
0.307624 0.512424 0.688264
0.419819 0.516819 0.692659
0.532015 0.521215 0.697055
0.644210 0.525610 0.701450
0.756405 0.530005 0.705845
0.868601 0.534401 0.710241
0.980796 0.538796 0.714636
0.091774 0.618874 0.688014
0.203970 0.623270 0.692410
0.316165 0.627665 0.696805
0.428360 0.632060 0.701200
0.540556 0.636456 0.705596
0.652751 0.640851 0.709991
0.764946 0.645246 0.714386
0.877142 0.649642 0.718782
0.989337 0.654037 0.723177
0.100315 0.734115 0.696555
0.212511 0.738511 0.700951
0.324706 0.742906 0.705346
0.436901 0.747301 0.709741
0.549096 0.751696 0.714137
0.661292 0.756092 0.718532
0.773487 0.760487 0.722927
0.885682 0.764882 0.727322
0.997878 0.769278 0.731718
0.108856 0.849356 0.705096
0.221051 0.853751 0.709491
0.333247 0.858147 0.713887
0.445442 0.862542 0.718282
0.557637 0.866937 0.722677
0.669833 0.871333 0.727073
0.782028 0.875728 0.731468
0.894223 0.880123 0.735863
1.000000 0.884519 0.740259
0.117397 0.964597 0.713637
0.229592 0.968992 0.718032
0.341788 0.973388 0.722428
0.453983 0.977783 0.726823
0.566178 0.982178 0.731218
0.678374 0.986573 0.735614
0.790569 0.990969 0.740009
0.902764 0.995364 0.744404
1.000000 0.999759 0.748799
0.050678 0.044278 0.750318
0.162873 0.048673 0.754713
0.275068 0.053068 0.759108
0.387264 0.057464 0.763504
0.499459 0.061859 0.767899
0.611654 0.066254 0.772294
0.723849 0.070649 0.776689
0.836045 0.075045 0.781085
0.948240 0.079440 0.785480
0.059218 0.159518 0.758858
0.171414 0.163914 0.763254
0.283609 0.168309 0.767649
0.395804 0.172704 0.772044
0.508000 0.177100 0.776440
0.620195 0.181495 0.780835
0.732390 0.185890 0.785230
0.844586 0.190286 0.789626
0.956781 0.194681 0.794021
0.067759 0.274759 0.767399
0.179955 0.279155 0.771795
0.292150 0.283550 0.776190
0.404345 0.287945 0.780585
0.516541 0.292341 0.784981
0.628736 0.296736 0.789376
0.740931 0.301131 0.793771
0.853126 0.305526 0.798166
0.965322 0.309922 0.802562
0.076300 0.390000 0.775940
0.188495 0.394395 0.780335
0.300691 0.398791 0.784731
0.412886 0.403186 0.789126
0.525081 0.407581 0.793521
0.637277 0.411977 0.797917
0.749472 0.416372 0.802312
0.861667 0.420767 0.806707
0.973863 0.425163 0.811103
0.084841 0.505241 0.784481
0.197036 0.509636 0.788876
0.309232 0.514032 0.793272
0.421427 0.518427 0.797667
0.533622 0.522822 0.802062
0.645818 0.527218 0.806458
0.758013 0.531613 0.810853
0.870208 0.536008 0.815248
0.982403 0.540403 0.819643
0.093382 0.620482 0.793022
0.205577 0.624877 0.797417
0.317772 0.629272 0.801812
0.429968 0.633668 0.806208
0.542163 0.638063 0.810603
0.654358 0.642458 0.814998
0.766554 0.646854 0.819394
0.878749 0.651249 0.823789
0.990944 0.655644 0.828184
0.101923 0.735723 0.801563
0.214118 0.740118 0.805958
0.326313 0.744513 0.810353
0.438509 0.748909 0.814749
0.550704 0.753304 0.819144
0.662899 0.757699 0.823539
0.775095 0.762095 0.827935
0.887290 0.766490 0.832330
0.999485 0.770885 0.836725
0.110464 0.850964 0.810104
0.222659 0.855359 0.814499
0.334854 0.859754 0.818894
0.447049 0.864149 0.823289
0.559245 0.868545 0.827685
0.671440 0.872940 0.832080
0.783635 0.877335 0.836475
0.895831 0.881731 0.840871
1.000000 0.886126 0.845266
0.119004 0.966204 0.818644
0.231200 0.970600 0.823040
0.343395 0.974995 0.827435
0.455590 0.979390 0.831830
0.567786 0.983786 0.836226
0.679981 0.988181 0.840621
0.792176 0.992576 0.845016
0.904371 0.996972 0.849412
1.000000 1.000000 0.853807
0.052285 0.045885 0.855325
0.164480 0.050280 0.859720
0.276676 0.054676 0.864116
0.388871 0.059071 0.868511
0.501066 0.063466 0.872906
0.613262 0.067862 0.877302
0.725457 0.072257 0.881697
0.837652 0.076652 0.886092
0.949847 0.081047 0.890487
0.060826 0.161126 0.863866
0.173021 0.165521 0.868261
0.285216 0.169916 0.872656
0.397412 0.174312 0.877052
0.509607 0.178707 0.881447
0.621802 0.183102 0.885842
0.733998 0.187498 0.890238
0.846193 0.191893 0.894633
0.958388 0.196288 0.899028
0.069367 0.276367 0.872407
0.181562 0.280762 0.876802
0.293757 0.285157 0.881197
0.405953 0.289553 0.885593
0.518148 0.293948 0.889988
0.630343 0.298343 0.894383
0.742539 0.302739 0.898779
0.854734 0.307134 0.903174
0.966929 0.311529 0.907569
0.077908 0.391608 0.880948
0.190103 0.396003 0.885343
0.302298 0.400398 0.889738
0.414493 0.404793 0.894133
0.526689 0.409189 0.898529
0.638884 0.413584 0.902924
0.751079 0.417979 0.907319
0.863275 0.422375 0.911715
0.975470 0.426770 0.916110
0.086448 0.506848 0.889488
0.198644 0.511244 0.893884
0.310839 0.515639 0.898279
0.423034 0.520034 0.902674
0.535230 0.524430 0.907070
0.647425 0.528825 0.911465
0.759620 0.533220 0.915860
0.871815 0.537616 0.920256
0.984011 0.542011 0.924651
0.094989 0.622089 0.898029
0.207185 0.626485 0.902425
0.319380 0.630880 0.906820
0.431575 0.635275 0.911215
0.543770 0.639670 0.915610
0.655966 0.644066 0.920006
0.768161 0.648461 0.924401
0.880356 0.652856 0.928796
0.992552 0.657252 0.933192
0.103530 0.737330 0.906570
0.215725 0.741725 0.910965
0.327921 0.746121 0.915361
0.440116 0.750516 0.919756
0.552311 0.754911 0.924151
0.664507 0.759307 0.928547
0.776702 0.763702 0.932942
0.888897 0.768097 0.937337
1.000000 0.772492 0.941732
0.112071 0.852571 0.915111
0.224266 0.856966 0.919506
0.336462 0.861362 0.923902
0.448657 0.865757 0.928297
0.560852 0.870152 0.932692
0.673047 0.874547 0.937087
0.785243 0.878943 0.941483
0.897438 0.883338 0.945878
1.000000 0.887733 0.950273
0.120612 0.967812 0.923652
0.232807 0.972207 0.928047
0.345002 0.976602 0.932442
0.457198 0.980998 0.936838
0.569393 0.985393 0.941233
0.681588 0.989788 0.945628
0.793784 0.994184 0.950024
0.905979 0.998579 0.954419
1.000000 1.000000 0.958814
