docs/luts/fresh-hong-kong-1.cube
TITLE "FreshLUTs??-??1"
LUT_3D_SIZE 33
DOMAIN_MIN 0.0 0.0 0.0
DOMAIN_MAX 1.0 1.0 1.0
0.000000 0.000000 0.036000
0.000000 0.000000 0.035294
0.011262 0.000000 0.034587
0.050678 0.000000 0.033881
0.090094 0.000000 0.033174
0.129511 0.000000 0.032468
0.168927 0.000000 0.031762
0.208343 0.000000 0.031055
0.247760 0.000000 0.030349
0.287176 0.000000 0.029643
0.326592 0.000000 0.028936
0.366008 0.000000 0.028230
0.405425 0.000000 0.027523
0.444841 0.000000 0.026817
0.484257 0.000000 0.026111
0.523674 0.000000 0.025404
0.563090 0.000000 0.024698
0.602506 0.000000 0.023991
0.641923 0.000000 0.023285
0.681339 0.000000 0.022579
0.720755 0.000000 0.021872
0.760171 0.000000 0.021166
0.799588 0.000000 0.020459
0.839004 0.000000 0.019753
0.878420 0.000000 0.019047
0.917837 0.000000 0.018340
0.957253 0.000000 0.017634
0.996669 0.000000 0.016928
1.000000 0.000000 0.016221
1.000000 0.000000 0.015515
1.000000 0.000000 0.014808
1.000000 0.000000 0.014102
1.000000 0.000000 0.013396
0.000000 0.000000 0.034613
0.000000 0.000000 0.033907
0.011262 0.000000 0.033200
0.050678 0.000000 0.032494
0.090094 0.000000 0.031788
0.129511 0.000000 0.031081
0.168927 0.000000 0.030375
0.208343 0.000000 0.029669
0.247760 0.000000 0.028962
0.287176 0.000000 0.028256
0.326592 0.000000 0.027549
0.366008 0.000000 0.026843
0.405425 0.000000 0.026137
0.444841 0.000000 0.025430
0.484257 0.000000 0.024724
0.523674 0.000000 0.024017
0.563090 0.000000 0.023311
0.602506 0.000000 0.022605
0.641923 0.000000 0.021898
0.681339 0.000000 0.021192
0.720755 0.000000 0.020485
0.760171 0.000000 0.019779
0.799588 0.000000 0.019073
0.839004 0.000000 0.018366
0.878420 0.000000 0.017660
0.917837 0.000000 0.016954
0.957253 0.000000 0.016247
0.996669 0.000000 0.015541
1.000000 0.000000 0.014834
1.000000 0.000000 0.014128
1.000000 0.000000 0.013422
1.000000 0.000000 0.012715
1.000000 0.000000 0.012009
0.000000 0.021544 0.033226
0.000000 0.021544 0.032520
0.008356 0.021006 0.031814
0.047772 0.019122 0.031107
0.087189 0.017239 0.030401
0.126605 0.015355 0.029694
0.166021 0.013471 0.028988
0.205438 0.011588 0.028282
0.244854 0.009704 0.027575
0.284270 0.007820 0.026869
0.323687 0.005937 0.026163
0.363103 0.004053 0.025456
0.402519 0.002169 0.024750
0.441935 0.000285 0.024043
0.481352 0.000000 0.023337
0.520768 0.000000 0.022631
0.560184 0.000000 0.021924
0.599601 0.000000 0.021218
0.639017 0.000000 0.020511
0.678433 0.000000 0.019805
0.717850 0.000000 0.019099
0.757266 0.000000 0.018392
0.796682 0.000000 0.017686
0.836098 0.000000 0.016980
0.875515 0.000000 0.016273
0.914931 0.000000 0.015567
0.954347 0.000000 0.014860
0.993764 0.000000 0.014154
1.000000 0.000000 0.013448
1.000000 0.000000 0.012741
1.000000 0.000000 0.012035
1.000000 0.000000 0.011328
1.000000 0.000000 0.010622
0.000000 0.057803 0.031840
0.000000 0.057803 0.031133
0.004790 0.057265 0.030427
0.044206 0.055381 0.029720
0.083623 0.053498 0.029014
0.123039 0.051614 0.028308
0.162455 0.049730 0.027601
0.201872 0.047847 0.026895
0.241288 0.045963 0.026189
0.280704 0.044079 0.025482
0.320121 0.042196 0.024776
0.359537 0.040312 0.024069
0.398953 0.038428 0.023363
0.438369 0.036544 0.022657
0.477786 0.034661 0.021950
0.517202 0.032777 0.021244
0.556618 0.030893 0.020537
0.596035 0.029010 0.019831
0.635451 0.027126 0.019125
0.674867 0.025242 0.018418
0.714284 0.023359 0.017712
0.753700 0.021475 0.017005
0.793116 0.019591 0.016299
0.832532 0.017707 0.015593
0.871949 0.015824 0.014886
0.911365 0.013940 0.014180
0.950781 0.012056 0.013474
0.990198 0.010173 0.012767
1.000000 0.008289 0.012061
1.000000 0.006405 0.011354
1.000000 0.004522 0.010648
1.000000 0.003983 0.009942
1.000000 0.003983 0.009235
0.000000 0.094062 0.030453
0.000000 0.094062 0.029746
0.001224 0.093524 0.029040
0.040640 0.091640 0.028334
0.080057 0.089757 0.027627
0.119473 0.087873 0.026921
0.158889 0.085989 0.026215
0.198306 0.084106 0.025508
0.237722 0.082222 0.024802
0.277138 0.080338 0.024095
0.316554 0.078454 0.023389
0.355971 0.076571 0.022683
0.395387 0.074687 0.021976
0.434803 0.072803 0.021270
0.474220 0.070920 0.020563
0.513636 0.069036 0.019857
0.553052 0.067152 0.019151
0.592469 0.065269 0.018444
0.631885 0.063385 0.017738
0.671301 0.061501 0.017031
0.710718 0.059617 0.016325
0.750134 0.057734 0.015619
0.789550 0.055850 0.014912
0.828966 0.053966 0.014206
0.868383 0.052083 0.013500
0.907799 0.050199 0.012793
0.947215 0.048315 0.012087
0.986632 0.046432 0.011380
1.000000 0.044548 0.010674
1.000000 0.042664 0.009968
1.000000 0.040781 0.009261
1.000000 0.040242 0.008555
1.000000 0.040242 0.007848
0.000000 0.130321 0.029066
0.000000 0.130321 0.028360
0.000000 0.129783 0.027653
0.037074 0.127899 0.026947
0.076491 0.126016 0.026241
0.115907 0.124132 0.025534
0.155323 0.122248 0.024828
0.194740 0.120365 0.024121
0.234156 0.118481 0.023415
0.273572 0.116597 0.022709
0.312988 0.114713 0.022002
0.352405 0.112830 0.021296
0.391821 0.110946 0.020589
0.431237 0.109062 0.019883
0.470654 0.107179 0.019177
0.510070 0.105295 0.018470
0.549486 0.103411 0.017764
0.588903 0.101528 0.017057
0.628319 0.099644 0.016351
0.667735 0.097760 0.015645
0.707151 0.095876 0.014938
0.746568 0.093993 0.014232
0.785984 0.092109 0.013526
0.825400 0.090225 0.012819
0.864817 0.088342 0.012113
0.904233 0.086458 0.011406
0.943649 0.084574 0.010700
0.983066 0.082691 0.009994
1.000000 0.080807 0.009287
1.000000 0.078923 0.008581
1.000000 0.077039 0.007874
1.000000 0.076501 0.007168
1.000000 0.076501 0.006462
0.000000 0.166580 0.027679
0.000000 0.166580 0.026973
0.000000 0.166042 0.026266
0.033508 0.164158 0.025560
0.072925 0.162275 0.024854
0.112341 0.160391 0.024147
0.151757 0.158507 0.023441
0.191174 0.156624 0.022735
0.230590 0.154740 0.022028
0.270006 0.152856 0.021322
0.309422 0.150972 0.020615
0.348839 0.149089 0.019909
0.388255 0.147205 0.019203
0.427671 0.145321 0.018496
0.467088 0.143438 0.017790
0.506504 0.141554 0.017083
0.545920 0.139670 0.016377
0.585337 0.137787 0.015671
0.624753 0.135903 0.014964
0.664169 0.134019 0.014258
0.703585 0.132135 0.013552
0.743002 0.130252 0.012845
0.782418 0.128368 0.012139
0.821834 0.126484 0.011432
0.861251 0.124601 0.010726
0.900667 0.122717 0.010020
0.940083 0.120833 0.009313
0.979500 0.118950 0.008607
1.000000 0.117066 0.007900
1.000000 0.115182 0.007194
1.000000 0.113298 0.006488
1.000000 0.112760 0.005781
1.000000 0.112760 0.005075
0.000000 0.202839 0.026292
0.000000 0.202839 0.025586
0.000000 0.202301 0.024880
0.029942 0.200417 0.024173
0.069359 0.198534 0.023467
0.108775 0.196650 0.022761
0.148191 0.194766 0.022054
0.187608 0.192883 0.021348
0.227024 0.190999 0.020641
0.266440 0.189115 0.019935
0.305856 0.187231 0.019229
0.345273 0.185348 0.018522
0.384689 0.183464 0.017816
0.424105 0.181580 0.017109
0.463522 0.179697 0.016403
0.502938 0.177813 0.015697
0.542354 0.175929 0.014990
0.581771 0.174046 0.014284
0.621187 0.172162 0.013578
0.660603 0.170278 0.012871
0.700019 0.168394 0.012165
0.739436 0.166511 0.011458
0.778852 0.164627 0.010752
0.818268 0.162743 0.010046
0.857685 0.160860 0.009339
0.897101 0.158976 0.008633
0.936517 0.157092 0.007926
0.975934 0.155209 0.007220
1.000000 0.153325 0.006514
1.000000 0.151441 0.005807
1.000000 0.149557 0.005101
1.000000 0.149019 0.004394
1.000000 0.149019 0.003688
0.000000 0.239098 0.024906
0.000000 0.239098 0.024199
0.000000 0.238560 0.023493
0.026376 0.236676 0.022787
0.065793 0.234793 0.022080
0.105209 0.232909 0.021374
0.144625 0.231025 0.020667
0.184041 0.229141 0.019961
0.223458 0.227258 0.019255
0.262874 0.225374 0.018548
0.302290 0.223490 0.017842
0.341707 0.221607 0.017135
0.381123 0.219723 0.016429
0.420539 0.217839 0.015723
0.459956 0.215956 0.015016
0.499372 0.214072 0.014310
0.538788 0.212188 0.013603
0.578205 0.210304 0.012897
0.617621 0.208421 0.012191
0.657037 0.206537 0.011484
0.696453 0.204653 0.010778
0.735870 0.202770 0.010072
0.775286 0.200886 0.009365
0.814702 0.199002 0.008659
0.854119 0.197119 0.007952
0.893535 0.195235 0.007246
0.932951 0.193351 0.006540
0.972367 0.191467 0.005833
1.000000 0.189584 0.005127
1.000000 0.187700 0.004420
1.000000 0.185816 0.003714
1.000000 0.185278 0.003008
1.000000 0.185278 0.002301
0.000000 0.275357 0.023519
0.000000 0.275357 0.022813
0.000000 0.274819 0.022106
0.022810 0.272935 0.021400
0.062227 0.271052 0.020693
0.101643 0.269168 0.019987
0.141059 0.267284 0.019281
0.180475 0.265400 0.018574
0.219892 0.263517 0.017868
0.259308 0.261633 0.017161
0.298724 0.259749 0.016455
0.338141 0.257866 0.015749
0.377557 0.255982 0.015042
0.416973 0.254098 0.014336
0.456390 0.252215 0.013629
0.495806 0.250331 0.012923
0.535222 0.248447 0.012217
0.574638 0.246563 0.011510
0.614055 0.244680 0.010804
0.653471 0.242796 0.010098
0.692887 0.240912 0.009391
0.732304 0.239029 0.008685
0.771720 0.237145 0.007978
0.811136 0.235261 0.007272
0.850553 0.233378 0.006566
0.889969 0.231494 0.005859
0.929385 0.229610 0.005153
0.968801 0.227726 0.004446
1.000000 0.225843 0.003740
1.000000 0.223959 0.003034
1.000000 0.222075 0.002327
1.000000 0.221537 0.001621
1.000000 0.221537 0.000915
0.000000 0.311616 0.022132
0.000000 0.311616 0.021426
0.000000 0.311078 0.020719
0.019244 0.309194 0.020013
0.058661 0.307311 0.019307
0.098077 0.305427 0.018600
0.137493 0.303543 0.017894
0.176909 0.301659 0.017187
0.216326 0.299776 0.016481
0.255742 0.297892 0.015775
0.295158 0.296008 0.015068
0.334575 0.294125 0.014362
0.373991 0.292241 0.013655
0.413407 0.290357 0.012949
0.452824 0.288474 0.012243
0.492240 0.286590 0.011536
0.531656 0.284706 0.010830
0.571072 0.282822 0.010124
0.610489 0.280939 0.009417
0.649905 0.279055 0.008711
0.689321 0.277171 0.008004
0.728738 0.275288 0.007298
0.768154 0.273404 0.006592
0.807570 0.271520 0.005885
0.846987 0.269637 0.005179
0.886403 0.267753 0.004472
0.926391 0.265869 0.003766
0.966645 0.263985 0.003060
1.000000 0.262102 0.002353
1.000000 0.260218 0.001647
1.000000 0.258334 0.000941
1.000000 0.257796 0.000234
1.000000 0.257796 0.000000
0.000000 0.347875 0.020745
0.000000 0.347875 0.020039
0.000000 0.347337 0.019333
0.015678 0.345453 0.018626
0.055095 0.343570 0.017920
0.094511 0.341686 0.017213
0.133927 0.339802 0.016507
0.173343 0.337918 0.015801
0.212760 0.336035 0.015094
0.252176 0.334151 0.014388
0.291592 0.332267 0.013681
0.331009 0.330384 0.012975
0.370425 0.328500 0.012269
0.409841 0.326616 0.011562
0.449258 0.324733 0.010856
0.488674 0.322849 0.010150
0.528090 0.320965 0.009443
0.567506 0.319081 0.008737
0.606923 0.317198 0.008030
0.646339 0.315314 0.007324
0.685755 0.313430 0.006618
0.725172 0.311547 0.005911
0.764588 0.309663 0.005205
0.804004 0.307779 0.004498
0.843961 0.305896 0.003792
0.884215 0.304012 0.003086
0.924469 0.302128 0.002379
0.964723 0.300244 0.001673
1.000000 0.298361 0.000966
1.000000 0.296477 0.000260
1.000000 0.294593 0.000000
1.000000 0.294055 0.000000
1.000000 0.294055 0.000000
0.000000 0.384134 0.019359
0.000000 0.384134 0.018652
0.000000 0.383596 0.017946
0.012112 0.381712 0.017239
0.051528 0.379829 0.016533
0.090945 0.377945 0.015827
0.130361 0.376061 0.015120
0.169777 0.374177 0.014414
0.209194 0.372294 0.013707
0.248610 0.370410 0.013001
0.288026 0.368526 0.012295
0.327443 0.366643 0.011588
0.366859 0.364759 0.010882
0.406275 0.362875 0.010176
0.445692 0.360992 0.009469
0.485108 0.359108 0.008763
0.524524 0.357224 0.008056
0.563940 0.355340 0.007350
0.603357 0.353457 0.006644
0.642773 0.351573 0.005937
0.682189 0.349689 0.005231
0.721606 0.347806 0.004524
0.761532 0.345922 0.003818
0.801786 0.344038 0.003112
0.842040 0.342155 0.002405
0.882294 0.340271 0.001699
0.922548 0.338387 0.000992
0.962802 0.336503 0.000286
1.000000 0.334620 0.000000
1.000000 0.332736 0.000000
1.000000 0.330852 0.000000
1.000000 0.330314 0.000000
1.000000 0.330314 0.000000
0.000000 0.420393 0.017972
0.000000 0.420393 0.017265
0.000000 0.419855 0.016559
0.008546 0.417971 0.015853
0.047962 0.416087 0.015146
0.087379 0.414204 0.014440
0.126795 0.412320 0.013733
0.166211 0.410436 0.013027
0.205628 0.408553 0.012321
0.245044 0.406669 0.011614
0.284460 0.404785 0.010908
0.323877 0.402902 0.010202
0.363293 0.401018 0.009495
0.402709 0.399134 0.008789
0.442125 0.397250 0.008082
0.481542 0.395367 0.007376
0.520958 0.393483 0.006670
0.560374 0.391599 0.005963
0.599791 0.389716 0.005257
0.639207 0.387832 0.004550
0.679102 0.385948 0.003844
0.719356 0.384065 0.003138
0.759610 0.382181 0.002431
0.799864 0.380297 0.001725
0.840118 0.378413 0.001018
0.880372 0.376530 0.000312
0.920626 0.374646 0.000000
0.960880 0.372762 0.000000
1.000000 0.370879 0.000000
1.000000 0.368995 0.000000
1.000000 0.367111 0.000000
1.000000 0.366573 0.000000
1.000000 0.366573 0.000000
0.000000 0.456652 0.016585
0.000000 0.456652 0.015879
0.000000 0.456114 0.015172
0.004980 0.454230 0.014466
0.044396 0.452346 0.013759
0.083813 0.450463 0.013053
0.123229 0.448579 0.012347
0.162645 0.446695 0.011640
0.202062 0.444812 0.010934
0.241478 0.442928 0.010227
0.280894 0.441044 0.009521
0.320311 0.439161 0.008815
0.359727 0.437277 0.008108
0.399143 0.435393 0.007402
0.438559 0.433509 0.006696
0.477976 0.431626 0.005989
0.517392 0.429742 0.005283
0.556808 0.427858 0.004576
0.596673 0.425975 0.003870
0.636927 0.424091 0.003164
0.677181 0.422207 0.002457
0.717435 0.420324 0.001751
0.757689 0.418440 0.001044
0.797943 0.416556 0.000338
0.838197 0.414672 0.000000
0.878451 0.412789 0.000000
0.918705 0.410905 0.000000
0.958959 0.409021 0.000000
0.999213 0.407138 0.000000
1.000000 0.405254 0.000000
1.000000 0.403370 0.000000
1.000000 0.402832 0.000000
1.000000 0.402832 0.000000
0.000000 0.492911 0.015198
0.000000 0.492911 0.014492
0.000000 0.492373 0.013785
0.001414 0.490489 0.013079
0.040830 0.488605 0.012373
0.080247 0.486722 0.011666
0.119663 0.484838 0.010960
0.159079 0.482954 0.010253
0.198496 0.481071 0.009547
0.237912 0.479187 0.008841
0.277328 0.477303 0.008134
0.316745 0.475420 0.007428
0.356161 0.473536 0.006722
0.395577 0.471652 0.006015
0.434993 0.469768 0.005309
0.474410 0.467885 0.004602
0.514243 0.466001 0.003896
0.554497 0.464117 0.003190
0.594752 0.462234 0.002483
0.635006 0.460350 0.001777
0.675260 0.458466 0.001070
0.715514 0.456583 0.000364
0.755768 0.454699 0.000000
0.796022 0.452815 0.000000
0.836276 0.450931 0.000000
0.876530 0.449048 0.000000
0.916784 0.447164 0.000000
0.957038 0.445280 0.000000
0.997292 0.443397 0.000000
1.000000 0.441513 0.000000
1.000000 0.439629 0.000000
1.000000 0.439091 0.000000
1.000000 0.439091 0.000000
0.000000 0.529170 0.013811
0.000000 0.529170 0.013105
0.000000 0.528632 0.012399
0.000000 0.526748 0.011692
0.037264 0.524864 0.010986
0.076681 0.522981 0.010279
0.116097 0.521097 0.009573
0.155513 0.519213 0.008867
0.194930 0.517330 0.008160
0.234346 0.515446 0.007454
0.273762 0.513562 0.006748
0.313178 0.511678 0.006041
0.352595 0.509795 0.005335
0.392011 0.507911 0.004628
0.431814 0.506027 0.003922
0.472068 0.504144 0.003216
0.512322 0.502260 0.002509
0.552576 0.500376 0.001803
0.592830 0.498493 0.001096
0.633084 0.496609 0.000390
0.673338 0.494725 0.000000
0.713592 0.492842 0.000000
0.753846 0.490958 0.000000
0.794100 0.489074 0.000000
0.834354 0.487190 0.000000
0.874608 0.485307 0.000000
0.914862 0.483423 0.000000
0.955116 0.481539 0.000000
0.995370 0.479656 0.000000
1.000000 0.477772 0.000000
1.000000 0.475888 0.000000
1.000000 0.475350 0.000000
1.000000 0.475350 0.000000
0.000000 0.565429 0.012425
0.000000 0.565429 0.011718
0.000000 0.564891 0.011012
0.000000 0.563007 0.010305
0.033698 0.561123 0.009599
0.073115 0.559240 0.008893
0.112531 0.557356 0.008186
0.151947 0.555472 0.007480
0.191364 0.553589 0.006774
0.230780 0.551705 0.006067
0.270196 0.549821 0.005361
0.309612 0.547937 0.004654
0.349385 0.546054 0.003948
0.389639 0.544170 0.003242
0.429893 0.542286 0.002535
0.470147 0.540403 0.001829
0.510401 0.538519 0.001122
0.550655 0.536635 0.000416
0.590909 0.534752 0.000000
0.631163 0.532868 0.000000
0.671417 0.530984 0.000000
0.711671 0.529100 0.000000
0.751925 0.527217 0.000000
0.792179 0.525333 0.000000
0.832433 0.523449 0.000000
0.872687 0.521566 0.000000
0.912941 0.519682 0.000000
0.953195 0.517798 0.000000
0.993449 0.515915 0.000000
1.000000 0.514031 0.000000
1.000000 0.512147 0.000000
1.000000 0.511609 0.000000
1.000000 0.511609 0.000000
0.000000 0.601688 0.011038
0.000000 0.601688 0.010331
0.000000 0.601150 0.009625
0.000000 0.599266 0.008919
0.030132 0.597382 0.008212
0.069549 0.595499 0.007506
0.108965 0.593615 0.006799
0.148381 0.591731 0.006093
0.187798 0.589848 0.005387
0.227214 0.587964 0.004680
0.266955 0.586080 0.003974
0.307209 0.584196 0.003268
0.347463 0.582313 0.002561
0.387717 0.580429 0.001855
0.427971 0.578545 0.001148
0.468225 0.576662 0.000442
0.508479 0.574778 0.000000
0.548733 0.572894 0.000000
0.588987 0.571011 0.000000
0.629241 0.569127 0.000000
0.669495 0.567243 0.000000
0.709749 0.565359 0.000000
0.750003 0.563476 0.000000
0.790257 0.561592 0.000000
0.830511 0.559708 0.000000
0.870765 0.557825 0.000000
0.911019 0.555941 0.000000
0.951273 0.554057 0.000000
0.991527 0.552174 0.000000
1.000000 0.550290 0.000000
1.000000 0.548406 0.000000
1.000000 0.547868 0.000000
1.000000 0.547868 0.000000
0.000000 0.637947 0.009651
0.000000 0.637947 0.008945
0.000000 0.637409 0.008238
0.000000 0.635525 0.007532
0.026566 0.633641 0.006825
0.065983 0.631758 0.006119
0.105399 0.629874 0.005413
0.144815 0.627990 0.004706
0.184526 0.626107 0.004000
0.224780 0.624223 0.003294
0.265034 0.622339 0.002587
0.305288 0.620455 0.001881
0.345542 0.618572 0.001174
0.385796 0.616688 0.000468
0.426050 0.614804 0.000000
0.466304 0.612921 0.000000
0.506558 0.611037 0.000000
0.546812 0.609153 0.000000
0.587066 0.607270 0.000000
0.627320 0.605386 0.000000
0.667574 0.603502 0.000000
0.707828 0.601618 0.000000
0.748082 0.599735 0.000000
0.788336 0.597851 0.000000
0.828590 0.595967 0.000000
0.868844 0.594084 0.000000
0.909098 0.592200 0.000000
0.949352 0.590316 0.000000
0.989606 0.588433 0.000000
1.000000 0.586549 0.000000
1.000000 0.584665 0.000000
1.000000 0.584127 0.000000
1.000000 0.584127 0.000000
0.000000 0.674206 0.008264
0.000000 0.674206 0.007558
0.000000 0.673668 0.006851
0.000000 0.671784 0.006145
0.023000 0.669900 0.005439
0.062417 0.668017 0.004732
0.102096 0.666133 0.004026
0.142350 0.664249 0.003320
0.182604 0.662365 0.002613
0.222858 0.660482 0.001907
0.263112 0.658598 0.001200
0.303366 0.656714 0.000494
0.343620 0.654831 0.000000
0.383874 0.652947 0.000000
0.424128 0.651063 0.000000
0.464382 0.649180 0.000000
0.504636 0.647296 0.000000
0.544890 0.645412 0.000000
0.585144 0.643528 0.000000
0.625398 0.641645 0.000000
0.665652 0.639761 0.000000
0.705906 0.637877 0.000000
0.746161 0.635994 0.000000
0.786415 0.634110 0.000000
0.826669 0.632226 0.000000
0.866923 0.630343 0.000000
0.907177 0.628459 0.000000
0.947431 0.626575 0.000000
0.987685 0.624691 0.000000
1.000000 0.622808 0.000000
1.000000 0.620924 0.000000
1.000000 0.620386 0.000000
1.000000 0.620386 0.000000
0.000000 0.710465 0.006877
0.000000 0.710465 0.006171
0.000000 0.709927 0.005465
0.000000 0.708043 0.004758
0.019667 0.706159 0.004052
0.059921 0.704276 0.003346
0.100175 0.702392 0.002639
0.140429 0.700508 0.001933
0.180683 0.698624 0.001226
0.220937 0.696741 0.000520
0.261191 0.694857 0.000000
0.301445 0.692973 0.000000
0.341699 0.691090 0.000000
0.381953 0.689206 0.000000
0.422207 0.687322 0.000000
0.462461 0.685439 0.000000
0.502715 0.683555 0.000000
0.542969 0.681671 0.000000
0.583223 0.679787 0.000000
0.623477 0.677904 0.000000
0.663731 0.676020 0.000000
0.703985 0.674136 0.000000
0.744239 0.672253 0.000000
0.784493 0.670369 0.000000
0.824747 0.668485 0.000000
0.865001 0.666602 0.000000
0.905255 0.664718 0.000000
0.945509 0.662834 0.000000
0.985763 0.660950 0.000000
1.000000 0.659067 0.000000
1.000000 0.657183 0.000000
1.000000 0.656645 0.000000
1.000000 0.656645 0.000000
0.000000 0.746724 0.005491
0.000000 0.746724 0.004784
0.000202 0.746186 0.004078
0.001039 0.744302 0.003372
0.017745 0.742418 0.002665
0.057999 0.740535 0.001959
0.098253 0.738651 0.001252
0.138507 0.736767 0.000546
0.178761 0.734883 0.000000
0.219015 0.733000 0.000000
0.259269 0.731116 0.000000
0.299524 0.729232 0.000000
0.339778 0.727349 0.000000
0.380032 0.725465 0.000000
0.420286 0.723581 0.000000
0.460540 0.721698 0.000000
0.500794 0.719814 0.000000
0.541048 0.717930 0.000000
0.581302 0.716046 0.000000
0.621556 0.714163 0.000000
0.661810 0.712279 0.000000
0.702064 0.710395 0.000000
0.742318 0.708512 0.000000
0.782572 0.706628 0.000000
0.822826 0.704744 0.000000
0.863080 0.702861 0.000000
0.903334 0.700977 0.000000
0.943588 0.699093 0.000000
0.983842 0.697209 0.000000
1.000000 0.695326 0.000000
1.000000 0.693442 0.000000
1.000000 0.692904 0.000000
1.000000 0.692904 0.000000
0.000171 0.782983 0.004104
0.001009 0.782983 0.003397
0.001846 0.782445 0.002691
0.002684 0.780561 0.001985
0.015824 0.778677 0.001278
0.056078 0.776794 0.000572
0.096332 0.774910 0.000000
0.136586 0.773026 0.000000
0.176840 0.771142 0.000000
0.217094 0.769259 0.000000
0.257348 0.767375 0.000000
0.297602 0.765491 0.000000
0.337856 0.763608 0.000000
0.378110 0.761724 0.000000
0.418364 0.759840 0.000000
0.458618 0.757957 0.000000
0.498872 0.756073 0.000000
0.539126 0.754189 0.000000
0.579380 0.752305 0.000000
0.619634 0.750422 0.000000
0.659888 0.748538 0.000000
0.700142 0.746654 0.000000
0.740396 0.744771 0.000000
0.780650 0.742887 0.000000
0.820904 0.741003 0.000000
0.861158 0.739120 0.000000
0.901412 0.737236 0.000000
0.941666 0.735352 0.000000
0.981920 0.733468 0.000000
1.000000 0.731585 0.000000
1.000000 0.729701 0.000000
1.000000 0.729163 0.000000
1.000000 0.729163 0.000000
0.001816 0.819242 0.002717
0.002653 0.819242 0.002011
0.003491 0.818704 0.001304
0.004329 0.816820 0.000598
0.013903 0.814936 0.000000
0.054157 0.813052 0.000000
0.094411 0.811169 0.000000
0.134665 0.809285 0.000000
0.174919 0.807401 0.000000
0.215173 0.805518 0.000000
0.255427 0.803634 0.000000
0.295681 0.801750 0.000000
0.335935 0.799867 0.000000
0.376189 0.797983 0.000000
0.416443 0.796099 0.000000
0.456697 0.794215 0.000000
0.496951 0.792332 0.000000
0.537205 0.790448 0.000000
0.577459 0.788564 0.000000
0.617713 0.786681 0.000000
0.657967 0.784797 0.000000
0.698221 0.782913 0.000000
0.738475 0.781030 0.000000
0.778729 0.779146 0.000000
0.818983 0.777262 0.000000
0.859237 0.775378 0.000000
0.899491 0.773495 0.000000
0.939745 0.771611 0.000000
0.979999 0.769727 0.000000
1.000000 0.767844 0.000000
1.000000 0.765960 0.000000
1.000000 0.765422 0.000000
1.000000 0.765422 0.000000
0.003460 0.855501 0.001330
0.004298 0.855501 0.000624
0.005136 0.854963 0.000000
0.005973 0.853079 0.000000
0.011981 0.851195 0.000000
0.052235 0.849311 0.000000
0.092489 0.847428 0.000000
0.132743 0.845544 0.000000
0.172997 0.843660 0.000000
0.213251 0.841777 0.000000
0.253505 0.839893 0.000000
0.293759 0.838009 0.000000
0.334013 0.836126 0.000000
0.374267 0.834242 0.000000
0.414521 0.832358 0.000000
0.454775 0.830474 0.000000
0.495029 0.828591 0.000000
0.535283 0.826707 0.000000
0.575537 0.824823 0.000000
0.615791 0.822940 0.000000
0.656045 0.821056 0.000000
0.696299 0.819172 0.000000
0.736553 0.817289 0.000000
0.776807 0.815405 0.000000
0.817061 0.813521 0.000000
0.857315 0.811637 0.000000
0.897570 0.809754 0.000000
0.937824 0.807870 0.000000
0.978078 0.805986 0.000000
1.000000 0.804103 0.000000
1.000000 0.802219 0.000000
1.000000 0.801681 0.000000
1.000000 0.801681 0.000000
0.005105 0.891760 0.000000
0.005942 0.891760 0.000000
0.006780 0.891222 0.000000
0.007618 0.889338 0.000000
0.010060 0.887454 0.000000
0.050314 0.885570 0.000000
0.090568 0.883687 0.000000
0.130822 0.881803 0.000000
0.171076 0.879919 0.000000
0.211330 0.878036 0.000000
0.251584 0.876152 0.000000
0.291838 0.874268 0.000000
0.332092 0.872385 0.000000
0.372346 0.870501 0.000000
0.412600 0.868617 0.000000
0.452854 0.866733 0.000000
0.493108 0.864850 0.000000
0.533362 0.862966 0.000000
0.573616 0.861082 0.000000
0.613870 0.859199 0.000000
0.654124 0.857315 0.000000
0.694378 0.855431 0.000000
0.734632 0.853548 0.000000
0.774886 0.851664 0.000000
0.815140 0.849780 0.000000
0.855394 0.847896 0.000000
0.895648 0.846013 0.000000
