docs/luts/fresh-peaky-blinders.cube
TITLE "FreshLUTs??-????"
LUT_3D_SIZE 9
DOMAIN_MIN 0.0 0.0 0.0
DOMAIN_MAX 1.0 1.0 1.0
0.000000 0.025000 0.055000
0.016379 0.026820 0.054466
0.143879 0.034561 0.059851
0.271379 0.042301 0.065237
0.398878 0.050041 0.070623
0.526378 0.057782 0.076008
0.653877 0.065522 0.081394
0.781377 0.073262 0.086780
0.832757 0.075082 0.086245
0.000000 0.093879 0.056856
0.032104 0.095699 0.056322
0.159603 0.103440 0.061708
0.287103 0.111180 0.067093
0.414603 0.118920 0.072479
0.542102 0.126661 0.077865
0.669602 0.134401 0.083251
0.797101 0.142141 0.088636
0.848481 0.143962 0.088102
0.004197 0.217306 0.066461
0.055576 0.219127 0.065927
0.183076 0.226867 0.071312
0.310576 0.234607 0.076698
0.438075 0.242348 0.082084
0.565575 0.250088 0.087470
0.693074 0.257828 0.092855
0.820574 0.265569 0.098241
0.871953 0.267389 0.097707
0.027670 0.340734 0.076066
0.079049 0.342554 0.075531
0.206549 0.350294 0.080917
0.334048 0.358035 0.086303
0.461548 0.365775 0.091689
0.589047 0.373515 0.097074
0.716547 0.381256 0.102460
0.843638 0.389288 0.108488
0.892270 0.393070 0.112270
0.051142 0.464161 0.085671
0.102522 0.465981 0.085136
0.230021 0.473722 0.090522
0.357521 0.481462 0.095908
0.485021 0.489202 0.101293
0.612213 0.497163 0.107163
0.736965 0.506865 0.116865
0.861718 0.516568 0.126568
0.910350 0.520350 0.130350
0.074615 0.587589 0.095276
0.125994 0.589409 0.094741
0.253494 0.597149 0.100127
0.380787 0.605037 0.105837
0.505540 0.614740 0.115540
0.630292 0.624442 0.125242
0.755045 0.634145 0.134945
0.879797 0.643847 0.144647
0.928430 0.647630 0.148430
0.098088 0.711016 0.104880
0.149362 0.712912 0.104512
0.274114 0.722614 0.114214
0.398867 0.732317 0.123917
0.523619 0.742019 0.133619
0.648372 0.751722 0.143322
0.773124 0.761424 0.153024
0.897877 0.771127 0.162727
0.946509 0.774909 0.166509
0.118809 0.836409 0.118809
0.167441 0.840191 0.122591
0.292194 0.849894 0.132294
0.416946 0.859596 0.141996
0.541699 0.869299 0.151699
0.666451 0.879001 0.161401
0.791204 0.888704 0.171104
0.915956 0.898406 0.180806
0.964589 0.902189 0.184589
0.129140 0.909140 0.129140
0.177772 0.912922 0.132922
0.302525 0.922625 0.142625
0.427277 0.932327 0.152327
0.552030 0.942030 0.162030
0.676783 0.951733 0.171733
0.801535 0.961435 0.181435
0.926288 0.971138 0.191138
0.974920 0.974920 0.194920
0.000000 0.026446 0.123799
0.019621 0.028267 0.123264
0.147121 0.036007 0.128650
0.274621 0.043747 0.134036
0.402120 0.051488 0.139421
0.529620 0.059228 0.144807
0.657119 0.066968 0.150193
0.784619 0.074709 0.155579
0.835998 0.076529 0.155044
0.000000 0.095325 0.125655
0.035346 0.097146 0.125121
0.162845 0.104886 0.130506
0.290345 0.112626 0.135892
0.417844 0.120367 0.141278
0.545344 0.128107 0.146663
0.672844 0.135847 0.152049
0.800343 0.143588 0.157435
0.851723 0.145408 0.156901
0.007439 0.218753 0.135260
0.058818 0.220573 0.134725
0.186318 0.228313 0.140111
0.313817 0.236054 0.145497
0.441317 0.243794 0.150883
0.568817 0.251534 0.156268
0.696316 0.259275 0.161654
0.823816 0.267015 0.167040
0.875195 0.268835 0.166505
0.030911 0.342180 0.144865
0.082291 0.344000 0.144330
0.209790 0.351741 0.149716
0.337290 0.359481 0.155102
0.464790 0.367221 0.160487
0.592289 0.374962 0.165873
0.719789 0.382702 0.171259
0.845833 0.391483 0.178933
0.894465 0.395265 0.182715
0.054384 0.465608 0.154469
0.105764 0.467428 0.153935
0.233263 0.475168 0.159321
0.360763 0.482909 0.164706
0.488262 0.490649 0.170092
0.614407 0.499357 0.177607
0.739160 0.509060 0.187310
0.863912 0.518762 0.197012
0.912544 0.522544 0.200794
0.077857 0.589035 0.164074
0.129236 0.590855 0.163540
0.256736 0.598596 0.168925
0.382982 0.607232 0.176282
0.507734 0.616934 0.185984
0.632487 0.626637 0.195687
0.757239 0.636339 0.205389
0.881992 0.646042 0.215092
0.930624 0.649824 0.218874
0.101329 0.712462 0.173679
0.151556 0.715106 0.174956
0.276309 0.724809 0.184659
0.401061 0.734511 0.194361
0.525814 0.744214 0.204064
0.650566 0.753916 0.213766
0.775319 0.763619 0.223469
0.900071 0.773321 0.233171
0.948704 0.777104 0.236954
0.121003 0.838603 0.189253
0.169636 0.842386 0.193036
0.294388 0.852088 0.202738
0.419141 0.861791 0.212441
0.543893 0.871493 0.222143
0.668646 0.881196 0.231846
0.793398 0.890898 0.241548
0.918151 0.900601 0.251251
0.966783 0.904383 0.255033
0.131334 0.911334 0.199584
0.179967 0.915117 0.203367
0.304719 0.924819 0.213069
0.429472 0.934522 0.222772
0.554225 0.944225 0.232475
0.678977 0.953927 0.242177
0.803730 0.963630 0.251880
0.928482 0.973332 0.261582
0.977114 0.977114 0.265365
0.000000 0.029147 0.232851
0.024117 0.030967 0.232317
0.151617 0.038707 0.237703
0.279116 0.046448 0.243088
0.406616 0.054188 0.248474
0.534116 0.061928 0.253860
0.661615 0.069669 0.259245
0.789115 0.077409 0.264631
0.840494 0.079229 0.264097
0.000000 0.098026 0.234708
0.039841 0.099846 0.234173
0.167341 0.107586 0.239559
0.294841 0.115327 0.244945
0.422340 0.123067 0.250330
0.549840 0.130807 0.255716
0.677339 0.138548 0.261102
0.804839 0.146288 0.266488
0.856219 0.148108 0.265953
0.011935 0.221453 0.244312
0.063314 0.223273 0.243778
0.190814 0.231014 0.249164
0.318313 0.238754 0.254549
0.445813 0.246494 0.259935
0.573313 0.254235 0.265321
0.700812 0.261975 0.270707
0.828312 0.269716 0.276092
0.879691 0.271536 0.275558
0.035407 0.344881 0.253917
0.086787 0.346701 0.253383
0.214286 0.354441 0.258768
0.341786 0.362181 0.264154
0.469286 0.369922 0.269540
0.596785 0.377662 0.274926
0.724285 0.385403 0.280311
0.849281 0.394931 0.289631
0.897913 0.398713 0.293413
0.058880 0.468308 0.263522
0.110259 0.470128 0.262988
0.237759 0.477869 0.268373
0.365259 0.485609 0.273759
0.492758 0.493349 0.279145
0.617856 0.502806 0.288306
0.742608 0.512508 0.298008
0.867361 0.522211 0.307711
0.915993 0.525993 0.311493
0.082353 0.591735 0.273127
0.133732 0.593556 0.272592
0.261232 0.601296 0.277978
0.386430 0.610680 0.286980
0.511183 0.620383 0.296683
0.635935 0.630085 0.306385
0.760688 0.639788 0.316088
0.885440 0.649490 0.325790
0.934073 0.653273 0.329573
0.105825 0.715163 0.282732
0.155005 0.718555 0.285655
0.279757 0.728257 0.295357
0.404510 0.737960 0.305060
0.529262 0.747662 0.314762
0.654015 0.757365 0.324465
0.778767 0.767067 0.334167
0.903520 0.776770 0.343870
0.952152 0.780552 0.347652
0.124452 0.842052 0.299952
0.173084 0.845834 0.303734
0.297837 0.855537 0.313437
0.422589 0.865239 0.323139
0.547342 0.874942 0.332842
0.672094 0.884644 0.342544
0.796847 0.894347 0.352247
0.921599 0.904049 0.361949
0.970232 0.907832 0.365732
0.134783 0.914783 0.310283
0.183415 0.918565 0.314065
0.308168 0.928268 0.323768
0.432920 0.937970 0.333470
0.557673 0.947673 0.343173
0.682426 0.957376 0.352876
0.807178 0.967078 0.362578
0.931931 0.976781 0.372281
0.980563 0.980563 0.376063
0.000000 0.031847 0.341904
0.028613 0.033667 0.341369
0.156113 0.041408 0.346755
0.283612 0.049148 0.352141
0.411112 0.056888 0.357527
0.538611 0.064629 0.362912
0.666111 0.072369 0.368298
0.793611 0.080109 0.373684
0.844990 0.081930 0.373149
0.000000 0.100726 0.343760
0.044337 0.102546 0.343226
0.171837 0.110287 0.348612
0.299337 0.118027 0.353997
0.426836 0.125767 0.359383
0.554336 0.133508 0.364769
0.681835 0.141248 0.370154
0.809335 0.148988 0.375540
0.860714 0.150809 0.375006
0.016431 0.224154 0.353365
0.067810 0.225974 0.352831
0.195310 0.233714 0.358216
0.322809 0.241454 0.363602
0.450309 0.249195 0.368988
0.577808 0.256935 0.374374
0.705308 0.264676 0.379759
0.832808 0.272416 0.385145
0.883282 0.274882 0.386032
0.039903 0.347581 0.362970
0.091283 0.349401 0.362435
0.218782 0.357141 0.367821
0.346282 0.364882 0.373207
0.473781 0.372622 0.378593
0.601281 0.380363 0.383978
0.727977 0.388677 0.390627
0.852730 0.398380 0.400330
0.901362 0.402162 0.404112
0.063376 0.471008 0.372575
0.114755 0.472829 0.372040
0.242255 0.480569 0.377426
0.369755 0.488309 0.382812
0.496551 0.496551 0.389301
0.621304 0.506254 0.399004
0.746057 0.515957 0.408707
0.870809 0.525659 0.418409
0.919442 0.529442 0.422191
0.086849 0.594436 0.382179
0.138228 0.596256 0.381645
0.265126 0.604426 0.387976
0.389879 0.614129 0.397679
0.514631 0.623831 0.407381
0.639384 0.633534 0.417084
0.764136 0.643236 0.426786
0.888889 0.652939 0.436489
0.937521 0.656721 0.440271
0.109821 0.718221 0.392571
0.158453 0.722003 0.396353
0.283206 0.731706 0.406056
0.407958 0.741408 0.415758
0.532711 0.751111 0.425461
0.657463 0.760813 0.435163
0.782216 0.770516 0.444866
0.906968 0.780218 0.454568
0.955601 0.784001 0.458351
0.127900 0.845500 0.410650
0.176533 0.849283 0.414433
0.301285 0.858985 0.424135
0.426038 0.868688 0.433838
0.550790 0.878390 0.443540
0.675543 0.888093 0.453243
0.800295 0.897795 0.462945
0.925048 0.907498 0.472648
0.973680 0.911280 0.476430
0.138232 0.918232 0.420982
0.186864 0.922014 0.424764
0.311616 0.931716 0.434466
0.436369 0.941419 0.444169
0.561122 0.951121 0.453871
0.685874 0.960824 0.463574
0.810627 0.970527 0.473277
0.935379 0.980229 0.482979
0.984012 0.984012 0.486762
0.000000 0.034547 0.450956
0.033109 0.036368 0.450422
0.160609 0.044108 0.455808
0.288108 0.051848 0.461194
0.415608 0.059589 0.466579
0.543107 0.067329 0.471965
0.670607 0.075069 0.477351
0.798107 0.082810 0.482736
0.849486 0.084630 0.482202
0.000000 0.103427 0.452813
0.048833 0.105247 0.452278
0.176333 0.112987 0.457664
0.303832 0.120727 0.463050
0.431332 0.128468 0.468436
0.558832 0.136208 0.473821
0.686331 0.143948 0.479207
0.813831 0.151689 0.484593
0.865210 0.153509 0.484058
0.020926 0.226854 0.462418
0.072306 0.228674 0.461883
0.199805 0.236414 0.467269
0.327305 0.244155 0.472655
0.454805 0.251895 0.478040
0.582304 0.259636 0.483426
0.709804 0.267376 0.488812
0.837304 0.275116 0.494198
0.886731 0.278331 0.496731
0.044399 0.350281 0.472022
0.095779 0.352102 0.471488
0.223278 0.359842 0.476874
0.350778 0.367582 0.482259
0.478277 0.375323 0.487645
0.605777 0.383063 0.493031
0.731425 0.392125 0.501325
0.856178 0.401828 0.511028
0.904810 0.405610 0.514810
0.067872 0.473709 0.481627
0.119251 0.475529 0.481093
0.246751 0.483269 0.486479
0.374250 0.491010 0.491864
0.500000 0.500000 0.500000
0.624753 0.509703 0.509703
0.749505 0.519405 0.519405
0.874258 0.529108 0.529108
0.922890 0.532890 0.532890
0.091344 0.597136 0.491232
0.142724 0.598956 0.490698
0.268574 0.607874 0.498675
0.393327 0.617577 0.508377
0.518080 0.627280 0.518080
0.642832 0.636982 0.527782
0.767585 0.646685 0.537485
0.892337 0.656387 0.547187
0.940970 0.660170 0.550970
0.113269 0.721669 0.503269
0.161902 0.725452 0.507052
0.286654 0.735154 0.516754
0.411407 0.744857 0.526457
0.536159 0.754559 0.536159
0.660912 0.764262 0.545862
0.785664 0.773964 0.555564
0.910417 0.783667 0.565267
0.959049 0.787449 0.569049
0.131349 0.848949 0.521349
0.179981 0.852731 0.525131
0.304734 0.862434 0.534834
0.429486 0.872136 0.544536
0.554239 0.881839 0.554239
0.678991 0.891541 0.563941
0.803744 0.901244 0.573644
0.928496 0.910946 0.583346
0.977129 0.914729 0.587129
0.141680 0.921680 0.531680
0.190312 0.925462 0.535462
0.315065 0.935165 0.545165
0.439817 0.944867 0.554867
0.564570 0.954570 0.564570
0.689323 0.964273 0.574273
0.814075 0.973975 0.583975
0.938828 0.983678 0.593678
0.987460 0.987460 0.597460
0.000000 0.037248 0.560009
0.037605 0.039068 0.559475
0.165104 0.046808 0.564860
0.292604 0.054549 0.570246
0.420104 0.062289 0.575632
0.547603 0.070029 0.581018
0.675103 0.077770 0.586403
0.802602 0.085510 0.591789
0.853982 0.087330 0.591255
0.001950 0.106127 0.561866
0.053329 0.107947 0.561331
0.180829 0.115687 0.566717
0.308328 0.123428 0.572103
0.435828 0.131168 0.577488
0.563327 0.138908 0.582874
0.690827 0.146649 0.588260
0.818327 0.154389 0.593645
0.869706 0.156209 0.593111
0.025422 0.229554 0.571470
0.076802 0.231374 0.570936
0.204301 0.239115 0.576322
0.331801 0.246855 0.581707
0.459301 0.254596 0.587093
0.586800 0.262336 0.592479
0.714300 0.270076 0.597865
0.841547 0.277997 0.603647
0.890179 0.281779 0.607429
0.048895 0.352982 0.581075
0.100274 0.354802 0.580541
0.227774 0.362542 0.585926
0.355274 0.370283 0.591312
0.482773 0.378023 0.596698
0.610121 0.385871 0.602321
0.734874 0.395574 0.612024
0.859627 0.405277 0.621727
0.908259 0.409059 0.625509
0.072368 0.476409 0.590680
0.123747 0.478229 0.590145
0.251247 0.485970 0.595531
0.378696 0.493746 0.600996
0.503448 0.503448 0.610698
0.628201 0.513151 0.620401
0.752954 0.522854 0.630104
0.877706 0.532556 0.639806
0.926338 0.536339 0.643589
0.095840 0.599837 0.600285
0.147220 0.601657 0.599750
0.272023 0.611323 0.609373
0.396776 0.621026 0.619076
0.521528 0.630728 0.628778
0.646281 0.640431 0.638481
0.771033 0.650133 0.648183
0.895786 0.659836 0.657886
0.944418 0.663618 0.661668
0.116718 0.725118 0.613968
0.165350 0.728900 0.617750
0.290103 0.738603 0.627453
0.414855 0.748305 0.637155
0.539608 0.758008 0.646858
0.664360 0.767710 0.656560
0.789113 0.777413 0.666263
0.913865 0.787115 0.675965
0.962498 0.790898 0.679748
0.134797 0.852397 0.632047
0.183430 0.856180 0.635830
0.308182 0.865882 0.645532
0.432935 0.875585 0.655235
0.557687 0.885287 0.664937
0.682440 0.894990 0.674640
0.807192 0.904692 0.684342
0.931945 0.914395 0.694045
0.980577 0.918177 0.697827
0.145128 0.925129 0.642378
0.193761 0.928911 0.646161
0.318513 0.938613 0.655863
0.443266 0.948316 0.665566
0.568018 0.958018 0.675268
0.692771 0.967721 0.684971
0.817524 0.977424 0.694674
0.942276 0.987126 0.704376
0.990908 0.990908 0.708158
0.000000 0.039948 0.669062
0.042101 0.041768 0.668527
0.169600 0.049509 0.673913
0.297100 0.057249 0.679299
0.424600 0.064989 0.684685
0.552099 0.072730 0.690070
0.679599 0.080470 0.695456
0.807098 0.088211 0.700842
0.858478 0.090031 0.700307
0.006446 0.108827 0.670918
0.057825 0.110647 0.670384
0.185325 0.118388 0.675769
0.312824 0.126128 0.681155
0.440324 0.133869 0.686541
0.567823 0.141609 0.691927
0.695323 0.149349 0.697312
0.822823 0.157090 0.702698
0.874202 0.158910 0.702164
0.029918 0.232255 0.680523
0.081298 0.234075 0.679988
0.208797 0.241815 0.685374
0.336297 0.249556 0.690760
0.463796 0.257296 0.696146
0.591296 0.265036 0.701531
0.718796 0.272777 0.706917
0.844995 0.281445 0.714345
0.893628 0.285228 0.718128
0.053391 0.355682 0.690128
0.104770 0.357502 0.689593
0.232270 0.365243 0.694979
0.359769 0.372983 0.700365
0.487269 0.380723 0.705750
0.613570 0.389320 0.713020
0.738322 0.399022 0.722723
0.863075 0.408725 0.732425
0.911707 0.412507 0.736207
0.076864 0.479110 0.699732
0.128243 0.480930 0.699198
0.255743 0.488670 0.704584
0.382144 0.497194 0.711694
0.506897 0.506897 0.721397
0.631650 0.516600 0.731100
0.756402 0.526302 0.740802
0.881155 0.536005 0.750505
0.929787 0.539787 0.754287
0.100336 0.602537 0.709337
0.150719 0.605069 0.710369
0.275471 0.614772 0.720071
0.400224 0.624474 0.729774
0.524977 0.634177 0.739477
0.649729 0.643879 0.749179
0.774482 0.653582 0.758882
0.899234 0.663284 0.768584
0.947867 0.667067 0.772367
0.120166 0.728566 0.724666
0.168799 0.732349 0.728449
0.293551 0.742051 0.738151
0.418304 0.751754 0.747854
0.543056 0.761456 0.757556
0.667809 0.771159 0.767259
0.792561 0.780861 0.776961
0.917314 0.790564 0.786664
0.965946 0.794346 0.790446
0.138246 0.855846 0.742746
0.186878 0.859628 0.746528
0.311631 0.869331 0.756231
0.436383 0.879033 0.765933
0.561136 0.888736 0.775636
0.685888 0.898438 0.785338
0.810641 0.908141 0.795041
0.935393 0.917843 0.804743
0.984026 0.921626 0.808526
0.148577 0.928577 0.753077
0.197209 0.932359 0.756859
0.321962 0.942062 0.766562
0.446714 0.951764 0.776264
0.571467 0.961467 0.785967
0.696220 0.971170 0.795670
0.820972 0.980872 0.805372
0.945725 0.990575 0.815075
0.994357 0.994357 0.818857
0.000000 0.042649 0.778114
0.046597 0.044469 0.777580
0.174096 0.052209 0.782966
0.301596 0.059950 0.788351
0.429095 0.067690 0.793737
0.556595 0.075430 0.799123
0.684095 0.083171 0.804509
0.811594 0.090911 0.809894
0.862974 0.092731 0.809360
0.010941 0.111528 0.779971
0.062321 0.113348 0.779436
0.189820 0.121088 0.784822
0.317320 0.128829 0.790208
0.444820 0.136569 0.795594
0.572319 0.144309 0.800979
0.699819 0.152050 0.806365
0.827318 0.159790 0.811751
0.878698 0.161610 0.811216
0.034414 0.234955 0.789576
0.085793 0.236775 0.789041
0.213293 0.244516 0.794427
0.340793 0.252256 0.799813
0.468292 0.259996 0.805198
0.595792 0.267737 0.810584
0.723292 0.275477 0.815970
0.848444 0.284894 0.825044
0.897076 0.288676 0.828826
0.057887 0.358382 0.799180
0.109266 0.360203 0.798646
0.236766 0.367943 0.804032
0.364265 0.375683 0.809417
0.491765 0.383424 0.814803
0.617018 0.392768 0.823718
0.741771 0.402471 0.833421
0.866524 0.412174 0.843124
0.915156 0.415956 0.846906
0.081359 0.481810 0.808785
0.132739 0.483630 0.808251
0.260238 0.491370 0.813636
0.385593 0.500643 0.822393
0.510346 0.510346 0.832096
0.635098 0.520048 0.841798
0.759851 0.529751 0.851501
0.884603 0.539453 0.861203
0.933235 0.543235 0.864986
0.104832 0.605237 0.818390
0.154167 0.608517 0.821067
0.278920 0.618220 0.830770
0.403673 0.627923 0.840473
0.528425 0.637625 0.850175
0.653178 0.647328 0.859878
0.777930 0.657030 0.869580
0.902683 0.666733 0.879283
0.951315 0.670515 0.883065
0.123615 0.732015 0.835365
0.172247 0.735797 0.839147
0.297000 0.745500 0.848850
0.421752 0.755202 0.858552
0.546505 0.764905 0.868255
0.671257 0.774607 0.877957
0.796010 0.784310 0.887660
0.920762 0.794012 0.897362
0.969395 0.797795 0.901145
0.141694 0.859294 0.853444
0.190327 0.863077 0.857227
0.315079 0.872779 0.866929
0.439832 0.882482 0.876632
0.564584 0.892184 0.886334
0.689337 0.901887 0.896037
0.814089 0.911589 0.905739
0.938842 0.921292 0.915442
0.987474 0.925074 0.919224
0.152026 0.932025 0.863776
0.200658 0.935808 0.867558
0.325410 0.945510 0.877260
0.450163 0.955213 0.886963
0.574915 0.964916 0.896666
0.699668 0.974618 0.906368
0.824421 0.984321 0.916071
0.949173 0.994023 0.925773
0.997806 0.997806 0.929556
0.000000 0.044095 0.846913
0.049838 0.045915 0.846379
0.177338 0.053656 0.851764
0.304838 0.061396 0.857150
0.432337 0.069136 0.862536
0.559837 0.076877 0.867921
0.687336 0.084617 0.873307
0.814836 0.092357 0.878693
0.866215 0.094177 0.878158
0.014183 0.112974 0.848769
0.065563 0.114794 0.848235
0.193062 0.122535 0.853621
0.320562 0.130275 0.859006
0.448062 0.138015 0.864392
0.575561 0.145756 0.869778
0.703061 0.153496 0.875164
0.830560 0.161236 0.880549
0.881191 0.163591 0.881191
0.037656 0.236401 0.858374
0.089035 0.238222 0.857840
0.216535 0.245962 0.863225
0.344035 0.253702 0.868611
0.471534 0.261443 0.873997
0.599034 0.269183 0.879383
0.725886 0.277386 0.885786
0.850638 0.287088 0.895488
0.899271 0.290871 0.899271
0.061129 0.359829 0.867979
0.112508 0.361649 0.867444
0.240008 0.369389 0.872830
0.367507 0.377130 0.878216
0.494460 0.385260 0.884460
0.619213 0.394963 0.894163
0.743965 0.404666 0.903865
0.868718 0.414368 0.913568
0.917350 0.418150 0.917350
0.084601 0.483256 0.877584
0.135981 0.485076 0.877049
0.263035 0.493135 0.883135
0.387787 0.502837 0.892837
0.512540 0.512540 0.902540
0.637293 0.522243 0.912243
0.762045 0.531945 0.921945
0.886798 0.541648 0.931648
0.935430 0.545430 0.935430
0.107730 0.606930 0.887730
0.156362 0.610712 0.891512
0.281114 0.620414 0.901215
0.405867 0.630117 0.910917
0.530620 0.639820 0.920620
0.655372 0.649522 0.930322
0.780125 0.659225 0.940025
0.904877 0.668927 0.949727
0.953510 0.672710 0.953510
0.125809 0.734209 0.905809
0.174442 0.737992 0.909592
0.299194 0.747694 0.919294
0.423947 0.757397 0.928997
0.548699 0.767099 0.938699
0.673452 0.776802 0.948402
0.798204 0.786504 0.958104
0.922957 0.796207 0.967807
0.971589 0.799989 0.971589
0.143889 0.861489 0.923889
0.192521 0.865271 0.927671
0.317274 0.874974 0.937374
0.442026 0.884676 0.947076
0.566779 0.894379 0.956779
0.691531 0.904081 0.966481
0.816284 0.913784 0.976184
0.941036 0.923486 0.985886
0.989669 0.927269 0.989669
0.154220 0.934220 0.934220
0.202852 0.938002 0.938002
0.327605 0.947705 0.947705
0.452357 0.957407 0.957407
0.577110 0.967110 0.967110
0.701863 0.976813 0.976813
0.826615 0.986515 0.986515
0.951368 0.996218 0.996218
1.000000 1.000000 1.000000
