docs/luts/fresh-royals.cube
TITLE "FreshLUTs??-????"
LUT_3D_SIZE 9
DOMAIN_MIN 0.0 0.0 0.0
DOMAIN_MAX 1.0 1.0 1.0
0.000000 0.000000 0.000000
0.086273 0.000523 0.000000
0.221845 0.001345 0.000000
0.357418 0.002168 0.000000
0.492990 0.002990 0.000000
0.628562 0.003812 0.000000
0.764135 0.004635 0.000000
0.899707 0.005457 0.000000
0.985980 0.005980 0.000000
0.001203 0.101653 0.000000
0.087477 0.102177 0.000000
0.223049 0.102999 0.000000
0.358621 0.103821 0.000000
0.494193 0.104643 0.000000
0.629766 0.105466 0.000000
0.765338 0.106288 0.000000
0.900910 0.107110 0.000000
0.987183 0.107633 0.000000
0.002759 0.233059 0.000000
0.089032 0.233582 0.000000
0.224604 0.234404 0.000000
0.360177 0.235227 0.000000
0.495749 0.236049 0.000000
0.631321 0.236871 0.000000
0.766893 0.237693 0.000000
0.902466 0.238516 0.003231
0.991403 0.240593 0.006502
0.004314 0.364464 0.000000
0.090588 0.364988 0.000000
0.226160 0.365810 0.000000
0.361732 0.366632 0.000000
0.497304 0.367454 0.000000
0.632877 0.368277 0.003041
0.770971 0.370570 0.006611
0.910409 0.373647 0.009771
1.000000 0.376426 0.010294
0.005870 0.495870 0.000000
0.092143 0.496393 0.000000
0.227715 0.497216 0.000000
0.363288 0.498038 0.002851
0.501239 0.500248 0.006421
0.640678 0.503326 0.009682
0.780117 0.506403 0.010505
0.919555 0.509481 0.011327
1.000000 0.512259 0.011850
0.007426 0.627276 0.000000
0.093699 0.627799 0.002661
0.231508 0.629926 0.006230
0.370947 0.633004 0.009593
0.510385 0.636081 0.010416
0.649824 0.639159 0.011238
0.789263 0.642237 0.012060
0.928701 0.645314 0.012882
1.000000 0.648093 0.013406
0.011076 0.759903 0.006339
0.101216 0.762682 0.009504
0.240654 0.765759 0.010327
0.380093 0.768837 0.011149
0.519531 0.771915 0.011971
0.658970 0.774992 0.012793
0.798409 0.778070 0.013616
0.937847 0.781148 0.014438
1.000000 0.783926 0.014961
0.020222 0.895736 0.010537
0.110362 0.898515 0.011060
0.249800 0.901593 0.011882
0.389239 0.904670 0.012704
0.528678 0.907748 0.013527
0.668116 0.910826 0.014349
0.807555 0.913903 0.015171
0.946993 0.916981 0.015993
1.000000 0.919760 0.016517
0.029016 1.000000 0.011740
0.119155 1.000000 0.012263
0.258594 1.000000 0.013085
0.398033 1.000000 0.013908
0.537471 1.000000 0.014730
0.676910 1.000000 0.015552
0.816349 1.000000 0.016374
0.955787 1.000000 0.017197
1.000000 1.000000 0.017720
0.000268 0.000268 0.081465
0.086541 0.000791 0.084736
0.222113 0.001613 0.088305
0.357686 0.002436 0.091874
0.493258 0.003258 0.095444
0.628830 0.004080 0.099013
0.764402 0.004902 0.102582
0.899975 0.005725 0.106151
0.986248 0.006248 0.109422
0.001471 0.101921 0.088062
0.087744 0.102444 0.091332
0.223317 0.103267 0.094901
0.358889 0.104089 0.098471
0.494461 0.104911 0.102040
0.630033 0.105733 0.105609
0.765606 0.106556 0.109179
0.901178 0.107378 0.112748
0.987451 0.107901 0.116018
0.003027 0.233327 0.095010
0.089300 0.233850 0.098281
0.224872 0.234672 0.101850
0.360445 0.235495 0.105419
0.496017 0.236317 0.108989
0.631589 0.237139 0.112558
0.767161 0.237961 0.116127
0.903005 0.238942 0.119696
0.993145 0.241721 0.122967
0.004582 0.364732 0.101959
0.090856 0.365256 0.105229
0.226428 0.366078 0.108799
0.362000 0.366900 0.112368
0.497572 0.367722 0.115937
0.633274 0.368620 0.119506
0.772713 0.371698 0.123076
0.912151 0.374775 0.125189
1.000000 0.377554 0.125712
0.006138 0.496138 0.108908
0.092411 0.496661 0.112178
0.227983 0.497483 0.115747
0.363556 0.498306 0.119316
0.502981 0.501376 0.122886
0.642420 0.504453 0.125100
0.781859 0.507531 0.125922
0.921297 0.510609 0.126745
1.000000 0.513387 0.127268
0.007693 0.627543 0.115856
0.093967 0.628067 0.119126
0.233250 0.631054 0.122696
0.372689 0.634131 0.125011
0.512127 0.637209 0.125833
0.651566 0.640287 0.126656
0.791005 0.643364 0.127478
0.930443 0.646442 0.128300
1.000000 0.649221 0.128823
0.012818 0.761031 0.122805
0.102958 0.763810 0.124922
0.242396 0.766887 0.125744
0.381835 0.769965 0.126567
0.521273 0.773042 0.127389
0.660712 0.776120 0.128211
0.800151 0.779198 0.129033
0.939589 0.782275 0.129856
1.000000 0.785054 0.130379
0.021964 0.896864 0.125955
0.112104 0.899643 0.126478
0.251542 0.902721 0.127300
0.390981 0.905798 0.128122
0.530420 0.908876 0.128945
0.669858 0.911953 0.129767
0.809297 0.915031 0.130589
0.948735 0.918109 0.131411
1.000000 0.920887 0.131935
0.030758 1.000000 0.127158
0.120898 1.000000 0.127681
0.260336 1.000000 0.128503
0.399775 1.000000 0.129326
0.539213 1.000000 0.130148
0.678652 1.000000 0.130970
0.818091 1.000000 0.131792
0.957529 1.000000 0.132615
1.000000 1.000000 0.133138
0.000559 0.000559 0.207753
0.086832 0.001082 0.211024
0.222404 0.001904 0.214593
0.357976 0.002726 0.218162
0.493549 0.003549 0.221732
0.629121 0.004371 0.225301
0.764693 0.005193 0.228870
0.900265 0.006015 0.232440
0.986539 0.006539 0.235710
0.001762 0.102212 0.214350
0.088035 0.102735 0.217620
0.223607 0.103557 0.221189
0.359180 0.104380 0.224759
0.494752 0.105202 0.228328
0.630324 0.106024 0.231897
0.765896 0.106846 0.235467
0.901469 0.107669 0.239036
0.987742 0.108192 0.242306
0.003318 0.233617 0.221298
0.089591 0.234141 0.224569
0.225163 0.234963 0.228138
0.360735 0.235785 0.231707
0.496308 0.236607 0.235277
0.631880 0.237430 0.238846
0.767452 0.238252 0.242415
0.904770 0.240093 0.245985
0.994910 0.242871 0.249255
0.004873 0.365023 0.228247
0.091146 0.365546 0.231517
0.226719 0.366369 0.235087
0.362291 0.367191 0.238656
0.497863 0.368013 0.242225
0.635039 0.369771 0.245795
0.774477 0.372848 0.249364
0.913916 0.375926 0.250430
1.000000 0.378705 0.250953
0.006429 0.496429 0.235196
0.092702 0.496952 0.238466
0.228274 0.497774 0.242035
0.365308 0.499449 0.245605
0.504746 0.502526 0.249174
0.644185 0.505604 0.250341
0.783623 0.508682 0.251163
0.923062 0.511759 0.251985
1.000000 0.514538 0.252509
0.007984 0.627834 0.242144
0.095576 0.629127 0.245415
0.235015 0.632204 0.248984
0.374454 0.635282 0.250252
0.513892 0.638360 0.251074
0.653331 0.641437 0.251896
0.792770 0.644515 0.252719
0.932208 0.647593 0.253541
1.000000 0.650371 0.254064
0.014583 0.762182 0.249093
0.104722 0.764960 0.250163
0.244161 0.768038 0.250985
0.383600 0.771115 0.251807
0.523038 0.774193 0.252630
0.662477 0.777271 0.253452
0.801916 0.780348 0.254274
0.941354 0.783426 0.255096
1.000000 0.786205 0.255620
0.023729 0.898015 0.251195
0.113868 0.900794 0.251719
0.253307 0.903871 0.252541
0.392746 0.906949 0.253363
0.532184 0.910026 0.254185
0.671623 0.913104 0.255007
0.811062 0.916182 0.255830
0.950500 0.919259 0.256652
1.000000 0.922038 0.257175
0.032523 1.000000 0.252399
0.122662 1.000000 0.252922
0.262101 1.000000 0.253744
0.401540 1.000000 0.254566
0.540978 1.000000 0.255389
0.680417 1.000000 0.256211
0.819856 1.000000 0.257033
0.959294 1.000000 0.257855
1.000000 1.000000 0.258379
0.000849 0.000849 0.334041
0.087123 0.001373 0.337312
0.222695 0.002195 0.340881
0.358267 0.003017 0.344450
0.493839 0.003839 0.348020
0.629412 0.004662 0.351589
0.764984 0.005484 0.355158
0.900556 0.006306 0.358728
0.986829 0.006829 0.361998
0.002053 0.102503 0.340638
0.088326 0.103026 0.343908
0.223898 0.103848 0.347477
0.359470 0.104670 0.351047
0.495043 0.105493 0.354616
0.630615 0.106315 0.358185
0.766187 0.107137 0.361755
0.901759 0.107959 0.365324
0.988033 0.108483 0.368594
0.003608 0.233908 0.347586
0.089881 0.234431 0.350857
0.225454 0.235254 0.354426
0.361026 0.236076 0.357995
0.496598 0.236898 0.361565
0.632170 0.237720 0.365134
0.767743 0.238543 0.368703
0.906535 0.241243 0.372273
0.996674 0.244022 0.374638
0.005164 0.365314 0.354535
0.091437 0.365837 0.357805
0.227009 0.366659 0.361375
0.362582 0.367482 0.364944
0.498154 0.368304 0.368513
0.636804 0.370921 0.372083
0.776242 0.373999 0.374848
0.915681 0.377077 0.375671
1.000000 0.379855 0.376194
0.006719 0.496719 0.361484
0.092993 0.497243 0.364754
0.228565 0.498065 0.368323
0.367072 0.500599 0.371893
0.506511 0.503677 0.374759
0.645950 0.506755 0.375582
0.785388 0.509832 0.376404
0.924827 0.512910 0.377226
1.000000 0.515689 0.377749
0.008275 0.628125 0.368432
0.097341 0.630277 0.371703
0.236780 0.633355 0.374670
0.376218 0.636433 0.375493
0.515657 0.639510 0.376315
0.655096 0.642588 0.377137
0.794534 0.645666 0.377959
0.933973 0.648743 0.378782
1.000000 0.651522 0.379305
0.016348 0.763332 0.374880
0.106487 0.766111 0.375404
0.245926 0.769188 0.376226
0.385365 0.772266 0.377048
0.524803 0.775344 0.377870
0.664242 0.778421 0.378693
0.803680 0.781499 0.379515
0.943119 0.784577 0.380337
1.000000 0.787355 0.380860
0.025494 0.899165 0.376436
0.115633 0.901944 0.376959
0.255072 0.905022 0.377781
0.394511 0.908099 0.378604
0.533949 0.911177 0.379426
0.673388 0.914255 0.380248
0.812826 0.917332 0.381070
0.952265 0.920410 0.381893
1.000000 0.923189 0.382416
0.034288 1.000000 0.377639
0.124427 1.000000 0.378163
0.263866 1.000000 0.378985
0.403304 1.000000 0.379807
0.542743 1.000000 0.380629
0.682182 1.000000 0.381452
0.821620 1.000000 0.382274
0.961059 1.000000 0.383096
1.000000 1.000000 0.383619
0.001140 0.001140 0.460329
0.087413 0.001663 0.463600
0.222985 0.002486 0.467169
0.358558 0.003308 0.470738
0.494130 0.004130 0.474308
0.629702 0.004952 0.477877
0.765275 0.005775 0.481446
0.900847 0.006597 0.485016
0.987120 0.007120 0.488286
0.002343 0.102793 0.466926
0.088617 0.103317 0.470196
0.224189 0.104139 0.473766
0.359761 0.104961 0.477335
0.495333 0.105783 0.480904
0.630906 0.106606 0.484473
0.766478 0.107428 0.488043
0.902050 0.108250 0.491612
0.989293 0.109339 0.494882
0.003899 0.234199 0.473875
0.090172 0.234722 0.477145
0.225744 0.235544 0.480714
0.361317 0.236367 0.484283
0.496889 0.237189 0.487853
0.632461 0.238011 0.491422
0.768861 0.239316 0.494991
0.908300 0.242394 0.498561
0.998439 0.245172 0.499879
0.005454 0.365604 0.480823
0.091728 0.366128 0.484093
0.227300 0.366950 0.487663
0.362872 0.367772 0.491232
0.499130 0.368994 0.494801
0.638568 0.372072 0.498371
0.778007 0.375150 0.500089
0.917446 0.378227 0.500911
1.000000 0.381006 0.501434
0.007010 0.497010 0.487772
0.093283 0.497533 0.491042
0.229399 0.498672 0.494611
0.368837 0.501750 0.498181
0.508276 0.504828 0.500000
0.647714 0.507905 0.500822
0.787153 0.510983 0.501645
0.926592 0.514060 0.502467
1.000000 0.516839 0.502990
0.008966 0.628649 0.494720
0.099106 0.631428 0.497991
0.238545 0.634506 0.499911
0.377983 0.637583 0.500733
0.517422 0.640661 0.501556
0.656861 0.643739 0.502378
0.796299 0.646816 0.503200
0.935738 0.649894 0.504022
1.000000 0.652672 0.504546
0.018112 0.764483 0.500121
0.108252 0.767261 0.500644
0.247691 0.770339 0.501467
0.387129 0.773417 0.502289
0.526568 0.776494 0.503111
0.666007 0.779572 0.503933
0.805445 0.782650 0.504756
0.944884 0.785727 0.505578
1.000000 0.788506 0.506101
0.027259 0.900316 0.501677
0.117398 0.903095 0.502200
0.256837 0.906172 0.503022
0.396275 0.909250 0.503844
0.535714 0.912328 0.504667
0.675153 0.915405 0.505489
0.814591 0.918483 0.506311
0.954030 0.921561 0.507133
1.000000 0.924339 0.507657
0.036052 1.000000 0.502880
0.126192 1.000000 0.503403
0.265631 1.000000 0.504225
0.405069 1.000000 0.505048
0.544508 1.000000 0.505870
0.683947 1.000000 0.506692
0.823385 1.000000 0.507514
0.962824 1.000000 0.508337
1.000000 1.000000 0.508860
0.001431 0.001431 0.586618
0.087704 0.001954 0.589888
0.223276 0.002776 0.593457
0.358848 0.003598 0.597027
0.494421 0.004421 0.600596
0.629993 0.005243 0.604165
0.765565 0.006065 0.607734
0.901137 0.006887 0.611304
0.987411 0.007411 0.614574
0.002634 0.103084 0.593214
0.088907 0.103607 0.596484
0.224480 0.104430 0.600054
0.360052 0.105252 0.603623
0.495624 0.106074 0.607192
0.631196 0.106896 0.610762
0.766769 0.107719 0.614331
0.902341 0.108541 0.617900
0.991058 0.110490 0.621170
0.004190 0.234490 0.600163
0.090463 0.235013 0.603433
0.226035 0.235835 0.607002
0.361607 0.236657 0.610572
0.497180 0.237480 0.614141
0.632752 0.238302 0.617710
0.770626 0.240467 0.621279
0.910064 0.243544 0.624596
1.000000 0.246323 0.625120
0.005745 0.365895 0.607111
0.092018 0.366418 0.610382
0.227591 0.367241 0.613951
0.363163 0.368063 0.617520
0.500895 0.370145 0.621089
0.640333 0.373222 0.624507
0.779772 0.376300 0.625330
0.919211 0.379378 0.626152
1.000000 0.382156 0.626675
0.007301 0.497301 0.614060
0.093574 0.497824 0.617330
0.231163 0.499823 0.620899
0.370602 0.502901 0.624418
0.510041 0.505978 0.625241
0.649479 0.509056 0.626063
0.788918 0.512133 0.626885
0.928357 0.515211 0.627707
1.000000 0.517990 0.628231
0.010731 0.629800 0.621008
0.100871 0.632579 0.624279
0.240310 0.635656 0.625152
0.379748 0.638734 0.625974
0.519187 0.641812 0.626796
0.658625 0.644889 0.627618
0.798064 0.647967 0.628441
0.937503 0.651044 0.629263
1.000000 0.653823 0.629786
0.019877 0.765633 0.625362
0.110017 0.768412 0.625885
0.249456 0.771490 0.626707
0.388894 0.774567 0.627530
0.528333 0.777645 0.628352
0.667771 0.780723 0.629174
0.807210 0.783800 0.629996
0.946649 0.786878 0.630819
1.000000 0.789656 0.631342
0.029023 0.901467 0.626917
0.119163 0.904245 0.627441
0.258602 0.907323 0.628263
0.398040 0.910401 0.629085
0.537479 0.913478 0.629907
0.676918 0.916556 0.630730
0.816356 0.919634 0.631552
0.955795 0.922711 0.632374
1.000000 0.925490 0.632897
0.037817 1.000000 0.628121
0.127957 1.000000 0.628644
0.267396 1.000000 0.629466
0.406834 1.000000 0.630288
0.546273 1.000000 0.631111
0.685711 1.000000 0.631933
0.825150 1.000000 0.632755
0.964589 1.000000 0.633577
1.000000 1.000000 0.634101
0.001721 0.001721 0.712906
0.087995 0.002245 0.716176
0.223567 0.003067 0.719745
0.359139 0.003889 0.723315
0.494711 0.004711 0.726884
0.630284 0.005534 0.730453
0.765856 0.006356 0.734023
0.901428 0.007178 0.737592
0.987701 0.007701 0.740862
0.002925 0.103375 0.719502
0.089198 0.103898 0.722772
0.224770 0.104720 0.726342
0.360343 0.105542 0.729911
0.495915 0.106365 0.733480
0.631487 0.107187 0.737050
0.767059 0.108009 0.740619
0.902683 0.108862 0.744188
0.992823 0.111640 0.747459
0.004480 0.234780 0.726451
0.090754 0.235304 0.729721
0.226326 0.236126 0.733290
0.361898 0.236948 0.736860
0.497470 0.237770 0.740429
0.633043 0.238593 0.743998
0.772391 0.241617 0.747568
0.911829 0.244695 0.749837
1.000000 0.247474 0.750360
0.006036 0.366186 0.733399
0.092309 0.366709 0.736670
0.227881 0.367531 0.740239
0.363454 0.368354 0.743808
0.502659 0.371295 0.747378
0.642098 0.374373 0.749748
0.781537 0.377451 0.750570
0.920975 0.380528 0.751393
1.000000 0.383307 0.751916
0.007591 0.497591 0.740348
0.093865 0.498115 0.743618
0.232928 0.500974 0.747188
0.372367 0.504051 0.749659
0.511806 0.507129 0.750481
0.651244 0.510206 0.751304
0.790683 0.513284 0.752126
0.930121 0.516362 0.752948
1.000000 0.519140 0.753471
0.012496 0.630951 0.747297
0.102636 0.633729 0.749570
0.242074 0.636807 0.750392
0.381513 0.639885 0.751215
0.520952 0.642962 0.752037
0.660390 0.646040 0.752859
0.799829 0.649117 0.753681
0.939267 0.652195 0.754504
1.000000 0.654974 0.755027
0.021642 0.766784 0.750603
0.111782 0.769563 0.751126
0.251220 0.772640 0.751948
0.390659 0.775718 0.752770
0.530098 0.778796 0.753592
0.669536 0.781873 0.754415
0.808975 0.784951 0.755237
0.948414 0.788028 0.756059
1.000000 0.790807 0.756583
0.030788 0.902617 0.752158
0.120928 0.905396 0.752681
0.260366 0.908474 0.753504
0.399805 0.911551 0.754326
0.539244 0.914629 0.755148
0.678682 0.917707 0.755970
0.818121 0.920784 0.756793
0.957560 0.923862 0.757615
1.000000 0.926640 0.758138
0.039582 1.000000 0.753361
0.129722 1.000000 0.753885
0.269160 1.000000 0.754707
0.408599 1.000000 0.755529
0.548038 1.000000 0.756351
0.687476 1.000000 0.757174
0.826915 1.000000 0.757996
0.966353 1.000000 0.758818
1.000000 1.000000 0.759341
0.002012 0.002012 0.839194
0.088285 0.002535 0.842464
0.223858 0.003358 0.846033
0.359430 0.004180 0.849603
0.495002 0.005002 0.853172
0.630574 0.005824 0.856741
0.766147 0.006647 0.860311
0.901719 0.007469 0.863880
0.987992 0.007992 0.867150
0.003215 0.103665 0.845790
0.089489 0.104189 0.849060
0.225061 0.105011 0.852630
0.360633 0.105833 0.856199
0.496205 0.106655 0.859768
0.631778 0.107478 0.863338
0.767350 0.108300 0.866907
0.904448 0.110012 0.870476
0.994588 0.112791 0.873747
0.004771 0.235071 0.852739
0.091044 0.235594 0.856009
0.226616 0.236416 0.859578
0.362189 0.237239 0.863148
0.497761 0.238061 0.866717
0.634717 0.239690 0.870286
0.774155 0.242768 0.873856
0.913594 0.245846 0.875078
1.000000 0.248624 0.875601
0.006327 0.366477 0.859687
0.092600 0.367000 0.862958
0.228172 0.367822 0.866527
0.364986 0.369368 0.870096
0.504424 0.372446 0.873666
0.643863 0.375524 0.874989
0.783302 0.378601 0.875811
0.922740 0.381679 0.876633
1.000000 0.384458 0.877157
0.007882 0.497882 0.866636
0.095254 0.499047 0.869906
0.234693 0.502124 0.873476
0.374132 0.505202 0.874900
0.513570 0.508279 0.875722
0.653009 0.511357 0.876544
0.792448 0.514435 0.877367
0.931886 0.517512 0.878189
1.000000 0.520291 0.878712
0.014261 0.632101 0.873585
0.104401 0.634880 0.874811
0.243839 0.637958 0.875633
0.383278 0.641035 0.876455
0.522716 0.644113 0.877278
0.662155 0.647190 0.878100
0.801594 0.650268 0.878922
0.941032 0.653346 0.879744
1.000000 0.656124 0.880268
0.023407 0.767935 0.875843
0.113547 0.770713 0.876366
0.252985 0.773791 0.877189
0.392424 0.776868 0.878011
0.531863 0.779946 0.878833
0.671301 0.783024 0.879655
0.810740 0.786101 0.880478
0.950178 0.789179 0.881300
1.000000 0.791958 0.881823
0.032553 0.903768 0.877399
0.122693 0.906547 0.877922
0.262131 0.909624 0.878744
0.401570 0.912702 0.879567
0.541009 0.915779 0.880389
0.680447 0.918857 0.881211
0.819886 0.921935 0.882033
0.959324 0.925012 0.882856
1.000000 0.927791 0.883379
0.041347 1.000000 0.878602
0.131487 1.000000 0.879125
0.270925 1.000000 0.879948
0.410364 1.000000 0.880770
0.549802 1.000000 0.881592
0.689241 1.000000 0.882414
0.828680 1.000000 0.883237
0.968118 1.000000 0.884059
1.000000 1.000000 0.884582
0.002280 0.002280 0.955659
0.088553 0.002803 0.958929
0.224125 0.003626 0.962499
0.359698 0.004448 0.966068
0.495270 0.005270 0.969637
0.630842 0.006092 0.973207
0.766414 0.006914 0.976776
0.901987 0.007737 0.980345
0.988260 0.008260 0.983615
0.003483 0.103933 0.962255
0.089757 0.104457 0.965526
0.225329 0.105279 0.969095
0.360901 0.106101 0.972664
0.496473 0.106923 0.976234
0.632046 0.107746 0.979803
0.767618 0.108568 0.983372
0.906190 0.111140 0.986942
0.996330 0.113919 0.989463
0.005039 0.235339 0.969204
0.091312 0.235862 0.972474
0.226884 0.236684 0.976044
0.362457 0.237507 0.979613
0.498029 0.238329 0.983182
0.636459 0.240818 0.986752
0.775898 0.243896 0.989673
0.915336 0.246973 0.990496
1.000000 0.249752 0.991019
0.006594 0.366744 0.976153
0.092868 0.367268 0.979423
0.228440 0.368090 0.982992
0.366728 0.370496 0.986562
0.506166 0.373574 0.989584
0.645605 0.376652 0.990407
0.785044 0.379729 0.991229
0.924482 0.382807 0.992051
1.000000 0.385585 0.992574
0.008150 0.498150 0.983101
0.096997 0.500174 0.986372
0.236435 0.503252 0.989495
0.375874 0.506330 0.990318
0.515312 0.509407 0.991140
0.654751 0.512485 0.991962
0.794190 0.515563 0.992784
0.933628 0.518640 0.993607
1.000000 0.521419 0.994130
0.016003 0.633229 0.989706
0.106143 0.636008 0.990229
0.245581 0.639085 0.991051
0.385020 0.642163 0.991873
0.524458 0.645241 0.992696
0.663897 0.648318 0.993518
0.803336 0.651396 0.994340
0.942774 0.654474 0.995162
1.000000 0.657252 0.995686
0.025149 0.769062 0.991261
0.115289 0.771841 0.991784
0.254727 0.774919 0.992607
0.394166 0.777996 0.993429
0.533605 0.781074 0.994251
0.673043 0.784152 0.995073
0.812482 0.787229 0.995896
0.951920 0.790307 0.996718
1.000000 0.793085 0.997241
0.034295 0.904896 0.992817
0.124435 0.907674 0.993340
0.263873 0.910752 0.994162
0.403312 0.913830 0.994984
0.542751 0.916907 0.995807
0.682189 0.919985 0.996629
0.821628 0.923063 0.997451
0.961067 0.926140 0.998273
1.000000 0.928919 0.998797
0.043089 1.000000 0.994020
0.133229 1.000000 0.994543
0.272667 1.000000 0.995366
0.412106 1.000000 0.996188
0.551544 1.000000 0.997010
0.690983 1.000000 0.997832
0.830422 1.000000 0.998655
0.969860 1.000000 0.999477
1.000000 1.000000 1.000000
