docs/luts/fresh-drone-mavic-standard.cube
TITLE "FreshLUTs??-Mavic????"
LUT_3D_SIZE 33
DOMAIN_MIN 0.0 0.0 0.0
DOMAIN_MAX 1.0 1.0 1.0
0.000000 0.016000 0.000000
0.000000 0.016000 0.000000
0.029580 0.016000 0.000000
0.063791 0.016000 0.000000
0.098002 0.016000 0.000000
0.132213 0.016000 0.000000
0.166424 0.016000 0.000000
0.200634 0.016000 0.000000
0.234845 0.016000 0.000000
0.269056 0.016000 0.000000
0.303267 0.016000 0.000000
0.337478 0.016000 0.000000
0.371688 0.016000 0.000000
0.405899 0.016000 0.000000
0.440110 0.016000 0.000000
0.474321 0.016000 0.000000
0.508532 0.016000 0.000000
0.542742 0.016000 0.000000
0.576953 0.016000 0.000000
0.611164 0.016000 0.000000
0.645375 0.016000 0.000000
0.679586 0.016000 0.000000
0.713796 0.016000 0.000000
0.748007 0.016000 0.000000
0.782218 0.016000 0.000000
0.816429 0.016000 0.000000
0.850640 0.016000 0.000000
0.884850 0.016000 0.000000
0.919061 0.016000 0.000000
0.953272 0.016000 0.000000
0.987483 0.016000 0.000000
0.996866 0.016000 0.000000
0.997023 0.016000 0.000000
0.000000 0.016000 0.000000
0.000000 0.016000 0.000000
0.029889 0.016000 0.000000
0.064099 0.016000 0.000000
0.098310 0.016000 0.000000
0.132521 0.016000 0.000000
0.166732 0.016000 0.000000
0.200943 0.016000 0.000000
0.235153 0.016000 0.000000
0.269364 0.016000 0.000000
0.303575 0.016000 0.000000
0.337786 0.016000 0.000000
0.371997 0.016000 0.000000
0.406207 0.016000 0.000000
0.440418 0.016000 0.000000
0.474629 0.016000 0.000000
0.508840 0.016000 0.000000
0.543051 0.016000 0.000000
0.577261 0.016000 0.000000
0.611472 0.016000 0.000000
0.645683 0.016000 0.000000
0.679894 0.016000 0.000000
0.714105 0.016000 0.000000
0.748315 0.016000 0.000000
0.782526 0.016000 0.000000
0.816737 0.016000 0.000000
0.850948 0.016000 0.000000
0.885159 0.016000 0.000000
0.919369 0.016000 0.000000
0.953580 0.016000 0.000000
0.987791 0.016000 0.000000
0.997174 0.016000 0.000000
0.997331 0.016000 0.000000
0.000000 0.043954 0.000000
0.000000 0.043917 0.000000
0.029551 0.043521 0.000000
0.063762 0.043125 0.000000
0.097973 0.042728 0.000000
0.132183 0.042332 0.000000
0.166394 0.041936 0.000000
0.200605 0.041540 0.000000
0.234816 0.041144 0.000000
0.269027 0.040748 0.000000
0.303237 0.040351 0.000000
0.337448 0.039955 0.000000
0.371659 0.039559 0.000000
0.405870 0.039163 0.000000
0.440081 0.038767 0.000000
0.474291 0.038370 0.000000
0.508502 0.037974 0.000000
0.542713 0.037578 0.000000
0.576924 0.037182 0.000000
0.611135 0.036786 0.000000
0.645345 0.036390 0.000000
0.679556 0.035993 0.000000
0.713767 0.035597 0.000000
0.747978 0.035201 0.000000
0.782189 0.034805 0.000000
0.816399 0.034409 0.000000
0.850610 0.034013 0.000000
0.884821 0.033616 0.000000
0.919032 0.033220 0.000000
0.953243 0.032824 0.000000
0.987453 0.032428 0.000000
0.997483 0.032032 0.000000
0.997640 0.031994 0.000000
0.000000 0.078262 0.000000
0.000000 0.078224 0.000000
0.029067 0.077828 0.000000
0.063278 0.077432 0.000000
0.097488 0.077036 0.000000
0.131699 0.076640 0.000000
0.165910 0.076244 0.000000
0.200121 0.075847 0.000000
0.234332 0.075451 0.000000
0.268542 0.075055 0.000000
0.302753 0.074659 0.000000
0.336964 0.074263 0.000000
0.371175 0.073867 0.000000
0.405386 0.073470 0.000000
0.439596 0.073074 0.000000
0.473807 0.072678 0.000000
0.508018 0.072282 0.000000
0.542229 0.071886 0.000000
0.576440 0.071489 0.000000
0.610650 0.071093 0.000000
0.644861 0.070697 0.000000
0.679072 0.070301 0.000000
0.713283 0.069905 0.000000
0.747494 0.069509 0.000000
0.781704 0.069112 0.000000
0.815915 0.068716 0.000000
0.850126 0.068320 0.000000
0.884337 0.067924 0.000000
0.918548 0.067528 0.000000
0.952758 0.067132 0.000000
0.986969 0.066735 0.000000
0.997791 0.066339 0.000000
0.997948 0.066302 0.000000
0.000000 0.112569 0.000000
0.000000 0.112532 0.000000
0.028583 0.112136 0.000000
0.062793 0.111740 0.000000
0.097004 0.111343 0.000000
0.131215 0.110947 0.000000
0.165426 0.110551 0.000000
0.199636 0.110155 0.000000
0.233847 0.109759 0.000000
0.268058 0.109363 0.000000
0.302269 0.108966 0.000000
0.336480 0.108570 0.000000
0.370691 0.108174 0.000000
0.404901 0.107778 0.000000
0.439112 0.107382 0.000000
0.473323 0.106986 0.000000
0.507534 0.106589 0.000000
0.541744 0.106193 0.000000
0.575955 0.105797 0.000000
0.610166 0.105401 0.000000
0.644377 0.105005 0.000000
0.678588 0.104609 0.000000
0.712799 0.104212 0.000000
0.747009 0.103816 0.000000
0.781220 0.103420 0.000000
0.815431 0.103024 0.000000
0.849642 0.102628 0.000000
0.883852 0.102231 0.000000
0.918063 0.101835 0.000000
0.952274 0.101439 0.000000
0.986485 0.101043 0.000000
0.998099 0.100647 0.000000
0.998256 0.100609 0.000000
0.000000 0.146877 0.000000
0.000000 0.146840 0.000000
0.028098 0.146443 0.000000
0.062309 0.146047 0.000000
0.096520 0.145651 0.000000
0.130731 0.145255 0.000000
0.164941 0.144859 0.000000
0.199152 0.144463 0.000000
0.233363 0.144066 0.000000
0.267574 0.143670 0.000000
0.301785 0.143274 0.000000
0.335995 0.142878 0.000000
0.370206 0.142482 0.000000
0.404417 0.142085 0.000000
0.438628 0.141689 0.000000
0.472839 0.141293 0.000000
0.507049 0.140897 0.000000
0.541260 0.140501 0.000000
0.575471 0.140105 0.000000
0.609682 0.139708 0.000000
0.643893 0.139312 0.000000
0.678103 0.138916 0.000000
0.712314 0.138520 0.000000
0.746525 0.138124 0.000000
0.780736 0.137728 0.000000
0.814947 0.137331 0.000000
0.849157 0.136935 0.000000
0.883368 0.136539 0.000000
0.917579 0.136143 0.000000
0.951790 0.135747 0.000000
0.986001 0.135350 0.000000
0.998407 0.134954 0.000000
0.998564 0.134917 0.000000
0.000000 0.181184 0.000000
0.000000 0.181147 0.000000
0.027614 0.180751 0.000000
0.061825 0.180355 0.000000
0.096036 0.179959 0.000000
0.130246 0.179562 0.000000
0.164457 0.179166 0.000000
0.198668 0.178770 0.000000
0.232879 0.178374 0.000000
0.267090 0.177978 0.000000
0.301300 0.177582 0.000000
0.335511 0.177185 0.000000
0.369722 0.176789 0.000000
0.403933 0.176393 0.000000
0.438144 0.175997 0.000000
0.472354 0.175601 0.000000
0.506565 0.175204 0.000000
0.540776 0.174808 0.000000
0.574987 0.174412 0.000000
0.609198 0.174016 0.000000
0.643408 0.173620 0.000000
0.677619 0.173224 0.000000
0.711830 0.172827 0.000000
0.746041 0.172431 0.000000
0.780252 0.172035 0.000000
0.814462 0.171639 0.000000
0.848673 0.171243 0.000000
0.882884 0.170847 0.000000
0.917095 0.170450 0.000000
0.951306 0.170054 0.000000
0.985516 0.169658 0.000000
0.998715 0.169262 0.000000
0.998872 0.169224 0.000000
0.000000 0.215492 0.000000
0.000000 0.215455 0.000000
0.027130 0.215058 0.000000
0.061340 0.214662 0.000000
0.095551 0.214266 0.000000
0.129762 0.213870 0.000000
0.163973 0.213474 0.000000
0.198184 0.213078 0.000000
0.232394 0.212681 0.000000
0.266605 0.212285 0.000000
0.300816 0.211889 0.000000
0.335027 0.211493 0.000000
0.369238 0.211097 0.000000
0.403448 0.210701 0.000000
0.437659 0.210304 0.000000
0.471870 0.209908 0.000000
0.506081 0.209512 0.000000
0.540292 0.209116 0.000000
0.574502 0.208720 0.000000
0.608713 0.208324 0.000000
0.642924 0.207927 0.000000
0.677135 0.207531 0.000000
0.711346 0.207135 0.000000
0.745556 0.206739 0.000000
0.779767 0.206343 0.000000
0.813978 0.205946 0.000000
0.848189 0.205550 0.000000
0.882400 0.205154 0.000000
0.916610 0.204758 0.000000
0.950821 0.204362 0.000000
0.985032 0.203966 0.000000
0.999023 0.203569 0.000000
0.999180 0.203532 0.000319
0.000000 0.249800 0.000000
0.000000 0.249762 0.000000
0.026645 0.249366 0.000000
0.060856 0.248970 0.000000
0.095067 0.248574 0.000000
0.129278 0.248178 0.000000
0.163489 0.247781 0.000000
0.197699 0.247385 0.000000
0.231910 0.246989 0.000000
0.266121 0.246593 0.000000
0.300332 0.246197 0.000000
0.334543 0.245800 0.000000
0.368753 0.245404 0.000000
0.402964 0.245008 0.000000
0.437175 0.244612 0.000000
0.471386 0.244216 0.000000
0.505597 0.243820 0.000000
0.539807 0.243423 0.000000
0.574018 0.243027 0.000000
0.608229 0.242631 0.000000
0.642440 0.242235 0.000000
0.676651 0.241839 0.000000
0.710861 0.241443 0.000000
0.745072 0.241046 0.000000
0.779283 0.240650 0.000000
0.813494 0.240254 0.000000
0.847705 0.239858 0.000000
0.881915 0.239462 0.000000
0.916126 0.239065 0.000000
0.950337 0.238669 0.000000
0.984548 0.238273 0.000304
0.999332 0.237877 0.000707
0.999489 0.237840 0.001110
0.000000 0.284107 0.000000
0.000000 0.284070 0.000000
0.026161 0.283674 0.000000
0.060372 0.283277 0.000000
0.094583 0.282881 0.000000
0.128794 0.282485 0.000000
0.163004 0.282089 0.000000
0.197215 0.281693 0.000000
0.231426 0.281297 0.000000
0.265637 0.280900 0.000000
0.299848 0.280504 0.000000
0.334058 0.280108 0.000000
0.368269 0.279712 0.000000
0.402480 0.279316 0.000000
0.436691 0.278919 0.000000
0.470902 0.278523 0.000000
0.505112 0.278127 0.000000
0.539323 0.277731 0.000000
0.573534 0.277335 0.000000
0.607745 0.276939 0.000000
0.641956 0.276542 0.000000
0.676166 0.276146 0.000000
0.710377 0.275750 0.000000
0.744588 0.275354 0.000000
0.778799 0.274958 0.000000
0.813010 0.274562 0.000000
0.847220 0.274165 0.000000
0.881431 0.273769 0.000000
0.915642 0.273373 0.000290
0.949853 0.272977 0.000692
0.984064 0.272581 0.001095
0.999640 0.272185 0.001498
0.999797 0.272147 0.001901
0.000000 0.318415 0.000000
0.000000 0.318377 0.000000
0.025677 0.317981 0.000000
0.059888 0.317585 0.000000
0.094098 0.317189 0.000000
0.128309 0.316793 0.000000
0.162520 0.316396 0.000000
0.196731 0.316000 0.000000
0.230942 0.315604 0.000000
0.265152 0.315208 0.000000
0.299363 0.314812 0.000000
0.333574 0.314416 0.000000
0.367785 0.314019 0.000000
0.401996 0.313623 0.000000
0.436206 0.313227 0.000000
0.470417 0.312831 0.000000
0.504628 0.312435 0.000000
0.538839 0.312039 0.000000
0.573050 0.311642 0.000000
0.607260 0.311246 0.000000
0.641471 0.310850 0.000000
0.675682 0.310454 0.000000
0.709893 0.310058 0.000000
0.744104 0.309661 0.000000
0.778314 0.309265 0.000000
0.812525 0.308869 0.000000
0.846736 0.308473 0.000275
0.880947 0.308077 0.000678
0.915158 0.307681 0.001080
0.949368 0.307284 0.001483
0.983579 0.306888 0.001886
0.999948 0.306492 0.002289
1.000000 0.306455 0.002691
0.000000 0.352722 0.000000
0.000000 0.352685 0.000000
0.025193 0.352289 0.000000
0.059403 0.351893 0.000000
0.093614 0.351496 0.000000
0.127825 0.351100 0.000000
0.162036 0.350704 0.000000
0.196247 0.350308 0.000000
0.230457 0.349912 0.000000
0.264668 0.349515 0.000000
0.298879 0.349119 0.000000
0.333090 0.348723 0.000000
0.367301 0.348327 0.000000
0.401511 0.347931 0.000000
0.435722 0.347535 0.000000
0.469933 0.347138 0.000000
0.504144 0.346742 0.000000
0.538355 0.346346 0.000000
0.572565 0.345950 0.000000
0.606776 0.345554 0.000000
0.640987 0.345158 0.000000
0.675198 0.344761 0.000000
0.709409 0.344365 0.000000
0.743619 0.343969 0.000000
0.777830 0.343573 0.000260
0.812041 0.343177 0.000663
0.846252 0.342780 0.001065
0.880463 0.342384 0.001468
0.914673 0.341988 0.001871
0.948884 0.341592 0.002274
0.982996 0.341196 0.002676
1.000000 0.340800 0.003079
1.000000 0.340762 0.003482
0.000000 0.387030 0.000000
0.000000 0.386992 0.000000
0.024708 0.386596 0.000000
0.058919 0.386200 0.000000
0.093130 0.385804 0.000000
0.127341 0.385408 0.000000
0.161551 0.385012 0.000000
0.195762 0.384615 0.000000
0.229973 0.384219 0.000000
0.264184 0.383823 0.000000
0.298395 0.383427 0.000000
0.332605 0.383031 0.000000
0.366816 0.382634 0.000000
0.401027 0.382238 0.000000
0.435238 0.381842 0.000000
0.469449 0.381446 0.000000
0.503660 0.381050 0.000000
0.537870 0.380654 0.000000
0.572081 0.380257 0.000000
0.606292 0.379861 0.000000
0.640503 0.379465 0.000000
0.674713 0.379069 0.000000
0.708924 0.378673 0.000245
0.743135 0.378277 0.000648
0.777346 0.377880 0.001051
0.811557 0.377484 0.001453
0.845768 0.377088 0.001856
0.879978 0.376692 0.002259
0.914096 0.376296 0.002662
0.948150 0.375900 0.003064
0.982203 0.375503 0.003467
1.000000 0.375107 0.003870
1.000000 0.375070 0.004273
0.000000 0.421337 0.000000
0.000000 0.421300 0.000000
0.024224 0.420904 0.000000
0.058435 0.420508 0.000000
0.092646 0.420111 0.000000
0.126856 0.419715 0.000000
0.161067 0.419319 0.000000
0.195278 0.418923 0.000000
0.229489 0.418527 0.000000
0.263700 0.418131 0.000000
0.297910 0.417734 0.000000
0.332121 0.417338 0.000000
0.366332 0.416942 0.000000
0.400543 0.416546 0.000000
0.434754 0.416150 0.000000
0.468964 0.415754 0.000000
0.503175 0.415357 0.000000
0.537386 0.414961 0.000000
0.571597 0.414565 0.000000
0.605808 0.414169 0.000000
0.640018 0.413773 0.000230
0.674229 0.413376 0.000633
0.708440 0.412980 0.001036
0.742651 0.412584 0.001439
0.776862 0.412188 0.001841
0.811072 0.411792 0.002244
0.845196 0.411396 0.002647
0.879249 0.410999 0.003050
0.913303 0.410603 0.003452
0.947357 0.410207 0.003855
0.981411 0.409811 0.004258
1.000000 0.409415 0.004661
1.000000 0.409377 0.005063
0.000000 0.455645 0.000000
0.000000 0.455608 0.000000
0.023740 0.455211 0.000000
0.057951 0.454815 0.000000
0.092161 0.454419 0.000000
0.126372 0.454023 0.000000
0.160583 0.453627 0.000000
0.194794 0.453230 0.000000
0.229005 0.452834 0.000000
0.263215 0.452438 0.000000
0.297426 0.452042 0.000000
0.331637 0.451646 0.000000
0.365848 0.451250 0.000000
0.400059 0.450853 0.000000
0.434269 0.450457 0.000000
0.468480 0.450061 0.000000
0.502691 0.449665 0.000000
0.536902 0.449269 0.000000
0.571113 0.448873 0.000216
0.605323 0.448476 0.000618
0.639534 0.448080 0.001021
0.673745 0.447684 0.001424
0.707956 0.447288 0.001827
0.742167 0.446892 0.002229
0.776296 0.446495 0.002632
0.810349 0.446099 0.003035
0.844403 0.445703 0.003438
0.878457 0.445307 0.003840
0.912511 0.444911 0.004243
0.946565 0.444515 0.004646
0.980618 0.444118 0.005048
1.000000 0.443722 0.005451
1.000000 0.443685 0.005854
0.000000 0.489952 0.000000
0.000000 0.489915 0.000000
0.023255 0.489519 0.000000
0.057466 0.489123 0.000000
0.091677 0.488727 0.000000
0.125888 0.488330 0.000000
0.160099 0.487934 0.000000
0.194309 0.487538 0.000000
0.228520 0.487142 0.000000
0.262731 0.486746 0.000000
0.296942 0.486349 0.000000
0.331153 0.485953 0.000000
0.365363 0.485557 0.000000
0.399574 0.485161 0.000000
0.433785 0.484765 0.000000
0.467996 0.484369 0.000000
0.502207 0.483972 0.000201
0.536417 0.483576 0.000603
0.570628 0.483180 0.001006
0.604839 0.482784 0.001409
0.639050 0.482388 0.001812
0.673261 0.481992 0.002214
0.707395 0.481595 0.002617
0.741449 0.481199 0.003020
0.775503 0.480803 0.003423
0.809557 0.480407 0.003825
0.843611 0.480011 0.004228
0.877665 0.479615 0.004631
0.911718 0.479218 0.005034
0.945772 0.478822 0.005436
0.979826 0.478426 0.005839
1.000000 0.478030 0.006242
1.000000 0.477992 0.006645
0.000000 0.524260 0.000000
0.000000 0.524223 0.000000
0.022771 0.523826 0.000000
0.056982 0.523430 0.000000
0.091193 0.523034 0.000000
0.125404 0.522638 0.000000
0.159614 0.522242 0.000000
0.193825 0.521846 0.000000
0.228036 0.521449 0.000000
0.262247 0.521053 0.000000
0.296458 0.520657 0.000000
0.330668 0.520261 0.000000
0.364879 0.519865 0.000000
0.399090 0.519469 0.000000
0.433301 0.519072 0.000186
0.467512 0.518676 0.000589
0.501722 0.518280 0.000991
0.535933 0.517884 0.001394
0.570144 0.517488 0.001797
0.604355 0.517091 0.002200
0.638495 0.516695 0.002602
0.672549 0.516299 0.003005
0.706603 0.515903 0.003408
0.740657 0.515507 0.003811
0.774711 0.515111 0.004213
0.808764 0.514714 0.004616
0.842818 0.514318 0.005019
0.876872 0.513922 0.005422
0.910926 0.513526 0.005824
0.944980 0.513130 0.006227
0.979034 0.512734 0.006630
1.000000 0.512337 0.007033
1.000000 0.512300 0.007435
0.000000 0.558568 0.000000
0.000000 0.558530 0.000000
0.022287 0.558134 0.000000
0.056498 0.557738 0.000000
0.090709 0.557342 0.000000
0.124919 0.556945 0.000000
0.159130 0.556549 0.000000
0.193341 0.556153 0.000000
0.227552 0.555757 0.000000
0.261763 0.555361 0.000000
0.295973 0.554965 0.000000
0.330184 0.554568 0.000000
0.364395 0.554172 0.000171
0.398606 0.553776 0.000574
0.432817 0.553380 0.000977
0.467027 0.552984 0.001379
0.501238 0.552588 0.001782
0.535449 0.552191 0.002185
0.569595 0.551795 0.002588
0.603649 0.551399 0.002990
0.637703 0.551003 0.003393
0.671757 0.550607 0.003796
0.705811 0.550210 0.004199
0.739864 0.549814 0.004601
0.773918 0.549418 0.005004
0.807972 0.549022 0.005407
0.842026 0.548626 0.005810
0.876080 0.548230 0.006212
0.910133 0.547833 0.006615
0.944187 0.547437 0.007018
0.978241 0.547041 0.007421
1.000000 0.546645 0.007823
1.000000 0.546608 0.008226
0.000000 0.592875 0.000000
0.000000 0.592838 0.000000
0.021803 0.592442 0.000000
0.056013 0.592045 0.000000
0.090224 0.591649 0.000000
0.124435 0.591253 0.000000
0.158646 0.590857 0.000000
0.192857 0.590461 0.000000
0.227067 0.590064 0.000000
0.261278 0.589668 0.000000
0.295489 0.589272 0.000156
0.329700 0.588876 0.000559
0.363911 0.588480 0.000962
0.398121 0.588084 0.001364
0.432332 0.587687 0.001767
0.466543 0.587291 0.002170
0.500695 0.586895 0.002573
0.534749 0.586499 0.002975
0.568803 0.586103 0.003378
0.602857 0.585707 0.003781
0.636910 0.585310 0.004184
0.670964 0.584914 0.004586
0.705018 0.584518 0.004989
0.739072 0.584122 0.005392
0.773126 0.583726 0.005795
0.807180 0.583330 0.006197
0.841233 0.582933 0.006600
0.875287 0.582537 0.007003
0.909341 0.582141 0.007406
0.943395 0.581745 0.007808
0.977449 0.581349 0.008211
1.000000 0.580952 0.008614
1.000000 0.580915 0.009017
0.000000 0.627183 0.000000
0.000000 0.627145 0.000000
0.021318 0.626749 0.000000
0.055529 0.626353 0.000000
0.089740 0.625957 0.000000
0.123951 0.625561 0.000000
0.158162 0.625164 0.000000
0.192372 0.624768 0.000000
0.226583 0.624372 0.000141
0.260794 0.623976 0.000544
0.295005 0.623580 0.000947
0.329216 0.623184 0.001350
0.363426 0.622787 0.001752
0.397637 0.622391 0.002155
0.431795 0.621995 0.002558
0.465849 0.621599 0.002961
0.499903 0.621203 0.003363
0.533956 0.620806 0.003766
0.568010 0.620410 0.004169
0.602064 0.620014 0.004572
0.636118 0.619618 0.004974
0.670172 0.619222 0.005377
0.704226 0.618826 0.005780
0.738279 0.618429 0.006183
0.772333 0.618033 0.006585
0.806387 0.617637 0.006988
0.840441 0.617241 0.007391
0.874495 0.616845 0.007794
0.908549 0.616449 0.008196
0.942602 0.616052 0.008599
0.976656 0.615656 0.009002
1.000000 0.615260 0.009405
1.000000 0.615223 0.009807
0.000000 0.661490 0.000000
0.000000 0.661453 0.000000
0.020834 0.661057 0.000000
0.055045 0.660660 0.000000
0.089256 0.660264 0.000000
0.123466 0.659868 0.000000
0.157677 0.659472 0.000127
0.191888 0.659076 0.000529
0.226099 0.658680 0.000932
0.260310 0.658283 0.001335
0.294521 0.657887 0.001738
0.328731 0.657491 0.002140
0.362895 0.657095 0.002543
0.396949 0.656699 0.002946
0.431003 0.656303 0.003349
0.465056 0.655906 0.003751
0.499110 0.655510 0.004154
0.533164 0.655114 0.004557
0.567218 0.654718 0.004960
0.601272 0.654322 0.005362
0.635326 0.653926 0.005765
0.669379 0.653529 0.006168
0.703433 0.653133 0.006571
0.737487 0.652737 0.006973
0.771541 0.652341 0.007376
0.805595 0.651945 0.007779
0.839648 0.651548 0.008182
0.873702 0.651152 0.008584
0.907756 0.650756 0.008987
0.941810 0.650360 0.009390
0.975864 0.649964 0.009793
1.000000 0.649568 0.010195
1.000000 0.649530 0.010598
0.000000 0.695798 0.000000
0.000000 0.695760 0.000000
0.020350 0.695364 0.000000
0.054561 0.694968 0.000000
0.088771 0.694572 0.000112
0.122982 0.694176 0.000515
0.157193 0.693779 0.000917
0.191404 0.693383 0.001320
0.225615 0.692987 0.001723
0.259825 0.692591 0.002126
0.293995 0.692195 0.002528
0.328049 0.691799 0.002931
0.362102 0.691402 0.003334
0.396156 0.691006 0.003737
0.430210 0.690610 0.004139
0.464264 0.690214 0.004542
0.498318 0.689818 0.004945
0.532372 0.689422 0.005348
0.566425 0.689025 0.005750
0.600479 0.688629 0.006153
0.634533 0.688233 0.006556
0.668587 0.687837 0.006959
0.702641 0.687441 0.007361
0.736695 0.687045 0.007764
0.770748 0.686648 0.008167
0.804802 0.686252 0.008570
0.838856 0.685856 0.008972
0.872910 0.685460 0.009375
0.906964 0.685064 0.009778
0.941017 0.684667 0.010180
0.975071 0.684271 0.010583
1.000000 0.683875 0.010986
1.000000 0.683838 0.011389
0.000000 0.730105 0.000000
0.000000 0.730068 0.000000
0.019866 0.729672 0.000097
0.054076 0.729276 0.000500
0.088287 0.728879 0.000902
0.122498 0.728483 0.001305
0.156709 0.728087 0.001708
0.190920 0.727691 0.002111
0.225095 0.727295 0.002513
0.259149 0.726899 0.002916
0.293202 0.726502 0.003319
0.327256 0.726106 0.003722
0.361310 0.725710 0.004124
0.395364 0.725314 0.004527
0.429418 0.724918 0.004930
0.463471 0.724521 0.005333
0.497525 0.724125 0.005735
0.531579 0.723729 0.006138
0.565633 0.723333 0.006541
0.599687 0.722937 0.006944
0.633741 0.722541 0.007346
0.667794 0.722144 0.007749
0.701848 0.721748 0.008152
0.735902 0.721352 0.008555
0.769956 0.720956 0.008957
0.804010 0.720560 0.009360
0.838064 0.720164 0.009763
0.872117 0.719767 0.010166
0.906171 0.719371 0.010568
0.940225 0.718975 0.010971
0.974279 0.718579 0.011374
1.000000 0.718183 0.011777
1.000000 0.718145 0.012179
0.000000 0.764413 0.000082
0.000000 0.764375 0.000485
0.019381 0.763979 0.000888
0.053592 0.763583 0.001290
0.087803 0.763187 0.001693
0.122014 0.762791 0.002096
0.156195 0.762395 0.002499
0.190248 0.761998 0.002901
0.224302 0.761602 0.003304
0.258356 0.761206 0.003707
0.292410 0.760810 0.004110
0.326464 0.760414 0.004512
0.360518 0.760018 0.004915
0.394571 0.759621 0.005318
0.428625 0.759225 0.005721
0.462679 0.758829 0.006123
0.496733 0.758433 0.006526
0.530787 0.758037 0.006929
0.564841 0.757641 0.007332
0.598894 0.757244 0.007734
0.632948 0.756848 0.008137
0.667002 0.756452 0.008540
0.701056 0.756056 0.008943
0.735110 0.755660 0.009345
0.769163 0.755263 0.009748
0.803217 0.754867 0.010151
0.837271 0.754471 0.010554
0.871325 0.754075 0.010956
0.905379 0.753679 0.011359
0.939433 0.753283 0.011762
0.973486 0.752886 0.012165
1.000000 0.752490 0.012567
1.000000 0.752453 0.012970
0.000000 0.798720 0.000873
0.000000 0.798683 0.001276
0.018897 0.798287 0.001678
0.053108 0.797891 0.002081
0.087294 0.797494 0.002484
0.121348 0.797098 0.002887
0.155402 0.796702 0.003289
0.189456 0.796306 0.003692
0.223510 0.795910 0.004095
0.257564 0.795514 0.004498
0.291617 0.795117 0.004900
0.325671 0.794721 0.005303
0.359725 0.794325 0.005706
0.393779 0.793929 0.006109
0.427833 0.793533 0.006511
0.461887 0.793137 0.006914
0.495940 0.792740 0.007317
0.529994 0.792344 0.007720
0.564048 0.791948 0.008122
0.598102 0.791552 0.008525
0.632156 0.791156 0.008928
0.666210 0.790760 0.009331
0.700263 0.790363 0.009733
0.734317 0.789967 0.010136
0.768371 0.789571 0.010539
0.802425 0.789175 0.010942
0.836479 0.788779 0.011344
0.870532 0.788382 0.011747
0.904586 0.787986 0.012150
0.938640 0.787590 0.012553
0.972694 0.787194 0.012955
1.000000 0.786798 0.013358
1.000000 0.786760 0.013761
0.000000 0.833028 0.001664
0.000000 0.832991 0.002066
0.018394 0.832594 0.002469
0.052448 0.832198 0.002872
0.086502 0.831802 0.003275
0.120556 0.831406 0.003677
0.154610 0.831010 0.004080
0.188664 0.830614 0.004483
0.222717 0.830217 0.004886
0.256771 0.829821 0.005288
0.290825 0.829425 0.005691
0.324879 0.829029 0.006094
0.358933 0.828633 0.006496
0.392986 0.828236 0.006899
0.427040 0.827840 0.007302
0.461094 0.827444 0.007705
0.495148 0.827048 0.008107
0.529202 0.826652 0.008510
0.563256 0.826256 0.008913
0.597309 0.825859 0.009316
0.631363 0.825463 0.009718
0.665417 0.825067 0.010121
0.699471 0.824671 0.010524
0.733525 0.824275 0.010927
0.767579 0.823879 0.011329
0.801632 0.823482 0.011732
0.835686 0.823086 0.012135
0.869740 0.822690 0.012538
0.903794 0.822294 0.012940
0.937848 0.821898 0.013343
0.971901 0.821501 0.013746
1.000000 0.821105 0.014149
1.000000 0.821068 0.014551
0.000000 0.867336 0.002454
0.000000 0.867298 0.002857
0.017602 0.866902 0.003260
0.051656 0.866506 0.003662
0.085710 0.866110 0.004065
0.119763 0.865713 0.004468
0.153817 0.865317 0.004871
0.187871 0.864921 0.005273
0.221925 0.864525 0.005676
0.255979 0.864129 0.006079
0.290033 0.863733 0.006482
0.324086 0.863336 0.006884
0.358140 0.862940 0.007287
0.392194 0.862544 0.007690
0.426248 0.862148 0.008093
0.460302 0.861752 0.008495
0.494356 0.861356 0.008898
0.528409 0.860959 0.009301
0.562463 0.860563 0.009704
0.596517 0.860167 0.010106
0.630571 0.859771 0.010509
0.664625 0.859375 0.010912
0.698678 0.858978 0.011315
0.732732 0.858582 0.011717
0.766786 0.858186 0.012120
0.800840 0.857790 0.012523
0.834894 0.857394 0.012926
