docs/luts/fresh-cinematic-forest.cube
TITLE "FreshLUTs??-????"
LUT_3D_SIZE 9
DOMAIN_MIN 0.0 0.0 0.0
DOMAIN_MAX 1.0 1.0 1.0
0.000000 0.074250 0.000000
0.065912 0.070546 0.000000
0.201533 0.067022 0.000000
0.336784 0.063497 0.000000
0.471667 0.059973 0.000000
0.606179 0.056448 0.000000
0.740322 0.052924 0.000000
0.874095 0.049399 0.000000
0.977919 0.045695 0.000000
0.000000 0.145114 0.000000
0.076276 0.141411 0.000000
0.211172 0.137886 0.000000
0.345698 0.134362 0.000000
0.479854 0.130837 0.000000
0.613641 0.127313 0.000000
0.747058 0.123788 0.000000
0.880106 0.120264 0.000000
0.983204 0.116560 0.000000
0.000000 0.275483 0.000000
0.085920 0.271779 0.000000
0.220090 0.268255 0.000000
0.353891 0.264730 0.000000
0.487321 0.261206 0.000000
0.620383 0.257681 0.000000
0.753074 0.254157 0.000000
0.885396 0.250633 0.000000
0.987769 0.246929 0.000000
0.000000 0.405852 0.000000
0.094140 0.402148 0.000000
0.227584 0.398624 0.000000
0.360659 0.395099 0.000000
0.493364 0.391575 0.000000
0.625700 0.388050 0.000000
0.757666 0.384526 0.000000
0.889143 0.381643 0.000843
0.990206 0.382256 0.001456
0.000000 0.536221 0.000000
0.100935 0.532517 0.000000
0.233654 0.528992 0.000000
0.366003 0.525468 0.000000
0.497982 0.521944 0.000000
0.629502 0.518902 0.000902
0.760145 0.519695 0.001695
0.890787 0.520487 0.002487
0.991850 0.521100 0.003100
0.003522 0.666590 0.000000
0.106306 0.662886 0.000000
0.238299 0.659361 0.000000
0.369861 0.656161 0.000961
0.500504 0.656954 0.001754
0.631146 0.657746 0.002546
0.761788 0.658538 0.003338
0.892431 0.659331 0.004131
0.993494 0.659944 0.004744
0.008194 0.796958 0.000000
0.110220 0.793420 0.001020
0.240862 0.794212 0.001813
0.371505 0.795005 0.002605
0.502147 0.795797 0.003397
0.632790 0.796590 0.004190
0.763432 0.797382 0.004982
0.894074 0.798174 0.005774
0.995137 0.798787 0.006387
0.010801 0.931651 0.002051
0.111864 0.932264 0.002664
0.242506 0.933056 0.003456
0.373148 0.933848 0.004248
0.503791 0.934641 0.005041
0.634433 0.935433 0.005833
0.765076 0.936226 0.006625
0.895718 0.937018 0.007418
0.996781 0.937631 0.008031
0.011740 1.000000 0.002990
0.112803 1.000000 0.003603
0.243445 1.000000 0.004395
0.374088 1.000000 0.005188
0.504730 1.000000 0.005980
0.635372 1.000000 0.006772
0.766015 1.000000 0.007565
0.896657 1.000000 0.008357
0.997720 1.000000 0.008970
0.000000 0.072889 0.089783
0.068138 0.069185 0.092358
0.203619 0.065661 0.095113
0.338730 0.062136 0.097867
0.473471 0.058612 0.100622
0.607842 0.055087 0.103376
0.741844 0.051563 0.106131
0.875476 0.048038 0.108885
0.979160 0.044335 0.111461
0.000000 0.143754 0.094575
0.078226 0.140050 0.097150
0.212981 0.136525 0.099904
0.347366 0.133001 0.102659
0.481382 0.129476 0.105413
0.615027 0.125952 0.108168
0.748304 0.122427 0.110922
0.881210 0.118903 0.113677
0.984168 0.115199 0.116252
0.000000 0.274122 0.100070
0.087594 0.270418 0.102645
0.221623 0.266894 0.105400
0.355282 0.263370 0.108155
0.488572 0.259845 0.110909
0.621492 0.256321 0.113664
0.754043 0.252796 0.116418
0.886224 0.249272 0.119173
0.988456 0.245568 0.121748
0.000000 0.404491 0.105566
0.095537 0.400787 0.108141
0.228840 0.397263 0.110896
0.361774 0.393738 0.113650
0.494338 0.390214 0.116405
0.626533 0.386689 0.119159
0.758358 0.383165 0.121914
0.889428 0.381928 0.123628
0.990491 0.382541 0.124241
0.000000 0.534860 0.111062
0.102055 0.531156 0.113637
0.234633 0.527632 0.116392
0.366841 0.524107 0.119146
0.498680 0.520583 0.121901
0.629787 0.519187 0.123687
0.760430 0.519980 0.124480
0.891072 0.520772 0.125272
0.992135 0.521385 0.125885
0.004507 0.665229 0.116558
0.107149 0.661525 0.119133
0.239001 0.658000 0.121887
0.370146 0.656446 0.123746
0.500789 0.657239 0.124539
0.631431 0.658031 0.125331
0.762073 0.658823 0.126123
0.892716 0.659616 0.126916
0.993779 0.660229 0.127529
0.008902 0.795597 0.122053
0.110505 0.793705 0.123805
0.241148 0.794498 0.124598
0.371790 0.795290 0.125390
0.502432 0.796082 0.126182
0.633075 0.796875 0.126975
0.763717 0.797667 0.127767
0.894359 0.798459 0.128559
0.995422 0.799072 0.129172
0.011086 0.931936 0.124836
0.112149 0.932549 0.125449
0.242791 0.933341 0.126241
0.373433 0.934133 0.127033
0.504076 0.934926 0.127826
0.634718 0.935718 0.128618
0.765360 0.936511 0.129411
0.896003 0.937303 0.130203
0.997066 0.937916 0.130816
0.012025 1.000000 0.125775
0.113088 1.000000 0.126388
0.243730 1.000000 0.127180
0.374373 1.000000 0.127973
0.505015 1.000000 0.128765
0.635657 1.000000 0.129557
0.766300 1.000000 0.130350
0.896942 1.000000 0.131142
0.998005 1.000000 0.131755
0.000000 0.071528 0.213316
0.070312 0.067824 0.215891
0.205651 0.064300 0.218646
0.340621 0.060775 0.221400
0.475221 0.057251 0.224155
0.609452 0.053727 0.226910
0.743313 0.050202 0.229664
0.876804 0.046678 0.232419
0.980346 0.042974 0.234994
0.000000 0.142393 0.218108
0.080123 0.138689 0.220683
0.214737 0.135164 0.223437
0.348981 0.131640 0.226192
0.482855 0.128115 0.228946
0.616360 0.124591 0.231701
0.749496 0.121066 0.234455
0.882261 0.117542 0.237210
0.985078 0.113838 0.239785
0.000000 0.272761 0.223603
0.089214 0.269058 0.226179
0.223102 0.265533 0.228933
0.356620 0.262009 0.231688
0.489769 0.258484 0.234442
0.622549 0.254960 0.237197
0.754958 0.251435 0.239951
0.886998 0.247911 0.242706
0.989090 0.244207 0.245281
0.000000 0.403130 0.229099
0.096880 0.399426 0.231674
0.230043 0.395902 0.234429
0.362835 0.392377 0.237183
0.495259 0.388853 0.239938
0.627312 0.385328 0.242692
0.758997 0.381804 0.245447
0.889713 0.382213 0.246413
0.990776 0.382826 0.247026
0.000000 0.533499 0.234595
0.103122 0.529795 0.237170
0.235559 0.526271 0.239925
0.367626 0.522746 0.242679
0.499324 0.519222 0.245434
0.630072 0.519472 0.246472
0.760715 0.520265 0.247265
0.891357 0.521057 0.248057
0.992420 0.521670 0.248670
0.005438 0.663868 0.240091
0.107939 0.660164 0.242666
0.239650 0.656639 0.245420
0.370431 0.656731 0.246531
0.501074 0.657524 0.247324
0.631716 0.658316 0.248116
0.762358 0.659108 0.248908
0.893001 0.659901 0.249701
0.994064 0.660514 0.250314
0.009556 0.794237 0.245587
0.110790 0.793990 0.246590
0.241432 0.794782 0.247382
0.372075 0.795575 0.248175
0.502717 0.796367 0.248967
0.633360 0.797160 0.249760
0.764002 0.797952 0.250552
0.894644 0.798744 0.251344
0.995707 0.799357 0.251957
0.011371 0.932221 0.247621
0.112434 0.932834 0.248234
0.243076 0.933626 0.249026
0.373718 0.934418 0.249818
0.504361 0.935211 0.250611
0.635003 0.936003 0.251403
0.765645 0.936796 0.252196
0.896288 0.937588 0.252988
0.997351 0.938201 0.253601
0.012310 1.000000 0.248560
0.113373 1.000000 0.249173
0.244015 1.000000 0.249965
0.374658 1.000000 0.250758
0.505300 1.000000 0.251550
0.635942 1.000000 0.252342
0.766585 1.000000 0.253135
0.897227 1.000000 0.253927
0.998290 1.000000 0.254540
0.000000 0.070167 0.336849
0.072431 0.066464 0.339425
0.207630 0.062939 0.342179
0.342459 0.059415 0.344934
0.476918 0.055890 0.347688
0.611007 0.052366 0.350443
0.744728 0.048841 0.353197
0.878078 0.045317 0.355952
0.981479 0.041613 0.358527
0.000000 0.141032 0.341641
0.081966 0.137328 0.344216
0.216438 0.133803 0.346970
0.350542 0.130279 0.349725
0.484275 0.126755 0.352480
0.617639 0.123230 0.355234
0.750634 0.119706 0.357989
0.883259 0.116181 0.360743
0.985934 0.112477 0.363318
0.000000 0.271401 0.347137
0.090780 0.267697 0.349712
0.224527 0.264172 0.352466
0.357905 0.260648 0.355221
0.490913 0.257123 0.357975
0.623551 0.253599 0.360730
0.755820 0.250074 0.363484
0.887719 0.246550 0.366239
0.989418 0.244268 0.368168
0.000000 0.401769 0.352632
0.098170 0.398065 0.355207
0.231191 0.394541 0.357962
0.363843 0.391017 0.360717
0.496125 0.387492 0.363471
0.628038 0.383968 0.366226
0.759356 0.381706 0.368406
0.889998 0.382498 0.369198
0.991061 0.383111 0.369811
0.001048 0.532138 0.358128
0.104135 0.528434 0.360703
0.236431 0.524910 0.363458
0.368357 0.521385 0.366212
0.499715 0.518965 0.368465
0.630357 0.519757 0.369257
0.761000 0.520550 0.370050
0.891642 0.521342 0.370842
0.992705 0.521955 0.371455
0.006315 0.662507 0.363624
0.108675 0.658803 0.366199
0.240074 0.656224 0.368524
0.370716 0.657016 0.369316
0.501359 0.657809 0.370109
0.632001 0.658601 0.370901
0.762643 0.659393 0.371693
0.893286 0.660186 0.372486
0.994349 0.660799 0.373099
0.010012 0.793662 0.368762
0.111075 0.794275 0.369375
0.241717 0.795068 0.370168
0.372360 0.795860 0.370960
0.503002 0.796652 0.371752
0.633645 0.797445 0.372545
0.764287 0.798237 0.373337
0.894929 0.799029 0.374129
0.995992 0.799642 0.374742
0.011656 0.932506 0.370406
0.112719 0.933119 0.371019
0.243361 0.933911 0.371811
0.374003 0.934703 0.372603
0.504646 0.935496 0.373396
0.635288 0.936288 0.374188
0.765931 0.937080 0.374981
0.896573 0.937873 0.375773
0.997636 0.938486 0.376386
0.012595 1.000000 0.371345
0.113658 1.000000 0.371958
0.244300 1.000000 0.372750
0.374943 1.000000 0.373543
0.505585 1.000000 0.374335
0.636227 1.000000 0.375127
0.766870 1.000000 0.375920
0.897512 1.000000 0.376712
0.998575 1.000000 0.377325
0.000000 0.068807 0.460382
0.074497 0.065103 0.462958
0.209554 0.061578 0.465712
0.344242 0.058054 0.468467
0.478561 0.054529 0.471221
0.612509 0.051005 0.473976
0.746089 0.047480 0.476730
0.879298 0.043956 0.479485
0.982559 0.040252 0.482060
0.000000 0.139671 0.465174
0.083755 0.135967 0.467749
0.218087 0.132443 0.470504
0.352049 0.128918 0.473258
0.485642 0.125394 0.476013
0.618865 0.121869 0.478767
0.751718 0.118345 0.481522
0.884202 0.114820 0.484276
0.986737 0.111116 0.486851
0.000000 0.270040 0.470670
0.092292 0.266336 0.473245
0.225899 0.262811 0.475999
0.359135 0.259287 0.478754
0.492002 0.255762 0.481508
0.624500 0.252238 0.484263
0.756628 0.248713 0.487017
0.888386 0.245189 0.489772
0.989703 0.244553 0.490953
0.000000 0.400408 0.476165
0.099405 0.396705 0.478741
0.232286 0.393180 0.481495
0.364797 0.389656 0.484250
0.496938 0.386131 0.487004
0.628710 0.382607 0.489759
0.759641 0.381991 0.491191
0.890283 0.382783 0.491983
0.991346 0.383396 0.492596
0.002148 0.530777 0.481661
0.105094 0.527073 0.484236
0.237249 0.523549 0.486991
0.369034 0.520024 0.489745
0.500000 0.519250 0.491250
0.630642 0.520042 0.492042
0.761285 0.520835 0.492835
0.891927 0.521627 0.493627
0.992990 0.522240 0.494240
0.007138 0.661146 0.487157
0.109358 0.657442 0.489732
0.240359 0.656509 0.491309
0.371001 0.657301 0.492101
0.501644 0.658094 0.492894
0.632286 0.658886 0.493686
0.762928 0.659678 0.494478
0.893571 0.660471 0.495271
0.994634 0.661084 0.495884
0.010297 0.793947 0.491547
0.111360 0.794560 0.492160
0.242003 0.795353 0.492952
0.372645 0.796145 0.493745
0.503287 0.796937 0.494537
0.633930 0.797730 0.495330
0.764572 0.798522 0.496122
0.895214 0.799314 0.496914
0.996277 0.799927 0.497527
0.011941 0.932791 0.493191
0.113004 0.933404 0.493804
0.243646 0.934196 0.494596
0.374288 0.934988 0.495388
0.504931 0.935781 0.496181
0.635573 0.936573 0.496973
0.766216 0.937366 0.497766
0.896858 0.938158 0.498558
0.997921 0.938771 0.499171
0.012880 1.000000 0.494130
0.113943 1.000000 0.494743
0.244585 1.000000 0.495535
0.375228 1.000000 0.496328
0.505870 1.000000 0.497120
0.636512 1.000000 0.497912
0.767155 1.000000 0.498705
0.897797 1.000000 0.499497
0.998860 1.000000 0.500110
0.000000 0.067446 0.583916
0.076509 0.063742 0.586491
0.211425 0.060217 0.589245
0.345973 0.056693 0.592000
0.480150 0.053168 0.594754
0.613958 0.049644 0.597509
0.747396 0.046119 0.600263
0.880465 0.042595 0.603018
0.983584 0.038891 0.605593
0.000000 0.138310 0.588707
0.085490 0.134606 0.591282
0.219681 0.131082 0.594037
0.353502 0.127557 0.596791
0.486954 0.124033 0.599546
0.620036 0.120508 0.602300
0.752749 0.116984 0.605055
0.885092 0.113459 0.607809
0.987486 0.109756 0.610385
0.000000 0.268679 0.594203
0.093751 0.264975 0.596778
0.227216 0.261450 0.599532
0.360312 0.257926 0.602287
0.493038 0.254402 0.605042
0.625395 0.250877 0.607796
0.757382 0.247353 0.610551
0.888925 0.244225 0.613125
0.989988 0.244838 0.613738
0.000000 0.399048 0.599699
0.100587 0.395344 0.602274
0.233327 0.391819 0.605028
0.365697 0.388295 0.607783
0.497698 0.384770 0.610537
0.629284 0.381484 0.613184
0.759926 0.382276 0.613976
0.890568 0.383068 0.614768
0.991631 0.383681 0.615381
0.003195 0.529416 0.605194
0.105999 0.525713 0.607770
0.238013 0.522188 0.610524
0.369643 0.518743 0.613243
0.500285 0.519535 0.614035
0.630927 0.520327 0.614827
0.761570 0.521120 0.615620
0.892212 0.521912 0.616412
0.993275 0.522525 0.617025
0.007908 0.659785 0.610690
0.109986 0.656081 0.613265
0.240644 0.656794 0.614094
0.371286 0.657586 0.614886
0.501929 0.658379 0.615679
0.632571 0.659171 0.616471
0.763213 0.659963 0.617263
0.893856 0.660756 0.618056
0.994919 0.661369 0.618669
0.010582 0.794232 0.614332
0.111645 0.794845 0.614945
0.242287 0.795637 0.615737
0.372930 0.796430 0.616530
0.503572 0.797222 0.617322
0.634215 0.798015 0.618115
0.764857 0.798807 0.618907
0.895499 0.799599 0.619699
0.996562 0.800212 0.620312
0.012226 0.933076 0.615976
0.113289 0.933689 0.616589
0.243931 0.934481 0.617381
0.374573 0.935273 0.618173
0.505216 0.936066 0.618966
0.635858 0.936858 0.619758
0.766501 0.937651 0.620551
0.897143 0.938443 0.621343
0.998206 0.939056 0.621956
0.013165 1.000000 0.616915
0.114228 1.000000 0.617528
0.244870 1.000000 0.618320
0.375513 1.000000 0.619113
0.506155 1.000000 0.619905
0.636797 1.000000 0.620697
0.767440 1.000000 0.621490
0.898082 1.000000 0.622282
0.999145 1.000000 0.622895
0.000000 0.066085 0.707449
0.078467 0.062381 0.710024
0.213243 0.058856 0.712778
0.347649 0.055332 0.715533
0.481685 0.051808 0.718287
0.615352 0.048283 0.721042
0.748650 0.044759 0.723797
0.881577 0.041234 0.726551
0.984556 0.037530 0.729126
0.000000 0.136949 0.712240
0.087172 0.133245 0.714815
0.221222 0.129721 0.717570
0.354902 0.126196 0.720324
0.488213 0.122672 0.723079
0.621154 0.119147 0.725833
0.753726 0.115623 0.728588
0.885928 0.112098 0.731342
0.988181 0.108395 0.733918
0.000000 0.267318 0.717736
0.095156 0.263614 0.720311
0.228480 0.260090 0.723066
0.361435 0.256565 0.725820
0.494020 0.253041 0.728575
0.626236 0.249516 0.731329
0.758082 0.245992 0.734084
0.889210 0.244510 0.735910
0.990273 0.245123 0.736523
0.000000 0.397687 0.723232
0.101716 0.393983 0.725807
0.234314 0.390458 0.728561
0.366544 0.386934 0.731316
0.498403 0.383409 0.734070
0.629569 0.381769 0.735969
0.760211 0.382561 0.736761
0.890853 0.383353 0.737553
0.991916 0.383966 0.738166
0.004187 0.528056 0.728727
0.106851 0.524352 0.731303
0.238724 0.520827 0.734057
0.369928 0.519028 0.736028
0.500570 0.519820 0.736820
0.631212 0.520612 0.737612
0.761855 0.521405 0.738405
0.892497 0.522197 0.739197
0.993560 0.522810 0.739810
0.008623 0.658424 0.734223
0.110287 0.656287 0.736087
0.240929 0.657079 0.736879
0.371571 0.657871 0.737671
0.502214 0.658664 0.738464
0.632856 0.659456 0.739256
0.763498 0.660248 0.740048
0.894141 0.661041 0.740841
0.995204 0.661654 0.741454
0.010867 0.794517 0.737117
0.111930 0.795130 0.737730
0.242572 0.795922 0.738522
0.373215 0.796715 0.739315
0.503857 0.797507 0.740107
0.634500 0.798300 0.740900
0.765142 0.799092 0.741692
0.895784 0.799884 0.742484
0.996847 0.800497 0.743097
0.012511 0.933361 0.738761
0.113574 0.933974 0.739374
0.244216 0.934766 0.740166
0.374858 0.935558 0.740958
0.505501 0.936351 0.741751
0.636143 0.937143 0.742543
0.766786 0.937936 0.743335
0.897428 0.938728 0.744128
0.998491 0.939341 0.744741
0.013450 1.000000 0.739700
0.114513 1.000000 0.740313
0.245155 1.000000 0.741105
0.375798 1.000000 0.741898
0.506440 1.000000 0.742690
0.637082 1.000000 0.743482
0.767725 1.000000 0.744275
0.898367 1.000000 0.745067
0.999430 1.000000 0.745680
0.000000 0.064724 0.830982
0.080372 0.061020 0.833557
0.215006 0.057496 0.836312
0.349272 0.053971 0.839066
0.483167 0.050447 0.841821
0.616693 0.046922 0.844575
0.749850 0.043398 0.847330
0.882636 0.039873 0.850084
0.985474 0.036169 0.852659
0.000000 0.135588 0.835773
0.088799 0.131884 0.838348
0.222709 0.128360 0.841103
0.356248 0.124835 0.843857
0.489418 0.121311 0.846612
0.622218 0.117787 0.849367
0.754649 0.114262 0.852121
0.886710 0.110738 0.854876
0.988822 0.107034 0.857451
0.000000 0.265957 0.841269
0.096507 0.262253 0.843844
0.229691 0.258729 0.846599
0.362505 0.255204 0.849353
0.494949 0.251680 0.852108
0.627024 0.248155 0.854862
0.758729 0.244631 0.857617
0.889495 0.244795 0.858695
0.990558 0.245408 0.859308
0.000000 0.396326 0.846765
0.102790 0.392622 0.849340
0.235248 0.389098 0.852095
0.367336 0.385573 0.854849
0.499055 0.382049 0.857604
0.629854 0.382054 0.858754
0.760496 0.382846 0.859546
0.891138 0.383638 0.860338
0.992201 0.384251 0.860951
0.005126 0.526695 0.852261
0.107649 0.522991 0.854836
0.239381 0.519466 0.857590
0.370213 0.519313 0.858813
0.500855 0.520105 0.859605
0.631497 0.520897 0.860397
0.762140 0.521690 0.861190
0.892782 0.522482 0.861982
0.993845 0.523095 0.862595
0.009286 0.657063 0.857756
0.110572 0.656572 0.858872
0.241214 0.657364 0.859664
0.371856 0.658156 0.860456
0.502499 0.658949 0.861249
0.633141 0.659741 0.862041
0.763783 0.660533 0.862833
0.894426 0.661326 0.863626
0.995489 0.661939 0.864239
0.011152 0.794802 0.859902
0.112215 0.795415 0.860515
0.242858 0.796207 0.861307
0.373500 0.797000 0.862100
0.504142 0.797792 0.862892
0.634785 0.798585 0.863685
0.765427 0.799377 0.864477
0.896069 0.800169 0.865269
0.997132 0.800782 0.865882
0.012796 0.933646 0.861546
0.113859 0.934259 0.862159
0.244501 0.935051 0.862951
0.375143 0.935843 0.863743
0.505786 0.936636 0.864536
0.636428 0.937428 0.865328
0.767070 0.938221 0.866120
0.897713 0.939013 0.866913
0.998776 0.939626 0.867526
0.013735 1.000000 0.862485
0.114798 1.000000 0.863098
0.245440 1.000000 0.863890
0.376083 1.000000 0.864683
0.506725 1.000000 0.865475
0.637367 1.000000 0.866267
0.768010 1.000000 0.867060
0.898652 1.000000 0.867852
0.999715 1.000000 0.868465
0.000000 0.063363 0.954515
0.082222 0.059659 0.957090
0.216716 0.056135 0.959845
0.350841 0.052610 0.962599
0.484595 0.049086 0.965354
0.617980 0.045561 0.968108
0.750996 0.042037 0.970863
0.883642 0.038512 0.973617
0.986338 0.034808 0.976192
0.000000 0.134227 0.959306
0.090374 0.130524 0.961882
0.224142 0.126999 0.964636
0.357540 0.123475 0.967391
0.490570 0.119950 0.970145
0.623229 0.116426 0.972900
0.755519 0.112901 0.975654
0.887439 0.109377 0.978409
0.989199 0.106849 0.980449
0.000000 0.264596 0.964802
0.097805 0.260892 0.967377
0.230847 0.257368 0.970132
0.363520 0.253843 0.972886
0.495824 0.250319 0.975641
0.627757 0.246794 0.978395
0.759138 0.244287 0.980687
0.889780 0.245080 0.981480
0.990843 0.245693 0.982093
0.000704 0.394965 0.970298
0.103811 0.391261 0.972873
0.236128 0.387737 0.975628
0.368075 0.384212 0.978382
0.499496 0.381546 0.980746
0.630139 0.382339 0.981539
0.760781 0.383131 0.982331
0.891423 0.383923 0.983123
0.992486 0.384536 0.983736
0.006011 0.525334 0.975794
0.108393 0.521630 0.978369
0.239855 0.518805 0.980805
0.370498 0.519598 0.981598
0.501140 0.520390 0.982390
0.631782 0.521182 0.983182
0.762425 0.521975 0.983975
0.893067 0.522767 0.984767
0.994130 0.523380 0.985380
0.009794 0.656244 0.981044
0.110857 0.656857 0.981657
0.241499 0.657649 0.982449
0.372141 0.658441 0.983241
0.502784 0.659234 0.984034
0.633426 0.660026 0.984826
0.764068 0.660818 0.985618
0.894711 0.661611 0.986411
0.995774 0.662224 0.987024
0.011437 0.795087 0.982687
0.112500 0.795700 0.983300
0.243142 0.796493 0.984093
0.373785 0.797285 0.984885
0.504427 0.798077 0.985677
0.635070 0.798870 0.986470
0.765712 0.799662 0.987262
0.896354 0.800454 0.988054
0.997417 0.801067 0.988667
0.013081 0.933931 0.984331
0.114144 0.934544 0.984944
0.244786 0.935336 0.985736
0.375428 0.936128 0.986528
0.506071 0.936921 0.987321
0.636713 0.937713 0.988113
0.767355 0.938505 0.988905
0.897998 0.939298 0.989698
0.999061 0.939911 0.990311
0.014020 1.000000 0.985270
0.115083 1.000000 0.985883
0.245725 1.000000 0.986675
0.376368 1.000000 0.987468
0.507010 1.000000 0.988260
0.637652 1.000000 0.989052
0.768295 1.000000 0.989845
0.898937 1.000000 0.990637
1.000000 1.000000 0.991250
