docs/luts/fresh-sony-cinematic-light.cube
TITLE "FreshLUTs??-Sony???"
LUT_3D_SIZE 33
DOMAIN_MIN 0.0 0.0 0.0
DOMAIN_MAX 1.0 1.0 1.0
0.000000 0.006000 0.020000
0.016706 0.006206 0.019813
0.047991 0.006591 0.019806
0.079275 0.006975 0.019798
0.110560 0.007360 0.019791
0.141845 0.007745 0.019783
0.173130 0.008130 0.019776
0.204415 0.008515 0.019768
0.235700 0.008900 0.019761
0.266985 0.009285 0.019753
0.298270 0.009670 0.019746
0.329555 0.010055 0.019738
0.360840 0.010440 0.019731
0.392125 0.010825 0.019723
0.423410 0.011210 0.019716
0.454695 0.011595 0.019708
0.485980 0.011980 0.019701
0.517265 0.012365 0.019694
0.548550 0.012750 0.019686
0.579835 0.013135 0.019679
0.611120 0.013520 0.019671
0.642405 0.013905 0.019664
0.673690 0.014290 0.019656
0.704975 0.014675 0.019649
0.736260 0.015060 0.019641
0.767545 0.015445 0.019634
0.798830 0.015830 0.019626
0.830115 0.016215 0.019619
0.861400 0.016600 0.019611
0.892685 0.016985 0.019604
0.923969 0.017369 0.019596
0.955254 0.017754 0.019589
0.971960 0.017960 0.019402
0.000514 0.027514 0.019743
0.017219 0.027719 0.019556
0.048504 0.028104 0.019549
0.079789 0.028489 0.019541
0.111074 0.028874 0.019534
0.142359 0.029259 0.019526
0.173644 0.029644 0.019519
0.204929 0.030029 0.019511
0.236214 0.030414 0.019504
0.267499 0.030799 0.019497
0.298784 0.031184 0.019489
0.330069 0.031569 0.019482
0.361354 0.031954 0.019474
0.392639 0.032339 0.019467
0.423924 0.032724 0.019459
0.455209 0.033109 0.019452
0.486494 0.033494 0.019444
0.517779 0.033879 0.019437
0.549064 0.034264 0.019429
0.580349 0.034649 0.019422
0.611633 0.035033 0.019414
0.642918 0.035418 0.019407
0.674203 0.035803 0.019399
0.705488 0.036188 0.019392
0.736773 0.036573 0.019384
0.768058 0.036958 0.019377
0.799343 0.037343 0.019369
0.830628 0.037728 0.019362
0.861913 0.038113 0.019354
0.893198 0.038498 0.019347
0.924483 0.038883 0.019340
0.955768 0.039268 0.019332
0.972474 0.039474 0.019145
0.001262 0.058862 0.019721
0.017968 0.059068 0.019534
0.049253 0.059453 0.019527
0.080538 0.059838 0.019519
0.111823 0.060222 0.019512
0.143107 0.060607 0.019504
0.174392 0.060992 0.019497
0.205677 0.061377 0.019489
0.236962 0.061762 0.019482
0.268247 0.062147 0.019474
0.299532 0.062532 0.019467
0.330817 0.062917 0.019460
0.362102 0.063302 0.019452
0.393387 0.063687 0.019445
0.424672 0.064072 0.019437
0.455957 0.064457 0.019430
0.487242 0.064842 0.019422
0.518527 0.065227 0.019415
0.549812 0.065612 0.019407
0.581097 0.065997 0.019400
0.612382 0.066382 0.019392
0.643667 0.066767 0.019385
0.674952 0.067152 0.019377
0.706237 0.067537 0.019370
0.737522 0.067922 0.019362
0.768807 0.068307 0.019355
0.800092 0.068692 0.019347
0.831377 0.069077 0.019340
0.862662 0.069462 0.019332
0.893947 0.069847 0.019325
0.925232 0.070232 0.019318
0.956516 0.070616 0.019310
0.973222 0.070822 0.019123
0.002010 0.090210 0.019699
0.018716 0.090416 0.019512
0.050001 0.090801 0.019505
0.081286 0.091186 0.019497
0.112571 0.091571 0.019490
0.143856 0.091956 0.019482
0.175141 0.092341 0.019475
0.206426 0.092726 0.019467
0.237711 0.093111 0.019460
0.268996 0.093496 0.019452
0.300281 0.093881 0.019445
0.331566 0.094266 0.019438
0.362851 0.094651 0.019430
0.394136 0.095036 0.019423
0.425421 0.095421 0.019415
0.456706 0.095806 0.019408
0.487990 0.096190 0.019400
0.519275 0.096575 0.019393
0.550560 0.096960 0.019385
0.581845 0.097345 0.019378
0.613130 0.097730 0.019370
0.644415 0.098115 0.019363
0.675700 0.098500 0.019355
0.706985 0.098885 0.019348
0.738270 0.099270 0.019340
0.769555 0.099655 0.019333
0.800840 0.100040 0.019325
0.832125 0.100425 0.019318
0.863410 0.100810 0.019310
0.894695 0.101195 0.019303
0.925980 0.101580 0.019296
0.957265 0.101965 0.019288
0.973970 0.102170 0.019101
0.002759 0.121559 0.019677
0.019464 0.121764 0.019490
0.050749 0.122149 0.019483
0.082034 0.122534 0.019475
0.113319 0.122919 0.019468
0.144604 0.123304 0.019460
0.175889 0.123689 0.019453
0.207174 0.124074 0.019445
0.238459 0.124459 0.019438
0.269744 0.124844 0.019430
0.301029 0.125229 0.019423
0.332314 0.125614 0.019416
0.363599 0.125999 0.019408
0.394884 0.126384 0.019401
0.426169 0.126769 0.019393
0.457454 0.127154 0.019386
0.488739 0.127539 0.019378
0.520024 0.127924 0.019371
0.551309 0.128309 0.019363
0.582594 0.128694 0.019356
0.613879 0.129079 0.019348
0.645164 0.129464 0.019341
0.676449 0.129849 0.019333
0.707734 0.130234 0.019326
0.739019 0.130619 0.019318
0.770304 0.131004 0.019311
0.801589 0.131389 0.019303
0.832873 0.131773 0.019296
0.864158 0.132158 0.019288
0.895443 0.132543 0.019281
0.926728 0.132928 0.019274
0.958013 0.133313 0.019266
0.974719 0.133519 0.019079
0.003507 0.152907 0.019655
0.020213 0.153113 0.019468
0.051498 0.153498 0.019461
0.082783 0.153883 0.019453
0.114068 0.154268 0.019446
0.145353 0.154653 0.019438
0.176638 0.155038 0.019431
0.207923 0.155423 0.019423
0.239208 0.155808 0.019416
0.270493 0.156193 0.019408
0.301778 0.156578 0.019401
0.333063 0.156963 0.019394
0.364347 0.157347 0.019386
0.395632 0.157732 0.019379
0.426917 0.158117 0.019371
0.458202 0.158502 0.019364
0.489487 0.158887 0.019356
0.520772 0.159272 0.019349
0.552057 0.159657 0.019341
0.583342 0.160042 0.019334
0.614627 0.160427 0.019326
0.645912 0.160812 0.019319
0.677197 0.161197 0.019311
0.708482 0.161582 0.019304
0.739767 0.161967 0.019296
0.771052 0.162352 0.019289
0.802337 0.162737 0.019281
0.833622 0.163122 0.019274
0.864907 0.163507 0.019266
0.896192 0.163892 0.019259
0.927477 0.164277 0.019251
0.958762 0.164662 0.019244
0.975467 0.164867 0.019057
0.004256 0.184256 0.019633
0.020961 0.184461 0.019446
0.052246 0.184846 0.019439
0.083531 0.185231 0.019431
0.114816 0.185616 0.019424
0.146101 0.186001 0.019416
0.177386 0.186386 0.019409
0.208671 0.186771 0.019401
0.239956 0.187156 0.019394
0.271241 0.187541 0.019386
0.302526 0.187926 0.019379
0.333811 0.188311 0.019372
0.365096 0.188696 0.019364
0.396381 0.189081 0.019357
0.427666 0.189466 0.019349
0.458951 0.189851 0.019342
0.490236 0.190236 0.019334
0.521521 0.190621 0.019327
0.552806 0.191006 0.019319
0.584091 0.191391 0.019312
0.615376 0.191776 0.019304
0.646661 0.192161 0.019297
0.677946 0.192546 0.019289
0.709230 0.192930 0.019282
0.740515 0.193315 0.019274
0.771800 0.193700 0.019267
0.803085 0.194085 0.019259
0.834370 0.194470 0.019252
0.865655 0.194855 0.019244
0.896940 0.195240 0.019237
0.928225 0.195625 0.019229
0.959510 0.196010 0.019222
0.976216 0.196216 0.019035
0.005004 0.215604 0.019611
0.021710 0.215810 0.019424
0.052995 0.216195 0.019417
0.084280 0.216580 0.019409
0.115565 0.216965 0.019402
0.146850 0.217350 0.019394
0.178135 0.217735 0.019387
0.209420 0.218120 0.019379
0.240704 0.218504 0.019372
0.271989 0.218889 0.019364
0.303274 0.219274 0.019357
0.334559 0.219659 0.019349
0.365844 0.220044 0.019342
0.397129 0.220429 0.019335
0.428414 0.220814 0.019327
0.459699 0.221199 0.019320
0.490984 0.221584 0.019312
0.522269 0.221969 0.019305
0.553554 0.222354 0.019297
0.584839 0.222739 0.019290
0.616124 0.223124 0.019282
0.647409 0.223509 0.019275
0.678694 0.223894 0.019267
0.709979 0.224279 0.019260
0.741264 0.224664 0.019252
0.772549 0.225049 0.019245
0.803834 0.225434 0.019237
0.835119 0.225819 0.019230
0.866404 0.226204 0.019222
0.897689 0.226589 0.019215
0.928974 0.226974 0.019207
0.960259 0.227359 0.019200
0.977194 0.227564 0.019013
0.005753 0.246953 0.019589
0.022458 0.247158 0.019402
0.053743 0.247543 0.019395
0.085028 0.247928 0.019387
0.116313 0.248313 0.019380
0.147598 0.248698 0.019372
0.178883 0.249083 0.019365
0.210168 0.249468 0.019357
0.241453 0.249853 0.019350
0.272738 0.250238 0.019342
0.304023 0.250623 0.019335
0.335308 0.251008 0.019327
0.366593 0.251393 0.019320
0.397878 0.251778 0.019313
0.429163 0.252163 0.019305
0.460448 0.252548 0.019298
0.491733 0.252933 0.019290
0.523018 0.253318 0.019283
0.554303 0.253703 0.019275
0.585587 0.254087 0.019268
0.616872 0.254472 0.019260
0.648157 0.254857 0.019253
0.679442 0.255242 0.019245
0.710727 0.255627 0.019238
0.742012 0.256012 0.019230
0.773297 0.256397 0.019223
0.804582 0.256782 0.019215
0.835867 0.257167 0.019208
0.867152 0.257552 0.019200
0.898437 0.257937 0.019193
0.929941 0.258322 0.019185
0.961516 0.258707 0.019178
0.978512 0.258913 0.018991
0.006501 0.278301 0.019567
0.023207 0.278507 0.019380
0.054492 0.278892 0.019373
0.085777 0.279277 0.019365
0.117061 0.279661 0.019358
0.148346 0.280046 0.019350
0.179631 0.280431 0.019343
0.210916 0.280816 0.019335
0.242201 0.281201 0.019328
0.273486 0.281586 0.019320
0.304771 0.281971 0.019313
0.336056 0.282356 0.019305
0.367341 0.282741 0.019298
0.398626 0.283126 0.019291
0.429911 0.283511 0.019283
0.461196 0.283896 0.019276
0.492481 0.284281 0.019268
0.523766 0.284666 0.019261
0.555051 0.285051 0.019253
0.586336 0.285436 0.019246
0.617621 0.285821 0.019238
0.648906 0.286206 0.019231
0.680191 0.286591 0.019223
0.711476 0.286976 0.019216
0.742761 0.287361 0.019208
0.774046 0.287746 0.019201
0.805331 0.288131 0.019193
0.836616 0.288516 0.019186
0.868109 0.288901 0.019178
0.899684 0.289286 0.019171
0.931259 0.289670 0.019163
0.962834 0.290055 0.019156
0.979829 0.290261 0.018969
0.007249 0.309649 0.019545
0.023955 0.309855 0.019358
0.055240 0.310240 0.019351
0.086525 0.310625 0.019343
0.117810 0.311010 0.019336
0.149095 0.311395 0.019328
0.180380 0.311780 0.019321
0.211665 0.312165 0.019313
0.242950 0.312550 0.019306
0.274235 0.312935 0.019298
0.305520 0.313320 0.019291
0.336805 0.313705 0.019283
0.368090 0.314090 0.019276
0.399375 0.314475 0.019268
0.430660 0.314860 0.019261
0.461944 0.315244 0.019254
0.493229 0.315629 0.019246
0.524514 0.316014 0.019239
0.555799 0.316399 0.019231
0.587084 0.316784 0.019224
0.618369 0.317169 0.019216
0.649654 0.317554 0.019209
0.680939 0.317939 0.019201
0.712224 0.318324 0.019194
0.743509 0.318709 0.019186
0.774794 0.319094 0.019179
0.806277 0.319479 0.019171
0.837852 0.319864 0.019164
0.869427 0.320249 0.019156
0.901002 0.320634 0.019149
0.932577 0.321019 0.019141
0.964152 0.321404 0.019134
0.981147 0.321609 0.019209
0.007998 0.340998 0.019523
0.024703 0.341203 0.019336
0.055988 0.341588 0.019329
0.087273 0.341973 0.019321
0.118558 0.342358 0.019314
0.149843 0.342743 0.019306
0.181128 0.343128 0.019299
0.212413 0.343513 0.019291
0.243698 0.343898 0.019284
0.274983 0.344283 0.019276
0.306268 0.344668 0.019269
0.337553 0.345053 0.019261
0.368838 0.345438 0.019254
0.400123 0.345823 0.019246
0.431408 0.346208 0.019239
0.462693 0.346593 0.019232
0.493978 0.346978 0.019224
0.525263 0.347363 0.019217
0.556548 0.347748 0.019209
0.587833 0.348133 0.019202
0.619118 0.348518 0.019194
0.650403 0.348903 0.019187
0.681688 0.349288 0.019179
0.712973 0.349673 0.019172
0.744445 0.350058 0.019164
0.776020 0.350443 0.019157
0.807595 0.350828 0.019149
0.839170 0.351212 0.019142
0.870745 0.351597 0.019134
0.902319 0.351982 0.019127
0.933894 0.352367 0.019367
0.965469 0.352752 0.019752
0.982465 0.352958 0.019958
0.008746 0.372346 0.019501
0.025452 0.372552 0.019314
0.056737 0.372937 0.019307
0.088022 0.373322 0.019299
0.119307 0.373707 0.019292
0.150592 0.374092 0.019284
0.181877 0.374477 0.019277
0.213162 0.374862 0.019269
0.244447 0.375247 0.019262
0.275732 0.375632 0.019254
0.307017 0.376017 0.019247
0.338301 0.376401 0.019239
0.369586 0.376786 0.019232
0.400871 0.377171 0.019224
0.432156 0.377556 0.019217
0.463441 0.377941 0.019210
0.494726 0.378326 0.019202
0.526011 0.378711 0.019195
0.557296 0.379096 0.019187
0.588581 0.379481 0.019180
0.619866 0.379866 0.019172
0.651151 0.380251 0.019165
0.682613 0.380636 0.019157
0.714188 0.381021 0.019150
0.745762 0.381406 0.019142
0.777337 0.381791 0.019135
0.808912 0.382176 0.019127
0.840487 0.382561 0.019120
0.872062 0.382946 0.019346
0.903637 0.383331 0.019731
0.935212 0.383716 0.020116
0.966787 0.384101 0.020501
0.983783 0.384306 0.020706
0.009495 0.403695 0.019479
0.026200 0.403900 0.019292
0.057485 0.404285 0.019285
0.088770 0.404670 0.019277
0.120055 0.405055 0.019270
0.151340 0.405440 0.019262
0.182625 0.405825 0.019255
0.213910 0.406210 0.019247
0.245195 0.406595 0.019240
0.276480 0.406980 0.019232
0.307765 0.407365 0.019225
0.339050 0.407750 0.019217
0.370335 0.408135 0.019210
0.401620 0.408520 0.019202
0.432905 0.408905 0.019195
0.464190 0.409290 0.019188
0.495475 0.409675 0.019180
0.526760 0.410060 0.019173
0.558045 0.410445 0.019165
0.589330 0.410830 0.019158
0.620780 0.411215 0.019150
0.652355 0.411600 0.019143
0.683930 0.411984 0.019135
0.715505 0.412369 0.019128
0.747080 0.412754 0.019120
0.778655 0.413139 0.019113
0.810230 0.413524 0.019324
0.841805 0.413909 0.019709
0.873380 0.414294 0.020094
0.904955 0.414679 0.020479
0.936530 0.415064 0.020864
0.968105 0.415449 0.021249
0.985100 0.415655 0.021455
0.010243 0.435043 0.019457
0.026949 0.435249 0.019270
0.058234 0.435634 0.019263
0.089519 0.436019 0.019255
0.120804 0.436404 0.019248
0.152089 0.436789 0.019240
0.183374 0.437174 0.019233
0.214658 0.437558 0.019225
0.245943 0.437943 0.019218
0.277228 0.438328 0.019210
0.308513 0.438713 0.019203
0.339798 0.439098 0.019195
0.371083 0.439483 0.019188
0.402368 0.439868 0.019180
0.433653 0.440253 0.019173
0.464938 0.440638 0.019165
0.496223 0.441023 0.019158
0.527508 0.441408 0.019151
0.558948 0.441793 0.019143
0.590523 0.442178 0.019136
0.622098 0.442563 0.019128
0.653673 0.442948 0.019121
0.685248 0.443333 0.019113
0.716823 0.443718 0.019106
0.748398 0.444103 0.019303
0.779973 0.444488 0.019688
0.811548 0.444873 0.020073
0.843123 0.445258 0.020458
0.874698 0.445643 0.020843
0.906273 0.446028 0.021228
0.937848 0.446413 0.021613
0.969422 0.446798 0.021998
0.986418 0.447003 0.022203
0.010992 0.466392 0.019435
0.027697 0.466597 0.019248
0.058982 0.466982 0.019241
0.090267 0.467367 0.019233
0.121552 0.467752 0.019226
0.152837 0.468137 0.019218
0.184122 0.468522 0.019211
0.215407 0.468907 0.019203
0.246692 0.469292 0.019196
0.277977 0.469677 0.019188
0.309262 0.470062 0.019181
0.340547 0.470447 0.019173
0.371832 0.470832 0.019166
0.403117 0.471217 0.019158
0.434402 0.471602 0.019151
0.465687 0.471987 0.019143
0.497116 0.472372 0.019136
0.528691 0.472757 0.019129
0.560266 0.473141 0.019121
0.591841 0.473526 0.019114
0.623416 0.473911 0.019106
0.654991 0.474296 0.019099
0.686566 0.474681 0.019281
0.718141 0.475066 0.019666
0.749716 0.475451 0.020051
0.781291 0.475836 0.020436
0.812865 0.476221 0.020821
0.844440 0.476606 0.021206
0.876015 0.476991 0.021591
0.907590 0.477376 0.021976
0.939165 0.477761 0.022361
0.970740 0.478146 0.022746
0.987736 0.478352 0.022952
0.011740 0.497740 0.019413
0.028446 0.497946 0.019226
0.059731 0.498331 0.019219
0.091015 0.498715 0.019211
0.122300 0.499100 0.019204
0.153585 0.499485 0.019196
0.184870 0.499870 0.019189
0.216155 0.500255 0.019181
0.247440 0.500640 0.019174
0.278725 0.501025 0.019166
0.310010 0.501410 0.019159
0.341295 0.501795 0.019151
0.372580 0.502180 0.019144
0.403865 0.502565 0.019136
0.435284 0.502950 0.019129
0.466859 0.503335 0.019121
0.498434 0.503720 0.019114
0.530009 0.504105 0.019107
0.561584 0.504490 0.019099
0.593159 0.504875 0.019092
0.624734 0.505260 0.019260
0.656308 0.505645 0.019645
0.687883 0.506030 0.020030
0.719458 0.506415 0.020415
0.751033 0.506800 0.020800
0.782608 0.507185 0.021185
0.814183 0.507570 0.021570
0.845758 0.507955 0.021955
0.877333 0.508340 0.022340
0.908908 0.508725 0.022725
0.940483 0.509109 0.023109
0.972058 0.509494 0.023494
0.989053 0.509700 0.023700
0.012488 0.529088 0.019391
0.029194 0.529294 0.019204
0.060479 0.529679 0.019197
0.091764 0.530064 0.019189
0.123049 0.530449 0.019182
0.154334 0.530834 0.019174
0.185619 0.531219 0.019167
0.216904 0.531604 0.019159
0.248189 0.531989 0.019152
0.279474 0.532374 0.019144
0.310759 0.532759 0.019137
0.342044 0.533144 0.019129
0.373452 0.533529 0.019122
0.405027 0.533914 0.019114
0.436602 0.534299 0.019107
0.468177 0.534683 0.019099
0.499752 0.535068 0.019092
0.531326 0.535453 0.019085
0.562901 0.535838 0.019238
0.594476 0.536223 0.019623
0.626051 0.536608 0.020008
0.657626 0.536993 0.020393
0.689201 0.537378 0.020778
0.720776 0.537763 0.021163
0.752351 0.538148 0.021548
0.783926 0.538533 0.021933
0.815501 0.538918 0.022318
0.847076 0.539303 0.022703
0.878651 0.539688 0.023088
0.910226 0.540073 0.023473
0.941801 0.540458 0.023858
0.973376 0.540843 0.024243
0.990371 0.541048 0.024448
0.013237 0.560437 0.019369
0.029942 0.560642 0.019182
0.061227 0.561027 0.019175
0.092512 0.561412 0.019167
0.123797 0.561797 0.019160
0.155082 0.562182 0.019152
0.186367 0.562567 0.019145
0.217652 0.562952 0.019137
0.248937 0.563337 0.019130
0.280222 0.563722 0.019122
0.311620 0.564107 0.019115
0.343195 0.564492 0.019107
0.374769 0.564877 0.019100
0.406344 0.565262 0.019092
0.437919 0.565647 0.019085
0.469494 0.566032 0.019077
0.501069 0.566417 0.019217
0.532644 0.566802 0.019602
0.564219 0.567187 0.019987
0.595794 0.567572 0.020372
0.627369 0.567957 0.020757
0.658944 0.568342 0.021142
0.690519 0.568727 0.021527
0.722094 0.569112 0.021912
0.753669 0.569497 0.022297
0.785244 0.569882 0.022682
0.816819 0.570266 0.023066
0.848394 0.570651 0.023451
0.879969 0.571036 0.023836
0.911543 0.571421 0.024221
0.943118 0.571806 0.024606
0.974693 0.572191 0.024991
0.991689 0.572397 0.025197
0.013985 0.591785 0.019347
0.030691 0.591991 0.019160
0.061976 0.592376 0.019153
0.093261 0.592761 0.019145
0.124546 0.593146 0.019138
0.155831 0.593531 0.019130
0.187116 0.593916 0.019123
0.218401 0.594301 0.019115
0.249787 0.594686 0.019108
0.281362 0.595071 0.019100
0.312937 0.595455 0.019093
0.344512 0.595840 0.019085
0.376087 0.596225 0.019078
0.407662 0.596610 0.019070
0.439237 0.596995 0.019195
0.470812 0.597380 0.019580
0.502387 0.597765 0.019965
0.533962 0.598150 0.020350
0.565537 0.598535 0.020735
0.597112 0.598920 0.021120
0.628687 0.599305 0.021505
0.660262 0.599690 0.021890
0.691837 0.600075 0.022275
0.723412 0.600460 0.022660
0.754986 0.600845 0.023045
0.786561 0.601230 0.023430
0.818136 0.601615 0.023815
0.849711 0.602000 0.024200
0.881286 0.602385 0.024585
0.912861 0.602770 0.024970
0.944436 0.603155 0.025355
0.976011 0.603540 0.025740
0.993007 0.603745 0.025945
0.014734 0.623134 0.019325
0.031439 0.623339 0.019138
0.062724 0.623724 0.019131
0.094009 0.624109 0.019123
0.125294 0.624494 0.019116
0.156579 0.624879 0.019108
0.187955 0.625264 0.019101
0.219530 0.625649 0.019093
0.251105 0.626034 0.019086
0.282680 0.626419 0.019078
0.314255 0.626804 0.019071
0.345830 0.627189 0.019063
0.377405 0.627574 0.019174
0.408980 0.627959 0.019559
0.440555 0.628344 0.019944
0.472130 0.628729 0.020329
0.503705 0.629114 0.020714
0.535280 0.629499 0.021099
0.566855 0.629884 0.021484
0.598429 0.630269 0.021869
0.630004 0.630654 0.022254
0.661579 0.631039 0.022639
0.693154 0.631423 0.023023
0.724729 0.631808 0.023408
0.756304 0.632193 0.023793
0.787879 0.632578 0.024178
0.819454 0.632963 0.024563
0.851029 0.633348 0.024948
0.882604 0.633733 0.025333
0.914179 0.634118 0.025718
0.945754 0.634503 0.026103
0.977329 0.634888 0.026488
0.994324 0.635094 0.026694
0.015482 0.654482 0.019303
0.032188 0.654688 0.019116
0.063473 0.655073 0.019109
0.094758 0.655458 0.019101
0.126123 0.655843 0.019094
0.157698 0.656228 0.019086
0.189273 0.656613 0.019079
0.220848 0.656997 0.019071
0.252423 0.657382 0.019064
0.283998 0.657767 0.019056
0.315573 0.658152 0.019152
0.347148 0.658537 0.019537
0.378723 0.658922 0.019922
0.410298 0.659307 0.020307
0.441872 0.659692 0.020692
0.473447 0.660077 0.021077
0.505022 0.660462 0.021462
0.536597 0.660847 0.021847
0.568172 0.661232 0.022232
0.599747 0.661617 0.022617
0.631322 0.662002 0.023002
0.662897 0.662387 0.023387
0.694472 0.662772 0.023772
0.726047 0.663157 0.024157
0.757622 0.663542 0.024542
0.789197 0.663927 0.024927
0.820772 0.664312 0.025312
0.852347 0.664697 0.025697
0.883922 0.665082 0.026082
0.915497 0.665467 0.026467
0.947072 0.665852 0.026852
0.978646 0.666237 0.027237
0.995642 0.666442 0.027442
0.016231 0.685831 0.019281
0.032936 0.686036 0.019094
0.064291 0.686421 0.019087
0.095866 0.686806 0.019079
0.127441 0.687191 0.019072
0.159016 0.687576 0.019064
0.190591 0.687961 0.019057
0.222166 0.688346 0.019049
0.253741 0.688731 0.019131
0.285315 0.689116 0.019516
0.316890 0.689501 0.019901
0.348465 0.689886 0.020286
0.380040 0.690271 0.020671
0.411615 0.690656 0.021056
0.443190 0.691041 0.021441
0.474765 0.691426 0.021826
0.506340 0.691811 0.022211
0.537915 0.692196 0.022596
0.569490 0.692580 0.022980
0.601065 0.692965 0.023365
0.632640 0.693350 0.023750
0.664215 0.693735 0.024135
0.695790 0.694120 0.024520
0.727365 0.694505 0.024905
0.758940 0.694890 0.025290
0.790515 0.695275 0.025675
0.822089 0.695660 0.026060
0.853664 0.696045 0.026445
0.885239 0.696430 0.026830
0.916814 0.696815 0.027215
0.948389 0.697200 0.027600
0.979964 0.697585 0.027985
0.996960 0.697791 0.028191
0.017038 0.717179 0.019259
0.034034 0.717385 0.019072
0.065609 0.717769 0.019065
0.097184 0.718154 0.019057
0.128758 0.718539 0.019050
0.160333 0.718924 0.019042
0.191908 0.719309 0.019109
0.223483 0.719694 0.019494
0.255058 0.720079 0.019879
0.286633 0.720464 0.020264
0.318208 0.720849 0.020649
0.349783 0.721234 0.021034
0.381358 0.721619 0.021419
0.412933 0.722004 0.021804
0.444508 0.722389 0.022189
0.476083 0.722774 0.022574
0.507658 0.723159 0.022959
0.539233 0.723544 0.023344
0.570808 0.723929 0.023729
0.602383 0.724314 0.024114
0.633958 0.724699 0.024499
0.665532 0.725084 0.024884
0.697107 0.725469 0.025269
0.728682 0.725854 0.025654
0.760257 0.726239 0.026039
0.791832 0.726624 0.026424
0.823407 0.727009 0.026809
0.854982 0.727394 0.027194
0.886557 0.727779 0.027579
0.918132 0.728163 0.027963
0.949707 0.728548 0.028348
0.981282 0.728933 0.028733
0.998277 0.729139 0.028939
0.018356 0.748527 0.019237
0.035351 0.748733 0.019050
0.066926 0.749118 0.019043
0.098501 0.749503 0.019035
0.130076 0.749888 0.019088
0.161651 0.750273 0.019473
0.193226 0.750658 0.019858
0.224801 0.751043 0.020243
0.256376 0.751428 0.020628
0.287951 0.751813 0.021013
0.319526 0.752198 0.021398
0.351101 0.752583 0.021783
0.382676 0.752968 0.022168
0.414251 0.753353 0.022553
0.445826 0.753737 0.022937
0.477401 0.754122 0.023322
0.508976 0.754507 0.023707
0.540550 0.754892 0.024092
0.572125 0.755277 0.024477
0.603700 0.755662 0.024862
0.635275 0.756047 0.025247
0.666850 0.756432 0.025632
0.698425 0.756817 0.026017
0.730000 0.757202 0.026402
0.761575 0.757587 0.026787
0.793150 0.757972 0.027172
0.824725 0.758357 0.027557
0.856300 0.758742 0.027942
0.887875 0.759127 0.028327
0.919450 0.759512 0.028712
0.951025 0.759897 0.029097
0.982600 0.760282 0.029482
0.999595 0.760487 0.029687
0.019674 0.779876 0.019215
0.036669 0.780081 0.019028
0.068244 0.780466 0.019066
0.099819 0.780851 0.019451
0.131394 0.781236 0.019836
0.162969 0.781621 0.020221
0.194544 0.782006 0.020606
0.226119 0.782391 0.020991
0.257694 0.782776 0.021376
0.289269 0.783161 0.021761
0.320844 0.783546 0.022146
0.352419 0.783931 0.022531
0.383993 0.784316 0.022916
0.415568 0.784701 0.023301
0.447143 0.785086 0.023686
0.478718 0.785471 0.024071
0.510293 0.785856 0.024456
0.541868 0.786241 0.024841
0.573443 0.786626 0.025226
0.605018 0.787011 0.025611
0.636593 0.787396 0.025996
0.668168 0.787781 0.026381
0.699743 0.788166 0.026766
0.731318 0.788551 0.027151
0.762893 0.788936 0.027536
0.794468 0.789320 0.027920
0.826043 0.789705 0.028305
0.857618 0.790090 0.028690
0.889193 0.790475 0.029075
0.920767 0.790860 0.029460
0.952342 0.791245 0.029845
0.983917 0.791630 0.030230
1.000000 0.791836 0.030436
0.020991 0.811224 0.019224
0.037987 0.811430 0.019430
0.069562 0.811815 0.019815
0.101137 0.812200 0.020200
0.132712 0.812585 0.020585
0.164287 0.812970 0.020970
0.195862 0.813355 0.021355
0.227436 0.813740 0.021740
0.259011 0.814125 0.022125
0.290586 0.814510 0.022510
0.322161 0.814894 0.022894
0.353736 0.815279 0.023279
0.385311 0.815664 0.023664
0.416886 0.816049 0.024049
0.448461 0.816434 0.024434
0.480036 0.816819 0.024819
0.511611 0.817204 0.025204
0.543186 0.817589 0.025589
0.574761 0.817974 0.025974
0.606336 0.818359 0.026359
0.637911 0.818744 0.026744
0.669486 0.819129 0.027129
0.701061 0.819514 0.027514
0.732636 0.819899 0.027899
0.764210 0.820284 0.028284
0.795785 0.820669 0.028669
0.827360 0.821054 0.029054
