docs/luts/fresh-bmpcc-neutral.cube
TITLE "FreshLUTs??-BMPCC??"
LUT_3D_SIZE 33
DOMAIN_MIN 0.0 0.0 0.0
DOMAIN_MAX 1.0 1.0 1.0
0.000000 0.000000 0.035000
0.002994 0.000000 0.034369
0.034725 0.000000 0.034277
0.066457 0.000000 0.034184
0.098189 0.000000 0.034092
0.129921 0.000000 0.033999
0.161652 0.000000 0.033907
0.193384 0.000000 0.033814
0.225116 0.000000 0.033722
0.256848 0.000000 0.033629
0.288579 0.000000 0.033537
0.320311 0.000000 0.033444
0.352043 0.000000 0.033352
0.383775 0.000000 0.033259
0.415506 0.000000 0.033167
0.447238 0.000000 0.033074
0.478970 0.000737 0.032982
0.510702 0.001567 0.032889
0.542434 0.002397 0.032797
0.574165 0.003227 0.032704
0.605897 0.004056 0.032612
0.637629 0.004886 0.032519
0.669361 0.005716 0.032427
0.701092 0.006545 0.032334
0.732824 0.007375 0.032242
0.764556 0.008205 0.032149
0.796288 0.009035 0.032057
0.828019 0.009864 0.031964
0.859751 0.010694 0.031872
0.891483 0.011524 0.031779
0.923215 0.012354 0.031687
0.954946 0.013183 0.031594
0.957940 0.013475 0.030964
0.000605 0.005224 0.034257
0.003599 0.005515 0.033626
0.035331 0.006345 0.033534
0.067062 0.007175 0.033441
0.098794 0.008005 0.033349
0.130526 0.008834 0.033256
0.162258 0.009664 0.033164
0.193989 0.010494 0.033071
0.225721 0.011323 0.032979
0.257453 0.012153 0.032886
0.289185 0.012983 0.032794
0.320917 0.013813 0.032701
0.352648 0.014642 0.032609
0.384380 0.015472 0.032516
0.416112 0.016302 0.032424
0.447844 0.017132 0.032331
0.479575 0.017961 0.032239
0.511307 0.018791 0.032146
0.543039 0.019621 0.032054
0.574771 0.020450 0.031961
0.606502 0.021280 0.031869
0.638234 0.022110 0.031776
0.669966 0.022940 0.031684
0.701698 0.023769 0.031591
0.733429 0.024599 0.031499
0.765161 0.025429 0.031406
0.796893 0.026259 0.031314
0.828625 0.027088 0.031221
0.860356 0.027918 0.031129
0.892088 0.028748 0.031036
0.923820 0.029577 0.030944
0.955552 0.030407 0.030851
0.958545 0.030699 0.030221
0.001739 0.037076 0.034042
0.004733 0.037368 0.033412
0.036464 0.038197 0.033319
0.068196 0.039027 0.033227
0.099928 0.039857 0.033134
0.131660 0.040686 0.033042
0.163391 0.041516 0.032949
0.195123 0.042346 0.032857
0.226855 0.043176 0.032764
0.258587 0.044005 0.032672
0.290318 0.044835 0.032579
0.322050 0.045665 0.032487
0.353782 0.046495 0.032394
0.385514 0.047324 0.032302
0.417245 0.048154 0.032209
0.448977 0.048984 0.032117
0.480709 0.049813 0.032024
0.512441 0.050643 0.031932
0.544173 0.051473 0.031839
0.575904 0.052303 0.031747
0.607636 0.053132 0.031654
0.639368 0.053962 0.031562
0.671100 0.054792 0.031469
0.702831 0.055621 0.031377
0.734563 0.056451 0.031284
0.766295 0.057281 0.031192
0.798027 0.058111 0.031099
0.829758 0.058940 0.031007
0.861490 0.059770 0.030914
0.893222 0.060600 0.030822
0.924954 0.061430 0.030729
0.956685 0.062259 0.030637
0.959679 0.062551 0.030006
0.002873 0.068928 0.033828
0.005866 0.069220 0.033197
0.037598 0.070049 0.033105
0.069330 0.070879 0.033012
0.101061 0.071709 0.032920
0.132793 0.072539 0.032827
0.164525 0.073368 0.032735
0.196257 0.074198 0.032642
0.227989 0.075028 0.032550
0.259720 0.075857 0.032457
0.291452 0.076687 0.032365
0.323184 0.077517 0.032272
0.354916 0.078347 0.032180
0.386647 0.079176 0.032087
0.418379 0.080006 0.031995
0.450111 0.080836 0.031902
0.481843 0.081666 0.031810
0.513574 0.082495 0.031717
0.545306 0.083325 0.031625
0.577038 0.084155 0.031532
0.608770 0.084984 0.031440
0.640501 0.085814 0.031347
0.672233 0.086644 0.031255
0.703965 0.087474 0.031162
0.735697 0.088303 0.031070
0.767428 0.089133 0.030977
0.799160 0.089963 0.030885
0.830892 0.090793 0.030792
0.862624 0.091622 0.030700
0.894356 0.092452 0.030607
0.926087 0.093282 0.030515
0.957819 0.094111 0.030422
0.960813 0.094403 0.029791
0.004006 0.100780 0.033613
0.007000 0.101072 0.032983
0.038732 0.101902 0.032890
0.070463 0.102731 0.032798
0.102195 0.103561 0.032705
0.133927 0.104391 0.032612
0.165659 0.105220 0.032520
0.197390 0.106050 0.032427
0.229122 0.106880 0.032335
0.260854 0.107710 0.032242
0.292586 0.108539 0.032150
0.324317 0.109369 0.032057
0.356049 0.110199 0.031965
0.387781 0.111029 0.031872
0.419513 0.111858 0.031780
0.451245 0.112688 0.031687
0.482976 0.113518 0.031595
0.514708 0.114347 0.031502
0.546440 0.115177 0.031410
0.578172 0.116007 0.031317
0.609903 0.116837 0.031225
0.641635 0.117666 0.031132
0.673367 0.118496 0.031040
0.705099 0.119326 0.030947
0.736830 0.120156 0.030855
0.768562 0.120985 0.030762
0.800294 0.121815 0.030670
0.832026 0.122645 0.030577
0.863757 0.123474 0.030485
0.895489 0.124304 0.030392
0.927221 0.125134 0.030300
0.958953 0.125964 0.030207
0.961946 0.126255 0.029577
0.005140 0.132632 0.033399
0.008133 0.132924 0.032768
0.039865 0.133754 0.032675
0.071597 0.134583 0.032583
0.103329 0.135413 0.032490
0.135061 0.136243 0.032398
0.166792 0.137073 0.032305
0.198524 0.137902 0.032213
0.230256 0.138732 0.032120
0.261988 0.139562 0.032028
0.293719 0.140392 0.031935
0.325451 0.141221 0.031843
0.357183 0.142051 0.031750
0.388915 0.142881 0.031658
0.420646 0.143710 0.031565
0.452378 0.144540 0.031473
0.484110 0.145370 0.031380
0.515842 0.146200 0.031288
0.547573 0.147029 0.031195
0.579305 0.147859 0.031103
0.611037 0.148689 0.031010
0.642769 0.149519 0.030918
0.674500 0.150348 0.030825
0.706232 0.151178 0.030733
0.737964 0.152008 0.030640
0.769696 0.152837 0.030548
0.801428 0.153667 0.030455
0.833159 0.154497 0.030363
0.864891 0.155327 0.030270
0.896623 0.156156 0.030178
0.928355 0.156986 0.030085
0.960086 0.157816 0.029993
0.963080 0.158107 0.029362
0.006274 0.164485 0.033184
0.009267 0.164776 0.032553
0.040999 0.165606 0.032461
0.072731 0.166436 0.032368
0.104462 0.167265 0.032276
0.136194 0.168095 0.032183
0.167926 0.168925 0.032091
0.199658 0.169755 0.031998
0.231389 0.170584 0.031906
0.263121 0.171414 0.031813
0.294853 0.172244 0.031721
0.326585 0.173073 0.031628
0.358317 0.173903 0.031536
0.390048 0.174733 0.031443
0.421780 0.175563 0.031351
0.453512 0.176392 0.031258
0.485244 0.177222 0.031166
0.516975 0.178052 0.031073
0.548707 0.178881 0.030981
0.580439 0.179711 0.030888
0.612171 0.180541 0.030796
0.643902 0.181371 0.030703
0.675634 0.182200 0.030611
0.707366 0.183030 0.030518
0.739098 0.183860 0.030426
0.770829 0.184690 0.030333
0.802561 0.185519 0.030241
0.834293 0.186349 0.030148
0.866025 0.187179 0.030056
0.897756 0.188008 0.029963
0.929488 0.188838 0.029871
0.961220 0.189668 0.029778
0.964214 0.189959 0.029147
0.007407 0.196337 0.032969
0.010401 0.196628 0.032339
0.042133 0.197458 0.032246
0.073864 0.198288 0.032154
0.105596 0.199117 0.032061
0.137328 0.199947 0.031969
0.169060 0.200777 0.031876
0.200791 0.201607 0.031784
0.232523 0.202436 0.031691
0.264255 0.203266 0.031599
0.295987 0.204096 0.031506
0.327718 0.204926 0.031414
0.359450 0.205755 0.031321
0.391182 0.206585 0.031229
0.422914 0.207415 0.031136
0.454645 0.208244 0.031044
0.486377 0.209074 0.030951
0.518109 0.209904 0.030859
0.549841 0.210734 0.030766
0.581572 0.211563 0.030674
0.613304 0.212393 0.030581
0.645036 0.213223 0.030489
0.676768 0.214053 0.030396
0.708500 0.214882 0.030304
0.740231 0.215712 0.030211
0.771963 0.216542 0.030119
0.803695 0.217371 0.030026
0.835427 0.218201 0.029934
0.867158 0.219031 0.029841
0.898890 0.219861 0.029749
0.930622 0.220690 0.029656
0.962354 0.221520 0.029564
0.965577 0.221812 0.028933
0.008541 0.228189 0.032755
0.011534 0.228480 0.032124
0.043266 0.229310 0.032032
0.074998 0.230140 0.031939
0.106730 0.230970 0.031847
0.138461 0.231799 0.031754
0.170193 0.232629 0.031662
0.201925 0.233459 0.031569
0.233657 0.234289 0.031477
0.265389 0.235118 0.031384
0.297120 0.235948 0.031291
0.328852 0.236778 0.031199
0.360584 0.237607 0.031106
0.392316 0.238437 0.031014
0.424047 0.239267 0.030921
0.455779 0.240097 0.030829
0.487511 0.240926 0.030736
0.519243 0.241756 0.030644
0.550974 0.242586 0.030551
0.582706 0.243416 0.030459
0.614438 0.244245 0.030366
0.646170 0.245075 0.030274
0.677901 0.245905 0.030181
0.709633 0.246734 0.030089
0.741365 0.247564 0.029996
0.773097 0.248394 0.029904
0.804828 0.249224 0.029811
0.836560 0.250053 0.029719
0.868292 0.250883 0.029626
0.900024 0.251713 0.029534
0.931975 0.252543 0.029441
0.963996 0.253372 0.029349
0.967280 0.253664 0.028718
0.009674 0.260041 0.032540
0.012668 0.260333 0.031909
0.044400 0.261162 0.031817
0.076132 0.261992 0.031724
0.107863 0.262822 0.031632
0.139595 0.263652 0.031539
0.171327 0.264481 0.031447
0.203059 0.265311 0.031354
0.234790 0.266141 0.031262
0.266522 0.266970 0.031169
0.298254 0.267800 0.031077
0.329986 0.268630 0.030984
0.361717 0.269460 0.030892
0.393449 0.270289 0.030799
0.425181 0.271119 0.030707
0.456913 0.271949 0.030614
0.488644 0.272779 0.030522
0.520376 0.273608 0.030429
0.552108 0.274438 0.030337
0.583840 0.275268 0.030244
0.615572 0.276097 0.030152
0.647303 0.276927 0.030059
0.679035 0.277757 0.029967
0.710767 0.278587 0.029874
0.742499 0.279416 0.029782
0.774230 0.280246 0.029689
0.805962 0.281076 0.029597
0.837694 0.281905 0.029504
0.869634 0.282735 0.029412
0.901656 0.283565 0.029319
0.933678 0.284395 0.029227
0.965699 0.285224 0.029134
0.968983 0.285516 0.028504
0.010808 0.291893 0.032325
0.013802 0.292185 0.031695
0.045533 0.293015 0.031602
0.077265 0.293844 0.031510
0.108997 0.294674 0.031417
0.140729 0.295504 0.031325
0.172461 0.296333 0.031232
0.204192 0.297163 0.031140
0.235924 0.297993 0.031047
0.267656 0.298823 0.030955
0.299388 0.299652 0.030862
0.331119 0.300482 0.030770
0.362851 0.301312 0.030677
0.394583 0.302141 0.030585
0.426315 0.302971 0.030492
0.458046 0.303801 0.030400
0.489778 0.304631 0.030307
0.521510 0.305460 0.030215
0.553242 0.306290 0.030122
0.584973 0.307120 0.030030
0.616705 0.307950 0.029937
0.648437 0.308779 0.029845
0.680169 0.309609 0.029752
0.711900 0.310439 0.029660
0.743632 0.311268 0.029567
0.775364 0.312098 0.029475
0.807294 0.312928 0.029382
0.839315 0.313758 0.029290
0.871337 0.314587 0.029197
0.903359 0.315417 0.029105
0.935381 0.316247 0.029012
0.967402 0.317077 0.028920
0.970686 0.317211 0.028748
0.011942 0.323745 0.032111
0.014935 0.324037 0.031480
0.046667 0.324867 0.031388
0.078399 0.325696 0.031295
0.110131 0.326526 0.031203
0.141862 0.327356 0.031110
0.173594 0.328186 0.031018
0.205326 0.329015 0.030925
0.237058 0.329845 0.030833
0.268789 0.330675 0.030740
0.300521 0.331504 0.030648
0.332253 0.332334 0.030555
0.363985 0.333164 0.030463
0.395716 0.333994 0.030370
0.427448 0.334823 0.030278
0.459180 0.335653 0.030185
0.490912 0.336483 0.030093
0.522644 0.337313 0.030000
0.554375 0.338142 0.029908
0.586107 0.338972 0.029815
0.617839 0.339802 0.029723
0.649571 0.340631 0.029630
0.681302 0.341461 0.029538
0.713034 0.342291 0.029445
0.744953 0.343121 0.029353
0.776975 0.343950 0.029260
0.808997 0.344780 0.029168
0.841018 0.345610 0.029075
0.873040 0.346440 0.028983
0.905062 0.347269 0.028890
0.937084 0.347950 0.029231
0.969105 0.348544 0.029826
0.972389 0.348601 0.029882
0.013075 0.355598 0.031896
0.016069 0.355889 0.031266
0.047801 0.356719 0.031173
0.079533 0.357549 0.031081
0.111264 0.358378 0.030988
0.142996 0.359208 0.030896
0.174728 0.360038 0.030803
0.206460 0.360867 0.030711
0.238191 0.361697 0.030618
0.269923 0.362527 0.030526
0.301655 0.363357 0.030433
0.333387 0.364186 0.030341
0.365118 0.365016 0.030248
0.396850 0.365846 0.030155
0.428582 0.366676 0.030063
0.460314 0.367505 0.029970
0.492045 0.368335 0.029878
0.523777 0.369165 0.029785
0.555509 0.369994 0.029693
0.587241 0.370824 0.029600
0.618972 0.371654 0.029508
0.650704 0.372484 0.029415
0.682613 0.373313 0.029323
0.714634 0.374143 0.029230
0.746656 0.374973 0.029138
0.778678 0.375802 0.029045
0.810699 0.376632 0.028953
0.842721 0.377462 0.028860
0.874743 0.378152 0.029177
0.906765 0.378746 0.029771
0.938786 0.379340 0.030365
0.970808 0.379934 0.030959
0.974092 0.379990 0.031015
0.014209 0.387450 0.031682
0.017203 0.387741 0.031051
0.048934 0.388571 0.030958
0.080666 0.389401 0.030866
0.112398 0.390230 0.030773
0.144130 0.391060 0.030681
0.175861 0.391890 0.030588
0.207593 0.392720 0.030496
0.239325 0.393549 0.030403
0.271057 0.394379 0.030311
0.302788 0.395209 0.030218
0.334520 0.396039 0.030126
0.366252 0.396868 0.030033
0.397984 0.397698 0.029941
0.429716 0.398528 0.029848
0.461447 0.399357 0.029756
0.493179 0.400187 0.029663
0.524911 0.401017 0.029571
0.556643 0.401847 0.029478
0.588374 0.402676 0.029386
0.620272 0.403506 0.029293
0.652294 0.404336 0.029201
0.684315 0.405165 0.029108
0.716337 0.405995 0.029016
0.748359 0.406825 0.028923
0.780381 0.407655 0.028831
0.812402 0.408353 0.029122
0.844424 0.408947 0.029716
0.876446 0.409541 0.030310
0.908468 0.410136 0.030904
0.940489 0.410730 0.031499
0.972511 0.411324 0.032093
0.975795 0.411380 0.032149
0.015343 0.419302 0.031467
0.018336 0.419593 0.030836
0.050068 0.420423 0.030744
0.081800 0.421253 0.030651
0.113532 0.422083 0.030559
0.145263 0.422912 0.030466
0.176995 0.423742 0.030374
0.208727 0.424572 0.030281
0.240459 0.425401 0.030189
0.272190 0.426231 0.030096
0.303922 0.427061 0.030004
0.335654 0.427891 0.029911
0.367386 0.428720 0.029819
0.399117 0.429550 0.029726
0.430849 0.430380 0.029634
0.462581 0.431210 0.029541
0.494313 0.432039 0.029449
0.526044 0.432869 0.029356
0.557931 0.433699 0.029264
0.589953 0.434528 0.029171
0.621975 0.435358 0.029079
0.653997 0.436188 0.028986
0.686018 0.437018 0.028894
0.718040 0.437847 0.028801
0.750062 0.438554 0.029067
0.782084 0.439149 0.029661
0.814105 0.439743 0.030255
0.846127 0.440337 0.030850
0.878149 0.440931 0.031444
0.910171 0.441526 0.032038
0.942192 0.442120 0.032632
0.974214 0.442714 0.033227
0.977498 0.442770 0.033283
0.016476 0.451154 0.031252
0.019470 0.451446 0.030622
0.051202 0.452275 0.030529
0.082933 0.453105 0.030437
0.114665 0.453935 0.030344
0.146397 0.454764 0.030252
0.178129 0.455594 0.030159
0.209860 0.456424 0.030067
0.241592 0.457254 0.029974
0.273324 0.458083 0.029882
0.305056 0.458913 0.029789
0.336788 0.459743 0.029697
0.368519 0.460573 0.029604
0.400251 0.461402 0.029512
0.431983 0.462232 0.029419
0.463715 0.463062 0.029327
0.495591 0.463891 0.029234
0.527613 0.464721 0.029142
0.559634 0.465551 0.029049
0.591656 0.466381 0.028957
0.623678 0.467210 0.028864
0.655700 0.468040 0.028772
0.687721 0.468756 0.029012
0.719743 0.469350 0.029606
0.751765 0.469944 0.030200
0.783787 0.470538 0.030795
0.815808 0.471133 0.031389
0.847830 0.471727 0.031983
0.879852 0.472321 0.032578
0.911873 0.472916 0.033172
0.943895 0.473510 0.033766
0.975917 0.474104 0.034360
0.979201 0.474160 0.034416
0.017610 0.483006 0.031038
0.020604 0.483298 0.030407
0.052335 0.484127 0.030315
0.084067 0.484957 0.030222
0.115799 0.485787 0.030130
0.147531 0.486617 0.030037
0.179262 0.487446 0.029945
0.210994 0.488276 0.029852
0.242726 0.489106 0.029760
0.274458 0.489936 0.029667
0.306189 0.490765 0.029575
0.337921 0.491595 0.029482
0.369653 0.492425 0.029390
0.401385 0.493254 0.029297
0.433250 0.494084 0.029205
0.465272 0.494914 0.029112
0.497294 0.495744 0.029020
0.529316 0.496573 0.028927
0.561337 0.497403 0.028834
0.593359 0.498233 0.028742
0.625381 0.498957 0.028957
0.657402 0.499551 0.029551
0.689424 0.500146 0.030146
0.721446 0.500740 0.030740
0.753468 0.501334 0.031334
0.785489 0.501928 0.031928
0.817511 0.502523 0.032523
0.849533 0.503117 0.033117
0.881555 0.503711 0.033711
0.913576 0.504305 0.034305
0.945598 0.504900 0.034900
0.977620 0.505494 0.035494
0.980903 0.505550 0.035550
0.018744 0.514858 0.030823
0.021737 0.515150 0.030192
0.053469 0.515980 0.030100
0.085201 0.516809 0.030007
0.116932 0.517639 0.029915
0.148664 0.518469 0.029822
0.180396 0.519299 0.029730
0.212128 0.520128 0.029637
0.243860 0.520958 0.029545
0.275591 0.521788 0.029452
0.307323 0.522617 0.029360
0.339055 0.523447 0.029267
0.370910 0.524277 0.029175
0.402932 0.525107 0.029082
0.434953 0.525936 0.028990
0.466975 0.526766 0.028897
0.498997 0.527596 0.028805
0.531018 0.528425 0.028712
0.563040 0.529158 0.028902
0.595062 0.529753 0.029496
0.627084 0.530347 0.030091
0.659105 0.530941 0.030685
0.691127 0.531535 0.031279
0.723149 0.532130 0.031873
0.755171 0.532724 0.032468
0.787192 0.533318 0.033062
0.819214 0.533913 0.033656
0.851236 0.534507 0.034251
0.883258 0.535101 0.034845
0.915279 0.535695 0.035439
0.947301 0.536290 0.036033
0.979323 0.536884 0.036628
0.982606 0.536940 0.036684
0.019877 0.546711 0.030609
0.022871 0.547002 0.029978
0.054603 0.547832 0.029885
0.086334 0.548661 0.029793
0.118066 0.549491 0.029700
0.149798 0.550321 0.029608
0.181530 0.551151 0.029515
0.213261 0.551980 0.029423
0.244993 0.552810 0.029330
0.276725 0.553640 0.029238
0.308569 0.554470 0.029145
0.340591 0.555299 0.029053
0.372613 0.556129 0.028960
0.404634 0.556959 0.028868
0.436656 0.557788 0.028775
0.468678 0.558618 0.028683
0.500700 0.559360 0.028847
0.532721 0.559954 0.029442
0.564743 0.560548 0.030036
0.596765 0.561143 0.030630
0.628787 0.561737 0.031224
0.660808 0.562331 0.031819
0.692830 0.562925 0.032413
0.724852 0.563520 0.033007
0.756874 0.564114 0.033601
0.788895 0.564708 0.034196
0.820917 0.565302 0.034790
0.852939 0.565897 0.035384
0.884961 0.566491 0.035978
0.916982 0.567085 0.036573
0.949004 0.567679 0.037167
0.981026 0.568274 0.037761
0.984309 0.568330 0.037817
0.021011 0.578563 0.030394
0.024004 0.578854 0.029763
0.055736 0.579684 0.029671
0.087468 0.580514 0.029578
0.119200 0.581343 0.029486
0.150932 0.582173 0.029393
0.182663 0.583003 0.029301
0.214395 0.583833 0.029208
0.246229 0.584662 0.029116
0.278250 0.585492 0.029023
0.310272 0.586322 0.028931
0.342294 0.587151 0.028838
0.374316 0.587981 0.028746
0.406337 0.588811 0.028653
0.438359 0.589561 0.028792
0.470381 0.590155 0.029387
0.502403 0.590750 0.029981
0.534424 0.591344 0.030575
0.566446 0.591938 0.031169
0.598468 0.592532 0.031764
0.630490 0.593127 0.032358
0.662511 0.593721 0.032952
0.694533 0.594315 0.033547
0.726555 0.594910 0.034141
0.758577 0.595504 0.034735
0.790598 0.596098 0.035329
0.822620 0.596692 0.035924
0.854642 0.597287 0.036518
0.886663 0.597881 0.037112
0.918685 0.598475 0.037706
0.950707 0.599069 0.038301
0.982729 0.599664 0.038895
0.986012 0.599720 0.038951
0.022145 0.610415 0.030179
0.025138 0.610706 0.029549
0.056870 0.611536 0.029456
0.088602 0.612366 0.029364
0.120333 0.613196 0.029271
0.152065 0.614025 0.029179
0.183888 0.614855 0.029086
0.215910 0.615685 0.028994
0.247932 0.616514 0.028901
0.279953 0.617344 0.028809
0.311975 0.618174 0.028716
0.343997 0.619004 0.028624
0.376019 0.619763 0.028738
0.408040 0.620357 0.029332
0.440062 0.620951 0.029926
0.472084 0.621545 0.030520
0.504106 0.622140 0.031115
0.536127 0.622734 0.031709
0.568149 0.623328 0.032303
0.600171 0.623922 0.032897
0.632192 0.624517 0.033492
0.664214 0.625111 0.034086
0.696236 0.625705 0.034680
0.728258 0.626299 0.035274
0.760279 0.626894 0.035869
0.792301 0.627488 0.036463
0.824323 0.628082 0.037057
0.856345 0.628676 0.037651
0.888366 0.629271 0.038246
0.920388 0.629865 0.038840
0.952410 0.630459 0.039434
0.984432 0.631054 0.040029
0.987715 0.631110 0.040085
0.023278 0.642267 0.029965
0.026272 0.642559 0.029334
0.058004 0.643388 0.029241
0.089735 0.644218 0.029149
0.121548 0.645048 0.029056
0.153569 0.645877 0.028964
0.185591 0.646707 0.028871
0.217613 0.647537 0.028779
0.249635 0.648367 0.028686
0.281656 0.649196 0.028594
0.313678 0.649964 0.028683
0.345700 0.650558 0.029277
0.377721 0.651152 0.029871
0.409743 0.651747 0.030465
0.441765 0.652341 0.031060
0.473787 0.652935 0.031654
0.505808 0.653529 0.032248
0.537830 0.654124 0.032842
0.569852 0.654718 0.033437
0.601874 0.655312 0.034031
0.633895 0.655907 0.034625
0.665917 0.656501 0.035220
0.697939 0.657095 0.035814
0.729961 0.657689 0.036408
0.761982 0.658284 0.037002
0.794004 0.658878 0.037597
0.826026 0.659472 0.038191
0.858048 0.660066 0.038785
0.890069 0.660661 0.039379
0.922091 0.661255 0.039974
0.954113 0.661849 0.040568
0.986135 0.662443 0.041162
0.989418 0.662499 0.041218
0.024412 0.674119 0.029750
0.027405 0.674411 0.029119
0.059207 0.675240 0.029027
0.091229 0.676070 0.028934
0.123250 0.676900 0.028842
0.155272 0.677730 0.028749
0.187294 0.678559 0.028657
0.219316 0.679389 0.028564
0.251337 0.680165 0.028628
0.283359 0.680760 0.029222
0.315381 0.681354 0.029816
0.347403 0.681948 0.030411
0.379424 0.682542 0.031005
0.411446 0.683137 0.031599
0.443468 0.683731 0.032193
0.475490 0.684325 0.032788
0.507511 0.684919 0.033382
0.539533 0.685514 0.033976
0.571555 0.686108 0.034570
0.603577 0.686702 0.035165
0.635598 0.687296 0.035759
0.667620 0.687891 0.036353
0.699642 0.688485 0.036947
0.731664 0.689079 0.037542
0.763685 0.689673 0.038136
0.795707 0.690268 0.038730
0.827729 0.690862 0.039324
0.859751 0.691456 0.039919
0.891772 0.692051 0.040513
0.923794 0.692645 0.041107
0.955816 0.693239 0.041702
0.987838 0.693833 0.042296
0.991121 0.693889 0.042352
0.025605 0.705971 0.029535
0.028888 0.706263 0.028905
0.060910 0.707093 0.028812
0.092932 0.707922 0.028720
0.124953 0.708752 0.028627
0.156975 0.709582 0.028535
0.188997 0.710367 0.028573
0.221019 0.710961 0.029167
0.253040 0.711555 0.029761
0.285062 0.712149 0.030356
0.317084 0.712744 0.030950
0.349106 0.713338 0.031544
0.381127 0.713932 0.032138
0.413149 0.714526 0.032733
0.445171 0.715121 0.033327
0.477193 0.715715 0.033921
0.509214 0.716309 0.034516
0.541236 0.716904 0.035110
0.573258 0.717498 0.035704
0.605280 0.718092 0.036298
0.637301 0.718686 0.036893
0.669323 0.719281 0.037487
0.701345 0.719875 0.038081
0.733367 0.720469 0.038675
0.765388 0.721063 0.039270
0.797410 0.721658 0.039864
0.829432 0.722252 0.040458
0.861453 0.722846 0.041052
0.893475 0.723440 0.041647
0.925497 0.724035 0.042241
0.957519 0.724629 0.042835
0.989540 0.725223 0.043429
0.992824 0.725279 0.043486
0.027308 0.737823 0.029321
0.030591 0.738115 0.028690
0.062613 0.738945 0.028598
0.094635 0.739774 0.028505
0.126656 0.740568 0.028518
0.158678 0.741162 0.029112
0.190700 0.741757 0.029707
0.222722 0.742351 0.030301
0.254743 0.742945 0.030895
0.286765 0.743539 0.031489
0.318787 0.744134 0.032084
0.350809 0.744728 0.032678
0.382830 0.745322 0.033272
0.414852 0.745916 0.033866
0.446874 0.746511 0.034461
0.478896 0.747105 0.035055
0.510917 0.747699 0.035649
0.542939 0.748293 0.036243
0.574961 0.748888 0.036838
0.606982 0.749482 0.037432
0.639004 0.750076 0.038026
0.671026 0.750670 0.038620
0.703048 0.751265 0.039215
0.735069 0.751859 0.039809
0.767091 0.752453 0.040403
0.799113 0.753048 0.040998
0.831135 0.753642 0.041592
0.863156 0.754236 0.042186
0.895178 0.754830 0.042780
0.927200 0.755425 0.043375
0.959222 0.756019 0.043969
0.991243 0.756613 0.044563
0.994527 0.756669 0.044619
0.029011 0.769676 0.029106
0.032294 0.769967 0.028475
0.064316 0.770769 0.028463
0.096338 0.771364 0.029057
0.128359 0.771958 0.029652
0.160381 0.772552 0.030246
0.192403 0.773146 0.030840
0.224425 0.773741 0.031434
0.256446 0.774335 0.032029
0.288468 0.774929 0.032623
0.320490 0.775523 0.033217
0.352511 0.776118 0.033811
0.384533 0.776712 0.034406
0.416555 0.777306 0.035000
0.448577 0.777901 0.035594
0.480598 0.778495 0.036189
0.512620 0.779089 0.036783
0.544642 0.779683 0.037377
0.576664 0.780278 0.037971
0.608685 0.780872 0.038566
0.640707 0.781466 0.039160
0.672729 0.782060 0.039754
0.704751 0.782655 0.040348
0.736772 0.783249 0.040943
0.768794 0.783843 0.041537
0.800816 0.784437 0.042131
0.832838 0.785032 0.042725
0.864859 0.785626 0.043320
0.896881 0.786220 0.043914
0.928903 0.786814 0.044508
0.960925 0.787409 0.045102
0.992946 0.788003 0.045697
0.996230 0.788059 0.045753
0.030713 0.801509 0.028946
0.033997 0.801565 0.029003
0.066019 0.802159 0.029597
0.098040 0.802754 0.030191
0.130062 0.803348 0.030785
0.162084 0.803942 0.031380
0.194106 0.804536 0.031974
0.226127 0.805131 0.032568
0.258149 0.805725 0.033162
0.290171 0.806319 0.033757
0.322193 0.806913 0.034351
0.354214 0.807508 0.034945
0.386236 0.808102 0.035539
0.418258 0.808696 0.036134
0.450280 0.809290 0.036728
0.482301 0.809885 0.037322
0.514323 0.810479 0.037916
0.546345 0.811073 0.038511
0.578367 0.811667 0.039105
0.610388 0.812262 0.039699
0.642410 0.812856 0.040293
0.674432 0.813450 0.040888
0.706454 0.814045 0.041482
0.738475 0.814639 0.042076
0.770497 0.815233 0.042671
0.802519 0.815827 0.043265
0.834541 0.816422 0.043859
