docs/luts/fresh-cinematic-green.cube
TITLE "FreshLUTs??-????"
LUT_3D_SIZE 33
DOMAIN_MIN 0.0 0.0 0.0
DOMAIN_MAX 1.0 1.0 1.0
0.000000 0.068750 0.000000
0.000000 0.067671 0.000000
0.000000 0.067003 0.000000
0.017413 0.066428 0.000000
0.050667 0.065853 0.000000
0.083921 0.065279 0.000000
0.117175 0.064704 0.000000
0.150429 0.064130 0.000000
0.183683 0.063555 0.000000
0.216936 0.062980 0.000000
0.250190 0.062406 0.000000
0.283444 0.061831 0.000000
0.316698 0.061256 0.000000
0.349952 0.060682 0.000000
0.383206 0.060107 0.000000
0.416459 0.059532 0.000000
0.449713 0.058958 0.000000
0.482967 0.058383 0.000000
0.516221 0.057808 0.000000
0.549475 0.057234 0.000000
0.582729 0.056659 0.000000
0.615982 0.056085 0.000000
0.649236 0.055510 0.000000
0.682490 0.054935 0.000000
0.715744 0.054361 0.000000
0.748998 0.053786 0.000000
0.782252 0.053211 0.000000
0.815505 0.052637 0.000000
0.848759 0.052062 0.000000
0.882013 0.051487 0.000415
0.915267 0.050913 0.001312
0.942490 0.050245 0.002116
0.943176 0.049166 0.002508
0.000000 0.066631 0.000000
0.000000 0.065552 0.000000
0.000000 0.064884 0.000000
0.018762 0.064309 0.000000
0.052016 0.063735 0.000000
0.085269 0.063160 0.000000
0.118523 0.062585 0.000000
0.151777 0.062011 0.000000
0.185031 0.061436 0.000000
0.218285 0.060862 0.000000
0.251539 0.060287 0.000000
0.284792 0.059712 0.000000
0.318046 0.059138 0.000000
0.351300 0.058563 0.000000
0.384554 0.057988 0.000000
0.417808 0.057414 0.000000
0.451062 0.056839 0.000000
0.484315 0.056264 0.000000
0.517569 0.055690 0.000000
0.550823 0.055115 0.000000
0.584077 0.054540 0.000000
0.617331 0.053966 0.000000
0.650584 0.053391 0.000000
0.683838 0.052817 0.000000
0.717092 0.052242 0.000000
0.750346 0.051667 0.000000
0.783600 0.051093 0.000000
0.816854 0.050518 0.000000
0.850107 0.049943 0.000288
0.883361 0.049369 0.001185
0.916615 0.048794 0.002082
0.943838 0.048126 0.002886
0.944525 0.047047 0.003278
0.000000 0.074306 0.000000
0.000000 0.073227 0.000000
0.000000 0.072559 0.000000
0.020404 0.071984 0.000000
0.053657 0.071410 0.000000
0.086911 0.070835 0.000000
0.120165 0.070260 0.000000
0.153419 0.069686 0.000000
0.186673 0.069111 0.000000
0.219926 0.068536 0.000000
0.253180 0.067962 0.000000
0.286434 0.067387 0.000000
0.319688 0.066812 0.000000
0.352942 0.066238 0.000000
0.386196 0.065663 0.000000
0.419449 0.065088 0.000000
0.452703 0.064514 0.000000
0.485957 0.063939 0.000000
0.519211 0.063365 0.000000
0.552465 0.062790 0.000000
0.585719 0.062215 0.000000
0.618972 0.061641 0.000000
0.652226 0.061066 0.000000
0.685480 0.060491 0.000000
0.718734 0.059917 0.000000
0.751988 0.059342 0.000000
0.785242 0.058767 0.000000
0.818495 0.058193 0.000455
0.851749 0.057618 0.001352
0.885003 0.057044 0.002249
0.918257 0.056469 0.003146
0.945480 0.055801 0.003950
0.946167 0.054722 0.004342
0.000000 0.106465 0.000000
0.000000 0.105385 0.000000
0.000000 0.104717 0.000000
0.022779 0.104143 0.000000
0.056033 0.103568 0.000000
0.089287 0.102993 0.000000
0.122541 0.102419 0.000000
0.155794 0.101844 0.000000
0.189048 0.101270 0.000000
0.222302 0.100695 0.000000
0.255556 0.100120 0.000000
0.288810 0.099546 0.000000
0.322063 0.098971 0.000000
0.355317 0.098396 0.000000
0.388571 0.097822 0.000000
0.421825 0.097247 0.000000
0.455079 0.096672 0.000000
0.488333 0.096098 0.000000
0.521586 0.095523 0.000000
0.554840 0.094948 0.000000
0.588094 0.094374 0.000000
0.621348 0.093799 0.000000
0.654602 0.093225 0.000000
0.687856 0.092650 0.000000
0.721109 0.092075 0.000000
0.754363 0.091501 0.000459
0.787617 0.090926 0.001356
0.820871 0.090351 0.002253
0.854125 0.089777 0.003150
0.887379 0.089202 0.004047
0.920632 0.088627 0.004944
0.947855 0.087959 0.005748
0.948542 0.086880 0.006140
0.000000 0.138623 0.000000
0.000000 0.137544 0.000000
0.000000 0.136876 0.000000
0.025155 0.136301 0.000000
0.058408 0.135727 0.000000
0.091662 0.135152 0.000000
0.124916 0.134577 0.000000
0.158170 0.134003 0.000000
0.191424 0.133428 0.000000
0.224678 0.132853 0.000000
0.257931 0.132279 0.000000
0.291185 0.131704 0.000000
0.324439 0.131129 0.000000
0.357693 0.130555 0.000000
0.390947 0.129980 0.000000
0.424200 0.129406 0.000000
0.457454 0.128831 0.000000
0.490708 0.128256 0.000000
0.523962 0.127682 0.000000
0.557216 0.127107 0.000000
0.590470 0.126532 0.000000
0.623723 0.125958 0.000000
0.656977 0.125383 0.000000
0.690231 0.124808 0.000463
0.723485 0.124234 0.001360
0.756739 0.123659 0.002257
0.789993 0.123085 0.003154
0.823246 0.122510 0.004051
0.856500 0.121935 0.004948
0.889754 0.121361 0.005845
0.923008 0.120786 0.006742
0.950231 0.120118 0.007545
0.950918 0.119039 0.007938
0.000000 0.170782 0.000000
0.000000 0.169703 0.000000
0.000000 0.169034 0.000000
0.027530 0.168460 0.000000
0.060784 0.167885 0.000000
0.094038 0.167311 0.000000
0.127292 0.166736 0.000000
0.160545 0.166161 0.000000
0.193799 0.165587 0.000000
0.227053 0.165012 0.000000
0.260307 0.164437 0.000000
0.293561 0.163863 0.000000
0.326815 0.163288 0.000000
0.360068 0.162713 0.000000
0.393322 0.162139 0.000000
0.426576 0.161564 0.000000
0.459830 0.160989 0.000000
0.493084 0.160415 0.000000
0.526337 0.159840 0.000000
0.559591 0.159266 0.000000
0.592845 0.158691 0.000000
0.626099 0.158116 0.000466
0.659353 0.157542 0.001363
0.692607 0.156967 0.002260
0.725860 0.156392 0.003157
0.759114 0.155818 0.004054
0.792368 0.155243 0.004951
0.825622 0.154668 0.005848
0.858876 0.154094 0.006745
0.892130 0.153519 0.007642
0.925383 0.152945 0.008539
0.952606 0.152276 0.009343
0.953293 0.151197 0.009735
0.000000 0.202940 0.000000
0.000000 0.201861 0.000000
0.000000 0.201193 0.000000
0.029906 0.200618 0.000000
0.063159 0.200044 0.000000
0.096413 0.199469 0.000000
0.129667 0.198894 0.000000
0.162921 0.198320 0.000000
0.196175 0.197745 0.000000
0.229429 0.197171 0.000000
0.262682 0.196596 0.000000
0.295936 0.196021 0.000000
0.329190 0.195447 0.000000
0.362444 0.194872 0.000000
0.395698 0.194297 0.000000
0.428952 0.193723 0.000000
0.462205 0.193148 0.000000
0.495459 0.192573 0.000000
0.528713 0.191999 0.000000
0.561967 0.191424 0.000470
0.595221 0.190849 0.001367
0.628474 0.190275 0.002264
0.661728 0.189700 0.003161
0.694982 0.189126 0.004058
0.728236 0.188551 0.004955
0.761490 0.187976 0.005852
0.794744 0.187402 0.006749
0.827997 0.186827 0.007646
0.861251 0.186252 0.008543
0.894505 0.185678 0.009440
0.927759 0.185103 0.010337
0.954982 0.184435 0.011141
0.955669 0.183356 0.011533
0.000000 0.235099 0.000000
0.000000 0.234020 0.000000
0.000000 0.233352 0.000000
0.032281 0.232777 0.000000
0.065535 0.232202 0.000000
0.098789 0.231628 0.000000
0.132043 0.231053 0.000000
0.165296 0.230478 0.000000
0.198550 0.229904 0.000000
0.231804 0.229329 0.000000
0.265058 0.228754 0.000000
0.298312 0.228180 0.000000
0.331566 0.227605 0.000000
0.364819 0.227030 0.000000
0.398073 0.226456 0.000000
0.431327 0.225881 0.000000
0.464581 0.225307 0.000000
0.497835 0.224732 0.000474
0.531089 0.224157 0.001371
0.564342 0.223583 0.002268
0.597596 0.223008 0.003165
0.630850 0.222433 0.004062
0.664104 0.221859 0.004959
0.697358 0.221284 0.005856
0.730611 0.220709 0.006753
0.763865 0.220135 0.007650
0.797119 0.219560 0.008547
0.830373 0.218986 0.009444
0.863627 0.218411 0.010341
0.896881 0.217836 0.011238
0.930134 0.217262 0.012135
0.957357 0.216594 0.012938
0.958044 0.215514 0.013331
0.000000 0.267257 0.000000
0.000000 0.266178 0.000000
0.001403 0.265510 0.000000
0.034657 0.264935 0.000000
0.067910 0.264361 0.000000
0.101164 0.263786 0.000000
0.134418 0.263212 0.000000
0.167672 0.262637 0.000000
0.200926 0.262062 0.000000
0.234180 0.261488 0.000000
0.267433 0.260913 0.000000
0.300687 0.260338 0.000000
0.333941 0.259764 0.000000
0.367195 0.259189 0.000000
0.400449 0.258614 0.000000
0.433703 0.258040 0.000478
0.466956 0.257465 0.001375
0.500210 0.256890 0.002272
0.533464 0.256316 0.003168
0.566718 0.255741 0.004066
0.599972 0.255167 0.004962
0.633226 0.254592 0.005860
0.666479 0.254017 0.006756
0.699733 0.253443 0.007654
0.732987 0.252868 0.008550
0.766241 0.252293 0.009448
0.799495 0.251719 0.010344
0.832748 0.251144 0.011242
0.866002 0.250569 0.012138
0.899256 0.249995 0.013036
0.932510 0.249420 0.013932
0.959733 0.248752 0.014736
0.960420 0.247673 0.015129
0.000000 0.299416 0.000000
0.000000 0.298337 0.000000
0.003778 0.297669 0.000000
0.037032 0.297094 0.000000
0.070286 0.296519 0.000000
0.103540 0.295945 0.000000
0.136794 0.295370 0.000000
0.170047 0.294795 0.000000
0.203301 0.294221 0.000000
0.236555 0.293646 0.000000
0.269809 0.293072 0.000000
0.303063 0.292497 0.000000
0.336317 0.291922 0.000000
0.369570 0.291348 0.000481
0.402824 0.290773 0.001378
0.436078 0.290198 0.002275
0.469332 0.289624 0.003172
0.502586 0.289049 0.004069
0.535840 0.288474 0.004966
0.569093 0.287900 0.005863
0.602347 0.287325 0.006760
0.635601 0.286750 0.007657
0.668855 0.286176 0.008554
0.702109 0.285601 0.009451
0.735363 0.285027 0.010348
0.768616 0.284452 0.011245
0.801870 0.283877 0.012142
0.835124 0.283303 0.013039
0.868378 0.282728 0.013936
0.901632 0.282153 0.014833
0.934885 0.281579 0.015730
0.962108 0.280911 0.016534
0.962795 0.279831 0.016926
0.000000 0.331574 0.000000
0.000000 0.330495 0.000000
0.006154 0.329827 0.000000
0.039408 0.329253 0.000000
0.072661 0.328678 0.000000
0.105915 0.328103 0.000000
0.139169 0.327529 0.000000
0.172423 0.326954 0.000000
0.205677 0.326379 0.000000
0.238931 0.325805 0.000000
0.272184 0.325230 0.000000
0.305438 0.324655 0.000485
0.338692 0.324081 0.001382
0.371946 0.323506 0.002279
0.405200 0.322931 0.003176
0.438454 0.322357 0.004073
0.471707 0.321782 0.004970
0.504961 0.321208 0.005867
0.538215 0.320633 0.006764
0.571469 0.320058 0.007661
0.604723 0.319484 0.008558
0.637977 0.318909 0.009455
0.671230 0.318334 0.010352
0.704484 0.317760 0.011249
0.737738 0.317185 0.012146
0.770992 0.316610 0.013043
0.804246 0.316036 0.013940
0.837500 0.315461 0.014837
0.870753 0.314887 0.015734
0.904007 0.314312 0.016631
0.937261 0.313737 0.017528
0.964484 0.313069 0.018331
0.964711 0.312711 0.018462
0.000000 0.363733 0.000000
0.000000 0.362654 0.000000
0.008529 0.361986 0.000000
0.041783 0.361411 0.000000
0.075037 0.360836 0.000000
0.108291 0.360262 0.000000
0.141545 0.359687 0.000000
0.174798 0.359113 0.000000
0.208052 0.358538 0.000000
0.241306 0.357963 0.000489
0.274560 0.357389 0.001386
0.307814 0.356814 0.002283
0.341068 0.356239 0.003180
0.374321 0.355665 0.004077
0.407575 0.355090 0.004974
0.440829 0.354515 0.005871
0.474083 0.353941 0.006768
0.507337 0.353366 0.007665
0.540591 0.352791 0.008562
0.573844 0.352217 0.009459
0.607098 0.351642 0.010356
0.640352 0.351068 0.011253
0.673606 0.350493 0.012150
0.706860 0.349918 0.013047
0.740114 0.349344 0.013944
0.773367 0.348769 0.014841
0.806621 0.348194 0.015738
0.839875 0.347620 0.016635
0.873129 0.347045 0.017532
0.906383 0.346470 0.018429
0.939203 0.346578 0.019078
0.965739 0.346989 0.019489
0.965739 0.346989 0.019489
0.000000 0.395892 0.000000
0.000000 0.394812 0.000000
0.010905 0.394144 0.000000
0.044159 0.393570 0.000000
0.077412 0.392995 0.000000
0.110666 0.392420 0.000000
0.143920 0.391846 0.000000
0.177174 0.391271 0.000492
0.210428 0.390696 0.001389
0.243682 0.390122 0.002286
0.276935 0.389547 0.003183
0.310189 0.388973 0.004080
0.343443 0.388398 0.004977
0.376697 0.387823 0.005874
0.409951 0.387249 0.006771
0.443205 0.386674 0.007668
0.476458 0.386099 0.008565
0.509712 0.385525 0.009462
0.542966 0.384950 0.010359
0.576220 0.384375 0.011256
0.609474 0.383801 0.012153
0.642728 0.383226 0.013050
0.675981 0.382651 0.013947
0.709235 0.382077 0.014844
0.742489 0.381502 0.015741
0.775743 0.380928 0.016638
0.808997 0.380353 0.017535
0.842251 0.379778 0.018432
0.875096 0.379846 0.019096
0.907663 0.380350 0.019600
0.940230 0.380855 0.020105
0.966766 0.381266 0.020516
0.966766 0.381266 0.020516
0.000000 0.428050 0.000000
0.000000 0.426971 0.000000
0.013280 0.426303 0.000000
0.046534 0.425728 0.000000
0.079788 0.425154 0.000000
0.113042 0.424579 0.000496
0.146296 0.424004 0.001393
0.179549 0.423430 0.002290
0.212803 0.422855 0.003187
0.246057 0.422280 0.004084
0.279311 0.421706 0.004981
0.312565 0.421131 0.005878
0.345819 0.420556 0.006775
0.379072 0.419982 0.007672
0.412326 0.419407 0.008569
0.445580 0.418832 0.009466
0.478834 0.418258 0.010363
0.512088 0.417683 0.011260
0.545342 0.417109 0.012157
0.578595 0.416534 0.013054
0.611849 0.415959 0.013951
0.645103 0.415385 0.014848
0.678357 0.414810 0.015745
0.711611 0.414235 0.016642
0.744865 0.413661 0.017539
0.778118 0.413086 0.018436
0.810989 0.413114 0.019114
0.843556 0.413618 0.019618
0.876123 0.414123 0.020123
0.908690 0.414628 0.020628
0.941257 0.415132 0.021132
0.967793 0.415543 0.021543
0.967793 0.415543 0.021543
0.000000 0.460209 0.000000
0.000000 0.459129 0.000000
0.015656 0.458461 0.000000
0.048910 0.457887 0.000500
0.082164 0.457312 0.001397
0.115417 0.456737 0.002294
0.148671 0.456163 0.003191
0.181925 0.455588 0.004088
0.215179 0.455014 0.004985
0.248433 0.454439 0.005882
0.281687 0.453864 0.006779
0.314940 0.453290 0.007676
0.348194 0.452715 0.008573
0.381448 0.452140 0.009470
0.414702 0.451566 0.010367
0.447956 0.450991 0.011264
0.481209 0.450416 0.012161
0.514463 0.449842 0.013058
0.547717 0.449267 0.013955
0.580971 0.448692 0.014852
0.614225 0.448118 0.015749
0.647479 0.447543 0.016646
0.680732 0.446969 0.017543
0.713986 0.446394 0.018440
0.746882 0.446382 0.019132
0.779449 0.446887 0.019637
0.812016 0.447391 0.020141
0.844583 0.447896 0.020646
0.877150 0.448400 0.021150
0.909717 0.448905 0.021655
0.942284 0.449409 0.022159
0.968820 0.449821 0.022571
0.968820 0.449821 0.022571
0.000000 0.492367 0.000204
0.000000 0.491288 0.000597
0.018031 0.490620 0.001400
0.051285 0.490045 0.002297
0.084539 0.489471 0.003194
0.117793 0.488896 0.004091
0.151047 0.488321 0.004988
0.184301 0.487747 0.005885
0.217554 0.487172 0.006782
0.250808 0.486597 0.007679
0.284062 0.486023 0.008576
0.317316 0.485448 0.009473
0.350570 0.484874 0.010370
0.383823 0.484299 0.011267
0.417077 0.483724 0.012164
0.450331 0.483150 0.013061
0.483585 0.482575 0.013958
0.516839 0.482000 0.014855
0.550093 0.481426 0.015752
0.583346 0.480851 0.016649
0.616600 0.480276 0.017546
0.649854 0.479702 0.018443
0.682775 0.479650 0.019150
0.715342 0.480155 0.019655
0.747909 0.480659 0.020159
0.780476 0.481164 0.020664
0.813043 0.481668 0.021168
0.845610 0.482173 0.021673
0.878178 0.482677 0.022178
0.910745 0.483182 0.022682
0.943312 0.483687 0.023187
0.969848 0.484098 0.023598
0.969848 0.484098 0.023598
0.000000 0.524526 0.002002
0.000000 0.523447 0.002394
0.020407 0.522778 0.003198
0.053661 0.522204 0.004095
0.086915 0.521629 0.004992
0.120168 0.521055 0.005889
0.153422 0.520480 0.006786
0.186676 0.519905 0.007683
0.219930 0.519331 0.008580
0.253184 0.518756 0.009477
0.286438 0.518181 0.010374
0.319691 0.517607 0.011271
0.352945 0.517032 0.012168
0.386199 0.516457 0.013065
0.419453 0.515883 0.013962
0.452707 0.515308 0.014859
0.485960 0.514733 0.015756
0.519214 0.514159 0.016653
0.552468 0.513584 0.017550
0.585722 0.513010 0.018447
0.618668 0.512918 0.019168
0.651235 0.513423 0.019673
0.683802 0.513927 0.020177
0.716369 0.514432 0.020682
0.748937 0.514937 0.021187
0.781504 0.515441 0.021691
0.814071 0.515946 0.022196
0.846638 0.516450 0.022700
0.879205 0.516955 0.023205
0.911772 0.517459 0.023709
0.944339 0.517964 0.024214
0.970875 0.518375 0.024625
0.970875 0.518375 0.024625
0.000000 0.556684 0.003800
0.000000 0.555605 0.004192
0.022782 0.554937 0.004996
0.056036 0.554362 0.005893
0.089290 0.553788 0.006790
0.122544 0.553213 0.007687
0.155798 0.552638 0.008584
0.189052 0.552064 0.009481
0.222305 0.551489 0.010378
0.255559 0.550915 0.011275
0.288813 0.550340 0.012172
0.322067 0.549765 0.013069
0.355321 0.549191 0.013966
0.388575 0.548616 0.014863
0.421828 0.548041 0.015760
0.455082 0.547467 0.016657
0.488336 0.546892 0.017554
0.521590 0.546317 0.018451
0.554561 0.546186 0.019186
0.587128 0.546691 0.019691
0.619695 0.547196 0.020196
0.652263 0.547700 0.020700
0.684830 0.548205 0.021205
0.717397 0.548709 0.021709
0.749964 0.549214 0.022214
0.782531 0.549718 0.022718
0.815098 0.550223 0.023223
0.847665 0.550727 0.023727
0.880232 0.551232 0.024232
0.912799 0.551737 0.024737
0.945366 0.552241 0.025241
0.971902 0.552652 0.025652
0.971902 0.552652 0.025652
0.000000 0.588843 0.005597
0.000000 0.587764 0.005990
0.025158 0.587096 0.006793
0.058412 0.586521 0.007690
0.091666 0.585946 0.008587
0.124919 0.585372 0.009484
0.158173 0.584797 0.010381
0.191427 0.584222 0.011278
0.224681 0.583648 0.012175
0.257935 0.583073 0.013072
0.291189 0.582498 0.013969
0.324442 0.581924 0.014866
0.357696 0.581349 0.015763
0.390950 0.580775 0.016660
0.424204 0.580200 0.017557
0.457458 0.579625 0.018454
0.490455 0.579455 0.019205
0.523022 0.579959 0.019709
0.555589 0.580464 0.020214
0.588156 0.580968 0.020718
0.620723 0.581473 0.021223
0.653290 0.581977 0.021727
0.685857 0.582482 0.022232
0.718424 0.582986 0.022736
0.750991 0.583491 0.023241
0.783558 0.583996 0.023746
0.816125 0.584500 0.024250
0.848692 0.585005 0.024755
0.881259 0.585509 0.025259
0.913826 0.586014 0.025764
0.946393 0.586518 0.026268
0.972930 0.586930 0.026680
0.972930 0.586930 0.026680
0.000000 0.621001 0.007395
0.000311 0.619922 0.007787
0.027533 0.619254 0.008591
0.060787 0.618679 0.009488
0.094041 0.618105 0.010385
0.127295 0.617530 0.011282
0.160549 0.616956 0.012179
0.193803 0.616381 0.013076
0.227056 0.615806 0.013973
0.260310 0.615232 0.014870
0.293564 0.614657 0.015767
0.326818 0.614082 0.016664
0.360072 0.613508 0.017561
0.393326 0.612933 0.018458
0.426348 0.612723 0.019223
0.458915 0.613227 0.019727
0.491482 0.613732 0.020232
0.524049 0.614236 0.020736
0.556616 0.614741 0.021241
0.589183 0.615245 0.021745
0.621750 0.615750 0.022250
0.654317 0.616255 0.022755
0.686884 0.616759 0.023259
0.719451 0.617264 0.023764
0.752018 0.617768 0.024268
0.784585 0.618273 0.024773
0.817152 0.618777 0.025277
0.849719 0.619282 0.025782
0.882286 0.619787 0.026286
0.914854 0.620291 0.026791
0.947421 0.620796 0.027296
0.973957 0.621207 0.027707
0.973957 0.621207 0.027707
0.001999 0.653160 0.009193
0.002686 0.652081 0.009585
0.029909 0.651413 0.010389
0.063163 0.650838 0.011286
0.096417 0.650263 0.012183
0.129670 0.649689 0.013080
0.162924 0.649114 0.013977
0.196178 0.648539 0.014874
0.229432 0.647965 0.015771
0.262686 0.647390 0.016668
0.295940 0.646816 0.017565
0.329193 0.646241 0.018462
0.362241 0.645991 0.019241
0.394808 0.646495 0.019745
0.427375 0.647000 0.020250
0.459942 0.647504 0.020754
0.492509 0.648009 0.021259
0.525076 0.648514 0.021764
0.557643 0.649018 0.022268
0.590210 0.649523 0.022773
0.622777 0.650027 0.023277
0.655344 0.650532 0.023782
0.687911 0.651036 0.024286
0.720478 0.651541 0.024791
0.753046 0.652046 0.025296
0.785613 0.652550 0.025800
0.818180 0.653055 0.026305
0.850747 0.653559 0.026809
0.883314 0.654064 0.027314
0.915881 0.654568 0.027818
0.948448 0.655073 0.028323
0.974984 0.655484 0.028734
0.974984 0.655484 0.028734
0.004375 0.685318 0.010990
0.005062 0.684239 0.011383
0.032284 0.683571 0.012186
0.065538 0.682997 0.013083
0.098792 0.682422 0.013980
0.132046 0.681847 0.014877
0.165300 0.681273 0.015774
0.198554 0.680698 0.016671
0.231807 0.680123 0.017568
0.265061 0.679549 0.018465
0.298134 0.679259 0.019259
0.330701 0.679763 0.019763
0.363268 0.680268 0.020268
0.395835 0.680773 0.020773
0.428402 0.681277 0.021277
0.460969 0.681782 0.021782
0.493536 0.682286 0.022286
0.526103 0.682791 0.022791
0.558670 0.683295 0.023295
0.591237 0.683800 0.023800
0.623804 0.684305 0.024305
0.656372 0.684809 0.024809
0.688939 0.685314 0.025314
0.721506 0.685818 0.025818
0.754073 0.686323 0.026323
0.786640 0.686827 0.026827
0.819207 0.687332 0.027332
0.851774 0.687836 0.027836
0.884341 0.688341 0.028341
0.916908 0.688846 0.028846
0.949475 0.689350 0.029350
0.976011 0.689761 0.029761
0.976011 0.689761 0.029761
0.006750 0.717477 0.012788
0.007437 0.716398 0.013181
0.034660 0.715730 0.013984
0.067914 0.715155 0.014881
0.101168 0.714580 0.015778
0.134421 0.714006 0.016675
0.167675 0.713431 0.017572
0.200929 0.712857 0.018469
0.234027 0.712527 0.019277
0.266594 0.713032 0.019782
0.299161 0.713536 0.020286
0.331728 0.714041 0.020791
0.364295 0.714545 0.021295
0.396862 0.715050 0.021800
0.429429 0.715554 0.022304
0.461996 0.716059 0.022809
0.494563 0.716564 0.023313
0.527131 0.717068 0.023818
0.559698 0.717573 0.024323
0.592265 0.718077 0.024827
0.624832 0.718582 0.025332
0.657399 0.719086 0.025836
0.689966 0.719591 0.026341
0.722533 0.720095 0.026845
0.755100 0.720600 0.027350
0.787667 0.721105 0.027855
0.820234 0.721609 0.028359
0.852801 0.722114 0.028864
0.885368 0.722618 0.029368
0.917935 0.723123 0.029873
0.950502 0.723627 0.030377
0.977038 0.724039 0.030788
0.977038 0.724039 0.030788
0.009126 0.749636 0.014586
0.009813 0.748556 0.014978
0.037036 0.747888 0.015782
0.070289 0.747314 0.016679
0.103543 0.746739 0.017576
0.136797 0.746164 0.018473
0.169920 0.745795 0.019295
0.202487 0.746300 0.019800
0.235054 0.746804 0.020304
0.267621 0.747309 0.020809
0.300188 0.747813 0.021313
0.332755 0.748318 0.021818
0.365323 0.748823 0.022323
0.397890 0.749327 0.022827
0.430457 0.749832 0.023332
0.463024 0.750336 0.023836
0.495591 0.750841 0.024341
0.528158 0.751345 0.024845
0.560725 0.751850 0.025350
0.593292 0.752354 0.025854
0.625859 0.752859 0.026359
0.658426 0.753364 0.026864
0.690993 0.753868 0.027368
0.723560 0.754373 0.027873
0.756127 0.754877 0.028377
0.788694 0.755382 0.028882
0.821261 0.755886 0.029386
0.853828 0.756391 0.029891
0.886396 0.756896 0.030396
0.918963 0.757400 0.030900
0.951530 0.757905 0.031405
0.978066 0.758316 0.031816
0.978066 0.758316 0.031816
0.011501 0.781794 0.016383
0.012188 0.780715 0.016776
0.039411 0.780047 0.017580
0.072665 0.779472 0.018477
0.105813 0.779063 0.019313
0.138380 0.779568 0.019818
0.170947 0.780072 0.020322
0.203514 0.780577 0.020827
0.236081 0.781082 0.021332
0.268649 0.781586 0.021836
0.301216 0.782091 0.022341
0.333783 0.782595 0.022845
0.366350 0.783100 0.023350
0.398917 0.783604 0.023854
0.431484 0.784109 0.024359
0.464051 0.784613 0.024863
0.496618 0.785118 0.025368
0.529185 0.785623 0.025873
0.561752 0.786127 0.026377
0.594319 0.786632 0.026882
0.626886 0.787136 0.027386
0.659453 0.787641 0.027891
0.692020 0.788145 0.028395
0.724587 0.788650 0.028900
0.757154 0.789155 0.029405
0.789722 0.789659 0.029909
0.822289 0.790164 0.030414
0.854856 0.790668 0.030918
0.887423 0.791173 0.031423
0.919990 0.791677 0.031927
0.952557 0.792182 0.032432
0.979093 0.792593 0.032843
0.979093 0.792593 0.032843
0.013877 0.813953 0.018181
0.014564 0.812873 0.018574
0.041706 0.812331 0.019331
0.074273 0.812836 0.019836
0.106840 0.813341 0.020341
0.139408 0.813845 0.020845
0.171975 0.814350 0.021350
0.204542 0.814854 0.021854
0.237109 0.815359 0.022359
0.269676 0.815863 0.022863
0.302243 0.816368 0.023368
0.334810 0.816872 0.023872
0.367377 0.817377 0.024377
0.399944 0.817882 0.024882
0.432511 0.818386 0.025386
0.465078 0.818891 0.025891
0.497645 0.819395 0.026395
0.530212 0.819900 0.026900
0.562779 0.820404 0.027404
0.595346 0.820909 0.027909
0.627914 0.821414 0.028413
0.660481 0.821918 0.028918
0.693048 0.822423 0.029423
0.725615 0.822927 0.029927
0.758182 0.823432 0.030432
0.790749 0.823936 0.030936
0.823316 0.824441 0.031441
0.855883 0.824945 0.031945
0.888450 0.825450 0.032450
0.921017 0.825955 0.032955
0.953584 0.826459 0.033459
0.980120 0.826870 0.033870
0.980120 0.826870 0.033870
0.016198 0.846198 0.019948
0.016198 0.846198 0.019948
0.042734 0.846609 0.020359
0.075301 0.847113 0.020863
0.107868 0.847618 0.021368
0.140435 0.848122 0.021872
0.173002 0.848627 0.022377
0.205569 0.849131 0.022881
0.238136 0.849636 0.023386
0.270703 0.850141 0.023891
0.303270 0.850645 0.024395
0.335837 0.851150 0.024900
0.368404 0.851654 0.025404
0.400971 0.852159 0.025909
0.433538 0.852663 0.026413
0.466105 0.853168 0.026918
0.498673 0.853673 0.027423
0.531240 0.854177 0.027927
0.563807 0.854682 0.028432
0.596374 0.855186 0.028936
0.628941 0.855691 0.029441
0.661508 0.856195 0.029945
0.694075 0.856700 0.030450
0.726642 0.857204 0.030954
0.759209 0.857709 0.031459
0.791776 0.858214 0.031964
0.824343 0.858718 0.032468
