docs/luts/fresh-golden-forest-blue-water.cube
TITLE "FreshLUTs??-????"
LUT_3D_SIZE 33
DOMAIN_MIN 0.0 0.0 0.0
DOMAIN_MAX 1.0 1.0 1.0
0.000000 0.045000 0.000000
0.000000 0.044117 0.001177
0.029042 0.043234 0.002355
0.064685 0.042351 0.003532
0.100328 0.041468 0.004709
0.135970 0.040585 0.005887
0.171613 0.039702 0.007064
0.207256 0.038819 0.008241
0.242898 0.037936 0.009418
0.278541 0.037053 0.010596
0.314184 0.036170 0.011773
0.349826 0.035287 0.012950
0.385469 0.034404 0.014128
0.421112 0.033521 0.015305
0.456755 0.032638 0.016482
0.492397 0.031755 0.017660
0.528040 0.030872 0.018837
0.563683 0.029989 0.020014
0.599325 0.029106 0.021192
0.634968 0.028223 0.022369
0.670611 0.027340 0.023546
0.706253 0.026457 0.024724
0.741896 0.025574 0.025901
0.777539 0.024691 0.027078
0.813182 0.023808 0.028256
0.848824 0.022925 0.029433
0.884467 0.022042 0.030610
0.920110 0.021159 0.031787
0.955752 0.020276 0.032965
0.991395 0.019393 0.034142
1.000000 0.018510 0.035319
1.000000 0.017627 0.036497
1.000000 0.016744 0.037674
0.000000 0.043267 0.002311
0.000000 0.042384 0.003489
0.029042 0.041501 0.004666
0.064685 0.040618 0.005843
0.100328 0.039735 0.007021
0.135970 0.038852 0.008198
0.171613 0.037969 0.009375
0.207256 0.037086 0.010552
0.242898 0.036203 0.011730
0.278541 0.035320 0.012907
0.314184 0.034437 0.014084
0.349826 0.033554 0.015262
0.385469 0.032671 0.016439
0.421112 0.031788 0.017616
0.456755 0.030905 0.018794
0.492397 0.030022 0.019971
0.528040 0.029139 0.021148
0.563683 0.028256 0.022326
0.599325 0.027373 0.023503
0.634968 0.026490 0.024680
0.670611 0.025607 0.025858
0.706253 0.024724 0.027035
0.741896 0.023841 0.028212
0.777539 0.022958 0.029389
0.813182 0.022075 0.030567
0.848824 0.021192 0.031744
0.884467 0.020309 0.032921
0.920110 0.019426 0.034099
0.955752 0.018543 0.035276
0.991395 0.017660 0.036453
1.000000 0.016777 0.037631
1.000000 0.015894 0.038808
1.000000 0.015011 0.039985
0.000000 0.060903 0.004623
0.000000 0.060020 0.005800
0.028162 0.058479 0.006977
0.063804 0.056788 0.008155
0.099447 0.055098 0.009332
0.135090 0.053408 0.010509
0.170732 0.051718 0.011687
0.206375 0.050027 0.012864
0.242018 0.048337 0.014041
0.277661 0.046647 0.015218
0.313303 0.044956 0.016396
0.348946 0.043266 0.017573
0.384589 0.041576 0.018750
0.420231 0.039886 0.019928
0.455874 0.038195 0.021105
0.491517 0.036505 0.022282
0.527160 0.034815 0.023460
0.562802 0.033124 0.024637
0.598445 0.031434 0.025814
0.634088 0.029744 0.026992
0.669730 0.028054 0.028169
0.705373 0.026363 0.029346
0.741016 0.024673 0.030523
0.776658 0.022983 0.031701
0.812301 0.021293 0.032878
0.847944 0.019602 0.034055
0.883587 0.018575 0.035233
0.919229 0.017692 0.036410
0.954872 0.016809 0.037587
0.990515 0.015926 0.038765
1.000000 0.015044 0.039942
1.000000 0.014161 0.041119
1.000000 0.013278 0.042297
0.000000 0.094680 0.006934
0.000000 0.093797 0.008111
0.026547 0.092256 0.009289
0.062190 0.090566 0.010466
0.097833 0.088875 0.011643
0.133476 0.087185 0.012821
0.169118 0.085495 0.013998
0.204761 0.083805 0.015175
0.240404 0.082114 0.016352
0.276046 0.080424 0.017530
0.311689 0.078734 0.018707
0.347332 0.077043 0.019884
0.382974 0.075353 0.021062
0.418617 0.073663 0.022239
0.454260 0.071973 0.023416
0.489903 0.070282 0.024594
0.525545 0.068592 0.025771
0.561188 0.066902 0.026948
0.596831 0.065211 0.028126
0.632473 0.063521 0.029303
0.668116 0.061831 0.030480
0.703759 0.060141 0.031657
0.739401 0.058450 0.032835
0.775044 0.056760 0.034012
0.810687 0.055070 0.035189
0.846330 0.053379 0.036367
0.881972 0.051689 0.037544
0.917615 0.049999 0.038721
0.953258 0.048309 0.039899
0.988900 0.046618 0.041076
1.000000 0.044928 0.042253
1.000000 0.043387 0.043431
1.000000 0.042504 0.044608
0.000000 0.128457 0.009245
0.000000 0.127574 0.010423
0.024933 0.126033 0.011600
0.060576 0.124343 0.012777
0.096219 0.122653 0.013954
0.131861 0.120962 0.015132
0.167504 0.119272 0.016309
0.203147 0.117582 0.017486
0.238789 0.115892 0.018664
0.274432 0.114201 0.019841
0.310075 0.112511 0.021018
0.345718 0.110821 0.022196
0.381360 0.109130 0.023373
0.417003 0.107440 0.024550
0.452646 0.105750 0.025728
0.488288 0.104060 0.026905
0.523931 0.102369 0.028082
0.559574 0.100679 0.029260
0.595216 0.098989 0.030437
0.630859 0.097298 0.031614
0.666502 0.095608 0.032792
0.702144 0.093918 0.033969
0.737787 0.092228 0.035146
0.773430 0.090537 0.036323
0.809073 0.088847 0.037501
0.844715 0.087157 0.038678
0.880358 0.085466 0.039855
0.916001 0.083776 0.041033
0.951643 0.082086 0.042210
0.987286 0.080396 0.043387
1.000000 0.078705 0.044565
1.000000 0.077165 0.045742
1.000000 0.076282 0.046919
0.000000 0.162234 0.011557
0.000000 0.161351 0.012734
0.023319 0.159811 0.013911
0.058962 0.158120 0.015088
0.094604 0.156430 0.016266
0.130247 0.154740 0.017443
0.165890 0.153049 0.018620
0.201532 0.151359 0.019798
0.237175 0.149669 0.020975
0.272818 0.147979 0.022152
0.308461 0.146288 0.023330
0.344103 0.144598 0.024507
0.379746 0.142908 0.025684
0.415389 0.141217 0.026862
0.451031 0.139527 0.028039
0.486674 0.137837 0.029216
0.522317 0.136147 0.030394
0.557959 0.134456 0.031571
0.593602 0.132766 0.032748
0.629245 0.131076 0.033925
0.664888 0.129385 0.035103
0.700530 0.127695 0.036280
0.736173 0.126005 0.037457
0.771816 0.124315 0.038635
0.807458 0.122624 0.039812
0.843101 0.120934 0.040989
0.878744 0.119244 0.042167
0.914386 0.117553 0.043344
0.950029 0.115863 0.044521
0.985672 0.114173 0.045699
1.000000 0.112483 0.046876
1.000000 0.110942 0.048053
1.000000 0.110059 0.049231
0.000000 0.196012 0.013868
0.000000 0.195129 0.015045
0.021705 0.193588 0.016223
0.057347 0.191898 0.017400
0.092990 0.190207 0.018577
0.128633 0.188517 0.019754
0.164275 0.186827 0.020932
0.199918 0.185136 0.022109
0.235561 0.183446 0.023286
0.271204 0.181756 0.024464
0.306846 0.180066 0.025641
0.342489 0.178375 0.026818
0.378132 0.176685 0.027996
0.413774 0.174995 0.029173
0.449417 0.173304 0.030350
0.485060 0.171614 0.031528
0.520703 0.169924 0.032705
0.556345 0.168234 0.033882
0.591988 0.166543 0.035060
0.627631 0.164853 0.036237
0.663273 0.163163 0.037414
0.698916 0.161472 0.038591
0.734559 0.159782 0.039769
0.770201 0.158092 0.040946
0.805844 0.156402 0.042123
0.841487 0.154711 0.043301
0.877130 0.153021 0.044478
0.912772 0.151331 0.045655
0.948415 0.149640 0.046833
0.984058 0.147950 0.048010
1.000000 0.146260 0.049187
1.000000 0.144719 0.050365
1.000000 0.143836 0.051542
0.000000 0.229789 0.016179
0.000000 0.228906 0.017357
0.020090 0.227365 0.018534
0.055733 0.225675 0.019711
0.091376 0.223985 0.020888
0.127019 0.222294 0.022066
0.162661 0.220604 0.023243
0.198304 0.218914 0.024420
0.233947 0.217223 0.025598
0.269589 0.215533 0.026775
0.305232 0.213843 0.027952
0.340875 0.212153 0.029130
0.376517 0.210462 0.030307
0.412160 0.208772 0.031484
0.447803 0.207082 0.032662
0.483446 0.205391 0.033839
0.519088 0.203701 0.035016
0.554731 0.202011 0.036193
0.590374 0.200321 0.037371
0.626016 0.198630 0.038548
0.661659 0.196940 0.039725
0.697302 0.195250 0.040903
0.732944 0.193559 0.042080
0.768587 0.191869 0.043257
0.804230 0.190179 0.044435
0.839873 0.188489 0.045612
0.875515 0.186798 0.046789
0.911158 0.185108 0.047967
0.946801 0.183418 0.049144
0.982443 0.181727 0.050321
1.000000 0.180037 0.051499
1.000000 0.178496 0.052676
1.000000 0.177613 0.053406
0.000000 0.263566 0.018490
0.000000 0.262683 0.019668
0.018476 0.261142 0.020845
0.054119 0.259452 0.022022
0.089762 0.257762 0.023200
0.125404 0.256072 0.024377
0.161047 0.254381 0.025554
0.196690 0.252691 0.026732
0.232332 0.251001 0.027909
0.267975 0.249310 0.029086
0.303618 0.247620 0.030264
0.339260 0.245930 0.031441
0.374903 0.244240 0.032618
0.410546 0.242549 0.033796
0.446189 0.240859 0.034973
0.481831 0.239169 0.036150
0.517474 0.237478 0.037327
0.553117 0.235788 0.038505
0.588759 0.234098 0.039682
0.624402 0.232408 0.040859
0.660045 0.230717 0.042037
0.695688 0.229027 0.043214
0.731330 0.227337 0.044391
0.766973 0.225646 0.045569
0.802616 0.223956 0.046746
0.838258 0.222266 0.047923
0.873901 0.220576 0.049101
0.909544 0.218885 0.050278
0.945186 0.217195 0.051455
0.980829 0.215505 0.052633
1.000000 0.213814 0.053384
1.000000 0.212274 0.053997
1.000000 0.211391 0.054611
0.000000 0.297343 0.020802
0.000000 0.296460 0.021979
0.016862 0.294920 0.023156
0.052505 0.293229 0.024334
0.088147 0.291539 0.025511
0.123790 0.289849 0.026688
0.159433 0.288158 0.027866
0.195075 0.286468 0.029043
0.230718 0.284778 0.030220
0.266361 0.283088 0.031398
0.302004 0.281397 0.032575
0.337646 0.279707 0.033752
0.373289 0.278017 0.034930
0.408932 0.276326 0.036107
0.444574 0.274636 0.037284
0.480217 0.272946 0.038461
0.515860 0.271256 0.039639
0.551502 0.269565 0.040816
0.587145 0.267875 0.041993
0.622788 0.266185 0.043171
0.658431 0.264495 0.044348
0.694073 0.262804 0.045525
0.729716 0.261114 0.046703
0.765359 0.259424 0.047880
0.801001 0.257733 0.049057
0.836644 0.256043 0.050235
0.872287 0.254353 0.051412
0.907929 0.252663 0.052589
0.944209 0.250972 0.053361
0.980738 0.249282 0.053975
1.000000 0.247592 0.054588
1.000000 0.246051 0.055202
1.000000 0.245168 0.055815
0.000000 0.331121 0.023113
0.000000 0.330238 0.024290
0.015248 0.328697 0.025468
0.050890 0.327007 0.026645
0.086533 0.325316 0.027822
0.122176 0.323626 0.029000
0.157818 0.321936 0.030177
0.193461 0.320245 0.031354
0.229104 0.318555 0.032532
0.264747 0.316865 0.033709
0.300389 0.315175 0.034886
0.336032 0.313484 0.036064
0.371675 0.311794 0.037241
0.407317 0.310104 0.038418
0.442960 0.308413 0.039595
0.478603 0.306723 0.040773
0.514246 0.305033 0.041950
0.549888 0.303343 0.043127
0.585531 0.301652 0.044305
0.621174 0.299962 0.045482
0.656816 0.298272 0.046659
0.692459 0.296581 0.047837
0.728102 0.294891 0.049014
0.763744 0.293201 0.050191
0.799387 0.291511 0.051369
0.835030 0.289820 0.052546
0.871277 0.288130 0.053339
0.907806 0.286440 0.053952
0.944335 0.284749 0.054565
0.980863 0.283059 0.055179
1.000000 0.281369 0.055792
1.000000 0.279828 0.056406
1.000000 0.279535 0.056232
0.000000 0.364898 0.025424
0.000000 0.364015 0.026602
0.013633 0.362474 0.027779
0.049276 0.360784 0.028956
0.084919 0.359094 0.030134
0.120562 0.357403 0.031311
0.156204 0.355713 0.032488
0.191847 0.354023 0.033666
0.227490 0.352332 0.034843
0.263132 0.350642 0.036020
0.298775 0.348952 0.037198
0.334418 0.347262 0.038375
0.370060 0.345571 0.039552
0.405703 0.343881 0.040730
0.441346 0.342191 0.041907
0.476989 0.340500 0.043084
0.512631 0.338810 0.044261
0.548274 0.337120 0.045439
0.583917 0.335430 0.046616
0.619559 0.333739 0.047793
0.655202 0.332049 0.048971
0.690845 0.330359 0.050148
0.726487 0.328668 0.051325
0.762130 0.326978 0.052503
0.798345 0.325288 0.053316
0.834874 0.323598 0.053929
0.871402 0.321907 0.054543
0.907931 0.320217 0.055156
0.944460 0.318527 0.055770
0.980989 0.316836 0.056383
1.000000 0.315704 0.056253
1.000000 0.315046 0.055689
1.000000 0.315046 0.055125
0.000000 0.398675 0.027736
0.000000 0.397792 0.028913
0.012019 0.396251 0.030090
0.047662 0.394561 0.031268
0.083305 0.392871 0.032445
0.118947 0.391181 0.033622
0.154590 0.389490 0.034800
0.190233 0.387800 0.035977
0.225875 0.386110 0.037154
0.261518 0.384419 0.038332
0.297161 0.382729 0.039509
0.332803 0.381039 0.040686
0.368446 0.379349 0.041863
0.404089 0.377658 0.043041
0.439732 0.375968 0.044218
0.475374 0.374278 0.045395
0.511017 0.372587 0.046573
0.546660 0.370897 0.047750
0.582302 0.369207 0.048927
0.617945 0.367517 0.050105
0.653588 0.365826 0.051282
0.689230 0.364136 0.052459
0.725413 0.362446 0.053293
0.761941 0.360755 0.053907
0.798470 0.359065 0.054520
0.834999 0.357375 0.055134
0.871528 0.355685 0.055747
0.908056 0.353994 0.056361
0.944585 0.352829 0.056274
0.981114 0.352022 0.055710
1.000000 0.351215 0.055146
1.000000 0.350557 0.054582
1.000000 0.350557 0.054018
0.000000 0.432452 0.030047
0.000000 0.431569 0.031224
0.010405 0.430029 0.032402
0.046048 0.428338 0.033579
0.081690 0.426648 0.034756
0.117333 0.424958 0.035934
0.152976 0.423268 0.037111
0.188618 0.421577 0.038288
0.224261 0.419887 0.039466
0.259904 0.418197 0.040643
0.295547 0.416506 0.041820
0.331189 0.414816 0.042997
0.366832 0.413126 0.044175
0.402475 0.411436 0.045352
0.438117 0.409745 0.046529
0.473760 0.408055 0.047707
0.509403 0.406365 0.048884
0.545045 0.404674 0.050061
0.580688 0.402984 0.051239
0.616331 0.401294 0.052416
0.652480 0.399604 0.053271
0.689009 0.397913 0.053884
0.725538 0.396223 0.054498
0.762067 0.394533 0.055111
0.798595 0.392842 0.055725
0.835124 0.391152 0.056338
0.871653 0.389955 0.056294
0.908182 0.389147 0.055731
0.944710 0.388340 0.055167
0.981239 0.387533 0.054603
1.000000 0.386726 0.054039
1.000000 0.386068 0.053475
1.000000 0.386068 0.052911
0.000000 0.466230 0.032358
0.000000 0.465347 0.033536
0.008791 0.463806 0.034713
0.044433 0.462116 0.035890
0.080076 0.460425 0.037068
0.115719 0.458735 0.038245
0.151361 0.457045 0.039422
0.187004 0.455355 0.040600
0.222647 0.453664 0.041777
0.258290 0.451974 0.042954
0.293932 0.450284 0.044132
0.329575 0.448593 0.045309
0.365218 0.446903 0.046486
0.400860 0.445213 0.047663
0.436503 0.443523 0.048841
0.472146 0.441832 0.050018
0.507788 0.440142 0.051195
0.543431 0.438452 0.052373
0.579548 0.436761 0.053248
0.616077 0.435071 0.053862
0.652606 0.433381 0.054475
0.689134 0.431691 0.055089
0.725663 0.430000 0.055702
0.762192 0.428310 0.056316
0.798721 0.427080 0.056315
0.835249 0.426273 0.055751
0.871778 0.425466 0.055187
0.908307 0.424658 0.054624
0.944835 0.423851 0.054060
0.981364 0.423044 0.053496
1.000000 0.422236 0.052932
1.000000 0.421579 0.052368
1.000000 0.421579 0.051804
0.000000 0.500007 0.034670
0.000000 0.499124 0.035847
0.007176 0.497583 0.037024
0.042819 0.495893 0.038202
0.078462 0.494203 0.039379
0.114105 0.492512 0.040556
0.149747 0.490822 0.041734
0.185390 0.489132 0.042911
0.221033 0.487442 0.044088
0.256675 0.485751 0.045265
0.292318 0.484061 0.046443
0.327961 0.482371 0.047620
0.363603 0.480680 0.048797
0.399246 0.478990 0.049975
0.434889 0.477300 0.051152
0.470532 0.475610 0.052329
0.506616 0.473919 0.053226
0.543145 0.472229 0.053839
0.579673 0.470539 0.054453
0.616202 0.468848 0.055066
0.652731 0.467158 0.055680
0.689260 0.465468 0.056293
0.725788 0.464205 0.056336
0.762317 0.463398 0.055772
0.798846 0.462591 0.055208
0.835374 0.461784 0.054644
0.871903 0.460976 0.054081
0.908432 0.460169 0.053517
0.944961 0.459362 0.052953
0.981489 0.458554 0.052389
1.000000 0.457747 0.051825
1.000000 0.457089 0.051261
1.000000 0.457089 0.050697
0.000000 0.533784 0.036981
0.000000 0.532901 0.038158
0.005562 0.531360 0.039336
0.041205 0.529670 0.040513
0.076848 0.527980 0.041690
0.112490 0.526290 0.042868
0.148133 0.524599 0.044045
0.183776 0.522909 0.045222
0.219418 0.521219 0.046399
0.255061 0.519528 0.047577
0.290704 0.517838 0.048754
0.326346 0.516148 0.049931
0.361989 0.514458 0.051109
0.397632 0.512767 0.052286
0.433684 0.511077 0.053203
0.470212 0.509387 0.053817
0.506741 0.507696 0.054430
0.543270 0.506006 0.055044
0.579799 0.504316 0.055657
0.616327 0.502626 0.056270
0.652856 0.501331 0.056357
0.689385 0.500524 0.055793
0.725914 0.499716 0.055229
0.762442 0.498909 0.054665
0.798971 0.498102 0.054101
0.835500 0.497294 0.053537
0.872028 0.496487 0.052974
0.908557 0.495680 0.052410
0.945086 0.494872 0.051846
0.981615 0.494065 0.051282
1.000000 0.493258 0.050718
1.000000 0.492600 0.050154
1.000000 0.492600 0.049591
0.000000 0.567562 0.039292
0.000000 0.566679 0.040470
0.003948 0.565138 0.041647
0.039591 0.563447 0.042824
0.075233 0.561757 0.044002
0.110876 0.560067 0.045179
0.146519 0.558377 0.046356
0.182161 0.556686 0.047533
0.217804 0.554996 0.048711
0.253447 0.553306 0.049888
0.289090 0.551615 0.051065
0.324732 0.549925 0.052243
0.360751 0.548235 0.053181
0.397280 0.546545 0.053794
0.433809 0.544854 0.054408
0.470338 0.543164 0.055021
0.506866 0.541474 0.055634
0.543395 0.539783 0.056248
0.579924 0.538456 0.056377
0.616453 0.537649 0.055814
0.652981 0.536842 0.055250
0.689510 0.536034 0.054686
0.726039 0.535227 0.054122
0.762567 0.534420 0.053558
0.799096 0.533612 0.052994
0.835625 0.532805 0.052430
0.872154 0.531998 0.051867
0.908682 0.531190 0.051303
0.945211 0.530383 0.050739
0.981740 0.529576 0.050175
1.000000 0.528769 0.049611
1.000000 0.528111 0.049047
1.000000 0.528111 0.048484
0.000000 0.601339 0.041604
0.000000 0.600456 0.042781
0.002334 0.598915 0.043958
0.037976 0.597225 0.045136
0.073619 0.595534 0.046313
0.109262 0.593844 0.047490
0.144904 0.592154 0.048667
0.180547 0.590464 0.049845
0.216190 0.588773 0.051022
0.251833 0.587083 0.052199
0.287819 0.585393 0.053158
0.324348 0.583702 0.053771
0.360877 0.582012 0.054385
0.397405 0.580322 0.054998
0.433934 0.578632 0.055612
0.470463 0.576941 0.056225
0.506992 0.575581 0.056398
0.543520 0.574774 0.055834
0.580049 0.573967 0.055270
0.616578 0.573160 0.054707
0.653107 0.572352 0.054143
0.689635 0.571545 0.053579
0.726164 0.570738 0.053015
0.762693 0.569930 0.052451
0.799221 0.569123 0.051887
0.835750 0.568316 0.051324
0.872279 0.567508 0.050760
0.908808 0.566701 0.050196
0.945336 0.565894 0.049632
0.981865 0.565087 0.049068
1.000000 0.564279 0.048504
1.000000 0.563621 0.047940
1.000000 0.563621 0.047377
0.000000 0.635116 0.043915
0.000000 0.634233 0.045092
0.000719 0.632692 0.046270
0.036362 0.631002 0.047447
0.072005 0.629312 0.048624
0.107648 0.627621 0.049801
0.143290 0.625931 0.050979
0.178933 0.624241 0.052156
0.214887 0.622551 0.053135
0.251416 0.620860 0.053749
0.287944 0.619170 0.054362
0.324473 0.617480 0.054976
0.361002 0.615789 0.055589
0.397531 0.614099 0.056203
0.434059 0.612707 0.056419
0.470588 0.611900 0.055855
0.507117 0.611092 0.055291
0.543646 0.610285 0.054727
0.580174 0.609478 0.054164
0.616703 0.608670 0.053600
0.653232 0.607863 0.053036
0.689760 0.607056 0.052472
0.726289 0.606248 0.051908
0.762818 0.605441 0.051344
0.799347 0.604634 0.050780
0.835875 0.603827 0.050217
0.872404 0.603019 0.049653
0.908933 0.602212 0.049089
0.945462 0.601405 0.048525
0.981990 0.600597 0.047961
1.000000 0.599790 0.047397
1.000000 0.599132 0.046834
1.000000 0.599132 0.046270
0.000000 0.668893 0.046226
0.000000 0.668010 0.047404
0.000000 0.666470 0.048581
0.034748 0.664779 0.049758
0.070391 0.663089 0.050935
0.106033 0.661399 0.052113
0.141955 0.659708 0.053113
0.178483 0.658018 0.053726
0.215012 0.656328 0.054340
0.251541 0.654638 0.054953
0.288070 0.652947 0.055567
0.324598 0.651257 0.056180
0.361127 0.649832 0.056440
0.397656 0.649025 0.055876
0.434185 0.648218 0.055312
0.470713 0.647410 0.054748
0.507242 0.646603 0.054184
0.543771 0.645796 0.053620
0.580299 0.644988 0.053057
0.616828 0.644181 0.052493
0.653357 0.643374 0.051929
0.689886 0.642566 0.051365
0.726414 0.641759 0.050801
0.762943 0.640952 0.050237
0.799472 0.640145 0.049673
0.836001 0.639337 0.049110
0.872529 0.638530 0.048546
0.909058 0.637723 0.047982
0.945587 0.636915 0.047418
0.982116 0.636108 0.046854
1.000000 0.635301 0.046290
1.000000 0.634643 0.045727
1.000000 0.634643 0.045163
0.000000 0.702671 0.048538
0.000000 0.701788 0.049715
0.000000 0.700247 0.050892
0.033134 0.698557 0.052070
0.069022 0.696866 0.053090
0.105551 0.695176 0.053704
0.142080 0.693486 0.054317
0.178609 0.691795 0.054931
0.215137 0.690105 0.055544
0.251666 0.688415 0.056158
0.288195 0.686958 0.056460
0.324724 0.686150 0.055897
0.361252 0.685343 0.055333
0.397781 0.684536 0.054769
0.434310 0.683728 0.054205
0.470839 0.682921 0.053641
0.507367 0.682114 0.053077
0.543896 0.681306 0.052513
0.580425 0.680499 0.051950
0.616953 0.679692 0.051386
0.653482 0.678885 0.050822
0.690011 0.678077 0.050258
0.726540 0.677270 0.049694
0.763068 0.676463 0.049130
0.799597 0.675655 0.048567
0.836126 0.674848 0.048003
0.872655 0.674041 0.047439
0.909183 0.673233 0.046875
0.945712 0.672426 0.046311
0.982241 0.671619 0.045747
1.000000 0.670812 0.045183
1.000000 0.670154 0.044620
1.000000 0.670154 0.044056
0.000000 0.736448 0.050849
0.000000 0.735565 0.052026
0.000213 0.734024 0.053068
0.032619 0.732334 0.053681
0.069148 0.730644 0.054295
0.105676 0.728953 0.054908
0.142205 0.727263 0.055522
0.178734 0.725573 0.056135
0.215263 0.724083 0.056481
0.251791 0.723276 0.055917
0.288320 0.722468 0.055353
0.324849 0.721661 0.054790
0.361378 0.720854 0.054226
0.397906 0.720046 0.053662
0.434435 0.719239 0.053098
0.470964 0.718432 0.052534
0.507492 0.717625 0.051970
0.544021 0.716817 0.051407
0.580550 0.716010 0.050843
0.617079 0.715203 0.050279
0.653607 0.714395 0.049715
0.690136 0.713588 0.049151
0.726665 0.712781 0.048587
0.763194 0.711973 0.048023
0.799722 0.711166 0.047460
0.836251 0.710359 0.046896
0.872780 0.709552 0.046332
0.909309 0.708744 0.045768
0.945837 0.707937 0.045204
0.982366 0.707130 0.044640
1.000000 0.706322 0.044077
1.000000 0.705665 0.043513
1.000000 0.705665 0.042949
0.000181 0.770225 0.053045
0.001067 0.769342 0.053659
0.001953 0.767801 0.054272
0.032744 0.766111 0.054886
0.069273 0.764421 0.055499
0.105802 0.762730 0.056112
0.142330 0.761208 0.056502
0.178859 0.760401 0.055938
0.215388 0.759594 0.055374
0.251917 0.758786 0.054810
0.288445 0.757979 0.054246
0.324974 0.757172 0.053683
0.361503 0.756364 0.053119
0.398032 0.755557 0.052555
0.434560 0.754750 0.051991
0.471089 0.753943 0.051427
0.507618 0.753135 0.050863
0.544146 0.752328 0.050300
0.580675 0.751521 0.049736
0.617204 0.750713 0.049172
0.653733 0.749906 0.048608
0.690261 0.749099 0.048044
0.726790 0.748291 0.047480
0.763319 0.747484 0.046916
0.799848 0.746677 0.046353
0.836376 0.745870 0.045789
0.872905 0.745062 0.045225
0.909434 0.744255 0.044661
0.945963 0.743448 0.044097
0.982491 0.742640 0.043533
1.000000 0.741833 0.042970
1.000000 0.741175 0.042406
1.000000 0.741175 0.041842
0.001920 0.804002 0.054250
0.002806 0.803119 0.054863
0.003692 0.801579 0.055476
0.032869 0.799888 0.056090
0.069398 0.798334 0.056523
0.105927 0.797526 0.055959
0.142456 0.796719 0.055395
0.178984 0.795912 0.054831
0.215513 0.795104 0.054267
0.252042 0.794297 0.053703
0.288571 0.793490 0.053140
0.325099 0.792683 0.052576
0.361628 0.791875 0.052012
0.398157 0.791068 0.051448
0.434685 0.790261 0.050884
0.471214 0.789453 0.050320
0.507743 0.788646 0.049756
0.544272 0.787839 0.049193
0.580800 0.787031 0.048629
0.617329 0.786224 0.048065
0.653858 0.785417 0.047501
0.690387 0.784610 0.046937
0.726915 0.783802 0.046373
0.763444 0.782995 0.045810
0.799973 0.782188 0.045246
0.836502 0.781380 0.044682
0.873030 0.780573 0.044118
0.909559 0.779766 0.043554
0.946088 0.778958 0.042990
0.982617 0.778151 0.042426
1.000000 0.777344 0.041863
1.000000 0.776686 0.041299
1.000000 0.776686 0.040735
0.003660 0.837780 0.055454
0.004546 0.836897 0.056067
0.005432 0.835459 0.056543
0.032995 0.834652 0.055980
0.069523 0.833844 0.055416
0.106052 0.833037 0.054852
0.142581 0.832230 0.054288
0.179110 0.831422 0.053724
0.215638 0.830615 0.053160
0.252167 0.829808 0.052596
0.288696 0.829001 0.052033
0.325224 0.828193 0.051469
0.361753 0.827386 0.050905
0.398282 0.826579 0.050341
0.434811 0.825771 0.049777
0.471339 0.824964 0.049213
0.507868 0.824157 0.048650
0.544397 0.823349 0.048086
0.580926 0.822542 0.047522
0.617454 0.821735 0.046958
0.653983 0.820928 0.046394
0.690512 0.820120 0.045830
0.727041 0.819313 0.045266
0.763569 0.818506 0.044703
0.800098 0.817698 0.044139
0.836627 0.816891 0.043575
0.873156 0.816084 0.043011
0.909684 0.815276 0.042447
0.946213 0.814469 0.041883
0.982742 0.813662 0.041320
1.000000 0.812855 0.040756
1.000000 0.812197 0.040192
1.000000 0.812197 0.039628
0.005399 0.871627 0.056564
0.006285 0.871627 0.056000
0.007171 0.870970 0.055436
0.033120 0.870162 0.054873
0.069649 0.869355 0.054309
0.106177 0.868548 0.053745
0.142706 0.867741 0.053181
0.179235 0.866933 0.052617
0.215764 0.866126 0.052053
0.252292 0.865319 0.051489
0.288821 0.864511 0.050926
0.325350 0.863704 0.050362
0.361878 0.862897 0.049798
0.398407 0.862089 0.049234
0.434936 0.861282 0.048670
0.471465 0.860475 0.048106
0.507993 0.859668 0.047543
0.544522 0.858860 0.046979
0.581051 0.858053 0.046415
0.617580 0.857246 0.045851
0.654108 0.856438 0.045287
0.690637 0.855631 0.044723
0.727166 0.854824 0.044159
0.763695 0.854016 0.043596
0.800223 0.853209 0.043032
0.836752 0.852402 0.042468
0.873281 0.851595 0.041904
