docs/luts/fresh-vintage-warmth.cube
TITLE "FreshLUTs??-????"
LUT_3D_SIZE 5
DOMAIN_MIN 0.0 0.0 0.0
DOMAIN_MAX 1.0 1.0 1.0
0.101040 0.081868 0.049088
0.294984 0.093813 0.061033
0.488929 0.105759 0.072979
0.682873 0.117704 0.084924
0.876817 0.129649 0.096869
0.124338 0.285976 0.072386
0.318282 0.297921 0.084331
0.512227 0.309867 0.096277
0.706171 0.321812 0.108222
0.900116 0.333758 0.120168
0.147636 0.490084 0.095684
0.341581 0.502030 0.107630
0.535525 0.513975 0.119575
0.729469 0.525920 0.131520
0.923414 0.537866 0.143466
0.170934 0.694192 0.118982
0.364879 0.706138 0.130928
0.558823 0.718083 0.142873
0.752767 0.730028 0.154818
0.946712 0.741974 0.166764
0.194232 0.898300 0.142280
0.388177 0.910246 0.154226
0.582121 0.922191 0.166171
0.776065 0.934136 0.178116
0.970010 0.946082 0.190062
0.105452 0.086280 0.229800
0.299396 0.098225 0.241745
0.493341 0.110171 0.253691
0.687285 0.122116 0.265636
0.881229 0.134061 0.277581
0.128750 0.290388 0.253098
0.322694 0.302333 0.265043
0.516639 0.314279 0.276989
0.710583 0.326224 0.288934
0.904527 0.338169 0.300879
0.152048 0.494496 0.276396
0.345992 0.506441 0.288341
0.539937 0.518387 0.300287
0.733881 0.530332 0.312232
0.927825 0.542277 0.324177
0.175346 0.698604 0.299694
0.369290 0.710549 0.311639
0.563235 0.722495 0.323585
0.757179 0.734440 0.335530
0.951123 0.746385 0.347475
0.198644 0.902712 0.322992
0.392588 0.914657 0.334937
0.586533 0.926603 0.346883
0.780477 0.938548 0.358828
0.974421 0.950493 0.370773
0.109864 0.090692 0.410512
0.303808 0.102637 0.422457
0.497752 0.114582 0.434402
0.691697 0.126528 0.446348
0.885641 0.138473 0.458293
0.133162 0.294800 0.433810
0.327106 0.306745 0.445755
0.521050 0.318690 0.457700
0.714995 0.330636 0.469646
0.908939 0.342581 0.481591
0.156460 0.498908 0.457108
0.350404 0.510853 0.469053
0.544348 0.522798 0.480998
0.738293 0.534744 0.492944
0.932237 0.546689 0.504889
0.179758 0.703016 0.480406
0.373702 0.714961 0.492351
0.567646 0.726906 0.504296
0.761591 0.738852 0.516242
0.955535 0.750797 0.528187
0.203056 0.907124 0.503704
0.397000 0.919069 0.515649
0.590945 0.931015 0.527595
0.784889 0.942960 0.539540
0.978833 0.954905 0.551485
0.114275 0.095103 0.591223
0.308220 0.107049 0.603169
0.502164 0.118994 0.615114
0.696109 0.130940 0.627060
0.890053 0.142885 0.639005
0.137574 0.299212 0.614522
0.331518 0.311157 0.626467
0.525462 0.323102 0.638412
0.719407 0.335048 0.650358
0.913351 0.346993 0.662303
0.160872 0.503320 0.637820
0.354816 0.515265 0.649765
0.548760 0.527210 0.661710
0.742705 0.539156 0.673656
0.936649 0.551101 0.685601
0.184170 0.707428 0.661118
0.378114 0.719373 0.673063
0.572058 0.731318 0.685008
0.766003 0.743264 0.696954
0.959947 0.755209 0.708899
0.207468 0.911536 0.684416
0.401412 0.923481 0.696361
0.595356 0.935426 0.708306
0.789301 0.947372 0.720252
0.983245 0.959317 0.732197
0.118687 0.099515 0.771935
0.312632 0.111461 0.783881
0.506576 0.123406 0.795826
0.700520 0.135351 0.807771
0.894465 0.147297 0.819717
0.141985 0.303623 0.795233
0.335930 0.315569 0.807179
0.529874 0.327514 0.819124
0.723818 0.339459 0.831069
0.917763 0.351405 0.843015
0.165283 0.507731 0.818531
0.359228 0.519677 0.830477
0.553172 0.531622 0.842422
0.747116 0.543567 0.854367
0.941061 0.555513 0.866313
0.188581 0.711839 0.841829
0.382526 0.723785 0.853775
0.576470 0.735730 0.865720
0.770414 0.747675 0.877665
0.964359 0.759621 0.889611
0.211879 0.915947 0.865127
0.405824 0.927893 0.877073
0.599768 0.939838 0.889018
0.793712 0.951783 0.900963
0.987657 0.963729 0.912909
