docs/luts/fresh-thriller.cube
TITLE "FreshLUTs??-??"
LUT_3D_SIZE 33
DOMAIN_MIN 0.0 0.0 0.0
DOMAIN_MAX 1.0 1.0 1.0
0.000000 0.015000 0.070000
0.000000 0.014706 0.068626
0.000000 0.014411 0.067253
0.000000 0.014117 0.065879
0.013365 0.015617 0.066300
0.044345 0.018910 0.068514
0.075326 0.022204 0.070729
0.106307 0.025498 0.072943
0.137287 0.028791 0.075158
0.168268 0.032085 0.077372
0.199249 0.035379 0.079587
0.230229 0.038672 0.081801
0.261210 0.041966 0.084016
0.292191 0.045260 0.086230
0.323171 0.048553 0.088445
0.354152 0.051847 0.090659
0.385133 0.055141 0.092874
0.416113 0.058434 0.095088
0.447094 0.061728 0.097302
0.478074 0.065022 0.099517
0.509055 0.068315 0.101731
0.540036 0.071609 0.103946
0.571016 0.074903 0.106160
0.601997 0.078196 0.108375
0.632978 0.081490 0.110589
0.663958 0.084784 0.112804
0.694939 0.088077 0.115018
0.725920 0.091371 0.117233
0.756900 0.094665 0.119447
0.772087 0.096164 0.119868
0.771480 0.095870 0.118494
0.770872 0.095576 0.117121
0.770265 0.095282 0.115747
0.000000 0.014422 0.067303
0.000000 0.014128 0.065930
0.000000 0.013834 0.064556
0.000000 0.013539 0.063183
0.012172 0.015039 0.063603
0.043153 0.018333 0.065818
0.074134 0.021626 0.068032
0.105114 0.024920 0.070247
0.136095 0.028214 0.072461
0.167076 0.031507 0.074676
0.198056 0.034801 0.076890
0.229037 0.038095 0.079105
0.260018 0.041388 0.081319
0.290998 0.044682 0.083534
0.321979 0.047976 0.085748
0.352959 0.051269 0.087963
0.383940 0.054563 0.090177
0.414921 0.057857 0.092391
0.445901 0.061150 0.094606
0.476882 0.064444 0.096820
0.507863 0.067738 0.099035
0.538843 0.071031 0.101249
0.569824 0.074325 0.103464
0.600805 0.077619 0.105678
0.631785 0.080912 0.107893
0.662766 0.084206 0.110107
0.693747 0.087500 0.112322
0.724727 0.090793 0.114536
0.755708 0.094087 0.116751
0.770895 0.095587 0.117171
0.770287 0.095292 0.115798
0.769680 0.094998 0.114424
0.769073 0.094704 0.113050
0.000000 0.013844 0.064607
0.000000 0.013550 0.063233
0.000000 0.013256 0.061860
0.000000 0.012961 0.060486
0.010980 0.014461 0.060907
0.041961 0.017755 0.063121
0.072941 0.021048 0.065336
0.103922 0.024342 0.067550
0.134903 0.027636 0.069765
0.165883 0.030929 0.071979
0.196864 0.034223 0.074194
0.227845 0.037517 0.076408
0.258825 0.040810 0.078623
0.289806 0.044104 0.080837
0.320787 0.047398 0.083052
0.351767 0.050691 0.085266
0.382748 0.053985 0.087480
0.413728 0.057279 0.089695
0.444709 0.060572 0.091909
0.475690 0.063866 0.094124
0.506670 0.067160 0.096338
0.537651 0.070453 0.098553
0.568632 0.073747 0.100767
0.599612 0.077041 0.102982
0.630593 0.080334 0.105196
0.661574 0.083628 0.107411
0.692554 0.086922 0.109625
0.723535 0.090215 0.111840
0.754516 0.093509 0.114054
0.769702 0.095009 0.114475
0.769095 0.094715 0.113101
0.768488 0.094420 0.111727
0.767880 0.094126 0.110354
0.000055 0.031336 0.065542
0.000000 0.031042 0.064169
0.000000 0.030747 0.062795
0.000000 0.030453 0.061422
0.013420 0.031953 0.061842
0.044400 0.035246 0.064057
0.075381 0.038540 0.066271
0.106362 0.041834 0.068486
0.137342 0.045127 0.070700
0.168323 0.048421 0.072915
0.199304 0.051715 0.075129
0.230284 0.055008 0.077344
0.261265 0.058302 0.079558
0.292246 0.061596 0.081773
0.323226 0.064889 0.083987
0.354207 0.068183 0.086202
0.385188 0.071477 0.088416
0.416168 0.074771 0.090630
0.447149 0.078064 0.092845
0.478130 0.081358 0.095059
0.509110 0.084652 0.097274
0.540091 0.087945 0.099488
0.571071 0.091239 0.101703
0.602052 0.094533 0.103917
0.633033 0.097826 0.106132
0.664013 0.101120 0.108346
0.694994 0.104414 0.110561
0.725975 0.107707 0.112775
0.756955 0.111001 0.114990
0.772142 0.112501 0.115410
0.771535 0.112206 0.114037
0.770927 0.111912 0.112663
0.770320 0.111618 0.111289
0.005356 0.063064 0.069340
0.004749 0.062770 0.067966
0.004142 0.062476 0.066593
0.003534 0.062181 0.065219
0.018721 0.063681 0.065640
0.049702 0.066975 0.067854
0.080682 0.070268 0.070068
0.111663 0.073562 0.072283
0.142644 0.076856 0.074497
0.173624 0.080149 0.076712
0.204605 0.083443 0.078926
0.235586 0.086737 0.081141
0.266566 0.090030 0.083355
0.297547 0.093324 0.085570
0.328528 0.096618 0.087784
0.359508 0.099912 0.089999
0.390489 0.103205 0.092213
0.421470 0.106499 0.094428
0.452450 0.109793 0.096642
0.483431 0.113086 0.098857
0.514412 0.116380 0.101071
0.545392 0.119674 0.103285
0.576373 0.122967 0.105500
0.607353 0.126261 0.107714
0.638334 0.129555 0.109929
0.669315 0.132848 0.112143
0.700295 0.136142 0.114358
0.731276 0.139436 0.116572
0.762257 0.142729 0.118787
0.777443 0.144229 0.119207
0.776836 0.143935 0.117834
0.776229 0.143640 0.116460
0.775621 0.143346 0.115087
0.010658 0.094793 0.073137
0.010050 0.094498 0.071763
0.009443 0.094204 0.070390
0.008836 0.093910 0.069016
0.024022 0.095409 0.069437
0.055003 0.098703 0.071651
0.085984 0.101997 0.073866
0.116964 0.105291 0.076080
0.147945 0.108584 0.078295
0.178926 0.111878 0.080509
0.209906 0.115172 0.082723
0.240887 0.118465 0.084938
0.271868 0.121759 0.087152
0.302848 0.125053 0.089367
0.333829 0.128346 0.091581
0.364810 0.131640 0.093796
0.395790 0.134934 0.096010
0.426771 0.138227 0.098225
0.457752 0.141521 0.100439
0.488732 0.144815 0.102654
0.519713 0.148108 0.104868
0.550693 0.151402 0.107083
0.581674 0.154696 0.109297
0.612655 0.157989 0.111512
0.643635 0.161283 0.113726
0.674616 0.164577 0.115941
0.705597 0.167870 0.118155
0.736577 0.171164 0.120369
0.767558 0.174458 0.122584
0.782745 0.175957 0.123004
0.782137 0.175663 0.121631
0.781530 0.175369 0.120257
0.780923 0.175074 0.118884
0.015959 0.126521 0.076934
0.015352 0.126227 0.075560
0.014744 0.125933 0.074187
0.014137 0.125638 0.072813
0.029324 0.127138 0.073234
0.060304 0.130432 0.075448
0.091285 0.133725 0.077663
0.122266 0.137019 0.079877
0.153246 0.140313 0.082092
0.184227 0.143606 0.084306
0.215208 0.146900 0.086521
0.246188 0.150194 0.088735
0.277169 0.153487 0.090950
0.308150 0.156781 0.093164
0.339130 0.160075 0.095379
0.370111 0.163368 0.097593
0.401092 0.166662 0.099807
0.432072 0.169956 0.102022
0.463053 0.173249 0.104236
0.494034 0.176543 0.106451
0.525014 0.179837 0.108665
0.555995 0.183130 0.110880
0.586975 0.186424 0.113094
0.617956 0.189718 0.115309
0.648937 0.193011 0.117523
0.679917 0.196305 0.119738
0.710898 0.199599 0.121952
0.741879 0.202892 0.124167
0.772859 0.206186 0.126381
0.788046 0.207686 0.126802
0.787439 0.207391 0.125428
0.786831 0.207097 0.124054
0.786224 0.206803 0.122681
0.021260 0.158250 0.080731
0.020653 0.157955 0.079358
0.020046 0.157661 0.077984
0.019438 0.157367 0.076611
0.034625 0.158866 0.077031
0.065606 0.162160 0.079245
0.096586 0.165454 0.081460
0.127567 0.168747 0.083674
0.158548 0.172041 0.085889
0.189528 0.175335 0.088103
0.220509 0.178628 0.090318
0.251490 0.181922 0.092532
0.282470 0.185216 0.094747
0.313451 0.188509 0.096961
0.344432 0.191803 0.099176
0.375412 0.195097 0.101390
0.406393 0.198390 0.103605
0.437374 0.201684 0.105819
0.468354 0.204978 0.108034
0.499335 0.208271 0.110248
0.530316 0.211565 0.112462
0.561296 0.214859 0.114677
0.592277 0.218152 0.116891
0.623258 0.221446 0.119106
0.654238 0.224740 0.121320
0.685219 0.228033 0.123535
0.716199 0.231327 0.125749
0.747180 0.234621 0.127964
0.778161 0.237914 0.130178
0.793347 0.239414 0.130599
0.792740 0.239120 0.129225
0.792133 0.238825 0.127852
0.791525 0.238531 0.126478
0.026562 0.189978 0.084528
0.025954 0.189684 0.083155
0.025347 0.189389 0.081781
0.024740 0.189095 0.080408
0.039926 0.190595 0.080828
0.070907 0.193888 0.083043
0.101888 0.197182 0.085257
0.132868 0.200476 0.087472
0.163849 0.203769 0.089686
0.194830 0.207063 0.091900
0.225810 0.210357 0.094115
0.256791 0.213650 0.096329
0.287772 0.216944 0.098544
0.318752 0.220238 0.100758
0.349733 0.223531 0.102973
0.380714 0.226825 0.105187
0.411694 0.230119 0.107402
0.442675 0.233412 0.109616
0.473656 0.236706 0.111831
0.504636 0.240000 0.114045
0.535617 0.243293 0.116260
0.566598 0.246587 0.118474
0.597578 0.249881 0.120689
0.628559 0.253174 0.122903
0.659540 0.256468 0.125118
0.690520 0.259762 0.127332
0.721501 0.263055 0.129546
0.752481 0.266349 0.131761
0.783462 0.269643 0.133975
0.798649 0.271142 0.134396
0.798041 0.270848 0.133022
0.797434 0.270554 0.131649
0.796827 0.270259 0.130275
0.031863 0.221706 0.088325
0.031256 0.221412 0.086952
0.030648 0.221118 0.085578
0.030041 0.220823 0.084205
0.045228 0.222323 0.084625
0.076208 0.225617 0.086840
0.107189 0.228910 0.089054
0.138170 0.232204 0.091269
0.169150 0.235498 0.093483
0.200131 0.238791 0.095698
0.231112 0.242085 0.097912
0.262092 0.245379 0.100127
0.293073 0.248672 0.102341
0.324054 0.251966 0.104556
0.355034 0.255260 0.106770
0.386015 0.258553 0.108984
0.416996 0.261847 0.111199
0.447976 0.265141 0.113413
0.478957 0.268434 0.115628
0.509938 0.271728 0.117842
0.540918 0.275022 0.120057
0.571899 0.278315 0.122271
0.602880 0.281609 0.124486
0.633860 0.284903 0.126700
0.664841 0.288196 0.128915
0.695821 0.291490 0.131129
0.726802 0.294784 0.133344
0.757783 0.298077 0.135558
0.788763 0.301371 0.137773
0.803950 0.302871 0.138193
0.803343 0.302576 0.136819
0.802735 0.302282 0.135446
0.802128 0.301988 0.134072
0.037164 0.253435 0.092123
0.036557 0.253140 0.090749
0.035950 0.252846 0.089376
0.035342 0.252552 0.088002
0.050529 0.254051 0.088422
0.081510 0.257345 0.090637
0.112490 0.260639 0.092851
0.143471 0.263932 0.095066
0.174452 0.267226 0.097280
0.205432 0.270520 0.099495
0.236413 0.273813 0.101709
0.267394 0.277107 0.103924
0.298374 0.280401 0.106138
0.329355 0.283694 0.108353
0.360336 0.286988 0.110567
0.391316 0.290282 0.112782
0.422297 0.293575 0.114996
0.453278 0.296869 0.117211
0.484258 0.300163 0.119425
0.515239 0.303456 0.121639
0.546220 0.306750 0.123854
0.577200 0.310044 0.126068
0.608181 0.313337 0.128283
0.639162 0.316631 0.130497
0.670142 0.319925 0.132712
0.701123 0.323218 0.134926
0.732104 0.326512 0.137141
0.763084 0.329806 0.139355
0.794065 0.333099 0.141570
0.809251 0.334599 0.141990
0.808644 0.334305 0.140617
0.808037 0.334010 0.139243
0.807429 0.333913 0.138788
0.042466 0.285163 0.095920
0.041858 0.284869 0.094546
0.041251 0.284574 0.093173
0.040644 0.284280 0.091799
0.055830 0.285780 0.092220
0.086811 0.289073 0.094434
0.117792 0.292367 0.096649
0.148772 0.295661 0.098863
0.179753 0.298954 0.101077
0.210734 0.302248 0.103292
0.241714 0.305542 0.105506
0.272695 0.308835 0.107721
0.303676 0.312129 0.109935
0.334656 0.315423 0.112150
0.365637 0.318716 0.114364
0.396618 0.322010 0.116579
0.427598 0.325304 0.118793
0.458579 0.328597 0.121008
0.489560 0.331891 0.123222
0.520540 0.335185 0.125437
0.551521 0.338478 0.127651
0.582502 0.341772 0.129866
0.613482 0.345066 0.132080
0.644463 0.348359 0.134295
0.675444 0.351653 0.136509
0.706424 0.354947 0.138723
0.737405 0.358240 0.140938
0.768385 0.361534 0.143152
0.799366 0.364828 0.145367
0.814553 0.366327 0.145787
0.813945 0.366219 0.145282
0.813338 0.366219 0.145282
0.812731 0.366219 0.145282
0.047767 0.316891 0.099717
0.047160 0.316597 0.098343
0.046552 0.316303 0.096970
0.045945 0.316008 0.095596
0.061132 0.317508 0.096017
0.092112 0.320802 0.098231
0.123093 0.324095 0.100446
0.154074 0.327389 0.102660
0.185054 0.330683 0.104875
0.216035 0.333976 0.107089
0.247016 0.337270 0.109304
0.277996 0.340564 0.111518
0.308977 0.343857 0.113733
0.339958 0.347151 0.115947
0.370938 0.350445 0.118161
0.401919 0.353738 0.120376
0.432900 0.357032 0.122590
0.463880 0.360326 0.124805
0.494861 0.363619 0.127019
0.525842 0.366913 0.129234
0.556822 0.370207 0.131448
0.587803 0.373500 0.133663
0.618784 0.376794 0.135877
0.649764 0.380088 0.138092
0.680745 0.383381 0.140306
0.711726 0.386675 0.142521
0.742706 0.389969 0.144735
0.773687 0.393262 0.146950
0.804667 0.396731 0.149981
0.819854 0.398525 0.151775
0.819247 0.398525 0.151775
0.818639 0.398525 0.151775
0.818032 0.398525 0.151775
0.053068 0.348620 0.103514
0.052461 0.348325 0.102141
0.051854 0.348031 0.100767
0.051246 0.347737 0.099393
0.066433 0.349236 0.099814
0.097414 0.352530 0.102028
0.128394 0.355824 0.104243
0.159375 0.359117 0.106457
0.190356 0.362411 0.108672
0.221336 0.365705 0.110886
0.252317 0.368998 0.113101
0.283298 0.372292 0.115315
0.314278 0.375586 0.117530
0.345259 0.378879 0.119744
0.376240 0.382173 0.121959
0.407220 0.385467 0.124173
0.438201 0.388760 0.126388
0.469182 0.392054 0.128602
0.500162 0.395348 0.130816
0.531143 0.398641 0.133031
0.562124 0.401935 0.135245
0.593104 0.405229 0.137460
0.624085 0.408522 0.139674
0.655066 0.411816 0.141889
0.686046 0.415110 0.144103
0.717027 0.418403 0.146318
0.748008 0.421861 0.149299
0.778988 0.425449 0.152887
0.809969 0.429037 0.156475
0.825156 0.430831 0.158269
0.824548 0.430831 0.158269
0.823941 0.430831 0.158269
0.823333 0.430831 0.158269
0.058370 0.380348 0.107311
0.057762 0.380054 0.105938
0.057155 0.379759 0.104564
0.056548 0.379465 0.103191
0.071734 0.380965 0.103611
0.102715 0.384258 0.105826
0.133696 0.387552 0.108040
0.164676 0.390846 0.110254
0.195657 0.394139 0.112469
0.226638 0.397433 0.114683
0.257618 0.400727 0.116898
0.288599 0.404020 0.119112
0.319580 0.407314 0.121327
0.350560 0.410608 0.123541
0.381541 0.413901 0.125756
0.412522 0.417195 0.127970
0.443502 0.420489 0.130185
0.474483 0.423782 0.132399
0.505464 0.427076 0.134614
0.536444 0.430370 0.136828
0.567425 0.433663 0.139043
0.598406 0.436957 0.141257
0.629386 0.440251 0.143472
0.660367 0.443544 0.145686
0.691348 0.446992 0.148617
0.722328 0.450580 0.152205
0.753309 0.454168 0.155793
0.784290 0.457756 0.159381
0.815270 0.461344 0.162969
0.830457 0.463138 0.164763
0.829850 0.463138 0.164763
0.829242 0.463138 0.164763
0.828635 0.463138 0.164763
0.063671 0.412076 0.111108
0.063064 0.411782 0.109735
0.062456 0.411488 0.108361
0.061849 0.411193 0.106988
0.077036 0.412693 0.107408
0.108016 0.415987 0.109623
0.138997 0.419280 0.111837
0.169978 0.422574 0.114052
0.200958 0.425868 0.116266
0.231939 0.429161 0.118481
0.262920 0.432455 0.120695
0.293900 0.435749 0.122909
0.324881 0.439042 0.125124
0.355862 0.442336 0.127338
0.386842 0.445630 0.129553
0.417823 0.448923 0.131767
0.448804 0.452217 0.133982
0.479784 0.455511 0.136196
0.510765 0.458804 0.138411
0.541746 0.462098 0.140625
0.572726 0.465392 0.142840
0.603707 0.468685 0.145054
0.634688 0.472122 0.147934
0.665668 0.475710 0.151522
0.696649 0.479298 0.155110
0.727630 0.482886 0.158698
0.758610 0.486474 0.162286
0.789591 0.490062 0.165874
0.820572 0.493650 0.169462
0.835758 0.495444 0.171256
0.835151 0.495444 0.171256
0.834543 0.495444 0.171256
0.833936 0.495444 0.171256
0.068973 0.443805 0.114906
0.068365 0.443510 0.113532
0.067758 0.443216 0.112158
0.067150 0.442922 0.110785
0.082337 0.444421 0.111205
0.113318 0.447715 0.113420
0.144298 0.451009 0.115634
0.175279 0.454302 0.117849
0.206260 0.457596 0.120063
0.237240 0.460890 0.122278
0.268221 0.464183 0.124492
0.299202 0.467477 0.126707
0.330182 0.470771 0.128921
0.361163 0.474064 0.131136
0.392144 0.477358 0.133350
0.423124 0.480652 0.135565
0.454105 0.483945 0.137779
0.485086 0.487239 0.139993
0.516066 0.490533 0.142208
0.547047 0.493827 0.144422
0.578028 0.497252 0.147252
0.609008 0.500840 0.150840
0.639989 0.504428 0.154428
0.670970 0.508016 0.158016
0.701950 0.511604 0.161604
0.732931 0.515192 0.165192
0.763912 0.518780 0.168780
0.794892 0.522368 0.172368
0.825873 0.525956 0.175956
0.841060 0.527750 0.177750
0.840452 0.527750 0.177750
0.839845 0.527750 0.177750
0.839238 0.527750 0.177750
0.074274 0.475533 0.118703
0.073666 0.475239 0.117329
0.073059 0.474944 0.115956
0.072452 0.474650 0.114582
0.087638 0.476150 0.115003
0.118619 0.479443 0.117217
0.149600 0.482737 0.119431
0.180580 0.486031 0.121646
0.211561 0.489324 0.123860
0.242542 0.492618 0.126075
0.273522 0.495912 0.128289
0.304503 0.499205 0.130504
0.335484 0.502499 0.132718
0.366464 0.505793 0.134933
0.397445 0.509087 0.137147
0.428426 0.512380 0.139362
0.459406 0.515674 0.141576
0.490387 0.518968 0.143791
0.521368 0.522382 0.146570
0.552348 0.525970 0.150158
0.583329 0.529558 0.153746
0.614310 0.533146 0.157334
0.645290 0.536734 0.160922
0.676271 0.540322 0.164510
0.707252 0.543910 0.168098
0.738232 0.547498 0.171686
0.769213 0.551086 0.175274
0.800194 0.554674 0.178862
0.831174 0.558262 0.182450
0.846361 0.560056 0.184244
0.845754 0.560056 0.184244
0.845146 0.560056 0.184244
0.844539 0.560056 0.184244
0.079575 0.507261 0.122500
0.078968 0.506967 0.121126
0.078361 0.506673 0.119753
0.077753 0.506378 0.118379
0.092940 0.507878 0.118800
0.123920 0.511172 0.121014
0.154901 0.514466 0.123229
0.185882 0.517759 0.125443
0.216862 0.521053 0.127658
0.247843 0.524347 0.129872
0.278824 0.527640 0.132087
0.309804 0.530934 0.134301
0.340785 0.534228 0.136515
0.371766 0.537521 0.138730
0.402746 0.540815 0.140944
0.433727 0.544109 0.143159
0.464708 0.547512 0.145887
0.495688 0.551100 0.149475
0.526669 0.554688 0.153063
0.557650 0.558276 0.156651
0.588630 0.561864 0.160239
0.619611 0.565452 0.163827
0.650592 0.569040 0.167415
0.681572 0.572628 0.171003
0.712553 0.576216 0.174591
0.743534 0.579804 0.178179
0.774514 0.583392 0.181767
0.805495 0.586980 0.185355
0.836476 0.590568 0.188943
0.851662 0.592362 0.190737
0.851055 0.592362 0.190737
0.850448 0.592362 0.190737
0.849840 0.592362 0.190737
0.084877 0.538990 0.126297
0.084269 0.538695 0.124923
0.083662 0.538401 0.123550
0.083055 0.538107 0.122176
0.098241 0.539607 0.122597
0.129222 0.542900 0.124811
0.160202 0.546194 0.127026
0.191183 0.549488 0.129240
0.222164 0.552781 0.131455
0.253144 0.556075 0.133669
0.284125 0.559369 0.135884
0.315106 0.562662 0.138098
0.346086 0.565956 0.140313
0.377067 0.569250 0.142527
0.408048 0.572643 0.145205
0.439028 0.576231 0.148793
0.470009 0.579819 0.152381
0.500990 0.583407 0.155969
0.531970 0.586995 0.159557
0.562951 0.590583 0.163145
0.593932 0.594171 0.166733
0.624912 0.597759 0.170321
0.655893 0.601347 0.173909
0.686874 0.604935 0.177497
0.717854 0.608523 0.181085
0.748835 0.612111 0.184673
0.779816 0.615699 0.188261
0.810796 0.619287 0.191849
0.841777 0.622875 0.195437
0.856964 0.624669 0.197231
0.856356 0.624669 0.197231
0.855749 0.624669 0.197231
0.855142 0.624669 0.197231
0.090178 0.570718 0.130094
0.089571 0.570424 0.128721
0.088963 0.570130 0.127347
0.088356 0.569835 0.125974
0.103542 0.571335 0.126394
0.134523 0.574629 0.128608
0.165504 0.577922 0.130823
0.196484 0.581216 0.133037
0.227465 0.584510 0.135252
0.258446 0.587803 0.137466
0.289426 0.591097 0.139681
0.320407 0.594391 0.141895
0.351388 0.597773 0.144523
0.382368 0.601361 0.148111
0.413349 0.604949 0.151699
0.444330 0.608537 0.155287
0.475310 0.612125 0.158875
0.506291 0.615713 0.162463
0.537272 0.619301 0.166051
0.568252 0.622889 0.169639
0.599233 0.626477 0.173227
0.630214 0.630065 0.176815
0.661194 0.633653 0.180403
0.692175 0.637241 0.183991
0.723156 0.640829 0.187579
0.754136 0.644417 0.191167
0.785117 0.648005 0.194755
0.816098 0.651593 0.198343
0.847078 0.655181 0.201931
0.862265 0.656975 0.203725
0.861658 0.656975 0.203725
0.861050 0.656975 0.203725
0.860443 0.656975 0.203725
0.095479 0.602447 0.133891
0.094872 0.602152 0.132518
0.094265 0.601858 0.131144
0.093657 0.601564 0.129771
0.108844 0.603063 0.130191
0.139824 0.606357 0.132406
0.170805 0.609651 0.134620
0.201786 0.612944 0.136835
0.232766 0.616238 0.139049
0.263747 0.619532 0.141263
0.294728 0.622903 0.143840
0.325708 0.626491 0.147428
0.356689 0.630079 0.151016
0.387670 0.633667 0.154604
0.418650 0.637255 0.158192
0.449631 0.640843 0.161780
0.480612 0.644431 0.165368
0.511592 0.648019 0.168956
0.542573 0.651607 0.172544
0.573554 0.655195 0.176132
0.604534 0.658783 0.179720
0.635515 0.662371 0.183308
0.666496 0.665959 0.186896
0.697476 0.669547 0.190484
0.728457 0.673135 0.194072
0.759438 0.676723 0.197660
0.790418 0.680311 0.201248
0.821399 0.683899 0.204836
0.852380 0.687487 0.208424
0.867566 0.689281 0.210218
0.866959 0.689281 0.210218
0.866352 0.689281 0.210218
0.865744 0.689281 0.210218
0.100781 0.634175 0.137688
0.100173 0.633881 0.136315
0.099566 0.633586 0.134941
0.098959 0.633292 0.133568
0.114145 0.634792 0.133988
0.145126 0.638085 0.136203
0.176106 0.641379 0.138417
0.207087 0.644673 0.140632
0.238068 0.648033 0.143158
0.269048 0.651621 0.146746
0.300029 0.655209 0.150334
0.331010 0.658797 0.153922
0.361990 0.662385 0.157510
0.392971 0.665973 0.161098
0.423952 0.669561 0.164686
0.454932 0.673149 0.168274
0.485913 0.676737 0.171862
0.516894 0.680325 0.175450
0.547874 0.683913 0.179038
0.578855 0.687501 0.182626
0.609836 0.691089 0.186214
0.640816 0.694677 0.189802
0.671797 0.698265 0.193390
0.702778 0.701853 0.196978
0.733758 0.705441 0.200566
0.764739 0.709029 0.204154
0.795720 0.712617 0.207742
0.826700 0.716205 0.211330
0.857681 0.719793 0.214918
0.872868 0.721587 0.216712
0.872260 0.721587 0.216712
0.871653 0.721587 0.216712
0.871046 0.721587 0.216712
0.106082 0.665903 0.141486
0.105475 0.665609 0.140112
0.104867 0.665315 0.138739
0.104260 0.665020 0.137365
0.119447 0.666520 0.137785
0.150427 0.669814 0.140000
0.181408 0.673163 0.142476
0.212389 0.676751 0.146064
0.243369 0.680339 0.149652
0.274350 0.683927 0.153240
0.305330 0.687515 0.156828
0.336311 0.691103 0.160416
0.367292 0.694691 0.164004
0.398272 0.698279 0.167592
0.429253 0.701867 0.171180
0.460234 0.705455 0.174768
0.491214 0.709043 0.178356
0.522195 0.712631 0.181944
0.553176 0.716219 0.185532
0.584156 0.719807 0.189120
0.615137 0.723395 0.192708
0.646118 0.726983 0.196296
0.677098 0.730571 0.199884
0.708079 0.734159 0.203472
0.739060 0.737747 0.207060
0.770040 0.741335 0.210648
0.801021 0.744923 0.214236
0.832002 0.748511 0.217824
0.862982 0.752099 0.221412
0.878169 0.753893 0.223206
0.877562 0.753893 0.223206
0.876954 0.753893 0.223206
0.876347 0.753893 0.223206
0.111383 0.697632 0.145283
0.110776 0.697337 0.143909
0.110169 0.697043 0.142536
0.109561 0.696749 0.141162
0.124748 0.698293 0.141794
0.155729 0.701881 0.145381
0.186709 0.705469 0.148969
0.217690 0.709057 0.152558
0.248670 0.712645 0.156145
0.279651 0.716233 0.159734
0.310632 0.719821 0.163322
0.341612 0.723409 0.166909
0.372593 0.726997 0.170498
0.403574 0.730585 0.174086
0.434554 0.734173 0.177673
0.465535 0.737761 0.181261
0.496516 0.741349 0.184849
0.527496 0.744937 0.188438
0.558477 0.748525 0.192026
0.589458 0.752113 0.195614
0.620438 0.755701 0.199202
0.651419 0.759289 0.202790
0.682400 0.762877 0.206377
0.713380 0.766465 0.209966
0.744361 0.770053 0.213554
0.775342 0.773641 0.217141
0.806322 0.777229 0.220730
0.837303 0.780817 0.224318
0.868284 0.784405 0.227905
0.883470 0.786199 0.229700
0.882863 0.786199 0.229700
0.882256 0.786199 0.229700
0.881648 0.786199 0.229700
0.116685 0.729360 0.149080
0.116077 0.729066 0.147706
0.115470 0.728806 0.146493
0.114863 0.728806 0.146493
0.130049 0.730600 0.148287
0.161030 0.734188 0.151875
0.192011 0.737776 0.155463
0.222991 0.741364 0.159051
0.253972 0.744952 0.162639
0.284952 0.748540 0.166227
0.315933 0.752128 0.169815
0.346914 0.755716 0.173403
0.377894 0.759304 0.176991
0.408875 0.762892 0.180579
0.439856 0.766480 0.184167
0.470836 0.770068 0.187755
0.501817 0.773656 0.191343
0.532798 0.777244 0.194931
0.563778 0.780832 0.198519
0.594759 0.784420 0.202107
0.625740 0.788008 0.205695
0.656720 0.791596 0.209283
0.687701 0.795184 0.212871
0.718682 0.798772 0.216459
0.749662 0.802360 0.220047
0.780643 0.805948 0.223635
0.811624 0.809536 0.227223
0.842604 0.813124 0.230811
0.873585 0.816712 0.234399
0.888772 0.818506 0.236193
0.888164 0.818506 0.236193
0.887557 0.818506 0.236193
0.886950 0.818506 0.236193
0.121986 0.761112 0.152987
0.121379 0.761112 0.152987
0.120771 0.761112 0.152987
0.120164 0.761112 0.152987
0.135351 0.762906 0.154781
0.166331 0.766494 0.158369
0.197312 0.770082 0.161957
0.228293 0.773670 0.165545
0.259273 0.777258 0.169133
0.290254 0.780846 0.172721
0.321234 0.784434 0.176309
0.352215 0.788022 0.179897
0.383196 0.791610 0.183485
0.414176 0.795198 0.187073
0.445157 0.798786 0.190661
0.476138 0.802374 0.194249
0.507118 0.805962 0.197837
0.538099 0.809550 0.201425
0.569080 0.813138 0.205013
0.600060 0.816726 0.208601
0.631041 0.820314 0.212189
0.662022 0.823902 0.215777
0.693002 0.827490 0.219365
0.723983 0.831078 0.222953
0.754964 0.834666 0.226541
0.785944 0.838254 0.230129
0.816925 0.841842 0.233717
