docs/luts/fresh-cinematic-canon.cube
TITLE "FreshLUTs??-????"
LUT_3D_SIZE 5
DOMAIN_MIN 0.0 0.0 0.0
DOMAIN_MAX 1.0 1.0 1.0
0.000000 0.008000 0.000000
0.245824 0.008000 0.000000
0.517525 0.008000 0.000000
0.789226 0.008000 0.000000
1.000000 0.008000 0.000000
0.000000 0.255508 0.000000
0.238707 0.251957 0.000000
0.510408 0.248033 0.000000
0.782108 0.244108 0.000000
1.000000 0.240558 0.000000
0.000000 0.518325 0.000000
0.231149 0.514774 0.000000
0.503841 0.510850 0.000000
0.778764 0.506926 0.000000
1.000000 0.503375 0.000000
0.000873 0.781142 0.000000
0.227687 0.777592 0.000000
0.502609 0.773667 0.000000
0.777532 0.769743 0.000000
1.000000 0.766192 0.000000
0.007198 1.000000 0.000000
0.226895 1.000000 0.000000
0.501817 1.000000 0.000000
0.776740 1.000000 0.000000
1.000000 1.000000 0.000000
0.000000 0.008000 0.249793
0.244399 0.008000 0.248126
0.516100 0.008000 0.246086
0.787801 0.008000 0.244045
1.000000 0.008000 0.242378
0.000000 0.254083 0.246374
0.237282 0.250532 0.244707
0.508983 0.246608 0.242666
0.780683 0.242683 0.240626
1.000000 0.239133 0.238959
0.000000 0.516900 0.242514
0.229724 0.513349 0.240847
0.503645 0.509425 0.238807
0.778567 0.505501 0.235001
1.000000 0.501950 0.231450
0.002101 0.779717 0.238655
0.227490 0.776167 0.235292
0.502413 0.772242 0.231367
0.777335 0.768318 0.227443
1.000000 0.764767 0.223892
0.008427 1.000000 0.231725
0.226698 1.000000 0.228174
0.501621 1.000000 0.224250
0.776543 1.000000 0.220326
1.000000 1.000000 0.216775
0.000000 0.008000 0.511586
0.242974 0.008000 0.509919
0.514675 0.008000 0.507879
0.786376 0.008000 0.505838
1.000000 0.008000 0.504171
0.000000 0.252658 0.508167
0.235857 0.249107 0.506500
0.507558 0.245183 0.504460
0.779603 0.241258 0.502419
1.000000 0.237708 0.500083
0.000000 0.515475 0.504308
0.228526 0.511924 0.502641
0.503448 0.508000 0.500000
0.778371 0.504076 0.496076
1.000000 0.500525 0.492525
0.003330 0.778292 0.499917
0.227293 0.774742 0.496367
0.502216 0.770817 0.492442
0.777139 0.766893 0.488518
1.000000 0.763342 0.484967
0.009655 1.000000 0.492800
0.226502 1.000000 0.489249
0.501424 1.000000 0.485325
0.776347 1.000000 0.481401
1.000000 1.000000 0.477850
0.000000 0.008000 0.773380
0.241549 0.008000 0.771713
0.513250 0.008000 0.769672
0.784951 0.008000 0.767631
1.000000 0.008000 0.765964
0.000000 0.251233 0.769960
0.234432 0.247682 0.768293
0.506133 0.243758 0.766253
0.779407 0.239833 0.764212
1.000000 0.236283 0.761158
0.000000 0.514050 0.766101
0.228329 0.510499 0.764434
0.503252 0.506575 0.761075
0.778174 0.502651 0.757151
1.000000 0.499100 0.753600
0.004558 0.776867 0.760992
0.227097 0.773317 0.757442
0.502020 0.769392 0.753517
0.776942 0.765468 0.749593
1.000000 0.761917 0.746042
0.010884 1.000000 0.753875
0.226305 1.000000 0.750324
0.501228 1.000000 0.746400
0.776150 1.000000 0.742476
1.000000 1.000000 0.738925
0.000000 0.008000 0.990873
0.240124 0.008000 0.992757
0.511825 0.008000 0.994640
0.783526 0.008000 0.996524
1.000000 0.008000 0.998408
0.000000 0.249808 0.994571
0.233007 0.246257 0.996455
0.504708 0.242333 0.998338
0.779210 0.238408 1.000000
1.000000 0.234858 1.000000
0.000000 0.512625 0.998269
0.228133 0.509074 1.000000
0.503055 0.505150 1.000000
0.777978 0.501226 1.000000
1.000000 0.497675 1.000000
0.005787 0.775442 1.000000
0.226900 0.771892 1.000000
0.501823 0.767967 1.000000
0.776746 0.764043 1.000000
1.000000 0.760492 1.000000
0.012112 1.000000 1.000000
0.226108 1.000000 1.000000
0.501031 1.000000 1.000000
0.775954 1.000000 1.000000
1.000000 1.000000 1.000000
