docs/luts/fresh-cinematic-canon.cube
TITLE "FreshLUTs??-????"
LUT_3D_SIZE 33
DOMAIN_MIN 0.0 0.0 0.0
DOMAIN_MAX 1.0 1.0 1.0
0.000000 0.008000 0.000000
0.008086 0.008000 0.000000
0.042049 0.008000 0.000000
0.076011 0.008000 0.000000
0.109974 0.008000 0.000000
0.143937 0.008000 0.000000
0.177899 0.008000 0.000000
0.211862 0.008000 0.000000
0.245824 0.008000 0.000000
0.279787 0.008000 0.000000
0.313750 0.008000 0.000000
0.347712 0.008000 0.000000
0.381675 0.008000 0.000000
0.415637 0.008000 0.000000
0.449600 0.008000 0.000000
0.483562 0.008000 0.000000
0.517525 0.008000 0.000000
0.551488 0.008000 0.000000
0.585450 0.008000 0.000000
0.619413 0.008000 0.000000
0.653375 0.008000 0.000000
0.687338 0.008000 0.000000
0.721300 0.008000 0.000000
0.755263 0.008000 0.000000
0.789226 0.008000 0.000000
0.823188 0.008000 0.000000
0.857151 0.008000 0.000000
0.891113 0.008000 0.000000
0.925076 0.008000 0.000000
0.959039 0.008000 0.000000
0.993001 0.008000 0.000000
1.000000 0.008000 0.000000
1.000000 0.008000 0.000000
0.000000 0.025542 0.000000
0.007582 0.025426 0.000000
0.041544 0.024935 0.000000
0.075507 0.024445 0.000000
0.109470 0.023954 0.000000
0.143432 0.023463 0.000000
0.177395 0.022973 0.000000
0.211357 0.022482 0.000000
0.245320 0.021992 0.000000
0.279282 0.021501 0.000000
0.313245 0.021011 0.000000
0.347208 0.020520 0.000000
0.381170 0.020030 0.000000
0.415133 0.019539 0.000000
0.449095 0.019049 0.000000
0.483058 0.018558 0.000000
0.517021 0.018067 0.000000
0.550983 0.017577 0.000000
0.584946 0.017086 0.000000
0.618908 0.016596 0.000000
0.652871 0.016105 0.000000
0.686833 0.015615 0.000000
0.720796 0.015124 0.000000
0.754759 0.014634 0.000000
0.788721 0.014143 0.000000
0.822684 0.013652 0.000000
0.856646 0.013162 0.000000
0.890609 0.012671 0.000000
0.924571 0.012181 0.000000
0.958534 0.011690 0.000000
0.992497 0.011200 0.000000
1.000000 0.010709 0.000000
1.000000 0.010592 0.000000
0.000000 0.058395 0.000000
0.006637 0.058278 0.000000
0.040600 0.057787 0.000000
0.074562 0.057297 0.000000
0.108525 0.056806 0.000000
0.142487 0.056316 0.000000
0.176450 0.055825 0.000000
0.210413 0.055335 0.000000
0.244375 0.054844 0.000000
0.278338 0.054353 0.000000
0.312300 0.053863 0.000000
0.346263 0.053372 0.000000
0.380226 0.052882 0.000000
0.414188 0.052391 0.000000
0.448151 0.051901 0.000000
0.482113 0.051410 0.000000
0.516076 0.050920 0.000000
0.550038 0.050429 0.000000
0.584001 0.049938 0.000000
0.617964 0.049448 0.000000
0.651926 0.048957 0.000000
0.685889 0.048467 0.000000
0.719851 0.047976 0.000000
0.753814 0.047486 0.000000
0.787776 0.046995 0.000000
0.821739 0.046505 0.000000
0.855702 0.046014 0.000000
0.889664 0.045524 0.000000
0.923627 0.045033 0.000000
0.957589 0.044542 0.000000
0.991552 0.044052 0.000000
1.000000 0.043561 0.000000
1.000000 0.043445 0.000000
0.000000 0.091247 0.000000
0.005692 0.091130 0.000000
0.039655 0.090639 0.000000
0.073618 0.090149 0.000000
0.107580 0.089658 0.000000
0.141543 0.089168 0.000000
0.175505 0.088677 0.000000
0.209468 0.088187 0.000000
0.243431 0.087696 0.000000
0.277393 0.087206 0.000000
0.311356 0.086715 0.000000
0.345318 0.086224 0.000000
0.379281 0.085734 0.000000
0.413243 0.085243 0.000000
0.447206 0.084753 0.000000
0.481169 0.084262 0.000000
0.515131 0.083772 0.000000
0.549094 0.083281 0.000000
0.583056 0.082791 0.000000
0.617019 0.082300 0.000000
0.650981 0.081810 0.000000
0.684944 0.081319 0.000000
0.718907 0.080828 0.000000
0.752869 0.080338 0.000000
0.786832 0.079847 0.000000
0.820794 0.079357 0.000000
0.854757 0.078866 0.000000
0.888720 0.078376 0.000000
0.922682 0.077885 0.000000
0.956645 0.077395 0.000000
0.990607 0.076904 0.000000
1.000000 0.076414 0.000000
1.000000 0.076297 0.000000
0.000000 0.124099 0.000000
0.004748 0.123982 0.000000
0.038710 0.123492 0.000000
0.072673 0.123001 0.000000
0.106635 0.122511 0.000000
0.140598 0.122020 0.000000
0.174561 0.121529 0.000000
0.208523 0.121039 0.000000
0.242486 0.120548 0.000000
0.276448 0.120058 0.000000
0.310411 0.119567 0.000000
0.344374 0.119077 0.000000
0.378336 0.118586 0.000000
0.412299 0.118096 0.000000
0.446261 0.117605 0.000000
0.480224 0.117114 0.000000
0.514186 0.116624 0.000000
0.548149 0.116133 0.000000
0.582112 0.115643 0.000000
0.616074 0.115152 0.000000
0.650037 0.114662 0.000000
0.683999 0.114171 0.000000
0.717962 0.113681 0.000000
0.751924 0.113190 0.000000
0.785887 0.112700 0.000000
0.819850 0.112209 0.000000
0.853812 0.111718 0.000000
0.887775 0.111228 0.000000
0.921737 0.110737 0.000000
0.955700 0.110247 0.000000
0.989663 0.109756 0.000000
1.000000 0.109266 0.000000
1.000000 0.109149 0.000000
0.000000 0.156951 0.000000
0.003803 0.156834 0.000000
0.037766 0.156344 0.000000
0.071728 0.155853 0.000000
0.105691 0.155363 0.000000
0.139653 0.154872 0.000000
0.173616 0.154382 0.000000
0.207579 0.153891 0.000000
0.241541 0.153400 0.000000
0.275504 0.152910 0.000000
0.309466 0.152419 0.000000
0.343429 0.151929 0.000000
0.377391 0.151438 0.000000
0.411354 0.150948 0.000000
0.445317 0.150457 0.000000
0.479279 0.149967 0.000000
0.513242 0.149476 0.000000
0.547204 0.148986 0.000000
0.581167 0.148495 0.000000
0.615129 0.148004 0.000000
0.649092 0.147514 0.000000
0.683055 0.147023 0.000000
0.717017 0.146533 0.000000
0.750980 0.146042 0.000000
0.784942 0.145552 0.000000
0.818905 0.145061 0.000000
0.852868 0.144571 0.000000
0.886830 0.144080 0.000000
0.920793 0.143590 0.000000
0.954755 0.143099 0.000000
0.988718 0.142608 0.000000
1.000000 0.142118 0.000000
1.000000 0.142001 0.000000
0.000000 0.189803 0.000000
0.002858 0.189686 0.000000
0.036821 0.189196 0.000000
0.070784 0.188705 0.000000
0.104746 0.188215 0.000000
0.138709 0.187724 0.000000
0.172671 0.187234 0.000000
0.206634 0.186743 0.000000
0.240596 0.186253 0.000000
0.274559 0.185762 0.000000
0.308522 0.185272 0.000000
0.342484 0.184781 0.000000
0.376447 0.184290 0.000000
0.410409 0.183800 0.000000
0.444372 0.183309 0.000000
0.478334 0.182819 0.000000
0.512297 0.182328 0.000000
0.546260 0.181838 0.000000
0.580222 0.181347 0.000000
0.614185 0.180857 0.000000
0.648147 0.180366 0.000000
0.682110 0.179876 0.000000
0.716073 0.179385 0.000000
0.750035 0.178894 0.000000
0.783998 0.178404 0.000000
0.817960 0.177913 0.000000
0.851923 0.177423 0.000000
0.885885 0.176932 0.000000
0.919848 0.176442 0.000000
0.953811 0.175951 0.000000
0.987773 0.175461 0.000000
1.000000 0.174970 0.000000
1.000000 0.174853 0.000000
0.000000 0.222655 0.000000
0.001914 0.222539 0.000000
0.035876 0.222048 0.000000
0.069839 0.221558 0.000000
0.103801 0.221067 0.000000
0.137764 0.220576 0.000000
0.171727 0.220086 0.000000
0.205689 0.219595 0.000000
0.239652 0.219105 0.000000
0.273614 0.218614 0.000000
0.307577 0.218124 0.000000
0.341539 0.217633 0.000000
0.375502 0.217143 0.000000
0.409465 0.216652 0.000000
0.443427 0.216162 0.000000
0.477390 0.215671 0.000000
0.511352 0.215180 0.000000
0.545315 0.214690 0.000000
0.579277 0.214199 0.000000
0.613240 0.213709 0.000000
0.647203 0.213218 0.000000
0.681165 0.212728 0.000000
0.715128 0.212237 0.000000
0.749090 0.211747 0.000000
0.783053 0.211256 0.000000
0.817016 0.210766 0.000000
0.850978 0.210275 0.000000
0.884941 0.209784 0.000000
0.918903 0.209294 0.000000
0.952866 0.208803 0.000000
0.986828 0.208313 0.000000
1.000000 0.207822 0.000000
1.000000 0.207705 0.000000
0.000000 0.255508 0.000000
0.000969 0.255391 0.000000
0.034932 0.254900 0.000000
0.068894 0.254410 0.000000
0.102857 0.253919 0.000000
0.136819 0.253429 0.000000
0.170782 0.252938 0.000000
0.204744 0.252448 0.000000
0.238707 0.251957 0.000000
0.272670 0.251466 0.000000
0.306632 0.250976 0.000000
0.340595 0.250485 0.000000
0.374557 0.249995 0.000000
0.408520 0.249504 0.000000
0.442482 0.249014 0.000000
0.476445 0.248523 0.000000
0.510408 0.248033 0.000000
0.544370 0.247542 0.000000
0.578333 0.247052 0.000000
0.612295 0.246561 0.000000
0.646258 0.246070 0.000000
0.680221 0.245580 0.000000
0.714183 0.245089 0.000000
0.748146 0.244599 0.000000
0.782108 0.244108 0.000000
0.816071 0.243618 0.000000
0.850033 0.243127 0.000000
0.883996 0.242637 0.000000
0.917959 0.242146 0.000000
0.951921 0.241656 0.000000
0.986188 0.241165 0.000000
1.000000 0.240674 0.000000
1.000000 0.240558 0.000000
0.000000 0.288360 0.000000
0.000024 0.288243 0.000000
0.033987 0.287752 0.000000
0.067949 0.287262 0.000000
0.101912 0.286771 0.000000
0.135875 0.286281 0.000000
0.169837 0.285790 0.000000
0.203800 0.285300 0.000000
0.237762 0.284809 0.000000
0.271725 0.284319 0.000000
0.305687 0.283828 0.000000
0.339650 0.283338 0.000000
0.373613 0.282847 0.000000
0.407575 0.282356 0.000000
0.441538 0.281866 0.000000
0.475500 0.281375 0.000000
0.509463 0.280885 0.000000
0.543426 0.280394 0.000000
0.577388 0.279904 0.000000
0.611351 0.279413 0.000000
0.645313 0.278923 0.000000
0.679276 0.278432 0.000000
0.713238 0.277942 0.000000
0.747201 0.277451 0.000000
0.781164 0.276960 0.000000
0.815126 0.276470 0.000000
0.849089 0.275979 0.000000
0.883051 0.275489 0.000000
0.917303 0.274998 0.000000
0.951669 0.274508 0.000000
0.986034 0.274017 0.000000
1.000000 0.273527 0.000000
1.000000 0.273410 0.000000
0.000000 0.321212 0.000000
0.000000 0.321095 0.000000
0.033042 0.320605 0.000000
0.067005 0.320114 0.000000
0.100967 0.319624 0.000000
0.134930 0.319133 0.000000
0.168892 0.318642 0.000000
0.202855 0.318152 0.000000
0.236818 0.317661 0.000000
0.270780 0.317171 0.000000
0.304743 0.316680 0.000000
0.338705 0.316190 0.000000
0.372668 0.315699 0.000000
0.406630 0.315209 0.000000
0.440593 0.314718 0.000000
0.474556 0.314228 0.000000
0.508518 0.313737 0.000000
0.542481 0.313246 0.000000
0.576443 0.312756 0.000000
0.610406 0.312265 0.000000
0.644369 0.311775 0.000000
0.678331 0.311284 0.000000
0.712294 0.310794 0.000000
0.746256 0.310303 0.000000
0.780219 0.309813 0.000000
0.814181 0.309322 0.000000
0.848419 0.308832 0.000000
0.882784 0.308341 0.000000
0.917149 0.307850 0.000000
0.951515 0.307360 0.000000
0.985880 0.306869 0.000000
1.000000 0.306379 0.000000
1.000000 0.306262 0.000000
0.000000 0.354064 0.000000
0.000000 0.353947 0.000000
0.032097 0.353457 0.000000
0.066060 0.352966 0.000000
0.100023 0.352476 0.000000
0.133985 0.351985 0.000000
0.167948 0.351495 0.000000
0.201910 0.351004 0.000000
0.235873 0.350514 0.000000
0.269835 0.350023 0.000000
0.303798 0.349532 0.000000
0.337761 0.349042 0.000000
0.371723 0.348551 0.000000
0.405686 0.348061 0.000000
0.439648 0.347570 0.000000
0.473611 0.347080 0.000000
0.507574 0.346589 0.000000
0.541536 0.346099 0.000000
0.575499 0.345608 0.000000
0.609461 0.345117 0.000000
0.643424 0.344627 0.000000
0.677386 0.344136 0.000000
0.711349 0.343646 0.000000
0.745312 0.343155 0.000000
0.779534 0.342665 0.000000
0.813899 0.342174 0.000000
0.848265 0.341684 0.000000
0.882630 0.341193 0.000000
0.916995 0.340703 0.000000
0.951361 0.340212 0.000000
0.985726 0.339721 0.000000
1.000000 0.339231 0.000000
1.000000 0.339114 0.000000
0.000000 0.386916 0.000000
0.000000 0.386800 0.000000
0.031153 0.386309 0.000000
0.065115 0.385818 0.000000
0.099078 0.385328 0.000000
0.133040 0.384837 0.000000
0.167003 0.384347 0.000000
0.200966 0.383856 0.000000
0.234928 0.383366 0.000000
0.268891 0.382875 0.000000
0.302853 0.382385 0.000000
0.336816 0.381894 0.000000
0.370779 0.381404 0.000000
0.404741 0.380913 0.000000
0.438704 0.380422 0.000000
0.472666 0.379932 0.000000
0.506629 0.379441 0.000000
0.540591 0.378951 0.000000
0.574554 0.378460 0.000000
0.608517 0.377970 0.000000
0.642479 0.377479 0.000000
0.676442 0.376989 0.000000
0.710649 0.376498 0.000000
0.745015 0.376007 0.000000
0.779380 0.375517 0.000000
0.813745 0.375026 0.000000
0.848111 0.374536 0.000000
0.882476 0.374045 0.000000
0.916841 0.373555 0.000000
0.951207 0.373064 0.000000
0.985572 0.372574 0.000000
1.000000 0.372083 0.000000
1.000000 0.371966 0.000000
0.000000 0.419768 0.000000
0.000000 0.419652 0.000000
0.030208 0.419161 0.000000
0.064171 0.418671 0.000000
0.098133 0.418180 0.000000
0.132096 0.417690 0.000000
0.166058 0.417199 0.000000
0.200021 0.416708 0.000000
0.233983 0.416218 0.000000
0.267946 0.415727 0.000000
0.301909 0.415237 0.000000
0.335871 0.414746 0.000000
0.369834 0.414256 0.000000
0.403796 0.413765 0.000000
0.437759 0.413275 0.000000
0.471722 0.412784 0.000000
0.505684 0.412293 0.000000
0.539647 0.411803 0.000000
0.573609 0.411312 0.000000
0.607572 0.410822 0.000000
0.641765 0.410331 0.000000
0.676130 0.409841 0.000000
0.710495 0.409350 0.000000
0.744861 0.408860 0.000000
0.779226 0.408369 0.000000
0.813591 0.407879 0.000000
0.847957 0.407388 0.000000
0.882322 0.406897 0.000000
0.916687 0.406407 0.000000
0.951053 0.405916 0.000000
0.985418 0.405426 0.000000
1.000000 0.404935 0.000000
1.000000 0.404818 0.000000
0.000000 0.452621 0.000000
0.000000 0.452504 0.000000
0.029263 0.452013 0.000000
0.063226 0.451523 0.000000
0.097188 0.451032 0.000000
0.131151 0.450542 0.000000
0.165114 0.450051 0.000000
0.199076 0.449561 0.000000
0.233039 0.449070 0.000000
0.267001 0.448579 0.000000
0.300964 0.448089 0.000000
0.334927 0.447598 0.000000
0.368889 0.447108 0.000000
0.402852 0.446617 0.000000
0.436814 0.446127 0.000000
0.470777 0.445636 0.000000
0.504739 0.445146 0.000000
0.538702 0.444655 0.000000
0.572880 0.444165 0.000000
0.607245 0.443674 0.000000
0.641611 0.443183 0.000000
0.675976 0.442693 0.000000
0.710341 0.442202 0.000000
0.744707 0.441712 0.000000
0.779072 0.441221 0.000000
0.813437 0.440731 0.000000
0.847803 0.440240 0.000000
0.882168 0.439750 0.000000
0.916533 0.439259 0.000000
0.950899 0.438769 0.000000
0.985264 0.438278 0.000000
1.000000 0.437787 0.000000
1.000000 0.437671 0.000000
0.000000 0.485473 0.000000
0.000000 0.485356 0.000000
0.028319 0.484865 0.000000
0.062281 0.484375 0.000000
0.096244 0.483884 0.000000
0.130206 0.483394 0.000000
0.164169 0.482903 0.000000
0.198131 0.482413 0.000000
0.232094 0.481922 0.000000
0.266057 0.481432 0.000000
0.300019 0.480941 0.000000
0.333982 0.480451 0.000000
0.367944 0.479960 0.000000
0.401907 0.479469 0.000000
0.435870 0.478979 0.000000
0.469832 0.478488 0.000000
0.503995 0.477998 0.000000
0.538361 0.477507 0.000000
0.572726 0.477017 0.000000
0.607091 0.476526 0.000000
0.641457 0.476036 0.000000
0.675822 0.475545 0.000000
0.710187 0.475055 0.000000
0.744553 0.474564 0.000000
0.778918 0.474073 0.000000
0.813283 0.473583 0.000000
0.847649 0.473092 0.000000
0.882014 0.472602 0.000000
0.916379 0.472111 0.000000
0.950745 0.471621 0.000000
0.985110 0.471130 0.000000
1.000000 0.470640 0.000000
1.000000 0.470523 0.000000
0.000000 0.518325 0.000000
0.000000 0.518208 0.000000
0.027374 0.517718 0.000000
0.061336 0.517227 0.000000
0.095299 0.516737 0.000000
0.129262 0.516246 0.000000
0.163224 0.515755 0.000000
0.197187 0.515265 0.000000
0.231149 0.514774 0.000000
0.265112 0.514284 0.000000
0.299075 0.513793 0.000000
0.333037 0.513303 0.000000
0.367000 0.512812 0.000000
0.400962 0.512322 0.000000
0.435111 0.511831 0.000000
0.469476 0.511341 0.000000
0.503841 0.510850 0.000000
0.538207 0.510359 0.000000
0.572572 0.509869 0.000000
0.606937 0.509378 0.000000
0.641303 0.508888 0.000000
0.675668 0.508397 0.000000
0.710033 0.507907 0.000000
0.744399 0.507416 0.000000
0.778764 0.506926 0.000000
0.813129 0.506435 0.000000
0.847495 0.505945 0.000000
0.881860 0.505454 0.000000
0.916225 0.504963 0.000000
0.950591 0.504473 0.000000
0.984956 0.503982 0.000000
1.000000 0.503492 0.000000
1.000000 0.503375 0.000000
0.000000 0.551177 0.000000
0.000000 0.551060 0.000000
0.026429 0.550570 0.000000
0.060392 0.550079 0.000000
0.094354 0.549589 0.000000
0.128317 0.549098 0.000000
0.162280 0.548608 0.000000
0.196242 0.548117 0.000000
0.230205 0.547627 0.000000
0.264167 0.547136 0.000000
0.298130 0.546645 0.000000
0.332092 0.546155 0.000000
0.366226 0.545664 0.000000
0.400591 0.545174 0.000000
0.434957 0.544683 0.000000
0.469322 0.544193 0.000000
0.503687 0.543702 0.000000
0.538053 0.543212 0.000000
0.572418 0.542721 0.000000
0.606783 0.542231 0.000000
0.641149 0.541740 0.000000
0.675514 0.541249 0.000000
0.709879 0.540759 0.000000
0.744245 0.540268 0.000000
0.778610 0.539778 0.000000
0.812975 0.539287 0.000000
0.847341 0.538797 0.000000
0.881706 0.538306 0.000000
0.916071 0.537816 0.000000
0.950437 0.537325 0.000000
0.984802 0.536835 0.000000
1.000000 0.536344 0.000000
1.000000 0.536227 0.000000
0.000000 0.584029 0.000000
0.000000 0.583913 0.000000
0.025484 0.583422 0.000000
0.059447 0.582931 0.000000
0.093410 0.582441 0.000000
0.127372 0.581950 0.000000
0.161335 0.581460 0.000000
0.195297 0.580969 0.000000
0.229260 0.580479 0.000000
0.263223 0.579988 0.000000
0.297341 0.579498 0.000000
0.331707 0.579007 0.000000
0.366072 0.578517 0.000000
0.400437 0.578026 0.000000
0.434803 0.577535 0.000000
0.469168 0.577045 0.000000
0.503533 0.576554 0.000000
0.537899 0.576064 0.000000
0.572264 0.575573 0.000000
0.606629 0.575083 0.000000
0.640995 0.574592 0.000000
0.675360 0.574102 0.000000
0.709725 0.573611 0.000000
0.744091 0.573121 0.000000
0.778456 0.572630 0.000000
0.812821 0.572139 0.000000
0.847187 0.571649 0.000000
0.881552 0.571158 0.000000
0.915917 0.570668 0.000000
0.950283 0.570177 0.000000
0.984648 0.569687 0.000000
1.000000 0.569196 0.000000
1.000000 0.569079 0.000000
0.000000 0.616882 0.000000
0.000000 0.616765 0.000000
0.024540 0.616274 0.000000
0.058502 0.615784 0.000000
0.092465 0.615293 0.000000
0.126428 0.614803 0.000000
0.160390 0.614312 0.000000
0.194353 0.613821 0.000000
0.228457 0.613331 0.000000
0.262822 0.612840 0.000000
0.297187 0.612350 0.000000
0.331553 0.611859 0.000000
0.365918 0.611369 0.000000
0.400283 0.610878 0.000000
0.434649 0.610388 0.000000
0.469014 0.609897 0.000000
0.503379 0.609407 0.000000
0.537745 0.608916 0.000000
0.572110 0.608425 0.000000
0.606475 0.607935 0.000000
0.640841 0.607444 0.000000
0.675206 0.606954 0.000000
0.709571 0.606463 0.000000
0.743937 0.605973 0.000000
0.778302 0.605482 0.000000
0.812667 0.604992 0.000000
0.847033 0.604501 0.000000
0.881398 0.604011 0.000000
0.915763 0.603520 0.000000
0.950129 0.603029 0.000000
0.984494 0.602539 0.000000
1.000000 0.602048 0.000000
1.000000 0.601932 0.000000
0.000000 0.649734 0.000000
0.000000 0.649617 0.000000
0.023595 0.649126 0.000000
0.057558 0.648636 0.000000
0.091520 0.648145 0.000000
0.125483 0.647655 0.000000
0.159572 0.647164 0.000000
0.193937 0.646674 0.000000
0.228303 0.646183 0.000000
0.262668 0.645693 0.000000
0.297033 0.645202 0.000000
0.331399 0.644711 0.000000
0.365764 0.644221 0.000000
0.400129 0.643730 0.000000
0.434495 0.643240 0.000000
0.468860 0.642749 0.000000
0.503225 0.642259 0.000000
0.537591 0.641768 0.000000
0.571956 0.641278 0.000000
0.606321 0.640787 0.000000
0.640687 0.640297 0.000000
0.675052 0.639806 0.000000
0.709417 0.639315 0.000000
0.743783 0.638825 0.000000
0.778148 0.638334 0.000000
0.812513 0.637844 0.000000
0.846879 0.637353 0.000000
0.881244 0.636863 0.000000
0.915609 0.636372 0.000000
0.949975 0.635882 0.000000
0.984340 0.635391 0.000000
1.000000 0.634900 0.000000
1.000000 0.634784 0.000000
0.000000 0.682586 0.000000
0.000000 0.682469 0.000000
0.022650 0.681979 0.000000
0.056613 0.681488 0.000000
0.090687 0.680997 0.000000
0.125053 0.680507 0.000000
0.159418 0.680016 0.000000
0.193783 0.679526 0.000000
0.228149 0.679035 0.000000
0.262514 0.678545 0.000000
0.296879 0.678054 0.000000
0.331245 0.677564 0.000000
0.365610 0.677073 0.000000
0.399975 0.676582 0.000000
0.434341 0.676092 0.000000
0.468706 0.675601 0.000000
0.503071 0.675111 0.000000
0.537437 0.674620 0.000000
0.571802 0.674130 0.000000
0.606167 0.673639 0.000000
0.640533 0.673149 0.000000
0.674898 0.672658 0.000000
0.709263 0.672168 0.000000
0.743629 0.671677 0.000000
0.777994 0.671186 0.000000
0.812359 0.670696 0.000000
0.846725 0.670205 0.000000
0.881090 0.669715 0.000000
0.915455 0.669224 0.000000
0.949820 0.668734 0.000000
0.984186 0.668243 0.000000
1.000000 0.667753 0.000000
1.000000 0.667636 0.000000
0.000000 0.715438 0.000000
0.000000 0.715321 0.000000
0.021803 0.714831 0.000000
0.056168 0.714340 0.000000
0.090533 0.713850 0.000000
0.124899 0.713359 0.000000
0.159264 0.712869 0.000000
0.193629 0.712378 0.000000
0.227995 0.711887 0.000000
0.262360 0.711397 0.000000
0.296725 0.710906 0.000000
0.331091 0.710416 0.000000
0.365456 0.709925 0.000000
0.399821 0.709435 0.000000
0.434187 0.708944 0.000000
0.468552 0.708454 0.000000
0.502917 0.707963 0.000000
0.537283 0.707472 0.000000
0.571648 0.706982 0.000000
0.606013 0.706491 0.000000
0.640379 0.706001 0.000000
0.674744 0.705510 0.000000
0.709109 0.705020 0.000000
0.743475 0.704529 0.000000
0.777840 0.704039 0.000000
0.812205 0.703548 0.000000
0.846570 0.703058 0.000000
0.880936 0.702567 0.000000
0.915301 0.702076 0.000000
0.949666 0.701586 0.000000
0.984032 0.701095 0.000000
1.000000 0.700605 0.000000
1.000000 0.700488 0.000000
0.000082 0.748290 0.000000
0.000485 0.748173 0.000000
0.021649 0.747683 0.000000
0.056014 0.747192 0.000000
0.090379 0.746702 0.000000
0.124745 0.746211 0.000000
0.159110 0.745721 0.000000
0.193475 0.745230 0.000000
0.227841 0.744740 0.000000
0.262206 0.744249 0.000000
0.296571 0.743758 0.000000
0.330937 0.743268 0.000000
0.365302 0.742777 0.000000
0.399667 0.742287 0.000000
0.434033 0.741796 0.000000
0.468398 0.741306 0.000000
0.502763 0.740815 0.000000
0.537129 0.740325 0.000000
0.571494 0.739834 0.000000
0.605859 0.739344 0.000000
0.640225 0.738853 0.000000
0.674590 0.738362 0.000000
0.708955 0.737872 0.000000
0.743320 0.737381 0.000000
0.777686 0.736891 0.000000
0.812051 0.736400 0.000000
0.846416 0.735910 0.000000
0.880782 0.735419 0.000000
0.915147 0.734929 0.000000
0.949512 0.734438 0.000000
0.983878 0.733948 0.000000
1.000000 0.733457 0.000000
1.000000 0.733340 0.000000
0.000873 0.781142 0.000000
0.001276 0.781026 0.000000
0.021495 0.780535 0.000000
0.055860 0.780044 0.000000
0.090225 0.779554 0.000000
0.124591 0.779063 0.000000
0.158956 0.778573 0.000000
0.193321 0.778082 0.000000
0.227687 0.777592 0.000000
0.262052 0.777101 0.000000
0.296417 0.776611 0.000000
0.330783 0.776120 0.000000
0.365148 0.775630 0.000000
0.399513 0.775139 0.000000
0.433879 0.774648 0.000000
0.468244 0.774158 0.000000
0.502609 0.773667 0.000000
0.536975 0.773177 0.000000
0.571340 0.772686 0.000000
0.605705 0.772196 0.000000
0.640070 0.771705 0.000000
0.674436 0.771215 0.000000
0.708801 0.770724 0.000000
0.743166 0.770234 0.000000
0.777532 0.769743 0.000000
0.811897 0.769252 0.000000
0.846262 0.768762 0.000000
0.880628 0.768271 0.000000
0.914993 0.767781 0.000000
0.949358 0.767290 0.000000
0.983724 0.766800 0.000000
1.000000 0.766309 0.000000
1.000000 0.766192 0.000000
0.001664 0.813995 0.000000
0.002066 0.813878 0.000000
0.021341 0.813387 0.000000
0.055706 0.812897 0.000000
0.090071 0.812406 0.000000
0.124437 0.811916 0.000000
0.158802 0.811425 0.000000
0.193167 0.810934 0.000000
0.227533 0.810444 0.000000
0.261898 0.809953 0.000000
0.296263 0.809463 0.000000
0.330629 0.808972 0.000000
0.364994 0.808482 0.000000
0.399359 0.807991 0.000000
0.433725 0.807501 0.000000
0.468090 0.807010 0.000000
0.502455 0.806520 0.000000
0.536820 0.806029 0.000000
0.571186 0.805538 0.000000
0.605551 0.805048 0.000000
0.639916 0.804557 0.000000
0.674282 0.804067 0.000000
0.708647 0.803576 0.000000
0.743012 0.803086 0.000000
0.777378 0.802595 0.000000
0.811743 0.802105 0.000000
0.846108 0.801614 0.000000
0.880474 0.801124 0.000000
0.914839 0.800633 0.000000
0.949204 0.800142 0.000000
0.983570 0.799652 0.000000
1.000000 0.799161 0.000000
1.000000 0.799045 0.000000
0.002454 0.846847 0.000000
0.002857 0.846730 0.000000
0.021187 0.846239 0.000000
0.055552 0.845749 0.000000
0.089917 0.845258 0.000000
0.124283 0.844768 0.000000
0.158648 0.844277 0.000000
0.193013 0.843787 0.000000
0.227379 0.843296 0.000000
0.261744 0.842806 0.000000
0.296109 0.842315 0.000000
0.330475 0.841824 0.000000
0.364840 0.841334 0.000000
0.399205 0.840843 0.000000
0.433570 0.840353 0.000000
0.467936 0.839862 0.000000
0.502301 0.839372 0.000000
0.536666 0.838881 0.000000
0.571032 0.838391 0.000000
0.605397 0.837900 0.000000
0.639762 0.837410 0.000000
0.674128 0.836919 0.000000
0.708493 0.836428 0.000000
0.742858 0.835938 0.000000
0.777224 0.835447 0.000000
0.811589 0.834957 0.000000
0.845954 0.834466 0.000000
