docs/luts/fresh-cinestill-800t.cube
TITLE "FreshLUTs??-CineStill800T"
LUT_3D_SIZE 33
DOMAIN_MIN 0.0 0.0 0.0
DOMAIN_MAX 1.0 1.0 1.0
0.000000 0.000000 0.075000
0.000000 0.000000 0.073528
0.001320 0.000000 0.072057
0.038943 0.000000 0.070585
0.076566 0.000000 0.069113
0.114189 0.000000 0.067642
0.151812 0.000000 0.066170
0.189434 0.000000 0.064699
0.227057 0.000000 0.063227
0.264680 0.000000 0.061755
0.302303 0.000000 0.060284
0.339926 0.000000 0.058812
0.377549 0.000000 0.057340
0.415171 0.000000 0.055869
0.452794 0.000000 0.054397
0.490417 0.000000 0.052925
0.528040 0.000000 0.051454
0.565663 0.000000 0.049982
0.603286 0.000000 0.048510
0.640909 0.000000 0.047039
0.678531 0.000000 0.045567
0.716154 0.000000 0.044096
0.753777 0.000000 0.042624
0.791400 0.000000 0.041152
0.829023 0.000000 0.039681
0.866646 0.000000 0.038209
0.904269 0.000000 0.036737
0.941891 0.000000 0.035266
0.979514 0.000000 0.033794
1.000000 0.000000 0.032322
1.000000 0.000000 0.030851
1.000000 0.000000 0.029379
1.000000 0.000000 0.027907
0.000000 0.003298 0.072111
0.000000 0.003494 0.070639
0.000733 0.003661 0.069168
0.038356 0.003005 0.067696
0.075979 0.002349 0.066224
0.113602 0.001693 0.064753
0.151225 0.001037 0.063281
0.188847 0.000381 0.061809
0.226470 0.000000 0.060338
0.264093 0.000000 0.058866
0.301716 0.000000 0.057394
0.339339 0.000000 0.055923
0.376962 0.000000 0.054451
0.414584 0.000000 0.052980
0.452207 0.000000 0.051508
0.489830 0.000000 0.050036
0.527453 0.000000 0.048565
0.565076 0.000000 0.047093
0.602699 0.000000 0.045621
0.640322 0.000000 0.044150
0.677944 0.000000 0.042678
0.715567 0.000000 0.041206
0.753190 0.000000 0.039735
0.790813 0.000000 0.038263
0.828436 0.000000 0.036791
0.866059 0.000000 0.035320
0.903682 0.000000 0.033848
0.941304 0.000000 0.032377
0.978927 0.000000 0.030905
1.000000 0.000000 0.029433
1.000000 0.000000 0.027962
1.000000 0.000000 0.026490
1.000000 0.000000 0.025018
0.000000 0.037257 0.069222
0.000000 0.037453 0.067750
0.000000 0.037620 0.066278
0.036830 0.036964 0.064807
0.074453 0.036308 0.063335
0.112075 0.035652 0.061864
0.149698 0.034996 0.060392
0.187321 0.034340 0.058920
0.224944 0.033684 0.057449
0.262567 0.033028 0.055977
0.300190 0.032372 0.054505
0.337813 0.031716 0.053034
0.375435 0.031060 0.051562
0.413058 0.030405 0.050090
0.450681 0.029749 0.048619
0.488304 0.029093 0.047147
0.525927 0.028437 0.045675
0.563550 0.027781 0.044204
0.601173 0.027125 0.042732
0.638795 0.026469 0.041261
0.676418 0.025813 0.039789
0.714041 0.025157 0.038317
0.751664 0.024501 0.036846
0.789287 0.023845 0.035374
0.826910 0.023189 0.033902
0.864532 0.022533 0.032431
0.902155 0.021877 0.030959
0.939778 0.021221 0.029487
0.977401 0.020566 0.028016
1.000000 0.019910 0.026544
1.000000 0.019254 0.025073
1.000000 0.019420 0.023601
1.000000 0.019616 0.022129
0.000000 0.071216 0.066333
0.000000 0.071412 0.064861
0.000000 0.071579 0.063389
0.035304 0.070923 0.061918
0.072926 0.070267 0.060446
0.110549 0.069611 0.058974
0.148172 0.068955 0.057503
0.185795 0.068299 0.056031
0.223418 0.067643 0.054559
0.261041 0.066987 0.053088
0.298664 0.066331 0.051616
0.336286 0.065675 0.050145
0.373909 0.065019 0.048673
0.411532 0.064364 0.047201
0.449155 0.063708 0.045730
0.486778 0.063052 0.044258
0.524401 0.062396 0.042786
0.562023 0.061740 0.041315
0.599646 0.061084 0.039843
0.637269 0.060428 0.038371
0.674892 0.059772 0.036900
0.712515 0.059116 0.035428
0.750138 0.058460 0.033956
0.787761 0.057804 0.032485
0.825383 0.057148 0.031013
0.863006 0.056492 0.029542
0.900629 0.055836 0.028070
0.938252 0.055181 0.026598
0.975875 0.054525 0.025127
1.000000 0.053869 0.023655
1.000000 0.053213 0.022183
1.000000 0.053379 0.020712
1.000000 0.053575 0.019240
0.000000 0.105175 0.063443
0.000000 0.105371 0.061972
0.000000 0.105538 0.060500
0.033777 0.104882 0.059029
0.071400 0.104226 0.057557
0.109023 0.103570 0.056085
0.146646 0.102914 0.054614
0.184269 0.102258 0.053142
0.221892 0.101602 0.051670
0.259514 0.100946 0.050199
0.297137 0.100290 0.048727
0.334760 0.099634 0.047255
0.372383 0.098978 0.045784
0.410006 0.098323 0.044312
0.447629 0.097667 0.042840
0.485252 0.097011 0.041369
0.522874 0.096355 0.039897
0.560497 0.095699 0.038426
0.598120 0.095043 0.036954
0.635743 0.094387 0.035482
0.673366 0.093731 0.034011
0.710989 0.093075 0.032539
0.748611 0.092419 0.031067
0.786234 0.091763 0.029596
0.823857 0.091107 0.028124
0.861480 0.090451 0.026652
0.899103 0.089795 0.025181
0.936726 0.089140 0.023709
0.974349 0.088484 0.022238
1.000000 0.087828 0.020766
1.000000 0.087172 0.019294
1.000000 0.087338 0.017823
1.000000 0.087534 0.016351
0.000000 0.139134 0.060554
0.000000 0.139331 0.059083
0.000000 0.139497 0.057611
0.032251 0.138841 0.056139
0.069874 0.138185 0.054668
0.107497 0.137529 0.053196
0.145120 0.136873 0.051724
0.182743 0.136217 0.050253
0.220365 0.135561 0.048781
0.257988 0.134905 0.047310
0.295611 0.134249 0.045838
0.333234 0.133593 0.044366
0.370857 0.132938 0.042895
0.408480 0.132282 0.041423
0.446103 0.131626 0.039951
0.483725 0.130970 0.038480
0.521348 0.130314 0.037008
0.558971 0.129658 0.035536
0.596594 0.129002 0.034065
0.634217 0.128346 0.032593
0.671840 0.127690 0.031121
0.709462 0.127034 0.029650
0.747085 0.126378 0.028178
0.784708 0.125722 0.026707
0.822331 0.125066 0.025235
0.859954 0.124410 0.023763
0.897577 0.123754 0.022292
0.935200 0.123099 0.020820
0.972822 0.122443 0.019348
1.000000 0.121787 0.017877
1.000000 0.121131 0.016405
1.000000 0.121297 0.014933
1.000000 0.121493 0.013462
0.000000 0.173093 0.057665
0.000000 0.173290 0.056194
0.000000 0.173456 0.054722
0.030725 0.172800 0.053250
0.068348 0.172144 0.051779
0.105971 0.171488 0.050307
0.143594 0.170832 0.048835
0.181216 0.170176 0.047364
0.218839 0.169520 0.045892
0.256462 0.168864 0.044420
0.294085 0.168208 0.042949
0.331708 0.167552 0.041477
0.369331 0.166897 0.040005
0.406953 0.166241 0.038534
0.444576 0.165585 0.037062
0.482199 0.164929 0.035591
0.519822 0.164273 0.034119
0.557445 0.163617 0.032647
0.595068 0.162961 0.031176
0.632691 0.162305 0.029704
0.670313 0.161649 0.028232
0.707936 0.160993 0.026761
0.745559 0.160337 0.025289
0.783182 0.159681 0.023817
0.820805 0.159025 0.022346
0.858428 0.158369 0.020874
0.896050 0.157713 0.019403
0.933673 0.157058 0.017931
0.971296 0.156402 0.016459
1.000000 0.155746 0.014988
1.000000 0.155090 0.013516
1.000000 0.155256 0.012044
1.000000 0.155452 0.010573
0.000000 0.207052 0.054776
0.000000 0.207249 0.053304
0.000000 0.207415 0.051833
0.029199 0.206759 0.050361
0.066822 0.206103 0.048889
0.104444 0.205447 0.047418
0.142067 0.204791 0.045946
0.179690 0.204135 0.044475
0.217313 0.203479 0.043003
0.254936 0.202823 0.041531
0.292559 0.202167 0.040060
0.330182 0.201511 0.038588
0.367804 0.200856 0.037116
0.405427 0.200200 0.035645
0.443050 0.199544 0.034173
0.480673 0.198888 0.032701
0.518296 0.198232 0.031230
0.555919 0.197576 0.029758
0.593542 0.196920 0.028286
0.631164 0.196264 0.026815
0.668787 0.195608 0.025343
0.706410 0.194952 0.023872
0.744033 0.194296 0.022400
0.781656 0.193640 0.020928
0.819279 0.192984 0.019457
0.856901 0.192328 0.017985
0.894524 0.191673 0.016513
0.932147 0.191017 0.015042
0.969770 0.190361 0.013570
1.000000 0.189705 0.012098
1.000000 0.189049 0.010627
1.000000 0.189215 0.009155
1.000000 0.189411 0.007684
0.000000 0.241011 0.051887
0.000000 0.241208 0.050415
0.000000 0.241374 0.048944
0.027673 0.240718 0.047472
0.065295 0.240062 0.046000
0.102918 0.239406 0.044529
0.140541 0.238750 0.043057
0.178164 0.238094 0.041585
0.215787 0.237438 0.040114
0.253410 0.236782 0.038642
0.291033 0.236126 0.037170
0.328655 0.235471 0.035699
0.366278 0.234815 0.034227
0.403901 0.234159 0.032756
0.441524 0.233503 0.031284
0.479147 0.232847 0.029812
0.516770 0.232191 0.028341
0.554392 0.231535 0.026869
0.592015 0.230879 0.025397
0.629638 0.230223 0.023926
0.667261 0.229567 0.022454
0.704884 0.228911 0.020982
0.742507 0.228255 0.019511
0.780130 0.227599 0.018039
0.817752 0.226943 0.016567
0.855375 0.226287 0.015096
0.892998 0.225632 0.013624
0.930621 0.224976 0.012153
0.968244 0.224320 0.010681
1.000000 0.223664 0.009209
1.000000 0.223008 0.007738
1.000000 0.223174 0.006266
1.000000 0.223370 0.004794
0.000000 0.274970 0.048998
0.000000 0.275167 0.047526
0.000000 0.275333 0.046054
0.026146 0.274677 0.044583
0.063769 0.274021 0.043111
0.101392 0.273365 0.041640
0.139015 0.272709 0.040168
0.176638 0.272053 0.038696
0.214261 0.271397 0.037225
0.251883 0.270741 0.035753
0.289506 0.270085 0.034281
0.327129 0.269430 0.032810
0.364752 0.268774 0.031338
0.402375 0.268118 0.029866
0.439998 0.267462 0.028395
0.477621 0.266806 0.026923
0.515243 0.266150 0.025451
0.552866 0.265494 0.023980
0.590489 0.264838 0.022508
0.628112 0.264182 0.021037
0.665735 0.263526 0.019565
0.703358 0.262870 0.018093
0.740981 0.262214 0.016622
0.778603 0.261558 0.015150
0.816226 0.260902 0.013678
0.853849 0.260246 0.012207
0.891472 0.259591 0.010735
0.929095 0.258935 0.009263
0.967586 0.258279 0.007792
1.000000 0.257623 0.006320
1.000000 0.256967 0.004849
1.000000 0.257133 0.003377
1.000000 0.257329 0.001905
0.000000 0.308929 0.046109
0.000000 0.309126 0.044637
0.000000 0.309292 0.043165
0.024620 0.308636 0.041694
0.062243 0.307980 0.040222
0.099866 0.307324 0.038750
0.137489 0.306668 0.037279
0.175112 0.306012 0.035807
0.212734 0.305356 0.034335
0.250357 0.304700 0.032864
0.287980 0.304044 0.031392
0.325603 0.303389 0.029921
0.363226 0.302733 0.028449
0.400849 0.302077 0.026977
0.438472 0.301421 0.025506
0.476094 0.300765 0.024034
0.513717 0.300109 0.022562
0.551340 0.299453 0.021091
0.588963 0.298797 0.019619
0.626586 0.298141 0.018147
0.664209 0.297485 0.016676
0.701831 0.296829 0.015204
0.739454 0.296173 0.013733
0.777077 0.295517 0.012261
0.814700 0.294861 0.010789
0.852323 0.294206 0.009318
0.890770 0.293550 0.007846
0.929601 0.292894 0.006374
0.968432 0.292238 0.004903
1.000000 0.291582 0.003431
1.000000 0.290926 0.001959
1.000000 0.291092 0.000488
1.000000 0.291157 0.000000
0.000000 0.342888 0.043219
0.000000 0.343085 0.041748
0.000000 0.343251 0.040276
0.023094 0.342595 0.038805
0.060717 0.341939 0.037333
0.098340 0.341283 0.035861
0.135963 0.340627 0.034390
0.173585 0.339971 0.032918
0.211208 0.339315 0.031446
0.248831 0.338659 0.029975
0.286454 0.338003 0.028503
0.324077 0.337348 0.027031
0.361700 0.336692 0.025560
0.399322 0.336036 0.024088
0.436945 0.335380 0.022616
0.474568 0.334724 0.021145
0.512191 0.334068 0.019673
0.549814 0.333412 0.018202
0.587437 0.332756 0.016730
0.625060 0.332100 0.015258
0.662682 0.331444 0.013787
0.700305 0.330788 0.012315
0.737928 0.330132 0.010843
0.775551 0.329476 0.009372
0.813954 0.328820 0.007900
0.852785 0.328165 0.006428
0.891616 0.327509 0.004957
0.930447 0.326853 0.003485
0.969278 0.326197 0.002014
1.000000 0.325541 0.000542
1.000000 0.324761 0.000000
1.000000 0.324731 0.000000
1.000000 0.324731 0.000000
0.000000 0.376847 0.040330
0.000000 0.377044 0.038859
0.000000 0.377210 0.037387
0.021568 0.376554 0.035915
0.059191 0.375898 0.034444
0.096813 0.375242 0.032972
0.134436 0.374586 0.031500
0.172059 0.373930 0.030029
0.209682 0.373274 0.028557
0.247305 0.372618 0.027086
0.284928 0.371963 0.025614
0.322551 0.371307 0.024142
0.360173 0.370651 0.022671
0.397796 0.369995 0.021199
0.435419 0.369339 0.019727
0.473042 0.368683 0.018256
0.510665 0.368027 0.016784
0.548288 0.367371 0.015312
0.585911 0.366715 0.013841
0.623533 0.366059 0.012369
0.661156 0.365403 0.010897
0.698779 0.364747 0.009426
0.737137 0.364091 0.007954
0.775968 0.363435 0.006483
0.814800 0.362779 0.005011
0.853631 0.362124 0.003539
0.892462 0.361468 0.002068
0.931293 0.360812 0.000596
0.970124 0.360039 0.000000
1.000000 0.359187 0.000000
1.000000 0.358335 0.000000
1.000000 0.358305 0.000000
1.000000 0.358305 0.000000
0.000000 0.410806 0.037441
0.000000 0.411003 0.035970
0.000000 0.411169 0.034498
0.020042 0.410513 0.033026
0.057664 0.409857 0.031555
0.095287 0.409201 0.030083
0.132910 0.408545 0.028611
0.170533 0.407889 0.027140
0.208156 0.407233 0.025668
0.245779 0.406577 0.024196
0.283402 0.405922 0.022725
0.321024 0.405266 0.021253
0.358647 0.404610 0.019781
0.396270 0.403954 0.018310
0.433893 0.403298 0.016838
0.471516 0.402642 0.015367
0.509139 0.401986 0.013895
0.546761 0.401330 0.012423
0.584384 0.400674 0.010952
0.622007 0.400018 0.009480
0.660321 0.399362 0.008008
0.699152 0.398706 0.006537
0.737983 0.398050 0.005065
0.776814 0.397394 0.003593
0.815645 0.396738 0.002122
0.854476 0.396083 0.000650
0.893308 0.395317 0.000000
0.932139 0.394465 0.000000
0.970970 0.393613 0.000000
1.000000 0.392761 0.000000
1.000000 0.391908 0.000000
1.000000 0.391879 0.000000
1.000000 0.391879 0.000000
0.000000 0.444765 0.034552
0.000000 0.444962 0.033080
0.000000 0.445128 0.031609
0.018515 0.444472 0.030137
0.056138 0.443816 0.028665
0.093761 0.443160 0.027194
0.131384 0.442504 0.025722
0.169007 0.441848 0.024251
0.206630 0.441192 0.022779
0.244252 0.440536 0.021307
0.281875 0.439881 0.019836
0.319498 0.439225 0.018364
0.357121 0.438569 0.016892
0.394744 0.437913 0.015421
0.432367 0.437257 0.013949
0.469990 0.436601 0.012477
0.507612 0.435945 0.011006
0.545235 0.435289 0.009534
0.583505 0.434633 0.008063
0.622336 0.433977 0.006591
0.661167 0.433321 0.005119
0.699998 0.432665 0.003648
0.738829 0.432009 0.002176
0.777660 0.431353 0.000704
0.816491 0.430595 0.000000
0.855322 0.429743 0.000000
0.894153 0.428891 0.000000
0.932984 0.428039 0.000000
0.971816 0.427187 0.000000
1.000000 0.426334 0.000000
1.000000 0.425482 0.000000
1.000000 0.425452 0.000000
1.000000 0.425452 0.000000
0.000000 0.478724 0.031663
0.000000 0.478921 0.030191
0.000000 0.479087 0.028720
0.016989 0.478431 0.027248
0.054612 0.477775 0.025776
0.092235 0.477119 0.024305
0.129858 0.476463 0.022833
0.167481 0.475807 0.021361
0.205103 0.475151 0.019890
0.242726 0.474496 0.018418
0.280349 0.473840 0.016946
0.317972 0.473184 0.015475
0.355595 0.472528 0.014003
0.393218 0.471872 0.012532
0.430841 0.471216 0.011060
0.468463 0.470560 0.009588
0.506688 0.469904 0.008117
0.545519 0.469248 0.006645
0.584350 0.468592 0.005173
0.623182 0.467936 0.003702
0.662013 0.467280 0.002230
0.700844 0.466624 0.000758
0.739675 0.465873 0.000000
0.778506 0.465021 0.000000
0.817337 0.464169 0.000000
0.856168 0.463317 0.000000
0.894999 0.462465 0.000000
0.933830 0.461613 0.000000
0.972661 0.460760 0.000000
1.000000 0.459908 0.000000
1.000000 0.459056 0.000000
1.000000 0.459026 0.000000
1.000000 0.459026 0.000000
0.000000 0.512683 0.028774
0.000000 0.512880 0.027302
0.000000 0.513046 0.025830
0.015463 0.512390 0.024359
0.053086 0.511734 0.022887
0.090709 0.511078 0.021416
0.128332 0.510422 0.019944
0.165954 0.509766 0.018472
0.203577 0.509110 0.017001
0.241200 0.508455 0.015529
0.278823 0.507799 0.014057
0.316446 0.507143 0.012586
0.354069 0.506487 0.011114
0.391691 0.505831 0.009642
0.429872 0.505175 0.008171
0.468703 0.504519 0.006699
0.507534 0.503863 0.005228
0.546365 0.503207 0.003756
0.585196 0.502551 0.002284
0.624027 0.501895 0.000813
0.662859 0.501151 0.000000
0.701690 0.500299 0.000000
0.740521 0.499447 0.000000
0.779352 0.498595 0.000000
0.818183 0.497743 0.000000
0.857014 0.496891 0.000000
0.895845 0.496038 0.000000
0.934676 0.495186 0.000000
0.973507 0.494334 0.000000
1.000000 0.493482 0.000000
1.000000 0.492630 0.000000
1.000000 0.492600 0.000000
1.000000 0.492600 0.000000
0.000000 0.546643 0.025885
0.000000 0.546839 0.024413
0.000000 0.547005 0.022941
0.013937 0.546349 0.021470
0.051560 0.545693 0.019998
0.089182 0.545037 0.018526
0.126805 0.544381 0.017055
0.164428 0.543725 0.015583
0.202051 0.543069 0.014111
0.239674 0.542414 0.012640
0.277297 0.541758 0.011168
0.314920 0.541102 0.009697
0.353056 0.540446 0.008225
0.391887 0.539790 0.006753
0.430718 0.539134 0.005282
0.469549 0.538478 0.003810
0.508380 0.537822 0.002338
0.547211 0.537166 0.000867
0.586042 0.536430 0.000000
0.624873 0.535577 0.000000
0.663704 0.534725 0.000000
0.702535 0.533873 0.000000
0.741367 0.533021 0.000000
0.780198 0.532169 0.000000
0.819029 0.531317 0.000000
0.857860 0.530464 0.000000
0.896691 0.529612 0.000000
0.935522 0.528760 0.000000
0.974353 0.527908 0.000000
1.000000 0.527056 0.000000
1.000000 0.526204 0.000000
1.000000 0.526174 0.000000
1.000000 0.526174 0.000000
0.000000 0.580602 0.022995
0.000000 0.580798 0.021524
0.000000 0.580964 0.020052
0.012411 0.580308 0.018581
0.050033 0.579652 0.017109
0.087656 0.578996 0.015637
0.125279 0.578340 0.014166
0.162902 0.577684 0.012694
0.200525 0.577028 0.011222
0.238148 0.576373 0.009751
0.276239 0.575717 0.008279
0.315070 0.575061 0.006807
0.353901 0.574405 0.005336
0.392733 0.573749 0.003864
0.431564 0.573093 0.002393
0.470395 0.572437 0.000921
0.509226 0.571708 0.000000
0.548057 0.570855 0.000000
0.586888 0.570003 0.000000
0.625719 0.569151 0.000000
0.664550 0.568299 0.000000
0.703381 0.567447 0.000000
0.742212 0.566595 0.000000
0.781043 0.565743 0.000000
0.819875 0.564890 0.000000
0.858706 0.564038 0.000000
0.897537 0.563186 0.000000
0.936368 0.562334 0.000000
0.975199 0.561482 0.000000
1.000000 0.560630 0.000000
1.000000 0.559777 0.000000
1.000000 0.559748 0.000000
1.000000 0.559748 0.000000
0.000000 0.614561 0.020106
0.000000 0.614757 0.018635
0.000000 0.614923 0.017163
0.010884 0.614267 0.015691
0.048507 0.613611 0.014220
0.086130 0.612955 0.012748
0.123753 0.612299 0.011276
0.161376 0.611643 0.009805
0.199423 0.610988 0.008333
0.238254 0.610332 0.006862
0.277085 0.609676 0.005390
0.315916 0.609020 0.003918
0.354747 0.608364 0.002447
0.393578 0.607708 0.000975
0.432409 0.606986 0.000000
0.471241 0.606134 0.000000
0.510072 0.605281 0.000000
0.548903 0.604429 0.000000
0.587734 0.603577 0.000000
0.626565 0.602725 0.000000
0.665396 0.601873 0.000000
0.704227 0.601021 0.000000
0.743058 0.600168 0.000000
0.781889 0.599316 0.000000
0.820720 0.598464 0.000000
0.859551 0.597612 0.000000
0.898383 0.596760 0.000000
0.937214 0.595908 0.000000
0.976045 0.595056 0.000000
1.000000 0.594203 0.000000
1.000000 0.593351 0.000000
1.000000 0.593321 0.000000
1.000000 0.593321 0.000000
0.000000 0.648520 0.017217
0.000000 0.648716 0.015746
0.000000 0.648882 0.014274
0.009358 0.648226 0.012802
0.046981 0.647570 0.011331
0.084604 0.646914 0.009859
0.122607 0.646258 0.008387
0.161438 0.645602 0.006916
0.200269 0.644947 0.005444
0.239100 0.644291 0.003972
0.277931 0.643635 0.002501
0.316762 0.642979 0.001029
0.355593 0.642264 0.000000
0.394424 0.641412 0.000000
0.433255 0.640559 0.000000
0.472086 0.639707 0.000000
0.510917 0.638855 0.000000
0.549749 0.638003 0.000000
0.588580 0.637151 0.000000
0.627411 0.636299 0.000000
0.666242 0.635447 0.000000
0.705073 0.634594 0.000000
0.743904 0.633742 0.000000
0.782735 0.632890 0.000000
0.821566 0.632038 0.000000
0.860397 0.631186 0.000000
0.899228 0.630334 0.000000
0.938060 0.629482 0.000000
0.976891 0.628629 0.000000
1.000000 0.627777 0.000000
1.000000 0.626925 0.000000
1.000000 0.626895 0.000000
1.000000 0.626895 0.000000
0.000000 0.682479 0.014328
0.000000 0.682675 0.012856
0.000000 0.682841 0.011385
0.007832 0.682185 0.009913
0.045790 0.681529 0.008441
0.084621 0.680873 0.006970
0.123452 0.680217 0.005498
0.162283 0.679561 0.004027
0.201115 0.678906 0.002555
0.239946 0.678250 0.001083
0.278777 0.677542 0.000000
0.317608 0.676690 0.000000
0.356439 0.675838 0.000000
0.395270 0.674985 0.000000
0.434101 0.674133 0.000000
0.472932 0.673281 0.000000
0.511763 0.672429 0.000000
0.550594 0.671577 0.000000
0.589426 0.670725 0.000000
0.628257 0.669873 0.000000
0.667088 0.669020 0.000000
0.705919 0.668168 0.000000
0.744750 0.667316 0.000000
0.783581 0.666464 0.000000
0.822412 0.665612 0.000000
0.861243 0.664760 0.000000
0.900074 0.663907 0.000000
0.938905 0.663055 0.000000
0.977736 0.662203 0.000000
1.000000 0.661351 0.000000
1.000000 0.660499 0.000000
1.000000 0.660469 0.000000
1.000000 0.660469 0.000000
0.000000 0.716438 0.011439
0.000000 0.716634 0.009967
0.000291 0.716800 0.008496
0.007805 0.716144 0.007024
0.046636 0.715488 0.005552
0.085467 0.714832 0.004081
0.124298 0.714176 0.002609
0.163129 0.713520 0.001137
0.201960 0.712820 0.000000
0.240792 0.711968 0.000000
0.279623 0.711116 0.000000
0.318454 0.710264 0.000000
0.357285 0.709411 0.000000
0.396116 0.708559 0.000000
0.434947 0.707707 0.000000
0.473778 0.706855 0.000000
0.512609 0.706003 0.000000
0.551440 0.705151 0.000000
0.590271 0.704299 0.000000
0.629102 0.703446 0.000000
0.667934 0.702594 0.000000
0.706765 0.701742 0.000000
0.745596 0.700890 0.000000
0.784427 0.700038 0.000000
0.823258 0.699186 0.000000
0.862089 0.698333 0.000000
0.900920 0.697481 0.000000
0.939751 0.696629 0.000000
0.978582 0.695777 0.000000
1.000000 0.694925 0.000000
1.000000 0.694073 0.000000
1.000000 0.694043 0.000000
1.000000 0.694043 0.000000
0.000246 0.750397 0.008550
0.001455 0.750593 0.007078
0.002663 0.750759 0.005606
0.008651 0.750103 0.004135
0.047482 0.749447 0.002663
0.086313 0.748791 0.001192
0.125144 0.748098 0.000000
0.163975 0.747246 0.000000
0.202806 0.746394 0.000000
0.241637 0.745542 0.000000
0.280468 0.744690 0.000000
0.319300 0.743837 0.000000
0.358131 0.742985 0.000000
0.396962 0.742133 0.000000
0.435793 0.741281 0.000000
0.474624 0.740429 0.000000
0.513455 0.739577 0.000000
0.552286 0.738724 0.000000
0.591117 0.737872 0.000000
0.629948 0.737020 0.000000
0.668779 0.736168 0.000000
0.707610 0.735316 0.000000
0.746442 0.734464 0.000000
0.785273 0.733612 0.000000
0.824104 0.732759 0.000000
0.862935 0.731907 0.000000
0.901766 0.731055 0.000000
0.940597 0.730203 0.000000
0.979428 0.729351 0.000000
1.000000 0.728499 0.000000
1.000000 0.727647 0.000000
1.000000 0.727617 0.000000
1.000000 0.727617 0.000000
0.002619 0.784356 0.005661
0.003827 0.784552 0.004189
0.005035 0.784718 0.002717
0.009497 0.784062 0.001246
0.048328 0.783376 0.000000
0.087159 0.782524 0.000000
0.125990 0.781672 0.000000
0.164821 0.780820 0.000000
0.203652 0.779968 0.000000
0.242483 0.779115 0.000000
0.281314 0.778263 0.000000
0.320145 0.777411 0.000000
0.358976 0.776559 0.000000
0.397808 0.775707 0.000000
0.436639 0.774855 0.000000
0.475470 0.774003 0.000000
0.514301 0.773150 0.000000
0.553132 0.772298 0.000000
0.591963 0.771446 0.000000
0.630794 0.770594 0.000000
0.669625 0.769742 0.000000
0.708456 0.768890 0.000000
0.747287 0.768038 0.000000
0.786118 0.767185 0.000000
0.824950 0.766333 0.000000
0.863781 0.765481 0.000000
0.902612 0.764629 0.000000
0.941443 0.763777 0.000000
0.980274 0.762925 0.000000
1.000000 0.762072 0.000000
1.000000 0.761220 0.000000
1.000000 0.761190 0.000000
1.000000 0.761190 0.000000
0.004991 0.818315 0.002771
0.006199 0.818511 0.001300
0.007407 0.818654 0.000000
0.010342 0.817802 0.000000
0.049174 0.816950 0.000000
0.088005 0.816098 0.000000
0.126836 0.815246 0.000000
0.165667 0.814394 0.000000
0.204498 0.813541 0.000000
0.243329 0.812689 0.000000
0.282160 0.811837 0.000000
0.320991 0.810985 0.000000
0.359822 0.810133 0.000000
0.398653 0.809281 0.000000
0.437484 0.808428 0.000000
0.476316 0.807576 0.000000
0.515147 0.806724 0.000000
0.553978 0.805872 0.000000
0.592809 0.805020 0.000000
0.631640 0.804168 0.000000
0.670471 0.803316 0.000000
0.709302 0.802463 0.000000
0.748133 0.801611 0.000000
0.786964 0.800759 0.000000
0.825795 0.799907 0.000000
0.864627 0.799055 0.000000
0.903458 0.798203 0.000000
0.942289 0.797351 0.000000
0.981120 0.796498 0.000000
1.000000 0.795646 0.000000
1.000000 0.794794 0.000000
1.000000 0.794764 0.000000
1.000000 0.794764 0.000000
0.007363 0.852258 0.000000
0.008571 0.852258 0.000000
0.009779 0.852228 0.000000
0.011188 0.851376 0.000000
0.050019 0.850524 0.000000
0.088850 0.849672 0.000000
0.127682 0.848819 0.000000
0.166513 0.847967 0.000000
0.205344 0.847115 0.000000
0.244175 0.846263 0.000000
0.283006 0.845411 0.000000
0.321837 0.844559 0.000000
0.360668 0.843707 0.000000
0.399499 0.842854 0.000000
0.438330 0.842002 0.000000
0.477161 0.841150 0.000000
0.515993 0.840298 0.000000
0.554824 0.839446 0.000000
0.593655 0.838594 0.000000
0.632486 0.837742 0.000000
0.671317 0.836889 0.000000
0.710148 0.836037 0.000000
0.748979 0.835185 0.000000
0.787810 0.834333 0.000000
0.826641 0.833481 0.000000
0.865472 0.832629 0.000000
0.904303 0.831776 0.000000
