docs/luts/fresh-vintage-warmth.cube
TITLE "FreshLUTs??-????"
LUT_3D_SIZE 33
DOMAIN_MIN 0.0 0.0 0.0
DOMAIN_MAX 1.0 1.0 1.0
0.101040 0.081868 0.049088
0.125283 0.083361 0.050581
0.149526 0.084854 0.052074
0.173769 0.086348 0.053568
0.198012 0.087841 0.055061
0.222255 0.089334 0.056554
0.246498 0.090827 0.058047
0.270741 0.092320 0.059540
0.294984 0.093813 0.061033
0.319227 0.095307 0.062527
0.343471 0.096800 0.064020
0.367714 0.098293 0.065513
0.391957 0.099786 0.067006
0.416200 0.101279 0.068499
0.440443 0.102772 0.069992
0.464686 0.104266 0.071486
0.488929 0.105759 0.072979
0.513172 0.107252 0.074472
0.537415 0.108745 0.075965
0.561658 0.110238 0.077458
0.585901 0.111731 0.078951
0.610144 0.113225 0.080445
0.634387 0.114718 0.081938
0.658630 0.116211 0.083431
0.682873 0.117704 0.084924
0.707116 0.119197 0.086417
0.731359 0.120690 0.087910
0.755602 0.122184 0.089404
0.779845 0.123677 0.090897
0.804088 0.125170 0.092390
0.828331 0.126663 0.093883
0.852574 0.128156 0.095376
0.876817 0.129649 0.096869
0.103952 0.107382 0.052000
0.128195 0.108875 0.053494
0.152438 0.110368 0.054987
0.176681 0.111861 0.056480
0.200925 0.113354 0.057973
0.225168 0.114847 0.059466
0.249411 0.116341 0.060959
0.273654 0.117834 0.062453
0.297897 0.119327 0.063946
0.322140 0.120820 0.065439
0.346383 0.122313 0.066932
0.370626 0.123806 0.068425
0.394869 0.125300 0.069918
0.419112 0.126793 0.071412
0.443355 0.128286 0.072905
0.467598 0.129779 0.074398
0.491841 0.131272 0.075891
0.516084 0.132765 0.077384
0.540327 0.134259 0.078877
0.564570 0.135752 0.080371
0.588813 0.137245 0.081864
0.613056 0.138738 0.083357
0.637299 0.140231 0.084850
0.661542 0.141724 0.086343
0.685785 0.143218 0.087836
0.710028 0.144711 0.089330
0.734271 0.146204 0.090823
0.758515 0.147697 0.092316
0.782758 0.149190 0.093809
0.807001 0.150683 0.095302
0.831244 0.152177 0.096795
0.855487 0.153670 0.098289
0.879730 0.155163 0.099782
0.106865 0.132895 0.054913
0.131108 0.134388 0.056406
0.155351 0.135881 0.057899
0.179594 0.137375 0.059392
0.203837 0.138868 0.060885
0.228080 0.140361 0.062378
0.252323 0.141854 0.063872
0.276566 0.143347 0.065365
0.300809 0.144840 0.066858
0.325052 0.146334 0.068351
0.349295 0.147827 0.069844
0.373538 0.149320 0.071337
0.397781 0.150813 0.072831
0.422024 0.152306 0.074324
0.446267 0.153799 0.075817
0.470510 0.155293 0.077310
0.494753 0.156786 0.078803
0.518996 0.158279 0.080296
0.543239 0.159772 0.081790
0.567482 0.161265 0.083283
0.591725 0.162758 0.084776
0.615969 0.164252 0.086269
0.640212 0.165745 0.087762
0.664455 0.167238 0.089255
0.688698 0.168731 0.090749
0.712941 0.170224 0.092242
0.737184 0.171717 0.093735
0.761427 0.173211 0.095228
0.785670 0.174704 0.096721
0.809913 0.176197 0.098214
0.834156 0.177690 0.099708
0.858399 0.179183 0.101201
0.882642 0.180676 0.102694
0.109777 0.158409 0.057825
0.134020 0.159902 0.059318
0.158263 0.161395 0.060811
0.182506 0.162888 0.062304
0.206749 0.164381 0.063798
0.230992 0.165874 0.065291
0.255235 0.167368 0.066784
0.279478 0.168861 0.068277
0.303721 0.170354 0.069770
0.327964 0.171847 0.071263
0.352207 0.173340 0.072757
0.376450 0.174833 0.074250
0.400693 0.176327 0.075743
0.424936 0.177820 0.077236
0.449179 0.179313 0.078729
0.473423 0.180806 0.080222
0.497666 0.182299 0.081716
0.521909 0.183792 0.083209
0.546152 0.185286 0.084702
0.570395 0.186779 0.086195
0.594638 0.188272 0.087688
0.618881 0.189765 0.089181
0.643124 0.191258 0.090675
0.667367 0.192751 0.092168
0.691610 0.194245 0.093661
0.715853 0.195738 0.095154
0.740096 0.197231 0.096647
0.764339 0.198724 0.098140
0.788582 0.200217 0.099634
0.812825 0.201710 0.101127
0.837068 0.203204 0.102620
0.861311 0.204697 0.104113
0.885554 0.206190 0.105606
0.112689 0.183922 0.060737
0.136932 0.185415 0.062230
0.161175 0.186908 0.063723
0.185418 0.188402 0.065217
0.209661 0.189895 0.066710
0.233904 0.191388 0.068203
0.258147 0.192881 0.069696
0.282390 0.194374 0.071189
0.306633 0.195867 0.072682
0.330876 0.197361 0.074176
0.355120 0.198854 0.075669
0.379363 0.200347 0.077162
0.403606 0.201840 0.078655
0.427849 0.203333 0.080148
0.452092 0.204826 0.081641
0.476335 0.206320 0.083135
0.500578 0.207813 0.084628
0.524821 0.209306 0.086121
0.549064 0.210799 0.087614
0.573307 0.212292 0.089107
0.597550 0.213785 0.090600
0.621793 0.215279 0.092094
0.646036 0.216772 0.093587
0.670279 0.218265 0.095080
0.694522 0.219758 0.096573
0.718765 0.221251 0.098066
0.743008 0.222744 0.099559
0.767251 0.224238 0.101053
0.791494 0.225731 0.102546
0.815737 0.227224 0.104039
0.839980 0.228717 0.105532
0.864223 0.230210 0.107025
0.888467 0.231704 0.108519
0.115601 0.209436 0.063649
0.139844 0.210929 0.065143
0.164087 0.212422 0.066636
0.188330 0.213915 0.068129
0.212574 0.215408 0.069622
0.236817 0.216901 0.071115
0.261060 0.218395 0.072608
0.285303 0.219888 0.074102
0.309546 0.221381 0.075595
0.333789 0.222874 0.077088
0.358032 0.224367 0.078581
0.382275 0.225860 0.080074
0.406518 0.227354 0.081567
0.430761 0.228847 0.083061
0.455004 0.230340 0.084554
0.479247 0.231833 0.086047
0.503490 0.233326 0.087540
0.527733 0.234819 0.089033
0.551976 0.236313 0.090526
0.576219 0.237806 0.092020
0.600462 0.239299 0.093513
0.624705 0.240792 0.095006
0.648948 0.242285 0.096499
0.673191 0.243778 0.097992
0.697434 0.245272 0.099485
0.721677 0.246765 0.100979
0.745920 0.248258 0.102472
0.770164 0.249751 0.103965
0.794407 0.251244 0.105458
0.818650 0.252738 0.106951
0.842893 0.254231 0.108444
0.867136 0.255724 0.109938
0.891379 0.257217 0.111431
0.118514 0.234949 0.066562
0.142757 0.236442 0.068055
0.167000 0.237935 0.069548
0.191243 0.239429 0.071041
0.215486 0.240922 0.072534
0.239729 0.242415 0.074027
0.263972 0.243908 0.075521
0.288215 0.245401 0.077014
0.312458 0.246894 0.078507
0.336701 0.248388 0.080000
0.360944 0.249881 0.081493
0.385187 0.251374 0.082986
0.409430 0.252867 0.084480
0.433673 0.254360 0.085973
0.457916 0.255853 0.087466
0.482159 0.257347 0.088959
0.506402 0.258840 0.090452
0.530645 0.260333 0.091945
0.554888 0.261826 0.093439
0.579131 0.263319 0.094932
0.603374 0.264812 0.096425
0.627618 0.266306 0.097918
0.651861 0.267799 0.099411
0.676104 0.269292 0.100904
0.700347 0.270785 0.102398
0.724590 0.272278 0.103891
0.748833 0.273771 0.105384
0.773076 0.275265 0.106877
0.797319 0.276758 0.108370
0.821562 0.278251 0.109864
0.845805 0.279744 0.111357
0.870048 0.281237 0.112850
0.894291 0.282731 0.114343
0.121426 0.260463 0.069474
0.145669 0.261956 0.070967
0.169912 0.263449 0.072460
0.194155 0.264942 0.073953
0.218398 0.266435 0.075447
0.242641 0.267928 0.076940
0.266884 0.269422 0.078433
0.291127 0.270915 0.079926
0.315370 0.272408 0.081419
0.339613 0.273901 0.082912
0.363856 0.275394 0.084406
0.388099 0.276887 0.085899
0.412342 0.278381 0.087392
0.436585 0.279874 0.088885
0.460828 0.281367 0.090378
0.485072 0.282860 0.091871
0.509315 0.284353 0.093365
0.533558 0.285846 0.094858
0.557801 0.287340 0.096351
0.582044 0.288833 0.097844
0.606287 0.290326 0.099337
0.630530 0.291819 0.100830
0.654773 0.293312 0.102324
0.679016 0.294805 0.103817
0.703259 0.296299 0.105310
0.727502 0.297792 0.106803
0.751745 0.299285 0.108296
0.775988 0.300778 0.109789
0.800231 0.302271 0.111283
0.824474 0.303765 0.112776
0.848717 0.305258 0.114269
0.872960 0.306751 0.115762
0.897203 0.308244 0.117255
0.124338 0.285976 0.072386
0.148581 0.287469 0.073879
0.172824 0.288962 0.075372
0.197067 0.290456 0.076866
0.221310 0.291949 0.078359
0.245553 0.293442 0.079852
0.269796 0.294935 0.081345
0.294039 0.296428 0.082838
0.318282 0.297921 0.084331
0.342526 0.299415 0.085825
0.366769 0.300908 0.087318
0.391012 0.302401 0.088811
0.415255 0.303894 0.090304
0.439498 0.305387 0.091797
0.463741 0.306880 0.093290
0.487984 0.308374 0.094784
0.512227 0.309867 0.096277
0.536470 0.311360 0.097770
0.560713 0.312853 0.099263
0.584956 0.314346 0.100756
0.609199 0.315839 0.102249
0.633442 0.317333 0.103743
0.657685 0.318826 0.105236
0.681928 0.320319 0.106729
0.706171 0.321812 0.108222
0.730414 0.323305 0.109715
0.754657 0.324799 0.111209
0.778900 0.326292 0.112702
0.803143 0.327785 0.114195
0.827386 0.329278 0.115688
0.851629 0.330771 0.117181
0.875872 0.332264 0.118674
0.900116 0.333758 0.120168
0.127250 0.311490 0.075298
0.151493 0.312983 0.076792
0.175736 0.314476 0.078285
0.199980 0.315969 0.079778
0.224223 0.317462 0.081271
0.248466 0.318955 0.082764
0.272709 0.320449 0.084257
0.296952 0.321942 0.085751
0.321195 0.323435 0.087244
0.345438 0.324928 0.088737
0.369681 0.326421 0.090230
0.393924 0.327914 0.091723
0.418167 0.329408 0.093216
0.442410 0.330901 0.094710
0.466653 0.332394 0.096203
0.490896 0.333887 0.097696
0.515139 0.335380 0.099189
0.539382 0.336873 0.100682
0.563625 0.338367 0.102175
0.587868 0.339860 0.103669
0.612111 0.341353 0.105162
0.636354 0.342846 0.106655
0.660597 0.344339 0.108148
0.684840 0.345833 0.109641
0.709083 0.347326 0.111134
0.733326 0.348819 0.112628
0.757570 0.350312 0.114121
0.781813 0.351805 0.115614
0.806056 0.353298 0.117107
0.830299 0.354792 0.118600
0.854542 0.356285 0.120093
0.878785 0.357778 0.121587
0.903028 0.359271 0.123080
0.130163 0.337003 0.078211
0.154406 0.338496 0.079704
0.178649 0.339989 0.081197
0.202892 0.341483 0.082690
0.227135 0.342976 0.084183
0.251378 0.344469 0.085676
0.275621 0.345962 0.087170
0.299864 0.347455 0.088663
0.324107 0.348948 0.090156
0.348350 0.350442 0.091649
0.372593 0.351935 0.093142
0.396836 0.353428 0.094635
0.421079 0.354921 0.096129
0.445322 0.356414 0.097622
0.469565 0.357907 0.099115
0.493808 0.359401 0.100608
0.518051 0.360894 0.102101
0.542294 0.362387 0.103594
0.566537 0.363880 0.105088
0.590780 0.365373 0.106581
0.615024 0.366867 0.108074
0.639267 0.368360 0.109567
0.663510 0.369853 0.111060
0.687753 0.371346 0.112554
0.711996 0.372839 0.114047
0.736239 0.374332 0.115540
0.760482 0.375826 0.117033
0.784725 0.377319 0.118526
0.808968 0.378812 0.120019
0.833211 0.380305 0.121513
0.857454 0.381798 0.123006
0.881697 0.383291 0.124499
0.905940 0.384785 0.125992
0.133075 0.362517 0.081123
0.157318 0.364010 0.082616
0.181561 0.365503 0.084109
0.205804 0.366996 0.085602
0.230047 0.368489 0.087096
0.254290 0.369982 0.088589
0.278533 0.371476 0.090082
0.302776 0.372969 0.091575
0.327019 0.374462 0.093068
0.351262 0.375955 0.094561
0.375505 0.377448 0.096055
0.399748 0.378941 0.097548
0.423991 0.380435 0.099041
0.448234 0.381928 0.100534
0.472477 0.383421 0.102027
0.496721 0.384914 0.103520
0.520964 0.386407 0.105014
0.545207 0.387900 0.106507
0.569450 0.389394 0.108000
0.593693 0.390887 0.109493
0.617936 0.392380 0.110986
0.642179 0.393873 0.112479
0.666422 0.395366 0.113973
0.690665 0.396860 0.115466
0.714908 0.398353 0.116959
0.739151 0.399846 0.118452
0.763394 0.401339 0.119945
0.787637 0.402832 0.121438
0.811880 0.404325 0.122932
0.836123 0.405819 0.124425
0.860366 0.407312 0.125918
0.884609 0.408805 0.127411
0.908852 0.410298 0.128904
0.135987 0.388030 0.084035
0.160230 0.389523 0.085528
0.184473 0.391016 0.087021
0.208716 0.392510 0.088515
0.232959 0.394003 0.090008
0.257202 0.395496 0.091501
0.281445 0.396989 0.092994
0.305688 0.398482 0.094487
0.329931 0.399975 0.095980
0.354175 0.401469 0.097474
0.378418 0.402962 0.098967
0.402661 0.404455 0.100460
0.426904 0.405948 0.101953
0.451147 0.407441 0.103446
0.475390 0.408934 0.104939
0.499633 0.410428 0.106433
0.523876 0.411921 0.107926
0.548119 0.413414 0.109419
0.572362 0.414907 0.110912
0.596605 0.416400 0.112405
0.620848 0.417894 0.113899
0.645091 0.419387 0.115392
0.669334 0.420880 0.116885
0.693577 0.422373 0.118378
0.717820 0.423866 0.119871
0.742063 0.425359 0.121364
0.766306 0.426853 0.122858
0.790549 0.428346 0.124351
0.814792 0.429839 0.125844
0.839035 0.431332 0.127337
0.863278 0.432825 0.128830
0.887521 0.434318 0.130323
0.911765 0.435812 0.131817
0.138899 0.413544 0.086947
0.163142 0.415037 0.088441
0.187385 0.416530 0.089934
0.211629 0.418023 0.091427
0.235872 0.419516 0.092920
0.260115 0.421009 0.094413
0.284358 0.422503 0.095906
0.308601 0.423996 0.097400
0.332844 0.425489 0.098893
0.357087 0.426982 0.100386
0.381330 0.428475 0.101879
0.405573 0.429968 0.103372
0.429816 0.431462 0.104865
0.454059 0.432955 0.106359
0.478302 0.434448 0.107852
0.502545 0.435941 0.109345
0.526788 0.437434 0.110838
0.551031 0.438928 0.112331
0.575274 0.440421 0.113824
0.599517 0.441914 0.115318
0.623760 0.443407 0.116811
0.648003 0.444900 0.118304
0.672246 0.446393 0.119797
0.696489 0.447887 0.121290
0.720732 0.449380 0.122783
0.744975 0.450873 0.124277
0.769219 0.452366 0.125770
0.793462 0.453859 0.127263
0.817705 0.455352 0.128756
0.841948 0.456846 0.130249
0.866191 0.458339 0.131742
0.890434 0.459832 0.133236
0.914677 0.461325 0.134729
0.141812 0.439057 0.089860
0.166055 0.440550 0.091353
0.190298 0.442043 0.092846
0.214541 0.443537 0.094339
0.238784 0.445030 0.095832
0.263027 0.446523 0.097325
0.287270 0.448016 0.098819
0.311513 0.449509 0.100312
0.335756 0.451002 0.101805
0.359999 0.452496 0.103298
0.384242 0.453989 0.104791
0.408485 0.455482 0.106284
0.432728 0.456975 0.107778
0.456971 0.458468 0.109271
0.481214 0.459962 0.110764
0.505457 0.461455 0.112257
0.529700 0.462948 0.113750
0.553943 0.464441 0.115244
0.578186 0.465934 0.116737
0.602429 0.467427 0.118230
0.626673 0.468921 0.119723
0.650916 0.470414 0.121216
0.675159 0.471907 0.122709
0.699402 0.473400 0.124203
0.723645 0.474893 0.125696
0.747888 0.476386 0.127189
0.772131 0.477880 0.128682
0.796374 0.479373 0.130175
0.820617 0.480866 0.131668
0.844860 0.482359 0.133162
0.869103 0.483852 0.134655
0.893346 0.485345 0.136148
0.917589 0.486839 0.137641
0.144724 0.464571 0.092772
0.168967 0.466064 0.094265
0.193210 0.467557 0.095758
0.217453 0.469050 0.097251
0.241696 0.470543 0.098745
0.265939 0.472036 0.100238
0.290182 0.473530 0.101731
0.314425 0.475023 0.103224
0.338668 0.476516 0.104717
0.362911 0.478009 0.106210
0.387154 0.479502 0.107704
0.411397 0.480996 0.109197
0.435640 0.482489 0.110690
0.459883 0.483982 0.112183
0.484127 0.485475 0.113676
0.508370 0.486968 0.115169
0.532613 0.488461 0.116663
0.556856 0.489955 0.118156
0.581099 0.491448 0.119649
0.605342 0.492941 0.121142
0.629585 0.494434 0.122635
0.653828 0.495927 0.124128
0.678071 0.497420 0.125622
0.702314 0.498914 0.127115
0.726557 0.500407 0.128608
0.750800 0.501900 0.130101
0.775043 0.503393 0.131594
0.799286 0.504886 0.133087
0.823529 0.506379 0.134581
0.847772 0.507873 0.136074
0.872015 0.509366 0.137567
0.896258 0.510859 0.139060
0.920501 0.512352 0.140553
0.147636 0.490084 0.095684
0.171879 0.491577 0.097177
0.196122 0.493070 0.098670
0.220365 0.494564 0.100164
0.244608 0.496057 0.101657
0.268851 0.497550 0.103150
0.293094 0.499043 0.104643
0.317337 0.500536 0.106136
0.341581 0.502030 0.107630
0.365824 0.503523 0.109123
0.390067 0.505016 0.110616
0.414310 0.506509 0.112109
0.438553 0.508002 0.113602
0.462796 0.509495 0.115095
0.487039 0.510989 0.116589
0.511282 0.512482 0.118082
0.535525 0.513975 0.119575
0.559768 0.515468 0.121068
0.584011 0.516961 0.122561
0.608254 0.518454 0.124054
0.632497 0.519948 0.125548
0.656740 0.521441 0.127041
0.680983 0.522934 0.128534
0.705226 0.524427 0.130027
0.729469 0.525920 0.131520
0.753712 0.527413 0.133013
0.777955 0.528907 0.134507
0.802198 0.530400 0.136000
0.826441 0.531893 0.137493
0.850684 0.533386 0.138986
0.874927 0.534879 0.140479
0.899171 0.536372 0.141972
0.923414 0.537866 0.143466
0.150548 0.515598 0.098596
0.174791 0.517091 0.100090
0.199034 0.518584 0.101583
0.223278 0.520077 0.103076
0.247521 0.521570 0.104569
0.271764 0.523063 0.106062
0.296007 0.524557 0.107555
0.320250 0.526050 0.109049
0.344493 0.527543 0.110542
0.368736 0.529036 0.112035
0.392979 0.530529 0.113528
0.417222 0.532023 0.115021
0.441465 0.533516 0.116514
0.465708 0.535009 0.118008
0.489951 0.536502 0.119501
0.514194 0.537995 0.120994
0.538437 0.539488 0.122487
0.562680 0.540982 0.123980
0.586923 0.542475 0.125473
0.611166 0.543968 0.126967
0.635409 0.545461 0.128460
0.659652 0.546954 0.129953
0.683895 0.548447 0.131446
0.708138 0.549941 0.132939
0.732381 0.551434 0.134432
0.756624 0.552927 0.135926
0.780868 0.554420 0.137419
0.805111 0.555913 0.138912
0.829354 0.557406 0.140405
0.853597 0.558900 0.141898
0.877840 0.560393 0.143391
0.902083 0.561886 0.144885
0.926326 0.563379 0.146378
0.153461 0.541111 0.101509
0.177704 0.542604 0.103002
0.201947 0.544097 0.104495
0.226190 0.545591 0.105988
0.250433 0.547084 0.107481
0.274676 0.548577 0.108975
0.298919 0.550070 0.110468
0.323162 0.551563 0.111961
0.347405 0.553057 0.113454
0.371648 0.554550 0.114947
0.395891 0.556043 0.116440
0.420134 0.557536 0.117934
0.444377 0.559029 0.119427
0.468620 0.560522 0.120920
0.492863 0.562016 0.122413
0.517106 0.563509 0.123906
0.541349 0.565002 0.125399
0.565592 0.566495 0.126893
0.589835 0.567988 0.128386
0.614078 0.569481 0.129879
0.638322 0.570975 0.131372
0.662565 0.572468 0.132865
0.686808 0.573961 0.134358
0.711051 0.575454 0.135852
0.735294 0.576947 0.137345
0.759537 0.578440 0.138838
0.783780 0.579934 0.140331
0.808023 0.581427 0.141824
0.832266 0.582920 0.143317
0.856509 0.584413 0.144811
0.880752 0.585906 0.146304
0.904995 0.587399 0.147797
0.929238 0.588893 0.149290
0.156373 0.566625 0.104421
0.180616 0.568118 0.105914
0.204859 0.569611 0.107407
0.229102 0.571104 0.108900
0.253345 0.572597 0.110394
0.277588 0.574091 0.111887
0.301831 0.575584 0.113380
0.326074 0.577077 0.114873
0.350317 0.578570 0.116366
0.374560 0.580063 0.117859
0.398803 0.581556 0.119353
0.423046 0.583050 0.120846
0.447289 0.584543 0.122339
0.471532 0.586036 0.123832
0.495776 0.587529 0.125325
0.520019 0.589022 0.126818
0.544262 0.590515 0.128312
0.568505 0.592009 0.129805
0.592748 0.593502 0.131298
0.616991 0.594995 0.132791
0.641234 0.596488 0.134284
0.665477 0.597981 0.135777
0.689720 0.599474 0.137271
0.713963 0.600968 0.138764
0.738206 0.602461 0.140257
0.762449 0.603954 0.141750
0.786692 0.605447 0.143243
0.810935 0.606940 0.144736
0.835178 0.608433 0.146230
0.859421 0.609927 0.147723
0.883664 0.611420 0.149216
0.907907 0.612913 0.150709
0.932150 0.614406 0.152202
0.159285 0.592138 0.107333
0.183528 0.593631 0.108826
0.207771 0.595125 0.110320
0.232014 0.596618 0.111813
0.256257 0.598111 0.113306
0.280500 0.599604 0.114799
0.304743 0.601097 0.116292
0.328986 0.602590 0.117785
0.353230 0.604084 0.119279
0.377473 0.605577 0.120772
0.401716 0.607070 0.122265
0.425959 0.608563 0.123758
0.450202 0.610056 0.125251
0.474445 0.611549 0.126744
0.498688 0.613043 0.128238
0.522931 0.614536 0.129731
0.547174 0.616029 0.131224
0.571417 0.617522 0.132717
0.595660 0.619015 0.134210
0.619903 0.620508 0.135703
0.644146 0.622002 0.137197
0.668389 0.623495 0.138690
0.692632 0.624988 0.140183
0.716875 0.626481 0.141676
0.741118 0.627974 0.143169
0.765361 0.629467 0.144662
0.789604 0.630961 0.146156
0.813847 0.632454 0.147649
0.838090 0.633947 0.149142
0.862333 0.635440 0.150635
0.886576 0.636933 0.152128
0.910820 0.638426 0.153621
0.935063 0.639920 0.155115
0.162197 0.617652 0.110245
0.186440 0.619145 0.111739
0.210684 0.620638 0.113232
0.234927 0.622131 0.114725
0.259170 0.623624 0.116218
0.283413 0.625118 0.117711
0.307656 0.626611 0.119204
0.331899 0.628104 0.120698
0.356142 0.629597 0.122191
0.380385 0.631090 0.123684
0.404628 0.632583 0.125177
0.428871 0.634077 0.126670
0.453114 0.635570 0.128163
0.477357 0.637063 0.129657
0.501600 0.638556 0.131150
0.525843 0.640049 0.132643
0.550086 0.641542 0.134136
0.574329 0.643036 0.135629
0.598572 0.644529 0.137122
0.622815 0.646022 0.138616
0.647058 0.647515 0.140109
0.671301 0.649008 0.141602
0.695544 0.650501 0.143095
0.719787 0.651995 0.144588
0.744030 0.653488 0.146081
0.768274 0.654981 0.147575
0.792517 0.656474 0.149068
0.816760 0.657967 0.150561
0.841003 0.659460 0.152054
0.865246 0.660954 0.153547
0.889489 0.662447 0.155040
0.913732 0.663940 0.156534
0.937975 0.665433 0.158027
0.165110 0.643165 0.113158
0.189353 0.644658 0.114651
0.213596 0.646152 0.116144
0.237839 0.647645 0.117637
0.262082 0.649138 0.119130
0.286325 0.650631 0.120624
0.310568 0.652124 0.122117
0.334811 0.653617 0.123610
0.359054 0.655111 0.125103
0.383297 0.656604 0.126596
0.407540 0.658097 0.128089
0.431783 0.659590 0.129583
0.456026 0.661083 0.131076
0.480269 0.662576 0.132569
0.504512 0.664070 0.134062
0.528755 0.665563 0.135555
0.552998 0.667056 0.137048
0.577241 0.668549 0.138542
0.601484 0.670042 0.140035
0.625728 0.671535 0.141528
0.649971 0.673029 0.143021
0.674214 0.674522 0.144514
0.698457 0.676015 0.146007
0.722700 0.677508 0.147501
0.746943 0.679001 0.148994
0.771186 0.680494 0.150487
0.795429 0.681988 0.151980
0.819672 0.683481 0.153473
0.843915 0.684974 0.154966
0.868158 0.686467 0.156460
0.892401 0.687960 0.157953
0.916644 0.689453 0.159446
0.940887 0.690947 0.160939
0.168022 0.668679 0.116070
0.192265 0.670172 0.117563
0.216508 0.671665 0.119056
0.240751 0.673158 0.120549
0.264994 0.674651 0.122043
0.289237 0.676145 0.123536
0.313480 0.677638 0.125029
0.337723 0.679131 0.126522
0.361966 0.680624 0.128015
0.386209 0.682117 0.129508
0.410452 0.683610 0.131002
0.434695 0.685104 0.132495
0.458938 0.686597 0.133988
0.483181 0.688090 0.135481
0.507425 0.689583 0.136974
0.531668 0.691076 0.138467
0.555911 0.692569 0.139961
0.580154 0.694063 0.141454
0.604397 0.695556 0.142947
0.628640 0.697049 0.144440
0.652883 0.698542 0.145933
0.677126 0.700035 0.147426
0.701369 0.701528 0.148920
0.725612 0.703022 0.150413
0.749855 0.704515 0.151906
0.774098 0.706008 0.153399
0.798341 0.707501 0.154892
0.822584 0.708994 0.156385
0.846827 0.710487 0.157879
0.871070 0.711981 0.159372
0.895313 0.713474 0.160865
0.919556 0.714967 0.162358
0.943799 0.716460 0.163851
0.170934 0.694192 0.118982
0.195177 0.695685 0.120475
0.219420 0.697179 0.121969
0.243663 0.698672 0.123462
0.267906 0.700165 0.124955
0.292149 0.701658 0.126448
0.316392 0.703151 0.127941
0.340635 0.704644 0.129434
0.364879 0.706138 0.130928
0.389122 0.707631 0.132421
0.413365 0.709124 0.133914
0.437608 0.710617 0.135407
0.461851 0.712110 0.136900
0.486094 0.713603 0.138393
0.510337 0.715097 0.139887
0.534580 0.716590 0.141380
0.558823 0.718083 0.142873
0.583066 0.719576 0.144366
0.607309 0.721069 0.145859
0.631552 0.722562 0.147352
0.655795 0.724056 0.148846
0.680038 0.725549 0.150339
0.704281 0.727042 0.151832
0.728524 0.728535 0.153325
0.752767 0.730028 0.154818
0.777010 0.731521 0.156311
0.801253 0.733015 0.157805
0.825496 0.734508 0.159298
0.849739 0.736001 0.160791
0.873982 0.737494 0.162284
0.898225 0.738987 0.163777
0.922469 0.740480 0.165270
0.946712 0.741974 0.166764
0.173846 0.719706 0.121894
0.198089 0.721199 0.123388
0.222333 0.722692 0.124881
0.246576 0.724185 0.126374
0.270819 0.725678 0.127867
0.295062 0.727172 0.129360
0.319305 0.728665 0.130853
0.343548 0.730158 0.132347
0.367791 0.731651 0.133840
0.392034 0.733144 0.135333
0.416277 0.734637 0.136826
0.440520 0.736131 0.138319
0.464763 0.737624 0.139812
0.489006 0.739117 0.141306
0.513249 0.740610 0.142799
0.537492 0.742103 0.144292
0.561735 0.743596 0.145785
0.585978 0.745090 0.147278
0.610221 0.746583 0.148771
0.634464 0.748076 0.150265
0.658707 0.749569 0.151758
0.682950 0.751062 0.153251
0.707193 0.752555 0.154744
0.731436 0.754049 0.156237
0.755679 0.755542 0.157730
0.779923 0.757035 0.159224
0.804166 0.758528 0.160717
0.828409 0.760021 0.162210
0.852652 0.761514 0.163703
0.876895 0.763008 0.165196
0.901138 0.764501 0.166689
0.925381 0.765994 0.168183
0.949624 0.767487 0.169676
0.176759 0.745219 0.124807
0.201002 0.746712 0.126300
0.225245 0.748206 0.127793
0.249488 0.749699 0.129286
0.273731 0.751192 0.130779
0.297974 0.752685 0.132273
0.322217 0.754178 0.133766
0.346460 0.755671 0.135259
0.370703 0.757165 0.136752
0.394946 0.758658 0.138245
0.419189 0.760151 0.139738
0.443432 0.761644 0.141232
0.467675 0.763137 0.142725
0.491918 0.764630 0.144218
0.516161 0.766124 0.145711
0.540404 0.767617 0.147204
0.564647 0.769110 0.148697
0.588890 0.770603 0.150191
0.613133 0.772096 0.151684
0.637377 0.773589 0.153177
0.661620 0.775083 0.154670
0.685863 0.776576 0.156163
0.710106 0.778069 0.157656
0.734349 0.779562 0.159150
0.758592 0.781055 0.160643
0.782835 0.782548 0.162136
0.807078 0.784042 0.163629
