docs/luts/fresh-night-glow.cube
TITLE "FreshLUTs??-????"
LUT_3D_SIZE 33
DOMAIN_MIN 0.0 0.0 0.0
DOMAIN_MAX 1.0 1.0 1.0
0.012000 0.014000 0.107875
0.011765 0.013725 0.105799
0.031102 0.013451 0.103722
0.066764 0.013176 0.101643
0.102443 0.012901 0.099562
0.138139 0.012626 0.097479
0.173853 0.012352 0.095395
0.209583 0.012077 0.093310
0.245330 0.011802 0.091223
0.281095 0.011528 0.089134
0.316877 0.011253 0.087043
0.352675 0.010978 0.084951
0.388491 0.010704 0.082857
0.424324 0.010429 0.080762
0.460174 0.010154 0.078664
0.496041 0.009879 0.076566
0.531925 0.009605 0.074465
0.567827 0.009330 0.072363
0.603745 0.009055 0.070260
0.639681 0.008781 0.068154
0.675633 0.008506 0.066047
0.711603 0.008231 0.063939
0.747590 0.007956 0.061829
0.783594 0.007682 0.059717
0.819615 0.007407 0.057603
0.855653 0.007132 0.055488
0.891708 0.006858 0.053372
0.927780 0.006583 0.051253
0.963869 0.006308 0.049133
0.999976 0.006034 0.047012
1.000000 0.005759 0.044888
1.000000 0.005484 0.042763
1.000000 0.005209 0.040637
0.011538 0.013461 0.103798
0.011302 0.013186 0.101719
0.030649 0.012911 0.099638
0.066328 0.012637 0.097556
0.102024 0.012362 0.095472
0.137737 0.012087 0.093387
0.173467 0.011812 0.091299
0.209214 0.011538 0.089210
0.244978 0.011263 0.087120
0.280759 0.010988 0.085028
0.316558 0.010714 0.082934
0.352373 0.010439 0.080839
0.388206 0.010164 0.078742
0.424056 0.009890 0.076643
0.459922 0.009615 0.074543
0.495806 0.009340 0.072441
0.531707 0.009065 0.070337
0.567625 0.008791 0.068232
0.603561 0.008516 0.066125
0.639513 0.008241 0.064017
0.675482 0.007967 0.061906
0.711469 0.007692 0.059795
0.747472 0.007417 0.057681
0.783493 0.007142 0.055566
0.819531 0.006868 0.053449
0.855585 0.006593 0.051331
0.891657 0.006318 0.049211
0.927746 0.006044 0.047090
0.963853 0.005769 0.044966
0.999976 0.005494 0.042842
1.000000 0.005220 0.040715
1.000000 0.004945 0.038587
1.000000 0.004670 0.036457
0.011075 0.031853 0.099715
0.010840 0.031777 0.097633
0.028918 0.031258 0.095549
0.064614 0.030370 0.093463
0.100326 0.029482 0.091376
0.136055 0.028594 0.089287
0.171802 0.027705 0.087197
0.207565 0.026815 0.085105
0.243346 0.025926 0.083011
0.279144 0.025036 0.080916
0.314959 0.024145 0.078819
0.350791 0.023255 0.076720
0.386640 0.022364 0.074620
0.422506 0.021472 0.072518
0.458389 0.020581 0.070415
0.494290 0.019689 0.068309
0.530207 0.018796 0.066203
0.566142 0.017904 0.064094
0.602093 0.017011 0.061984
0.638062 0.016117 0.059872
0.674048 0.015223 0.057759
0.710051 0.014329 0.055644
0.746071 0.013435 0.053527
0.782108 0.012540 0.051409
0.818162 0.011645 0.049289
0.854234 0.010749 0.047168
0.890322 0.009854 0.045045
0.926428 0.008957 0.042920
0.962550 0.008061 0.040793
0.998690 0.007164 0.038665
1.000000 0.006267 0.036536
1.000000 0.005741 0.034404
1.000000 0.005662 0.032271
0.010613 0.066137 0.095626
0.010378 0.066072 0.093540
0.026896 0.065563 0.091453
0.062607 0.064684 0.089364
0.098336 0.063805 0.087274
0.134082 0.062926 0.085182
0.169845 0.062046 0.083088
0.205625 0.061166 0.080993
0.241422 0.060286 0.078896
0.277236 0.059405 0.076797
0.313068 0.058524 0.074697
0.348916 0.057643 0.072595
0.384781 0.056761 0.070492
0.420664 0.055879 0.068387
0.456564 0.054997 0.066280
0.492480 0.054114 0.064172
0.528414 0.053231 0.062062
0.564365 0.052348 0.059950
0.600333 0.051464 0.057837
0.636319 0.050580 0.055722
0.672321 0.049696 0.053605
0.708340 0.048811 0.051487
0.744377 0.047926 0.049367
0.780430 0.047040 0.047246
0.816501 0.046155 0.045123
0.852589 0.045269 0.042998
0.888693 0.044382 0.040872
0.924815 0.043495 0.038744
0.960954 0.042608 0.036614
0.997110 0.041721 0.034483
1.000000 0.040833 0.032350
1.000000 0.040317 0.030215
1.000000 0.040248 0.028079
0.010151 0.100460 0.091530
0.009915 0.100404 0.089441
0.024872 0.099905 0.087351
0.060600 0.099036 0.085259
0.096345 0.098166 0.083165
0.132107 0.097296 0.081070
0.167887 0.096426 0.078973
0.203683 0.095555 0.076875
0.239496 0.094684 0.074775
0.275327 0.093813 0.072673
0.311175 0.092941 0.070569
0.347040 0.092069 0.068464
0.382922 0.091197 0.066358
0.418820 0.090324 0.064249
0.454737 0.089451 0.062139
0.490670 0.088578 0.060028
0.526620 0.087704 0.057915
0.562587 0.086830 0.055800
0.598572 0.085956 0.053683
0.634573 0.085081 0.051565
0.670592 0.084206 0.049445
0.706628 0.083331 0.047324
0.742681 0.082455 0.045201
0.778751 0.081579 0.043076
0.814838 0.080703 0.040950
0.850942 0.079826 0.038822
0.887063 0.078949 0.036692
0.923201 0.078071 0.034561
0.959357 0.077193 0.032428
0.995529 0.076315 0.030294
1.000000 0.075437 0.028158
1.000000 0.074930 0.026020
1.000000 0.074871 0.023880
0.009689 0.134821 0.087428
0.009453 0.134775 0.085336
0.022846 0.134285 0.083242
0.058591 0.133425 0.081147
0.094352 0.132565 0.079050
0.130131 0.131704 0.076952
0.165927 0.130844 0.074852
0.201740 0.129982 0.072750
0.237569 0.129121 0.070647
0.273416 0.128259 0.068542
0.309281 0.127396 0.066435
0.345162 0.126534 0.064327
0.381060 0.125671 0.062217
0.416976 0.124808 0.060105
0.452908 0.123944 0.057992
0.488858 0.123080 0.055878
0.524824 0.122216 0.053761
0.560808 0.121351 0.051643
0.596809 0.120486 0.049523
0.632827 0.119620 0.047402
0.668862 0.118755 0.045279
0.704914 0.117889 0.043154
0.740983 0.117022 0.041028
0.777070 0.116156 0.038900
0.813173 0.115288 0.036771
0.849294 0.114421 0.034639
0.885431 0.113553 0.032507
0.921586 0.112685 0.030372
0.957758 0.111817 0.028236
0.993947 0.110948 0.026098
1.000000 0.110079 0.023959
1.000000 0.109582 0.021818
1.000000 0.109532 0.019676
0.009226 0.169220 0.083319
0.008991 0.169184 0.081224
0.020819 0.168703 0.079128
0.056580 0.167853 0.077029
0.092358 0.167002 0.074929
0.128153 0.166151 0.072827
0.163965 0.165299 0.070724
0.199795 0.164447 0.068619
0.235641 0.163595 0.066513
0.271504 0.162742 0.064404
0.307385 0.161890 0.062295
0.343283 0.161036 0.060183
0.379197 0.160183 0.058070
0.415129 0.159329 0.055955
0.451078 0.158474 0.053839
0.487044 0.157620 0.051721
0.523027 0.156765 0.049601
0.559027 0.155909 0.047480
0.595045 0.155054 0.045357
0.631079 0.154198 0.043233
0.667130 0.153341 0.041106
0.703199 0.152485 0.038978
0.739285 0.151627 0.036849
0.775387 0.150770 0.034718
0.811507 0.149912 0.032585
0.847644 0.149054 0.030451
0.883798 0.148196 0.028315
0.919970 0.147337 0.026177
0.956158 0.146478 0.024038
0.992363 0.145618 0.021897
1.000000 0.144759 0.019754
1.000000 0.144271 0.017610
1.000000 0.144232 0.015464
0.008764 0.203657 0.079205
0.008529 0.203630 0.077106
0.018791 0.203160 0.075006
0.054568 0.202318 0.072905
0.090363 0.201477 0.070802
0.126174 0.200635 0.068697
0.162003 0.199793 0.066590
0.197848 0.198950 0.064482
0.233711 0.198107 0.062372
0.269591 0.197264 0.060261
0.305488 0.196421 0.058148
0.341402 0.195577 0.056033
0.377333 0.194732 0.053917
0.413281 0.193888 0.051799
0.449247 0.193043 0.049679
0.485229 0.192197 0.047558
0.521228 0.191352 0.045435
0.557245 0.190506 0.043311
0.593279 0.189659 0.041185
0.629330 0.188813 0.039057
0.665397 0.187966 0.036927
0.701482 0.187118 0.034796
0.737584 0.186271 0.032664
0.773704 0.185423 0.030529
0.809840 0.184574 0.028393
0.845993 0.183725 0.026256
0.882164 0.182876 0.024117
0.918351 0.182027 0.021976
0.954556 0.181177 0.019833
0.990778 0.180327 0.017689
1.000000 0.179477 0.015543
1.000000 0.178999 0.013396
1.000000 0.178969 0.011247
0.008302 0.238132 0.075084
0.008066 0.238115 0.072982
0.016761 0.237654 0.070879
0.052555 0.236822 0.068774
0.088366 0.235990 0.066668
0.124193 0.235157 0.064560
0.160038 0.234325 0.062450
0.195900 0.233491 0.060339
0.231780 0.232658 0.058226
0.267676 0.231824 0.056111
0.303589 0.230990 0.053995
0.339520 0.230155 0.051877
0.375467 0.229320 0.049757
0.411432 0.228485 0.047636
0.447414 0.227649 0.045513
0.483412 0.226813 0.043389
0.519428 0.225977 0.041263
0.555461 0.225140 0.039135
0.591511 0.224303 0.037006
0.627579 0.223466 0.034875
0.663663 0.222628 0.032742
0.699764 0.221790 0.030608
0.735883 0.220952 0.028472
0.772018 0.220113 0.026334
0.808171 0.219274 0.024195
0.844341 0.218435 0.022055
0.880528 0.217595 0.019912
0.916732 0.216755 0.017768
0.952953 0.215914 0.015622
0.989191 0.215074 0.013475
1.000000 0.214233 0.011326
1.000000 0.213764 0.009175
1.000000 0.213744 0.007023
0.007840 0.272645 0.070956
0.007604 0.272638 0.068852
0.014730 0.272186 0.066745
0.050540 0.271364 0.064637
0.086367 0.270541 0.062528
0.122211 0.269718 0.060416
0.158073 0.268894 0.058303
0.193951 0.268070 0.056189
0.229847 0.267246 0.054073
0.265759 0.266422 0.051955
0.301689 0.265597 0.049835
0.337636 0.264772 0.047714
0.373600 0.263946 0.045591
0.409581 0.263120 0.043467
0.445579 0.262294 0.041341
0.481594 0.261467 0.039213
0.517627 0.260640 0.037084
0.553676 0.259813 0.034953
0.589743 0.258985 0.032821
0.625826 0.258157 0.030686
0.661927 0.257329 0.028551
0.698045 0.256500 0.026413
0.734180 0.255671 0.024274
0.770332 0.254842 0.022133
0.806501 0.254012 0.019991
0.842687 0.253182 0.017847
0.878890 0.252352 0.015701
0.915111 0.251521 0.013554
0.951695 0.250690 0.011405
0.988433 0.249858 0.009254
1.000000 0.249027 0.007102
1.000000 0.248568 0.004948
1.000000 0.248558 0.002793
0.007377 0.307196 0.066823
0.007142 0.307199 0.064715
0.012697 0.306757 0.062605
0.048524 0.305944 0.060494
0.084367 0.305130 0.058381
0.120228 0.304316 0.056267
0.156106 0.303502 0.054151
0.192000 0.302688 0.052033
0.227912 0.301873 0.049913
0.263841 0.301057 0.047792
0.299788 0.300242 0.045670
0.335751 0.299426 0.043545
0.371731 0.298610 0.041419
0.407729 0.297793 0.039292
0.443743 0.296976 0.037162
0.479775 0.296159 0.035032
0.515824 0.295341 0.032899
0.551889 0.294523 0.030765
0.587972 0.293705 0.028629
0.624072 0.292886 0.026492
0.660189 0.292068 0.024353
0.696324 0.291248 0.022212
0.732475 0.290428 0.020070
0.768643 0.289608 0.017926
0.804829 0.288788 0.015780
0.841031 0.287967 0.013633
0.877581 0.287146 0.011484
0.914300 0.286325 0.009334
0.951037 0.285503 0.007181
0.987791 0.284681 0.005028
1.000000 0.283859 0.002872
1.000000 0.283410 0.000715
1.000000 0.283409 0.000000
0.006915 0.341785 0.062683
0.006680 0.341798 0.060572
0.010663 0.341365 0.058459
0.046506 0.340561 0.056344
0.082366 0.339757 0.054228
0.118243 0.338953 0.052111
0.154137 0.338148 0.049991
0.190048 0.337343 0.047870
0.225977 0.336537 0.045748
0.261922 0.335731 0.043623
0.297885 0.334925 0.041498
0.333864 0.334119 0.039370
0.369861 0.333312 0.037241
0.405875 0.332504 0.035110
0.441906 0.331697 0.032978
0.477954 0.330889 0.030844
0.514019 0.330081 0.028708
0.550101 0.329272 0.026570
0.586201 0.328463 0.024431
0.622317 0.327654 0.022291
0.658451 0.326844 0.020149
0.694601 0.326034 0.018005
0.730769 0.325224 0.015859
0.766954 0.324413 0.013712
0.803467 0.323602 0.011563
0.840169 0.322791 0.009413
0.876888 0.321979 0.007261
0.913625 0.321167 0.005107
0.950379 0.320355 0.002952
0.987150 0.319542 0.000795
1.000000 0.318723 0.000000
1.000000 0.318275 0.000000
1.000000 0.318275 0.000000
0.006453 0.376412 0.058537
0.006217 0.376435 0.056422
0.008627 0.376012 0.054306
0.044486 0.375217 0.052189
0.080363 0.374422 0.050069
0.116256 0.373627 0.047948
0.152167 0.372832 0.045826
0.188095 0.372036 0.043702
0.224039 0.371240 0.041576
0.260001 0.370443 0.039448
0.295980 0.369646 0.037319
0.331976 0.368849 0.035188
0.367989 0.368052 0.033056
0.404020 0.367254 0.030922
0.440067 0.366455 0.028786
0.476132 0.365657 0.026649
0.512213 0.364858 0.024510
0.548312 0.364059 0.022370
0.584427 0.363259 0.020227
0.620560 0.362459 0.018084
0.656710 0.361659 0.015938
0.692877 0.360858 0.013791
0.729355 0.360057 0.011642
0.766039 0.359256 0.009492
0.802741 0.358454 0.007340
0.839459 0.357652 0.005186
0.876195 0.356850 0.003031
0.912949 0.356047 0.000874
0.949727 0.355233 0.000000
0.986513 0.354410 0.000000
1.000000 0.353588 0.000000
1.000000 0.353140 0.000000
1.000000 0.353140 0.000000
0.005991 0.411078 0.054384
0.005755 0.411109 0.052267
0.006590 0.410696 0.050147
0.042466 0.409911 0.048026
0.078358 0.409125 0.045904
0.114268 0.408340 0.043780
0.150195 0.407553 0.041654
0.186139 0.406767 0.039527
0.222101 0.405980 0.037398
0.258079 0.405193 0.035267
0.294074 0.404405 0.033135
0.330087 0.403618 0.031001
0.366116 0.402829 0.028865
0.402163 0.402041 0.026728
0.438227 0.401252 0.024589
0.474308 0.400463 0.022448
0.510406 0.399673 0.020306
0.546521 0.398883 0.018163
0.582653 0.398093 0.016017
0.618802 0.397302 0.013870
0.655244 0.396511 0.011721
0.691911 0.395720 0.009571
0.728594 0.394928 0.007419
0.765295 0.394136 0.005265
0.802014 0.393344 0.003110
0.838749 0.392551 0.000953
0.875518 0.391742 0.000000
0.912304 0.390920 0.000000
0.949090 0.390098 0.000000
0.985877 0.389275 0.000000
1.000000 0.388453 0.000000
1.000000 0.388005 0.000000
1.000000 0.388005 0.000000
0.005528 0.445781 0.050225
0.005293 0.445822 0.048104
0.005057 0.445418 0.045982
0.040443 0.444643 0.043858
0.076353 0.443867 0.041732
0.112279 0.443090 0.039605
0.148222 0.442313 0.037476
0.184183 0.441536 0.035345
0.220160 0.440759 0.033213
0.256155 0.439981 0.031079
0.292167 0.439203 0.028944
0.328196 0.438424 0.026806
0.364242 0.437645 0.024668
0.400305 0.436866 0.022527
0.436385 0.436087 0.020385
0.472482 0.435307 0.018241
0.508597 0.434526 0.016096
0.544728 0.433746 0.013949
0.581135 0.432965 0.011800
0.617783 0.432184 0.009650
0.654449 0.431402 0.007498
0.691132 0.430620 0.005345
0.727833 0.429838 0.003190
0.764551 0.429055 0.001033
0.801310 0.428252 0.000000
0.838096 0.427430 0.000000
0.874882 0.426607 0.000000
0.911668 0.425785 0.000000
0.948454 0.424963 0.000000
0.985240 0.424141 0.000000
1.000000 0.423318 0.000000
1.000000 0.422870 0.000000
1.000000 0.422870 0.000000
0.005066 0.480522 0.046060
0.004831 0.480573 0.043936
0.004595 0.480179 0.041810
0.038420 0.479412 0.039683
0.074345 0.478646 0.037554
0.110288 0.477879 0.035424
0.146248 0.477111 0.033292
0.182225 0.476343 0.031158
0.218219 0.475575 0.029022
0.254230 0.474807 0.026885
0.290258 0.474038 0.024746
0.326303 0.473269 0.022606
0.362366 0.472499 0.020464
0.398445 0.471729 0.018320
0.434542 0.470959 0.016175
0.470655 0.470189 0.014028
0.507027 0.469418 0.011880
0.543657 0.468647 0.009729
0.580306 0.467875 0.007577
0.616971 0.467103 0.005424
0.653654 0.466331 0.003269
0.690354 0.465558 0.001112
0.727102 0.464761 0.000000
0.763888 0.463939 0.000000
0.800674 0.463117 0.000000
0.837460 0.462295 0.000000
0.874246 0.461472 0.000000
0.911032 0.460650 0.000000
0.947818 0.459828 0.000000
0.984604 0.459006 0.000000
1.000000 0.458183 0.000000
1.000000 0.457735 0.000000
1.000000 0.457735 0.000000
0.004604 0.515301 0.041889
0.004368 0.515362 0.039761
0.004133 0.514977 0.037633
0.036395 0.514220 0.035502
0.072337 0.513463 0.033370
0.108296 0.512705 0.031236
0.144272 0.511947 0.029101
0.180265 0.511189 0.026964
0.216276 0.510430 0.024825
0.252303 0.509671 0.022685
0.288348 0.508911 0.020543
0.324409 0.508151 0.018399
0.360488 0.507391 0.016254
0.396584 0.506631 0.014107
0.432920 0.505870 0.011959
0.469533 0.505109 0.009808
0.506163 0.504347 0.007657
0.542811 0.503585 0.005503
0.579475 0.502823 0.003348
0.616158 0.502060 0.001192
0.652894 0.501271 0.000000
0.689680 0.500449 0.000000
0.726466 0.499626 0.000000
0.763252 0.498804 0.000000
0.800038 0.497982 0.000000
0.836824 0.497160 0.000000
0.873610 0.496337 0.000000
0.910396 0.495515 0.000000
0.947182 0.494693 0.000000
0.983968 0.493871 0.000000
1.000000 0.493049 0.000000
1.000000 0.492600 0.000000
1.000000 0.492600 0.000000
0.004142 0.550118 0.037711
0.003906 0.550189 0.035581
0.003671 0.549814 0.033448
0.034368 0.549066 0.031315
0.070326 0.548318 0.029179
0.106302 0.547570 0.027042
0.142294 0.546821 0.024904
0.178304 0.546072 0.022764
0.214331 0.545322 0.020622
0.250375 0.544573 0.018478
0.286436 0.543823 0.016333
0.322514 0.543072 0.014186
0.358814 0.542321 0.012038
0.395409 0.541570 0.009888
0.432022 0.540819 0.007736
0.468652 0.540067 0.005583
0.505299 0.539314 0.003428
0.541963 0.538562 0.001271
0.578686 0.537781 0.000000
0.615472 0.536958 0.000000
0.652258 0.536136 0.000000
0.689044 0.535314 0.000000
0.725830 0.534492 0.000000
0.762616 0.533669 0.000000
0.799402 0.532847 0.000000
0.836188 0.532025 0.000000
0.872974 0.531203 0.000000
0.909760 0.530380 0.000000
0.946546 0.529558 0.000000
0.983332 0.528736 0.000000
1.000000 0.527914 0.000000
1.000000 0.527465 0.000000
1.000000 0.527465 0.000000
0.003679 0.584973 0.033527
0.003444 0.585054 0.031393
0.003208 0.584688 0.029258
0.032340 0.583950 0.027121
0.068315 0.583211 0.024982
0.104307 0.582472 0.022842
0.140316 0.581733 0.020700
0.176342 0.580993 0.018557
0.212385 0.580253 0.016412
0.248445 0.579513 0.014265
0.284710 0.578772 0.012117
0.321287 0.578031 0.009967
0.357882 0.577289 0.007815
0.394494 0.576547 0.005662
0.431123 0.575805 0.003507
0.467770 0.575063 0.001350
0.504477 0.574290 0.000000
0.541264 0.573468 0.000000
0.578050 0.572646 0.000000
0.614836 0.571823 0.000000
0.651622 0.571001 0.000000
0.688408 0.570179 0.000000
0.725194 0.569357 0.000000
0.761980 0.568534 0.000000
0.798766 0.567712 0.000000
0.835552 0.566890 0.000000
0.872338 0.566068 0.000000
0.909124 0.565245 0.000000
0.945910 0.564423 0.000000
0.982696 0.563601 0.000000
1.000000 0.562779 0.000000
1.000000 0.562330 0.000000
1.000000 0.562330 0.000000
0.003217 0.619867 0.029337
0.002982 0.619957 0.027200
0.002746 0.619601 0.025061
0.030310 0.618872 0.022921
0.066301 0.618143 0.020779
0.102310 0.617413 0.018636
0.138335 0.616683 0.016491
0.174378 0.615952 0.014344
0.210607 0.615222 0.012196
0.247166 0.614491 0.010046
0.283743 0.613759 0.007894
0.320338 0.613027 0.005741
0.356949 0.612295 0.003586
0.393578 0.611563 0.001430
0.430269 0.610800 0.000000
0.467055 0.609978 0.000000
0.503841 0.609155 0.000000
0.540627 0.608333 0.000000
0.577413 0.607511 0.000000
0.614200 0.606689 0.000000
0.650986 0.605866 0.000000
0.687772 0.605044 0.000000
0.724558 0.604222 0.000000
0.761344 0.603400 0.000000
0.798130 0.602577 0.000000
0.834916 0.601755 0.000000
0.871702 0.600933 0.000000
0.908488 0.600111 0.000000
0.945274 0.599288 0.000000
0.982060 0.598466 0.000000
1.000000 0.597644 0.000000
1.000000 0.597195 0.000000
1.000000 0.597195 0.000000
0.002755 0.654798 0.025140
0.002519 0.654898 0.023000
0.002284 0.654552 0.020858
0.028279 0.653832 0.018715
0.064287 0.653112 0.016570
0.100312 0.652392 0.014423
0.136505 0.651671 0.012275
0.173047 0.650950 0.010125
0.209606 0.650228 0.007973
0.246182 0.649507 0.005820
0.282776 0.648784 0.003665
0.319387 0.648062 0.001509
0.356061 0.647309 0.000000
0.392847 0.646487 0.000000
0.429633 0.645665 0.000000
0.466419 0.644843 0.000000
0.503205 0.644020 0.000000
0.539991 0.643198 0.000000
0.576777 0.642376 0.000000
0.613563 0.641554 0.000000
0.650350 0.640731 0.000000
0.687136 0.639909 0.000000
0.723922 0.639087 0.000000
0.760708 0.638265 0.000000
0.797494 0.637442 0.000000
0.834280 0.636620 0.000000
0.871066 0.635798 0.000000
0.907852 0.634976 0.000000
0.944638 0.634153 0.000000
0.981424 0.633331 0.000000
1.000000 0.632509 0.000000
1.000000 0.632060 0.000000
1.000000 0.632060 0.000000
0.002292 0.689767 0.020937
0.002057 0.689877 0.018794
0.001822 0.689540 0.016649
0.026247 0.688830 0.014502
0.062405 0.688119 0.012354
0.098929 0.687408 0.010204
0.135470 0.686697 0.008053
0.172029 0.685985 0.005900
0.208604 0.685273 0.003745
0.245198 0.684561 0.001588
0.281853 0.683819 0.000000
0.318639 0.682997 0.000000
0.355425 0.682174 0.000000
0.392211 0.681352 0.000000
0.428997 0.680530 0.000000
0.465783 0.679708 0.000000
0.502569 0.678886 0.000000
0.539355 0.678063 0.000000
0.576141 0.677241 0.000000
0.612927 0.676419 0.000000
0.649713 0.675596 0.000000
0.686499 0.674774 0.000000
0.723286 0.673952 0.000000
0.760072 0.673130 0.000000
0.796858 0.672307 0.000000
0.833644 0.671485 0.000000
0.870430 0.670663 0.000000
0.907216 0.669841 0.000000
0.944002 0.669018 0.000000
0.980788 0.668196 0.000000
1.000000 0.667374 0.000000
1.000000 0.666925 0.000000
1.000000 0.666925 0.000000
0.001830 0.724774 0.016728
0.001595 0.724894 0.014581
0.001476 0.724567 0.012433
0.024812 0.723866 0.010283
0.061335 0.723165 0.008132
0.097876 0.722463 0.005979
0.134434 0.721761 0.003824
0.171010 0.721058 0.001668
0.207645 0.720329 0.000000
0.244431 0.719506 0.000000
0.281217 0.718684 0.000000
0.318003 0.717862 0.000000
0.354789 0.717040 0.000000
0.391575 0.716217 0.000000
0.428361 0.715395 0.000000
0.465147 0.714573 0.000000
0.501933 0.713751 0.000000
0.538719 0.712928 0.000000
0.575505 0.712106 0.000000
0.612291 0.711284 0.000000
0.649077 0.710462 0.000000
0.685863 0.709639 0.000000
0.722649 0.708817 0.000000
0.759435 0.707995 0.000000
0.796222 0.707173 0.000000
0.833008 0.706350 0.000000
0.869794 0.705528 0.000000
0.906580 0.704706 0.000000
0.943366 0.703884 0.000000
0.980152 0.703061 0.000000
1.000000 0.702239 0.000000
1.000000 0.701791 0.000000
1.000000 0.701791 0.000000
0.001466 0.759820 0.012512
0.001714 0.759950 0.010362
0.001961 0.759631 0.008211
0.023725 0.758940 0.006058
0.060265 0.758248 0.003903
0.096823 0.757556 0.001747
0.133437 0.756838 0.000000
0.170223 0.756016 0.000000
0.207009 0.755194 0.000000
0.243795 0.754371 0.000000
0.280581 0.753549 0.000000
0.317367 0.752727 0.000000
0.354153 0.751905 0.000000
0.390939 0.751082 0.000000
0.427725 0.750260 0.000000
0.464511 0.749438 0.000000
0.501297 0.748616 0.000000
0.538083 0.747793 0.000000
0.574869 0.746971 0.000000
0.611655 0.746149 0.000000
0.648441 0.745327 0.000000
0.685227 0.744504 0.000000
0.722013 0.743682 0.000000
0.758799 0.742860 0.000000
0.795585 0.742038 0.000000
0.832371 0.741215 0.000000
0.869158 0.740393 0.000000
0.905944 0.739571 0.000000
0.942730 0.738749 0.000000
0.979516 0.737926 0.000000
1.000000 0.737104 0.000000
1.000000 0.736656 0.000000
1.000000 0.736656 0.000000
0.001952 0.794903 0.008290
0.002200 0.795043 0.006137
0.002448 0.794734 0.003983
0.022637 0.794052 0.001826
0.059228 0.793348 0.000000
0.096014 0.792526 0.000000
0.132800 0.791703 0.000000
0.169587 0.790881 0.000000
0.206373 0.790059 0.000000
0.243159 0.789237 0.000000
0.279945 0.788414 0.000000
0.316731 0.787592 0.000000
0.353517 0.786770 0.000000
0.390303 0.785948 0.000000
0.427089 0.785125 0.000000
0.463875 0.784303 0.000000
0.500661 0.783481 0.000000
0.537447 0.782659 0.000000
0.574233 0.781836 0.000000
0.611019 0.781014 0.000000
0.647805 0.780192 0.000000
0.684591 0.779370 0.000000
0.721377 0.778547 0.000000
0.758163 0.777725 0.000000
0.794949 0.776903 0.000000
0.831735 0.776081 0.000000
0.868521 0.775258 0.000000
0.905307 0.774436 0.000000
0.942094 0.773614 0.000000
0.978880 0.772792 0.000000
1.000000 0.771969 0.000000
1.000000 0.771521 0.000000
1.000000 0.771521 0.000000
0.002439 0.830024 0.004062
0.002687 0.830174 0.001906
0.002963 0.829857 0.000000
0.021806 0.829035 0.000000
0.058592 0.828213 0.000000
0.095378 0.827391 0.000000
0.132164 0.826568 0.000000
0.168950 0.825746 0.000000
0.205737 0.824924 0.000000
0.242523 0.824102 0.000000
0.279309 0.823279 0.000000
0.316095 0.822457 0.000000
0.352881 0.821635 0.000000
0.389667 0.820813 0.000000
0.426453 0.819990 0.000000
0.463239 0.819168 0.000000
0.500025 0.818346 0.000000
0.536811 0.817524 0.000000
0.573597 0.816701 0.000000
0.610383 0.815879 0.000000
0.647169 0.815057 0.000000
0.683955 0.814235 0.000000
0.720741 0.813412 0.000000
0.757527 0.812590 0.000000
0.794313 0.811768 0.000000
0.831099 0.810946 0.000000
0.867885 0.810123 0.000000
0.904671 0.809301 0.000000
0.941457 0.808479 0.000000
0.978244 0.807657 0.000000
1.000000 0.806834 0.000000
1.000000 0.806386 0.000000
1.000000 0.806386 0.000000
0.002945 0.865171 0.000000
0.003428 0.865171 0.000000
0.003912 0.864723 0.000000
0.021170 0.863900 0.000000
0.057956 0.863078 0.000000
0.094742 0.862256 0.000000
0.131528 0.861433 0.000000
0.168314 0.860611 0.000000
0.205100 0.859789 0.000000
0.241886 0.858967 0.000000
0.278673 0.858145 0.000000
0.315459 0.857322 0.000000
0.352245 0.856500 0.000000
0.389031 0.855678 0.000000
0.425817 0.854855 0.000000
0.462603 0.854033 0.000000
0.499389 0.853211 0.000000
0.536175 0.852389 0.000000
0.572961 0.851567 0.000000
0.609747 0.850744 0.000000
0.646533 0.849922 0.000000
0.683319 0.849100 0.000000
0.720105 0.848278 0.000000
0.756891 0.847455 0.000000
0.793677 0.846633 0.000000
0.830463 0.845811 0.000000
0.867249 0.844989 0.000000
