docs/luts/fresh-wooden-gold.cube
TITLE "FreshLUTs??-????"
LUT_3D_SIZE 9
DOMAIN_MIN 0.0 0.0 0.0
DOMAIN_MAX 1.0 1.0 1.0
0.021296 0.010246 0.000000
0.113632 0.011382 0.000000
0.244846 0.012996 0.000000
0.376061 0.014611 0.000000
0.507276 0.016226 0.000000
0.638490 0.017840 0.000000
0.769705 0.019455 0.000866
0.900919 0.021069 0.005149
0.993256 0.022206 0.008954
0.023878 0.118428 0.000000
0.116215 0.119565 0.000000
0.247429 0.121179 0.000000
0.378644 0.122794 0.000000
0.509858 0.124408 0.000122
0.641073 0.126023 0.004405
0.772288 0.127638 0.008688
0.903502 0.129252 0.012971
0.995838 0.130388 0.016776
0.026931 0.246281 0.000000
0.119267 0.247417 0.000000
0.250482 0.249032 0.000000
0.381696 0.250646 0.004130
0.512911 0.252261 0.008413
0.644125 0.253875 0.012696
0.775340 0.255490 0.016979
0.906555 0.257105 0.021263
1.000000 0.259750 0.025067
0.029983 0.374133 0.000050
0.122319 0.375269 0.003855
0.253534 0.376884 0.008138
0.384749 0.378499 0.012421
0.515963 0.380113 0.016704
0.647178 0.381728 0.020988
0.780893 0.384771 0.025271
0.915942 0.388577 0.029157
1.000000 0.391904 0.030293
0.033036 0.501986 0.008342
0.125372 0.503122 0.012146
0.256586 0.504736 0.016429
0.387801 0.506351 0.020713
0.521375 0.509314 0.024996
0.656424 0.513119 0.028980
0.791473 0.516925 0.030595
0.926521 0.520731 0.032209
1.000000 0.524058 0.033346
0.036088 0.629838 0.016633
0.128424 0.630974 0.020438
0.261857 0.633856 0.024721
0.396906 0.637662 0.028803
0.531955 0.641468 0.030418
0.667004 0.645273 0.032033
0.802052 0.649079 0.033647
0.937101 0.652884 0.035262
1.000000 0.656211 0.036398
0.041218 0.758877 0.024924
0.137388 0.762205 0.028627
0.272437 0.766010 0.030241
0.407486 0.769816 0.031856
0.542534 0.773621 0.033470
0.677583 0.777427 0.035085
0.812632 0.781232 0.036700
0.947681 0.785038 0.038314
1.000000 0.788365 0.039450
0.051797 0.891031 0.030543
0.147968 0.894358 0.031679
0.283017 0.898164 0.033294
0.418065 0.901969 0.034908
0.553114 0.905775 0.036523
0.688163 0.909581 0.038137
0.823212 0.913386 0.039752
0.958260 0.917192 0.041367
1.000000 0.920519 0.042503
0.061907 1.000000 0.033126
0.158078 1.000000 0.034262
0.293127 1.000000 0.035876
0.428175 1.000000 0.037491
0.563224 1.000000 0.039106
0.698273 1.000000 0.040720
0.833322 1.000000 0.042335
0.968370 1.000000 0.043949
1.000000 1.000000 0.045086
0.021854 0.010804 0.094822
0.114190 0.011940 0.098626
0.245405 0.013555 0.102910
0.376620 0.015170 0.107193
0.507834 0.016784 0.111476
0.639049 0.018399 0.115759
0.770263 0.020013 0.120042
0.901478 0.021628 0.124325
0.993814 0.022764 0.128130
0.024437 0.118987 0.102643
0.116773 0.120123 0.106448
0.247988 0.121738 0.110731
0.379202 0.123352 0.115015
0.510417 0.124967 0.119298
0.641632 0.126582 0.123581
0.772846 0.128196 0.127864
0.904061 0.129811 0.132147
0.996397 0.130947 0.135952
0.027489 0.246839 0.110935
0.119826 0.247976 0.114740
0.251040 0.249590 0.119023
0.382255 0.251205 0.123306
0.513469 0.252819 0.127589
0.644684 0.254434 0.131872
0.775899 0.256049 0.136155
0.907382 0.257817 0.140439
1.000000 0.261144 0.144243
0.030542 0.374692 0.119226
0.122878 0.375828 0.123031
0.254093 0.377443 0.127314
0.385307 0.379057 0.131597
0.516522 0.380672 0.135880
0.647865 0.382360 0.140164
0.782913 0.386165 0.144447
0.917962 0.389971 0.147316
1.000000 0.393298 0.148452
0.033594 0.502544 0.127518
0.125930 0.503680 0.131322
0.257145 0.505295 0.135605
0.388360 0.506910 0.139889
0.523396 0.510708 0.144172
0.658444 0.514513 0.147139
0.793493 0.518319 0.148753
0.928542 0.522124 0.150368
1.000000 0.525452 0.151504
0.036647 0.630397 0.135809
0.128983 0.631533 0.139614
0.263878 0.635250 0.143897
0.398926 0.639056 0.146962
0.533975 0.642862 0.148577
0.669024 0.646667 0.150191
0.804073 0.650473 0.151806
0.939121 0.654278 0.153420
1.000000 0.657605 0.154557
0.043238 0.760271 0.144100
0.139409 0.763599 0.146785
0.274457 0.767404 0.148400
0.409506 0.771210 0.150014
0.544555 0.775015 0.151629
0.679604 0.778821 0.153244
0.814652 0.782626 0.154858
0.949701 0.786432 0.156473
1.000000 0.789759 0.157609
0.053818 0.892425 0.148701
0.149988 0.895752 0.149838
0.285037 0.899558 0.151452
0.420086 0.903363 0.153067
0.555135 0.907169 0.154681
0.690183 0.910974 0.156296
0.825232 0.914780 0.157911
0.960281 0.918586 0.159525
1.000000 0.921913 0.160661
0.063928 1.000000 0.151284
0.160098 1.000000 0.152420
0.295147 1.000000 0.154035
0.430196 1.000000 0.155650
0.565245 1.000000 0.157264
0.700293 1.000000 0.158879
0.835342 1.000000 0.160493
0.970391 1.000000 0.162108
1.000000 1.000000 0.163244
0.022413 0.011363 0.213998
0.114749 0.012499 0.217802
0.245964 0.014114 0.222086
0.377178 0.015728 0.226369
0.508393 0.017343 0.230652
0.639607 0.018957 0.234935
0.770822 0.020572 0.239218
0.902037 0.022187 0.243502
0.994373 0.023323 0.247306
0.024996 0.119546 0.221819
0.117332 0.120682 0.225624
0.248546 0.122296 0.229907
0.379761 0.123911 0.234191
0.510976 0.125526 0.238474
0.642190 0.127140 0.242757
0.773405 0.128755 0.247040
0.904619 0.130369 0.251323
0.996956 0.131506 0.255128
0.028048 0.247398 0.230111
0.120384 0.248534 0.233916
0.251599 0.250149 0.238199
0.382813 0.251763 0.242482
0.514028 0.253378 0.246765
0.645243 0.254993 0.251048
0.776457 0.256607 0.255332
0.909403 0.259211 0.259615
1.000000 0.262538 0.263419
0.031100 0.375250 0.238402
0.123437 0.376387 0.242207
0.254651 0.378001 0.246490
0.385866 0.379616 0.250773
0.517080 0.381230 0.255057
0.649885 0.383754 0.259340
0.784934 0.387559 0.263623
0.919983 0.391365 0.265474
1.000000 0.394692 0.266610
0.034153 0.503103 0.246694
0.126489 0.504239 0.250498
0.257704 0.505854 0.254782
0.390367 0.508296 0.259065
0.525416 0.512102 0.263348
0.660465 0.515907 0.265297
0.795514 0.519713 0.266912
0.930562 0.523518 0.268527
1.000000 0.526846 0.269663
0.037205 0.630955 0.254985
0.130849 0.632839 0.258790
0.265898 0.636644 0.263073
0.400947 0.640450 0.265121
0.535996 0.644255 0.266735
0.671044 0.648061 0.268350
0.806093 0.651867 0.269964
0.941142 0.655672 0.271579
1.000000 0.658999 0.272715
0.045259 0.761665 0.263276
0.141429 0.764993 0.264944
0.276478 0.768798 0.266558
0.411527 0.772604 0.268173
0.546575 0.776409 0.269788
0.681624 0.780215 0.271402
0.816673 0.784020 0.273017
0.951722 0.787826 0.274631
1.000000 0.791153 0.275768
0.055838 0.893819 0.266860
0.152009 0.897146 0.267996
0.287057 0.900952 0.269611
0.422106 0.904757 0.271225
0.557155 0.908563 0.272840
0.692204 0.912368 0.274455
0.827252 0.916174 0.276069
0.962301 0.919979 0.277684
1.000000 0.923307 0.278820
0.065948 1.000000 0.269443
0.162119 1.000000 0.270579
0.297168 1.000000 0.272194
0.432216 1.000000 0.273808
0.567265 1.000000 0.275423
0.702314 1.000000 0.277037
0.837363 1.000000 0.278652
0.972411 1.000000 0.280267
1.000000 1.000000 0.281403
0.022971 0.011921 0.333174
0.115308 0.013058 0.336979
0.246522 0.014672 0.341262
0.377737 0.016287 0.345545
0.508951 0.017901 0.349828
0.640166 0.019516 0.354111
0.771381 0.021131 0.358394
0.902595 0.022745 0.362678
0.994931 0.023881 0.366482
0.025554 0.120104 0.340996
0.117890 0.121240 0.344800
0.249105 0.122855 0.349083
0.380320 0.124470 0.353367
0.511534 0.126084 0.357650
0.642749 0.127699 0.361933
0.773963 0.129313 0.366216
0.905178 0.130928 0.370499
0.997514 0.132064 0.374304
0.028607 0.247957 0.349287
0.120943 0.249093 0.353092
0.252157 0.250707 0.357375
0.383372 0.252322 0.361658
0.514587 0.253937 0.365941
0.645801 0.255551 0.370224
0.777016 0.257166 0.374508
0.911423 0.260605 0.378791
1.000000 0.263932 0.381717
0.031659 0.375809 0.357578
0.123995 0.376945 0.361383
0.255210 0.378560 0.365666
0.386424 0.380174 0.369949
0.517639 0.381789 0.374233
0.651906 0.385148 0.378516
0.786954 0.388953 0.382018
0.922003 0.392759 0.383633
1.000000 0.396086 0.384769
0.034711 0.503661 0.365870
0.127048 0.504798 0.369674
0.258262 0.506412 0.373958
0.392388 0.509690 0.378241
0.527436 0.513496 0.381841
0.662485 0.517301 0.383456
0.797534 0.521107 0.385071
0.932583 0.524912 0.386685
1.000000 0.528240 0.387821
0.037764 0.631514 0.374161
0.132870 0.634233 0.377966
0.267919 0.638038 0.381665
0.402967 0.641844 0.383279
0.538016 0.645649 0.384894
0.673065 0.649455 0.386508
0.808114 0.653261 0.388123
0.943162 0.657066 0.389738
1.000000 0.660393 0.390874
0.047279 0.763059 0.381966
0.143449 0.766386 0.383102
0.278498 0.770192 0.384717
0.413547 0.773998 0.386332
0.548596 0.777803 0.387946
0.683645 0.781609 0.389561
0.818693 0.785414 0.391175
0.953742 0.789220 0.392790
1.000000 0.792547 0.393926
0.057859 0.895213 0.385019
0.154029 0.898540 0.386155
0.289078 0.902346 0.387769
0.424127 0.906151 0.389384
0.559175 0.909957 0.390999
0.694224 0.913762 0.392613
0.829273 0.917568 0.394228
0.964322 0.921373 0.395842
1.000000 0.924701 0.396979
0.067969 1.000000 0.387601
0.164139 1.000000 0.388738
0.299188 1.000000 0.390352
0.434237 1.000000 0.391967
0.569285 1.000000 0.393581
0.704334 1.000000 0.395196
0.839383 1.000000 0.396811
0.974432 1.000000 0.398425
1.000000 1.000000 0.399561
0.023530 0.012480 0.452350
0.115866 0.013616 0.456155
0.247081 0.015231 0.460438
0.378295 0.016845 0.464721
0.509510 0.018460 0.469004
0.640725 0.020075 0.473287
0.771939 0.021689 0.477570
0.903154 0.023304 0.481854
0.995490 0.024440 0.485658
0.026113 0.120663 0.460172
0.118449 0.121799 0.463976
0.249664 0.123414 0.468260
0.380878 0.125028 0.472543
0.512093 0.126643 0.476826
0.643307 0.128257 0.481109
0.774522 0.129872 0.485392
0.905737 0.131487 0.489675
0.999035 0.133172 0.493480
0.029165 0.248515 0.468463
0.121501 0.249651 0.472268
0.252716 0.251266 0.476551
0.383931 0.252881 0.480834
0.515145 0.254495 0.485117
0.646360 0.256110 0.489400
0.778395 0.258193 0.493684
0.913444 0.261999 0.497967
1.000000 0.265326 0.499875
0.032218 0.376368 0.476754
0.124554 0.377504 0.480559
0.255768 0.379118 0.484842
0.386983 0.380733 0.489125
0.518877 0.382736 0.493409
0.653926 0.386542 0.497692
0.788975 0.390347 0.500177
0.924024 0.394153 0.501791
1.000000 0.397480 0.502928
0.035270 0.504220 0.485046
0.127606 0.505356 0.488850
0.259359 0.507279 0.493134
0.394408 0.511084 0.497417
0.529457 0.514890 0.500000
0.664506 0.518695 0.501615
0.799554 0.522501 0.503229
0.934603 0.526306 0.504844
1.000000 0.529633 0.505980
0.038720 0.632300 0.493337
0.134890 0.635627 0.497142
0.269939 0.639432 0.499823
0.404988 0.643238 0.501438
0.540037 0.647043 0.503052
0.675085 0.650849 0.504667
0.810134 0.654654 0.506282
0.945183 0.658460 0.507896
1.000000 0.661787 0.509032
0.049300 0.764453 0.500125
0.145470 0.767780 0.501261
0.280519 0.771586 0.502876
0.415567 0.775391 0.504490
0.550616 0.779197 0.506105
0.685665 0.783003 0.507719
0.820714 0.786808 0.509334
0.955763 0.790614 0.510949
1.000000 0.793941 0.512085
0.059879 0.896607 0.503177
0.156050 0.899934 0.504313
0.291098 0.903740 0.505928
0.426147 0.907545 0.507543
0.561196 0.911351 0.509157
0.696245 0.915156 0.510772
0.831293 0.918962 0.512386
0.966342 0.922767 0.514001
1.000000 0.926095 0.515137
0.069989 1.000000 0.505760
0.166160 1.000000 0.506896
0.301208 1.000000 0.508511
0.436257 1.000000 0.510125
0.571306 1.000000 0.511740
0.706355 1.000000 0.513355
0.841403 1.000000 0.514969
0.976452 1.000000 0.516584
1.000000 1.000000 0.517720
0.024089 0.013039 0.571526
0.116425 0.014175 0.575331
0.247639 0.015789 0.579614
0.378854 0.017404 0.583897
0.510069 0.019019 0.588180
0.641283 0.020633 0.592463
0.772498 0.022248 0.596747
0.903712 0.023862 0.601030
0.996049 0.024999 0.604834
0.026671 0.121221 0.579348
0.119008 0.122358 0.583152
0.250222 0.123972 0.587436
0.381437 0.125587 0.591719
0.512651 0.127201 0.596002
0.643866 0.128816 0.600285
0.775081 0.130431 0.604568
0.906295 0.132045 0.608851
1.000000 0.134566 0.612656
0.029724 0.249074 0.587639
0.122060 0.250210 0.591444
0.253275 0.251825 0.595727
0.384489 0.253439 0.600010
0.515704 0.255054 0.604293
0.646918 0.256668 0.608576
0.780416 0.259587 0.612860
0.915464 0.263393 0.616898
1.000000 0.266720 0.618034
0.032776 0.376926 0.595930
0.125112 0.378062 0.599735
0.256327 0.379677 0.604018
0.387542 0.381292 0.608302
0.520898 0.384130 0.612585
0.655946 0.387935 0.616721
0.790995 0.391741 0.618335
0.926044 0.395547 0.619950
1.000000 0.398874 0.621086
0.035829 0.504779 0.604222
0.128165 0.505915 0.608027
0.261380 0.508673 0.612310
0.396429 0.512478 0.616544
0.531477 0.516284 0.618159
0.666526 0.520089 0.619773
0.801575 0.523895 0.621388
0.936624 0.527700 0.623002
1.000000 0.531027 0.624139
0.040740 0.633693 0.612513
0.136911 0.637021 0.616318
0.271959 0.640826 0.617982
0.407008 0.644632 0.619596
0.542057 0.648437 0.621211
0.677106 0.652243 0.622826
0.812155 0.656048 0.624440
0.947203 0.659854 0.626055
1.000000 0.663181 0.627191
0.051320 0.765847 0.618283
0.147490 0.769174 0.619420
0.282539 0.772980 0.621034
0.417588 0.776785 0.622649
0.552637 0.780591 0.624263
0.687685 0.784397 0.625878
0.822734 0.788202 0.627493
0.957783 0.792008 0.629107
1.000000 0.795335 0.630243
0.061900 0.898001 0.621336
0.158070 0.901328 0.622472
0.293119 0.905134 0.624087
0.428168 0.908939 0.625701
0.563216 0.912745 0.627316
0.698265 0.916550 0.628930
0.833314 0.920356 0.630545
0.968363 0.924161 0.632160
1.000000 0.927488 0.633296
0.072010 1.000000 0.623919
0.168180 1.000000 0.625055
0.303229 1.000000 0.626669
0.438278 1.000000 0.628284
0.573326 1.000000 0.629899
0.708375 1.000000 0.631513
0.843424 1.000000 0.633128
0.978473 1.000000 0.634742
1.000000 1.000000 0.635879
0.024647 0.013597 0.690702
0.116983 0.014733 0.694507
0.248198 0.016348 0.698790
0.379413 0.017963 0.703073
0.510627 0.019577 0.707356
0.641842 0.021192 0.711639
0.773056 0.022806 0.715923
0.904271 0.024421 0.720206
0.996607 0.025557 0.724011
0.027230 0.121780 0.698524
0.119566 0.122916 0.702328
0.250781 0.124531 0.706612
0.381995 0.126145 0.710895
0.513210 0.127760 0.715178
0.644425 0.129375 0.719461
0.775639 0.130989 0.723744
0.906905 0.132633 0.728027
1.000000 0.135960 0.731832
0.030282 0.249632 0.706815
0.122619 0.250769 0.710620
0.253833 0.252383 0.714903
0.385048 0.253998 0.719186
0.516262 0.255612 0.723469
0.647477 0.257227 0.727753
0.782436 0.260981 0.732036
0.917485 0.264787 0.735056
1.000000 0.268114 0.736192
0.033335 0.377485 0.715106
0.125671 0.378621 0.718911
0.256886 0.380236 0.723194
0.388100 0.381850 0.727478
0.522918 0.385524 0.731761
0.657967 0.389329 0.734879
0.793016 0.393135 0.736494
0.928064 0.396940 0.738109
1.000000 0.400268 0.739245
0.036387 0.505337 0.723398
0.128723 0.506473 0.727203
0.263400 0.510066 0.731486
0.398449 0.513872 0.734703
0.533498 0.517678 0.736317
0.668547 0.521483 0.737932
0.803595 0.525289 0.739546
0.938644 0.529094 0.741161
1.000000 0.532421 0.742297
0.042761 0.635087 0.731689
0.138931 0.638415 0.734526
0.273980 0.642220 0.736140
0.409029 0.646026 0.737755
0.544077 0.649831 0.739370
0.679126 0.653637 0.740984
0.814175 0.657442 0.742599
0.949224 0.661248 0.744213
1.000000 0.664575 0.745350
0.053340 0.767241 0.736442
0.149511 0.770568 0.737578
0.284560 0.774374 0.739193
0.419608 0.778179 0.740807
0.554657 0.781985 0.742422
0.689706 0.785790 0.744037
0.824755 0.789596 0.745651
0.959803 0.793402 0.747266
1.000000 0.796729 0.748402
0.063920 0.899395 0.739494
0.160091 0.902722 0.740631
0.295139 0.906528 0.742245
0.430188 0.910333 0.743860
0.565237 0.914139 0.745474
0.700286 0.917944 0.747089
0.835334 0.921750 0.748704
0.970383 0.925555 0.750318
1.000000 0.928882 0.751454
0.074030 1.000000 0.742077
0.170201 1.000000 0.743213
0.305249 1.000000 0.744828
0.440298 1.000000 0.746443
0.575347 1.000000 0.748057
0.710396 1.000000 0.749672
0.845444 1.000000 0.751286
0.980493 1.000000 0.752901
1.000000 1.000000 0.754037
0.025206 0.014156 0.809878
0.117542 0.015292 0.813683
0.248757 0.016907 0.817966
0.379971 0.018521 0.822249
0.511186 0.020136 0.826532
0.642400 0.021750 0.830815
0.773615 0.023365 0.835099
0.904830 0.024980 0.839382
0.997166 0.026116 0.843187
0.027789 0.122339 0.817700
0.120125 0.123475 0.821504
0.251339 0.125089 0.825788
0.382554 0.126704 0.830071
0.513769 0.128319 0.834354
0.644983 0.129933 0.838637
0.776198 0.131548 0.842920
0.908926 0.134027 0.847204
1.000000 0.137354 0.851008
0.030841 0.250191 0.825991
0.123177 0.251327 0.829796
0.254392 0.252942 0.834079
0.385606 0.254556 0.838362
0.516821 0.256171 0.842645
0.649408 0.258570 0.846929
0.784456 0.262375 0.851212
0.919505 0.266181 0.853215
1.000000 0.269508 0.854351
0.033893 0.378043 0.834282
0.126230 0.379180 0.838087
0.257444 0.380794 0.842370
0.389890 0.383112 0.846654
0.524939 0.386918 0.850937
0.659987 0.390723 0.853038
0.795036 0.394529 0.854653
0.930085 0.398334 0.856267
1.000000 0.401662 0.857403
0.036946 0.505896 0.842574
0.130372 0.507655 0.846379
0.265421 0.511460 0.850662
0.400469 0.515266 0.852861
0.535518 0.519071 0.854476
0.670567 0.522877 0.856090
0.805616 0.526683 0.857705
0.940665 0.530488 0.859320
1.000000 0.533815 0.860456
0.044781 0.636481 0.850865
0.140952 0.639809 0.852684
0.276000 0.643614 0.854299
0.411049 0.647420 0.855914
0.546098 0.651225 0.857528
0.681147 0.655031 0.859143
0.816195 0.658836 0.860757
0.951244 0.662642 0.862372
1.000000 0.665969 0.863508
0.055361 0.768635 0.854601
0.151531 0.771962 0.855737
0.286580 0.775768 0.857351
0.421629 0.779573 0.858966
0.556678 0.783379 0.860581
0.691726 0.787184 0.862195
0.826775 0.790990 0.863810
0.961824 0.794796 0.865424
1.000000 0.798123 0.866561
0.065941 0.900789 0.857653
0.162111 0.904116 0.858789
0.297160 0.907921 0.860404
0.432208 0.911727 0.862018
0.567257 0.915533 0.863633
0.702306 0.919338 0.865248
0.837355 0.923144 0.866862
0.972404 0.926949 0.868477
1.000000 0.930276 0.869613
0.076051 1.000000 0.860236
0.172221 1.000000 0.861372
0.307270 1.000000 0.862987
0.442319 1.000000 0.864601
0.577367 1.000000 0.866216
0.712416 1.000000 0.867830
0.847465 1.000000 0.869445
0.982514 1.000000 0.871060
1.000000 1.000000 0.872196
0.025764 0.014714 0.929054
0.118101 0.015851 0.932859
0.249315 0.017465 0.937142
0.380530 0.019080 0.941425
0.511744 0.020694 0.945708
0.642959 0.022309 0.949991
0.774174 0.023924 0.954275
0.905388 0.025538 0.958558
0.997724 0.026674 0.962363
0.028347 0.122897 0.936876
0.120683 0.124033 0.940681
0.251898 0.125648 0.944964
0.383113 0.127263 0.949247
0.514327 0.128877 0.953530
0.645542 0.130492 0.957813
0.776756 0.132106 0.962096
0.910946 0.135421 0.966380
1.000000 0.138748 0.969457
0.031400 0.250750 0.945167
0.123736 0.251886 0.948972
0.254950 0.253500 0.953255
0.386165 0.255115 0.957538
0.517380 0.256730 0.961821
0.651428 0.259964 0.966105
0.786477 0.263769 0.969759
0.921526 0.267575 0.971373
1.000000 0.270902 0.972510
0.034452 0.378602 0.953459
0.126788 0.379738 0.957263
0.258003 0.381353 0.961546
0.391910 0.384506 0.965830
0.526959 0.388312 0.969582
0.662008 0.392117 0.971197
0.797057 0.395923 0.972811
0.932105 0.399728 0.974426
1.000000 0.403056 0.975562
0.037504 0.506454 0.961750
0.132392 0.509049 0.965555
0.267441 0.512854 0.969405
0.402490 0.516660 0.971020
0.537539 0.520465 0.972634
0.672587 0.524271 0.974249
0.807636 0.528077 0.975864
0.942685 0.531882 0.977478
1.000000 0.535209 0.978614
0.046802 0.637875 0.969707
0.142972 0.641202 0.970843
0.278021 0.645008 0.972458
0.413070 0.648814 0.974072
0.548118 0.652619 0.975687
0.683167 0.656425 0.977301
0.818216 0.660230 0.978916
0.953265 0.664036 0.980531
1.000000 0.667363 0.981667
0.057381 0.770029 0.972759
0.153552 0.773356 0.973895
0.288601 0.777162 0.975510
0.423649 0.780967 0.977125
0.558698 0.784773 0.978739
0.693747 0.788578 0.980354
0.828796 0.792384 0.981968
0.963844 0.796189 0.983583
1.000000 0.799517 0.984719
0.067961 0.902183 0.975812
0.164131 0.905510 0.976948
0.299180 0.909315 0.978562
0.434229 0.913121 0.980177
0.569278 0.916927 0.981792
0.704326 0.920732 0.983406
0.839375 0.924538 0.985021
0.974424 0.928343 0.986635
1.000000 0.931670 0.987772
0.078071 1.000000 0.978394
0.174241 1.000000 0.979531
0.309290 1.000000 0.981145
0.444339 1.000000 0.982760
0.579388 1.000000 0.984374
0.714437 1.000000 0.985989
0.849485 1.000000 0.987604
0.984534 1.000000 0.989218
1.000000 1.000000 0.990354
