docs/luts/fresh-clean-cinematic.cube
TITLE "FreshLUTs??-????"
LUT_3D_SIZE 5
DOMAIN_MIN 0.0 0.0 0.0
DOMAIN_MAX 1.0 1.0 1.0
0.002400 0.002400 0.002400
0.239035 0.003835 0.003835
0.495390 0.005390 0.005390
0.751745 0.006945 0.006945
0.988380 0.008380 0.008380
0.005218 0.240418 0.005218
0.241853 0.241853 0.006653
0.498208 0.243408 0.008208
0.754562 0.244962 0.009762
0.991198 0.246398 0.011198
0.008270 0.498270 0.008270
0.244905 0.499705 0.009705
0.501260 0.501260 0.011260
0.757615 0.502815 0.012815
0.994250 0.504250 0.014250
0.011322 0.756122 0.011322
0.247958 0.757558 0.012758
0.504312 0.759112 0.014312
0.760667 0.760667 0.015867
0.997302 0.762102 0.017302
0.014140 0.994140 0.014140
0.250775 0.995575 0.015575
0.507130 0.997130 0.017130
0.763485 0.998685 0.018685
1.000000 1.000000 0.020120
0.002947 0.002947 0.238147
0.239582 0.004382 0.239582
0.495937 0.005937 0.241137
0.752292 0.007492 0.242692
0.988927 0.008927 0.244127
0.005765 0.240965 0.240965
0.242400 0.242400 0.242400
0.498755 0.243955 0.243955
0.755110 0.245510 0.245510
0.991745 0.246945 0.246945
0.008817 0.498817 0.244017
0.245452 0.500252 0.245452
0.501807 0.501807 0.247007
0.758162 0.503362 0.248562
0.994797 0.504797 0.249997
0.011870 0.756670 0.247070
0.248505 0.758105 0.248505
0.504860 0.759660 0.250060
0.761214 0.761214 0.251614
0.997850 0.762650 0.253050
0.014687 0.994687 0.249887
0.251322 0.996122 0.251322
0.507677 0.997677 0.252877
0.764032 0.999232 0.254432
1.000000 1.000000 0.255867
0.003540 0.003540 0.493540
0.240175 0.004975 0.494975
0.496530 0.006530 0.496530
0.752885 0.008085 0.498085
0.989520 0.009520 0.499520
0.006358 0.241558 0.496358
0.242993 0.242993 0.497793
0.499348 0.244548 0.499348
0.755702 0.246102 0.500902
0.992338 0.247538 0.502338
0.009410 0.499410 0.499410
0.246045 0.500845 0.500845
0.502400 0.502400 0.502400
0.758755 0.503955 0.503955
0.995390 0.505390 0.505390
0.012462 0.757262 0.502462
0.249098 0.758698 0.503898
0.505452 0.760252 0.505452
0.761807 0.761807 0.507007
0.998442 0.763242 0.508442
0.015280 0.995280 0.505280
0.251915 0.996715 0.506715
0.508270 0.998270 0.508270
0.764625 0.999825 0.509825
1.000000 1.000000 0.511260
0.004133 0.004133 0.748933
0.240768 0.005568 0.750368
0.497123 0.007123 0.751923
0.753478 0.008678 0.753478
0.990113 0.010113 0.754913
0.006950 0.242150 0.751750
0.243586 0.243586 0.753186
0.499940 0.245140 0.754740
0.756295 0.246695 0.756295
0.992930 0.248130 0.757730
0.010003 0.500003 0.754803
0.246638 0.501438 0.756238
0.502993 0.502993 0.757793
0.759348 0.504548 0.759348
0.995983 0.505983 0.760783
0.013055 0.757855 0.757855
0.249690 0.759290 0.759290
0.506045 0.760845 0.760845
0.762400 0.762400 0.762400
0.999035 0.763835 0.763835
0.015873 0.995873 0.760673
0.252508 0.997308 0.762108
0.508863 0.998863 0.763663
0.765218 1.000000 0.765218
1.000000 1.000000 0.766653
0.004680 0.004680 0.984680
0.241315 0.006115 0.986115
0.497670 0.007670 0.987670
0.754025 0.009225 0.989225
0.990660 0.010660 0.990660
0.007498 0.242698 0.987498
0.244133 0.244133 0.988933
0.500488 0.245688 0.990488
0.756842 0.247242 0.992042
0.993478 0.248678 0.993478
0.010550 0.500550 0.990550
0.247185 0.501985 0.991985
0.503540 0.503540 0.993540
0.759895 0.505095 0.995095
0.996530 0.506530 0.996530
0.013602 0.758402 0.993602
0.250238 0.759838 0.995038
0.506592 0.761392 0.996592
0.762947 0.762947 0.998147
0.999582 0.764382 0.999582
0.016420 0.996420 0.996420
0.253055 0.997855 0.997855
0.509410 0.999410 0.999410
0.765765 1.000000 1.000000
1.000000 1.000000 1.000000
