docs/luts/fresh-cold-simplicity.cube
TITLE "FreshLUTs??-????"
LUT_3D_SIZE 33
DOMAIN_MIN 0.0 0.0 0.0
DOMAIN_MAX 1.0 1.0 1.0
0.000000 0.006600 0.071500
0.000000 0.007006 0.070748
0.003457 0.008248 0.070833
0.033454 0.009491 0.070918
0.063452 0.010734 0.071003
0.093449 0.011976 0.071088
0.123446 0.013219 0.071173
0.153443 0.014462 0.071258
0.183441 0.015705 0.071343
0.213438 0.016947 0.071428
0.243435 0.018190 0.071513
0.273432 0.019433 0.071598
0.303429 0.020675 0.071683
0.333427 0.021918 0.071768
0.363424 0.023161 0.071853
0.393421 0.024404 0.071938
0.423418 0.025646 0.072023
0.453415 0.026889 0.072108
0.483413 0.028132 0.072193
0.513410 0.029374 0.072278
0.543407 0.030617 0.072363
0.573404 0.031860 0.072448
0.603402 0.033103 0.072533
0.633399 0.034345 0.072618
0.663396 0.035588 0.072703
0.693393 0.036831 0.072789
0.723390 0.038073 0.072874
0.753388 0.039316 0.072959
0.783385 0.040559 0.073044
0.813382 0.041802 0.073129
0.843379 0.043044 0.073214
0.873376 0.044287 0.073299
0.885337 0.044693 0.072547
0.000000 0.018146 0.070023
0.000000 0.018552 0.069271
0.005833 0.019794 0.069356
0.035830 0.021037 0.069441
0.065827 0.022280 0.069526
0.095824 0.023523 0.069611
0.125822 0.024765 0.069696
0.155819 0.026008 0.069781
0.185816 0.027251 0.069866
0.215813 0.028493 0.069951
0.245810 0.029736 0.070036
0.275808 0.030979 0.070121
0.305805 0.032222 0.070206
0.335802 0.033464 0.070291
0.365799 0.034707 0.070377
0.395797 0.035950 0.070462
0.425794 0.037192 0.070547
0.455791 0.038435 0.070632
0.485788 0.039678 0.070717
0.515785 0.040921 0.070802
0.545783 0.042163 0.070887
0.575780 0.043406 0.070972
0.605777 0.044649 0.071057
0.635774 0.045891 0.071142
0.665771 0.047134 0.071227
0.695769 0.048377 0.071312
0.725766 0.049620 0.071397
0.755763 0.050862 0.071482
0.785760 0.052105 0.071567
0.815758 0.053348 0.071652
0.845755 0.054590 0.071737
0.875752 0.055833 0.071822
0.887712 0.056239 0.071070
0.000000 0.048536 0.070190
0.000000 0.048941 0.069438
0.009852 0.050184 0.069523
0.039849 0.051427 0.069608
0.069846 0.052670 0.069693
0.099844 0.053912 0.069778
0.129841 0.055155 0.069863
0.159838 0.056398 0.069948
0.189835 0.057640 0.070033
0.219832 0.058883 0.070118
0.249830 0.060126 0.070203
0.279827 0.061369 0.070288
0.309824 0.062611 0.070373
0.339821 0.063854 0.070458
0.369818 0.065097 0.070543
0.399816 0.066339 0.070628
0.429813 0.067582 0.070714
0.459810 0.068825 0.070799
0.489807 0.070068 0.070884
0.519805 0.071310 0.070969
0.549802 0.072553 0.071054
0.579799 0.073796 0.071139
0.609796 0.075038 0.071224
0.639793 0.076281 0.071309
0.669791 0.077524 0.071394
0.699788 0.078767 0.071479
0.729785 0.080009 0.071564
0.759782 0.081252 0.071649
0.789779 0.082495 0.071734
0.819777 0.083737 0.071819
0.849774 0.084980 0.071904
0.879771 0.086223 0.071989
0.891731 0.086628 0.071237
0.000000 0.078926 0.070357
0.000000 0.079331 0.069605
0.013871 0.080574 0.069690
0.043868 0.081817 0.069775
0.073865 0.083059 0.069860
0.103863 0.084302 0.069945
0.133860 0.085545 0.070030
0.163857 0.086787 0.070115
0.193854 0.088030 0.070200
0.223851 0.089273 0.070285
0.253849 0.090516 0.070370
0.283846 0.091758 0.070455
0.313843 0.093001 0.070540
0.343840 0.094244 0.070625
0.373838 0.095486 0.070710
0.403835 0.096729 0.070795
0.433832 0.097972 0.070880
0.463829 0.099215 0.070965
0.493826 0.100457 0.071050
0.523824 0.101700 0.071136
0.553821 0.102943 0.071221
0.583818 0.104185 0.071306
0.613815 0.105428 0.071391
0.643813 0.106671 0.071476
0.673810 0.107914 0.071561
0.703807 0.109156 0.071646
0.733804 0.110399 0.071731
0.763801 0.111642 0.071816
0.793799 0.112884 0.071901
0.823796 0.114127 0.071986
0.853793 0.115370 0.072071
0.883790 0.116613 0.072156
0.895750 0.117018 0.071404
0.000000 0.109315 0.070524
0.000000 0.109721 0.069772
0.017890 0.110964 0.069857
0.047887 0.112206 0.069942
0.077885 0.113449 0.070027
0.107882 0.114692 0.070112
0.137879 0.115934 0.070197
0.167876 0.117177 0.070282
0.197873 0.118420 0.070367
0.227871 0.119663 0.070452
0.257868 0.120905 0.070537
0.287865 0.122148 0.070622
0.317862 0.123391 0.070707
0.347859 0.124633 0.070792
0.377857 0.125876 0.070877
0.407854 0.127119 0.070962
0.437851 0.128362 0.071047
0.467848 0.129604 0.071132
0.497846 0.130847 0.071217
0.527843 0.132090 0.071302
0.557840 0.133332 0.071387
0.587837 0.134575 0.071473
0.617834 0.135818 0.071558
0.647832 0.137061 0.071643
0.677829 0.138303 0.071728
0.707826 0.139546 0.071813
0.737823 0.140789 0.071898
0.767820 0.142031 0.071983
0.797818 0.143274 0.072068
0.827815 0.144517 0.072153
0.857812 0.145760 0.072238
0.887809 0.147002 0.072323
0.899769 0.147408 0.071571
0.000000 0.139705 0.070691
0.000000 0.140111 0.069939
0.021909 0.141353 0.070024
0.051906 0.142596 0.070109
0.081904 0.143839 0.070194
0.111901 0.145081 0.070279
0.141898 0.146324 0.070364
0.171895 0.147567 0.070449
0.201893 0.148810 0.070534
0.231890 0.150052 0.070619
0.261887 0.151295 0.070704
0.291884 0.152538 0.070789
0.321881 0.153780 0.070874
0.351879 0.155023 0.070959
0.381876 0.156266 0.071044
0.411873 0.157509 0.071129
0.441870 0.158751 0.071214
0.471867 0.159994 0.071299
0.501865 0.161237 0.071384
0.531862 0.162479 0.071469
0.561859 0.163722 0.071554
0.591856 0.164965 0.071639
0.621854 0.166208 0.071724
0.651851 0.167450 0.071809
0.681848 0.168693 0.071895
0.711845 0.169936 0.071980
0.741842 0.171178 0.072065
0.771840 0.172421 0.072150
0.801837 0.173664 0.072235
0.831834 0.174907 0.072320
0.861831 0.176149 0.072405
0.891828 0.177392 0.072490
0.903788 0.177798 0.071738
0.000000 0.170095 0.070858
0.000000 0.170500 0.070106
0.025928 0.171743 0.070191
0.055926 0.172986 0.070276
0.085923 0.174228 0.070361
0.115920 0.175471 0.070446
0.145917 0.176714 0.070531
0.175914 0.177957 0.070616
0.205912 0.179199 0.070701
0.235909 0.180442 0.070786
0.265906 0.181685 0.070871
0.295903 0.182927 0.070956
0.325900 0.184170 0.071041
0.355898 0.185413 0.071126
0.385895 0.186656 0.071211
0.415892 0.187898 0.071296
0.445889 0.189141 0.071381
0.475887 0.190384 0.071466
0.505884 0.191626 0.071551
0.535881 0.192869 0.071636
0.565878 0.194112 0.071721
0.595875 0.195355 0.071806
0.625873 0.196597 0.071891
0.655870 0.197840 0.071976
0.685867 0.199083 0.072061
0.715864 0.200325 0.072146
0.745861 0.201568 0.072232
0.775859 0.202811 0.072317
0.805856 0.204054 0.072402
0.835853 0.205296 0.072487
0.865850 0.206539 0.072572
0.895848 0.207782 0.072657
0.907808 0.208187 0.071904
0.000000 0.200484 0.071025
0.000000 0.200890 0.070273
0.029947 0.202133 0.070358
0.059945 0.203375 0.070443
0.089942 0.204618 0.070528
0.119939 0.205861 0.070613
0.149936 0.207104 0.070698
0.179934 0.208346 0.070783
0.209931 0.209589 0.070868
0.239928 0.210832 0.070953
0.269925 0.212074 0.071038
0.299922 0.213317 0.071123
0.329920 0.214560 0.071208
0.359917 0.215803 0.071293
0.389914 0.217045 0.071378
0.419911 0.218288 0.071463
0.449908 0.219531 0.071548
0.479906 0.220773 0.071633
0.509903 0.222016 0.071718
0.539900 0.223259 0.071803
0.569897 0.224502 0.071888
0.599895 0.225744 0.071973
0.629892 0.226987 0.072058
0.659889 0.228230 0.072143
0.689886 0.229472 0.072228
0.719883 0.230715 0.072313
0.749881 0.231958 0.072398
0.779878 0.233201 0.072483
0.809875 0.234443 0.072568
0.839872 0.235686 0.072654
0.869869 0.236929 0.072739
0.899867 0.238172 0.072824
0.911827 0.238577 0.072071
0.000000 0.230874 0.071192
0.003969 0.231280 0.070440
0.033967 0.232522 0.070525
0.063964 0.233765 0.070610
0.093961 0.235008 0.070695
0.123958 0.236251 0.070780
0.153955 0.237493 0.070865
0.183953 0.238736 0.070950
0.213950 0.239979 0.071035
0.243947 0.241221 0.071120
0.273944 0.242464 0.071205
0.303941 0.243707 0.071290
0.333939 0.244950 0.071375
0.363936 0.246192 0.071460
0.393933 0.247435 0.071545
0.423930 0.248678 0.071630
0.453928 0.249920 0.071715
0.483925 0.251163 0.071800
0.513922 0.252406 0.071885
0.543919 0.253649 0.071970
0.573916 0.254891 0.072055
0.603914 0.256134 0.072140
0.633911 0.257377 0.072225
0.663908 0.258619 0.072310
0.693905 0.259862 0.072395
0.723903 0.261105 0.072480
0.753900 0.262348 0.072565
0.783897 0.263590 0.072650
0.813894 0.264833 0.072735
0.843891 0.266076 0.072820
0.873889 0.267319 0.072905
0.903886 0.268561 0.072990
0.915846 0.268967 0.072238
0.000000 0.261264 0.071359
0.007988 0.261669 0.070607
0.037986 0.262912 0.070692
0.067983 0.264155 0.070777
0.097980 0.265398 0.070862
0.127977 0.266640 0.070947
0.157975 0.267883 0.071032
0.187972 0.269126 0.071117
0.217969 0.270368 0.071202
0.247966 0.271611 0.071287
0.277963 0.272854 0.071372
0.307961 0.274097 0.071457
0.337958 0.275339 0.071542
0.367955 0.276582 0.071627
0.397952 0.277825 0.071712
0.427949 0.279067 0.071797
0.457947 0.280310 0.071882
0.487944 0.281553 0.071967
0.517941 0.282796 0.072052
0.547938 0.284038 0.072137
0.577936 0.285281 0.072222
0.607933 0.286524 0.072307
0.637930 0.287766 0.072392
0.667927 0.289009 0.072477
0.697924 0.290252 0.072562
0.727922 0.291495 0.072647
0.757919 0.292737 0.072732
0.787916 0.293980 0.072817
0.817913 0.295223 0.072902
0.847910 0.296466 0.072987
0.877908 0.297708 0.073072
0.907905 0.298951 0.073157
0.919865 0.299356 0.072405
0.000048 0.291654 0.071526
0.012008 0.292059 0.070774
0.042005 0.293302 0.070859
0.072002 0.294545 0.070944
0.101999 0.295787 0.071029
0.131996 0.297030 0.071114
0.161994 0.298273 0.071199
0.191991 0.299515 0.071284
0.221988 0.300758 0.071369
0.251985 0.302001 0.071454
0.281983 0.303244 0.071539
0.311980 0.304486 0.071624
0.341977 0.305729 0.071709
0.371974 0.306972 0.071794
0.401971 0.308214 0.071879
0.431969 0.309457 0.071964
0.461966 0.310700 0.072049
0.491963 0.311943 0.072134
0.521960 0.313185 0.072219
0.551957 0.314428 0.072304
0.581955 0.315671 0.072389
0.611952 0.316913 0.072474
0.641949 0.318156 0.072559
0.671946 0.319399 0.072644
0.701944 0.320642 0.072729
0.731941 0.321884 0.072814
0.761938 0.323127 0.072899
0.791935 0.324370 0.072984
0.821932 0.325613 0.073069
0.851930 0.326855 0.073154
0.881927 0.328098 0.073239
0.911924 0.329341 0.073324
0.923425 0.329825 0.073425
0.004067 0.322043 0.071693
0.016027 0.322449 0.070940
0.046024 0.323692 0.071025
0.076021 0.324934 0.071110
0.106018 0.326177 0.071196
0.136016 0.327420 0.071281
0.166013 0.328662 0.071366
0.196010 0.329905 0.071451
0.226007 0.331148 0.071536
0.256004 0.332391 0.071621
0.286002 0.333633 0.071706
0.315999 0.334876 0.071791
0.345996 0.336119 0.071876
0.375993 0.337361 0.071961
0.405990 0.338604 0.072046
0.435988 0.339847 0.072131
0.465985 0.341090 0.072216
0.495982 0.342332 0.072301
0.525979 0.343575 0.072386
0.555977 0.344818 0.072471
0.585974 0.346060 0.072556
0.615971 0.347303 0.072641
0.645968 0.348546 0.072726
0.675965 0.349789 0.072811
0.705963 0.351031 0.072896
0.735960 0.352274 0.072981
0.765957 0.353517 0.073066
0.795954 0.354760 0.073151
0.825952 0.356002 0.073236
0.855949 0.357245 0.073321
0.885512 0.358562 0.074212
0.914823 0.359922 0.075572
0.926096 0.360446 0.076096
0.008086 0.352433 0.071860
0.020046 0.352839 0.071107
0.050043 0.354081 0.071192
0.080040 0.355324 0.071277
0.110037 0.356567 0.071362
0.140035 0.357809 0.071447
0.170032 0.359052 0.071533
0.200029 0.360295 0.071618
0.230026 0.361538 0.071703
0.260024 0.362780 0.071788
0.290021 0.364023 0.071873
0.320018 0.365266 0.071958
0.350015 0.366508 0.072043
0.380012 0.367751 0.072128
0.410010 0.368994 0.072213
0.440007 0.370237 0.072298
0.470004 0.371479 0.072383
0.500001 0.372722 0.072468
0.529998 0.373965 0.072553
0.559996 0.375207 0.072638
0.589993 0.376450 0.072723
0.619990 0.377693 0.072808
0.649987 0.378936 0.072893
0.679985 0.380178 0.072978
0.709982 0.381421 0.073063
0.739979 0.382664 0.073148
0.769976 0.383907 0.073233
0.799973 0.385149 0.073318
0.829562 0.386462 0.074162
0.858872 0.387822 0.075522
0.888183 0.389183 0.076883
0.917493 0.390543 0.078243
0.928767 0.391067 0.078767
0.012105 0.382823 0.072026
0.024065 0.383228 0.071274
0.054062 0.384471 0.071359
0.084059 0.385714 0.071444
0.114057 0.386956 0.071529
0.144054 0.388199 0.071614
0.174051 0.389442 0.071699
0.204048 0.390685 0.071784
0.234045 0.391927 0.071869
0.264043 0.393170 0.071955
0.294040 0.394413 0.072040
0.324037 0.395655 0.072125
0.354034 0.396898 0.072210
0.384032 0.398141 0.072295
0.414029 0.399384 0.072380
0.444026 0.400626 0.072465
0.474023 0.401869 0.072550
0.504020 0.403112 0.072635
0.534018 0.404354 0.072720
0.564015 0.405597 0.072805
0.594012 0.406840 0.072890
0.624009 0.408083 0.072975
0.654006 0.409325 0.073060
0.684004 0.410568 0.073145
0.714001 0.411811 0.073230
0.743998 0.413054 0.073315
0.773612 0.414362 0.074112
0.802922 0.415722 0.075472
0.832233 0.417083 0.076833
0.861543 0.418443 0.078193
0.890854 0.419804 0.079554
0.920164 0.421164 0.080914
0.931437 0.421687 0.081437
0.016124 0.413212 0.072193
0.028084 0.413618 0.071441
0.058081 0.414861 0.071526
0.088078 0.416103 0.071611
0.118076 0.417346 0.071696
0.148073 0.418589 0.071781
0.178070 0.419832 0.071866
0.208067 0.421074 0.071951
0.238065 0.422317 0.072036
0.268062 0.423560 0.072121
0.298059 0.424802 0.072206
0.328056 0.426045 0.072292
0.358053 0.427288 0.072377
0.388051 0.428531 0.072462
0.418048 0.429773 0.072547
0.448045 0.431016 0.072632
0.478042 0.432259 0.072717
0.508039 0.433501 0.072802
0.538037 0.434744 0.072887
0.568034 0.435987 0.072972
0.598031 0.437230 0.073057
0.628028 0.438472 0.073142
0.658026 0.439715 0.073227
0.688023 0.440958 0.073312
0.717662 0.442262 0.074062
0.746972 0.443622 0.075422
0.776283 0.444983 0.076783
0.805593 0.446343 0.078143
0.834904 0.447704 0.079504
0.864214 0.449064 0.080864
0.893525 0.450425 0.082225
0.922835 0.451785 0.083585
0.934108 0.452308 0.084108
0.020143 0.443602 0.072360
0.032103 0.444008 0.071608
0.062100 0.445250 0.071693
0.092098 0.446493 0.071778
0.122095 0.447736 0.071863
0.152092 0.448979 0.071948
0.182089 0.450221 0.072033
0.212086 0.451464 0.072118
0.242084 0.452707 0.072203
0.272081 0.453949 0.072288
0.302078 0.455192 0.072373
0.332075 0.456435 0.072458
0.362073 0.457678 0.072543
0.392070 0.458920 0.072628
0.422067 0.460163 0.072714
0.452064 0.461406 0.072799
0.482061 0.462648 0.072884
0.512059 0.463891 0.072969
0.542056 0.465134 0.073054
0.572053 0.466377 0.073139
0.602050 0.467619 0.073224
0.632047 0.468862 0.073309
0.661712 0.470162 0.074012
0.691022 0.471522 0.075372
0.720333 0.472883 0.076733
0.749643 0.474243 0.078093
0.778954 0.475604 0.079454
0.808264 0.476964 0.080814
0.837575 0.478325 0.082175
0.866885 0.479685 0.083535
0.896195 0.481045 0.084895
0.925506 0.482406 0.086256
0.936779 0.482929 0.086779
0.024162 0.473992 0.072527
0.036122 0.474397 0.071775
0.066119 0.475640 0.071860
0.096117 0.476883 0.071945
0.126114 0.478126 0.072030
0.156111 0.479368 0.072115
0.186108 0.480611 0.072200
0.216106 0.481854 0.072285
0.246103 0.483096 0.072370
0.276100 0.484339 0.072455
0.306097 0.485582 0.072540
0.336094 0.486825 0.072625
0.366092 0.488067 0.072710
0.396089 0.489310 0.072795
0.426086 0.490553 0.072880
0.456083 0.491795 0.072965
0.486081 0.493038 0.073051
0.516078 0.494281 0.073136
0.546075 0.495524 0.073221
0.576072 0.496766 0.073306
0.605762 0.498062 0.073962
0.635072 0.499422 0.075322
0.664383 0.500783 0.076683
0.693693 0.502143 0.078043
0.723004 0.503504 0.079404
0.752314 0.504864 0.080764
0.781625 0.506225 0.082124
0.810935 0.507585 0.083485
0.840245 0.508945 0.084845
0.869556 0.510306 0.086206
0.898866 0.511666 0.087566
0.928177 0.513027 0.088927
0.939450 0.513550 0.089450
0.028181 0.504382 0.072694
0.040141 0.504787 0.071942
0.070139 0.506030 0.072027
0.100136 0.507273 0.072112
0.130133 0.508515 0.072197
0.160130 0.509758 0.072282
0.190127 0.511001 0.072367
0.220125 0.512243 0.072452
0.250122 0.513486 0.072537
0.280119 0.514729 0.072622
0.310116 0.515972 0.072707
0.340114 0.517214 0.072792
0.370111 0.518457 0.072877
0.400108 0.519700 0.072962
0.430105 0.520942 0.073047
0.460102 0.522185 0.073132
0.490100 0.523428 0.073217
0.520097 0.524671 0.073302
0.549812 0.525962 0.073912
0.579122 0.527322 0.075272
0.608433 0.528683 0.076633
0.637743 0.530043 0.077993
0.667054 0.531404 0.079354
0.696364 0.532764 0.080714
0.725674 0.534124 0.082074
0.754985 0.535485 0.083435
0.784295 0.536845 0.084795
0.813606 0.538206 0.086156
0.842916 0.539566 0.087516
0.872227 0.540927 0.088877
0.901537 0.542287 0.090237
0.930848 0.543648 0.091598
0.942121 0.544171 0.092121
0.032200 0.534771 0.072861
0.044160 0.535177 0.072109
0.074158 0.536420 0.072194
0.104155 0.537662 0.072279
0.134152 0.538905 0.072364
0.164149 0.540148 0.072449
0.194147 0.541390 0.072534
0.224144 0.542633 0.072619
0.254141 0.543876 0.072704
0.284138 0.545119 0.072789
0.314135 0.546361 0.072874
0.344133 0.547604 0.072959
0.374130 0.548847 0.073044
0.404127 0.550089 0.073129
0.434124 0.551332 0.073214
0.464122 0.552575 0.073299
0.493862 0.553862 0.073862
0.523172 0.555222 0.075222
0.552483 0.556583 0.076583
0.581793 0.557943 0.077943
0.611104 0.559303 0.079304
0.640414 0.560664 0.080664
0.669724 0.562024 0.082024
0.699035 0.563385 0.083385
0.728345 0.564745 0.084745
0.757656 0.566106 0.086106
0.786966 0.567466 0.087466
0.816277 0.568827 0.088827
0.845587 0.570187 0.090187
0.874898 0.571548 0.091548
0.904208 0.572908 0.092908
0.933518 0.574268 0.094268
0.944792 0.574792 0.094792
0.036220 0.565161 0.073028
0.048180 0.565567 0.072276
0.078177 0.566809 0.072361
0.108174 0.568052 0.072446
0.138171 0.569295 0.072531
0.168168 0.570537 0.072616
0.198166 0.571780 0.072701
0.228163 0.573023 0.072786
0.258160 0.574266 0.072871
0.288157 0.575508 0.072956
0.318155 0.576751 0.073041
0.348152 0.577994 0.073126
0.378149 0.579236 0.073211
0.408146 0.580479 0.073296
0.437912 0.581762 0.073812
0.467222 0.583122 0.075172
0.496533 0.584483 0.076533
0.525843 0.585843 0.077893
0.555153 0.587203 0.079253
0.584464 0.588564 0.080614
0.613774 0.589924 0.081974
0.643085 0.591285 0.083335
0.672395 0.592645 0.084695
0.701706 0.594006 0.086056
0.731016 0.595366 0.087416
0.760327 0.596727 0.088777
0.789637 0.598087 0.090137
0.818948 0.599448 0.091498
0.848258 0.600808 0.092858
0.877568 0.602168 0.094218
0.906879 0.603529 0.095579
0.936189 0.604889 0.096939
0.947463 0.605413 0.097463
0.040239 0.595551 0.073195
0.052199 0.595956 0.072443
0.082196 0.597199 0.072528
0.112193 0.598442 0.072613
0.142190 0.599684 0.072698
0.172188 0.600927 0.072783
0.202185 0.602170 0.072868
0.232182 0.603413 0.072953
0.262179 0.604655 0.073038
0.292176 0.605898 0.073123
0.322174 0.607141 0.073208
0.352171 0.608383 0.073293
0.381962 0.609662 0.073762
0.411272 0.611022 0.075122
0.440582 0.612383 0.076483
0.469893 0.613743 0.077843
0.499203 0.615103 0.079203
0.528514 0.616464 0.080564
0.557824 0.617824 0.081924
0.587135 0.619185 0.083285
0.616445 0.620545 0.084645
0.645756 0.621906 0.086006
0.675066 0.623266 0.087366
0.704377 0.624627 0.088727
0.733687 0.625987 0.090087
0.762997 0.627347 0.091447
0.792308 0.628708 0.092808
0.821618 0.630068 0.094168
0.850929 0.631429 0.095529
0.880239 0.632789 0.096889
0.909550 0.634150 0.098250
0.938860 0.635510 0.099610
0.950133 0.636033 0.100133
0.044258 0.625940 0.073362
0.056218 0.626346 0.072610
0.086215 0.627589 0.072695
0.116212 0.628831 0.072780
0.146209 0.630074 0.072865
0.176207 0.631317 0.072950
0.206204 0.632560 0.073035
0.236201 0.633802 0.073120
0.266198 0.635045 0.073205
0.296196 0.636288 0.073290
0.326012 0.637562 0.073712
0.355322 0.638922 0.075072
0.384632 0.640282 0.076432
0.413943 0.641643 0.077793
0.443253 0.643003 0.079153
0.472564 0.644364 0.080514
0.501874 0.645724 0.081874
0.531185 0.647085 0.083235
0.560495 0.648445 0.084595
0.589806 0.649806 0.085956
0.619116 0.651166 0.087316
0.648427 0.652527 0.088676
0.677737 0.653887 0.090037
0.707047 0.655247 0.091397
0.736358 0.656608 0.092758
0.765668 0.657968 0.094118
0.794979 0.659329 0.095479
0.824289 0.660689 0.096839
0.853600 0.662050 0.098200
0.882910 0.663410 0.099560
0.912221 0.664771 0.100921
0.941531 0.666131 0.102281
0.952804 0.666654 0.102804
0.048277 0.656330 0.073529
0.060237 0.656736 0.072777
0.090234 0.657978 0.072862
0.120231 0.659221 0.072947
0.150229 0.660464 0.073032
0.180226 0.661707 0.073117
0.210223 0.662949 0.073202
0.240220 0.664192 0.073287
0.270062 0.665462 0.073661
0.299372 0.666822 0.075022
0.328682 0.668182 0.076382
0.357993 0.669543 0.077743
0.387303 0.670903 0.079103
0.416614 0.672264 0.080464
0.445924 0.673624 0.081824
0.475235 0.674985 0.083185
0.504545 0.676345 0.084545
0.533856 0.677706 0.085906
0.563166 0.679066 0.087266
0.592476 0.680426 0.088626
0.621787 0.681787 0.089987
0.651097 0.683147 0.091347
0.680408 0.684508 0.092708
0.709718 0.685868 0.094068
0.739029 0.687229 0.095429
0.768339 0.688589 0.096789
0.797650 0.689950 0.098150
0.826960 0.691310 0.099510
0.856271 0.692671 0.100871
0.885581 0.694031 0.102231
0.914891 0.695391 0.103591
0.944202 0.696752 0.104952
0.955475 0.697275 0.105475
0.052296 0.686720 0.073696
0.064256 0.687125 0.072944
0.094253 0.688368 0.073029
0.124251 0.689611 0.073114
0.154248 0.690854 0.073199
0.184245 0.692096 0.073284
0.214111 0.693361 0.073611
0.243422 0.694722 0.074972
0.272732 0.696082 0.076332
0.302043 0.697443 0.077693
0.331353 0.698803 0.079053
0.360664 0.700164 0.080414
0.389974 0.701524 0.081774
0.419285 0.702885 0.083135
0.448595 0.704245 0.084495
0.477906 0.705606 0.085856
0.507216 0.706966 0.087216
0.536526 0.708326 0.088576
0.565837 0.709687 0.089937
0.595147 0.711047 0.091297
0.624458 0.712408 0.092658
0.653768 0.713768 0.094018
0.683079 0.715129 0.095379
0.712389 0.716489 0.096739
0.741700 0.717850 0.098100
0.771010 0.719210 0.099460
0.800320 0.720570 0.100820
0.829631 0.721931 0.102181
0.858941 0.723291 0.103541
0.888252 0.724652 0.104902
0.917562 0.726012 0.106262
0.946873 0.727373 0.107623
0.958146 0.727896 0.108146
0.056315 0.717110 0.073863
0.068275 0.717515 0.073111
0.098272 0.718758 0.073196
0.128270 0.720001 0.073281
0.158161 0.721261 0.073561
0.187472 0.722622 0.074922
0.216782 0.723982 0.076282
0.246093 0.725343 0.077643
0.275403 0.726703 0.079003
0.304714 0.728064 0.080364
0.334024 0.729424 0.081724
0.363335 0.730785 0.083085
0.392645 0.732145 0.084445
0.421955 0.733505 0.085805
0.451266 0.734866 0.087166
0.480576 0.736226 0.088526
0.509887 0.737587 0.089887
0.539197 0.738947 0.091247
0.568508 0.740308 0.092608
0.597818 0.741668 0.093968
0.627129 0.743029 0.095329
0.656439 0.744389 0.096689
0.685750 0.745750 0.098049
0.715060 0.747110 0.099410
0.744370 0.748470 0.100770
0.773681 0.749831 0.102131
0.802991 0.751191 0.103491
0.832302 0.752552 0.104852
0.861612 0.753912 0.106212
0.890923 0.755273 0.107573
0.920233 0.756633 0.108933
0.949544 0.757994 0.110294
0.960817 0.758517 0.110817
0.060334 0.747499 0.074030
0.072294 0.747905 0.073277
0.102211 0.749161 0.073511
0.131522 0.750522 0.074872
0.160832 0.751882 0.076232
0.190143 0.753243 0.077593
0.219453 0.754603 0.078953
0.248764 0.755964 0.080314
0.278074 0.757324 0.081674
0.307385 0.758685 0.083035
0.336695 0.760045 0.084395
0.366005 0.761405 0.085755
0.395316 0.762766 0.087116
0.424626 0.764126 0.088476
0.453937 0.765487 0.089837
0.483247 0.766847 0.091197
0.512558 0.768208 0.092558
0.541868 0.769568 0.093918
0.571179 0.770929 0.095279
0.600489 0.772289 0.096639
0.629799 0.773649 0.097999
0.659110 0.775010 0.099360
0.688420 0.776370 0.100720
0.717731 0.777731 0.102081
0.747041 0.779091 0.103441
0.776352 0.780452 0.104802
0.805662 0.781812 0.106162
0.834973 0.783173 0.107523
0.864283 0.784533 0.108883
0.893594 0.785894 0.110243
0.922904 0.787254 0.111604
0.952214 0.788614 0.112964
0.963488 0.789138 0.113488
0.064298 0.777898 0.074298
0.075572 0.778422 0.074822
0.104882 0.779782 0.076182
0.134193 0.781143 0.077543
0.163503 0.782503 0.078903
0.192814 0.783864 0.080264
0.222124 0.785224 0.081624
0.251434 0.786584 0.082984
0.280745 0.787945 0.084345
0.310055 0.789305 0.085705
0.339366 0.790666 0.087066
0.368676 0.792026 0.088426
0.397987 0.793387 0.089787
0.427297 0.794747 0.091147
0.456608 0.796108 0.092508
0.485918 0.797468 0.093868
0.515229 0.798829 0.095228
0.544539 0.800189 0.096589
0.573849 0.801549 0.097949
0.603160 0.802910 0.099310
0.632470 0.804270 0.100670
0.661781 0.805631 0.102031
0.691091 0.806991 0.103391
0.720402 0.808352 0.104752
0.749712 0.809712 0.106112
0.779023 0.811073 0.107473
0.808333 0.812433 0.108833
