docs/luts/fresh-cine-color-arrival.cube
TITLE "FreshLUTs??-?????"
LUT_3D_SIZE 9
DOMAIN_MIN 0.0 0.0 0.0
DOMAIN_MAX 1.0 1.0 1.0
0.000000 0.010000 0.055000
0.044906 0.014029 0.055497
0.162146 0.025593 0.063529
0.279387 0.037157 0.071561
0.396628 0.048721 0.079593
0.513868 0.060284 0.087625
0.631109 0.071848 0.095657
0.748349 0.083412 0.103688
0.793255 0.087441 0.104186
0.010581 0.079208 0.059674
0.055486 0.083237 0.060171
0.172727 0.094801 0.068203
0.289968 0.106365 0.076235
0.407208 0.117928 0.084267
0.524449 0.129492 0.092299
0.641689 0.141056 0.100331
0.758930 0.152620 0.108362
0.803836 0.156649 0.108859
0.031023 0.201477 0.074210
0.075929 0.205506 0.074707
0.193169 0.217070 0.082739
0.310410 0.228634 0.090770
0.427650 0.240198 0.098802
0.544891 0.251762 0.106834
0.662132 0.263326 0.114866
0.779372 0.274889 0.122898
0.824278 0.278918 0.123395
0.051465 0.323747 0.088745
0.096371 0.327776 0.089242
0.213612 0.339340 0.097274
0.330852 0.350904 0.105306
0.448093 0.362467 0.113338
0.565333 0.374031 0.121370
0.682574 0.385595 0.129402
0.799814 0.397276 0.138076
0.844720 0.402090 0.142890
0.071907 0.446017 0.103281
0.116813 0.450046 0.103778
0.234054 0.461609 0.111810
0.351294 0.473173 0.119842
0.468535 0.484737 0.127874
0.585776 0.496389 0.136389
0.703016 0.508737 0.148737
0.820257 0.521086 0.161086
0.865163 0.525900 0.165900
0.092350 0.568286 0.117816
0.137256 0.572315 0.118313
0.254496 0.583879 0.126345
0.371737 0.595502 0.134702
0.488977 0.607850 0.147050
0.606218 0.620199 0.159399
0.723458 0.632548 0.171748
0.840699 0.644896 0.184096
0.885605 0.649710 0.188910
0.112792 0.690556 0.132352
0.157698 0.694615 0.133015
0.274938 0.706963 0.145363
0.392179 0.719312 0.157712
0.509420 0.731661 0.170061
0.626660 0.744009 0.182410
0.743901 0.756358 0.194758
0.861141 0.768707 0.207107
0.906047 0.773521 0.211921
0.133234 0.813611 0.151211
0.178140 0.818425 0.156025
0.295381 0.830774 0.168374
0.412621 0.843122 0.180723
0.529862 0.855471 0.193071
0.647102 0.867820 0.205420
0.764343 0.880169 0.217769
0.881584 0.892517 0.230117
0.926489 0.897331 0.234931
0.143815 0.884360 0.164360
0.188721 0.889174 0.169174
0.305961 0.901523 0.181523
0.423202 0.913871 0.193871
0.540442 0.926220 0.206220
0.657683 0.938569 0.218569
0.774924 0.950917 0.230917
0.892164 0.963266 0.243266
0.937070 0.968080 0.248080
0.002534 0.012733 0.124787
0.047439 0.016762 0.125284
0.164680 0.028326 0.133315
0.281921 0.039890 0.141347
0.399161 0.051454 0.149379
0.516402 0.063017 0.157411
0.633642 0.074581 0.165443
0.750883 0.086145 0.173475
0.795789 0.090174 0.173972
0.013114 0.081941 0.129461
0.058020 0.085970 0.129958
0.175261 0.097534 0.137989
0.292501 0.109098 0.146021
0.409742 0.120662 0.154053
0.526982 0.132225 0.162085
0.644223 0.143789 0.170117
0.761464 0.155353 0.178149
0.806369 0.159382 0.178646
0.033557 0.204211 0.143996
0.078462 0.208240 0.144493
0.195703 0.219803 0.152525
0.312944 0.231367 0.160557
0.430184 0.242931 0.168589
0.547425 0.254495 0.176621
0.664665 0.266059 0.184653
0.781906 0.277623 0.192685
0.826812 0.281652 0.193182
0.053999 0.326480 0.158532
0.098905 0.330509 0.159029
0.216145 0.342073 0.167061
0.333386 0.353637 0.175093
0.450626 0.365201 0.183124
0.567867 0.376764 0.191156
0.685108 0.388328 0.199188
0.802348 0.400308 0.209508
0.847254 0.405122 0.214322
0.074441 0.448750 0.173067
0.119347 0.452779 0.173564
0.236588 0.464342 0.181596
0.353828 0.475906 0.189628
0.471069 0.487470 0.197660
0.588309 0.499421 0.207821
0.705550 0.511770 0.220170
0.822790 0.524119 0.232518
0.867696 0.528932 0.237332
0.094883 0.571019 0.187603
0.139789 0.575048 0.188100
0.257030 0.586612 0.196132
0.374270 0.598534 0.206134
0.491511 0.610883 0.218483
0.608752 0.623232 0.230832
0.725992 0.635580 0.243180
0.843233 0.647929 0.255529
0.888138 0.652743 0.260343
0.115326 0.693289 0.202138
0.160231 0.697647 0.204447
0.277472 0.709996 0.216796
0.394713 0.722344 0.229144
0.511953 0.734693 0.241493
0.629194 0.747042 0.253842
0.746434 0.759391 0.266191
0.863675 0.771739 0.278539
0.908581 0.776553 0.283353
0.135768 0.816644 0.222644
0.180674 0.821457 0.227457
0.297914 0.833806 0.239806
0.415155 0.846155 0.252155
0.532395 0.858504 0.264504
0.649636 0.870852 0.276852
0.766877 0.883201 0.289201
0.884117 0.895550 0.301550
0.929023 0.900364 0.306364
0.146349 0.887392 0.235792
0.191254 0.892206 0.240606
0.308495 0.904555 0.252955
0.425736 0.916904 0.265304
0.542976 0.929252 0.277652
0.660217 0.941601 0.290001
0.777457 0.953950 0.302350
0.894698 0.966298 0.314698
0.939604 0.971112 0.319512
0.006344 0.016743 0.224650
0.051250 0.020772 0.225147
0.168490 0.032336 0.233179
0.285731 0.043900 0.241211
0.402972 0.055464 0.249243
0.520212 0.067027 0.257274
0.637453 0.078591 0.265306
0.754693 0.090155 0.273338
0.799599 0.094184 0.273835
0.016925 0.085951 0.229324
0.061831 0.089980 0.229821
0.179071 0.101544 0.237853
0.296312 0.113108 0.245885
0.413552 0.124672 0.253917
0.530793 0.136235 0.261948
0.648033 0.147799 0.269980
0.765274 0.159363 0.278012
0.810180 0.163392 0.278509
0.037367 0.208221 0.243859
0.082273 0.212250 0.244357
0.199513 0.223813 0.252388
0.316754 0.235377 0.260420
0.433995 0.246941 0.268452
0.551235 0.258505 0.276484
0.668476 0.270069 0.284516
0.785716 0.281633 0.292548
0.830622 0.285662 0.293045
0.057809 0.330490 0.258395
0.102715 0.334519 0.258892
0.219956 0.346083 0.266924
0.337196 0.357647 0.274956
0.454437 0.369211 0.282988
0.571677 0.380774 0.291020
0.688918 0.392338 0.299052
0.806159 0.404617 0.311017
0.851064 0.409431 0.315831
0.078252 0.452760 0.272931
0.123157 0.456789 0.273428
0.240398 0.468352 0.281460
0.357639 0.479916 0.289491
0.474879 0.491480 0.297523
0.592120 0.503730 0.309330
0.709360 0.516079 0.321679
0.826601 0.528428 0.334028
0.871507 0.533242 0.338842
0.098694 0.575029 0.287466
0.143600 0.579058 0.287963
0.260840 0.590622 0.295995
0.378081 0.602843 0.307643
0.495321 0.615192 0.319992
0.612562 0.627541 0.332341
0.729803 0.639889 0.344689
0.847043 0.652238 0.357038
0.891949 0.657052 0.361852
0.119136 0.697299 0.302002
0.164042 0.701956 0.305956
0.281283 0.714305 0.318305
0.398523 0.726654 0.330654
0.515764 0.739002 0.343002
0.633004 0.751351 0.355351
0.750245 0.763700 0.367700
0.867485 0.776049 0.380049
0.912391 0.780862 0.384862
0.139578 0.820953 0.324153
0.184484 0.825767 0.328967
0.301725 0.838115 0.341315
0.418965 0.850464 0.353664
0.536206 0.862813 0.366013
0.653447 0.875162 0.378362
0.770687 0.887510 0.390710
0.887928 0.899859 0.403059
0.932833 0.904673 0.407873
0.150159 0.891702 0.337302
0.195065 0.896516 0.342115
0.312305 0.908864 0.354464
0.429546 0.921213 0.366813
0.546787 0.933562 0.379162
0.664027 0.945910 0.391510
0.781268 0.958259 0.403859
0.898508 0.970608 0.416208
0.943414 0.975422 0.421022
0.010155 0.020753 0.324513
0.055060 0.024782 0.325010
0.172301 0.036346 0.333042
0.289541 0.047910 0.341074
0.406782 0.059474 0.349106
0.524023 0.071037 0.357138
0.641263 0.082601 0.365170
0.758504 0.094165 0.373202
0.803410 0.098194 0.373699
0.020735 0.089961 0.329187
0.065641 0.093990 0.329684
0.182882 0.105554 0.337716
0.300122 0.117118 0.345748
0.417363 0.128681 0.353780
0.534603 0.140245 0.361812
0.651844 0.151809 0.369844
0.769084 0.163373 0.377876
0.813990 0.167402 0.378373
0.041178 0.212230 0.343723
0.086083 0.216260 0.344220
0.203324 0.227823 0.352252
0.320564 0.239387 0.360284
0.437805 0.250951 0.368316
0.555046 0.262515 0.376347
0.672286 0.274079 0.384379
0.789527 0.285642 0.392411
0.834433 0.289930 0.394330
0.061620 0.334500 0.358258
0.106526 0.338529 0.358755
0.223766 0.350093 0.366787
0.341007 0.361657 0.374819
0.458247 0.373221 0.382851
0.575488 0.384784 0.390883
0.692728 0.396578 0.400178
0.809969 0.408926 0.412527
0.854875 0.413740 0.417340
0.082062 0.456770 0.372794
0.126968 0.460799 0.373291
0.244208 0.472362 0.381323
0.361449 0.483926 0.389355
0.478690 0.495691 0.398491
0.595930 0.508039 0.410840
0.713171 0.520388 0.423188
0.830411 0.532737 0.435537
0.875317 0.537551 0.440351
0.102504 0.579039 0.387330
0.147410 0.583068 0.387827
0.264651 0.594804 0.396804
0.381891 0.607152 0.409153
0.499132 0.619501 0.421501
0.616372 0.631850 0.433850
0.733613 0.644199 0.446199
0.850854 0.656547 0.458547
0.895759 0.661361 0.463361
0.122947 0.701452 0.402652
0.167852 0.706265 0.407466
0.285093 0.718614 0.419814
0.402334 0.730963 0.432163
0.519574 0.743312 0.444512
0.636815 0.755660 0.456860
0.754055 0.768009 0.469209
0.871296 0.780358 0.481558
0.916202 0.785172 0.486372
0.143389 0.825262 0.425662
0.188295 0.830076 0.430476
0.305535 0.842425 0.442825
0.422776 0.854773 0.455173
0.540016 0.867122 0.467522
0.657257 0.879471 0.479871
0.774498 0.891819 0.492219
0.891738 0.904168 0.504568
0.936644 0.908982 0.509382
0.153970 0.896011 0.438811
0.198875 0.900825 0.443625
0.316116 0.913173 0.455973
0.433356 0.925522 0.468322
0.550597 0.937871 0.480671
0.667838 0.950219 0.493019
0.785078 0.962568 0.505368
0.902319 0.974917 0.517717
0.947225 0.979731 0.522531
0.013965 0.024763 0.424376
0.058871 0.028792 0.424874
0.176111 0.040356 0.432905
0.293352 0.051920 0.440937
0.410592 0.063484 0.448969
0.527833 0.075047 0.457001
0.645074 0.086611 0.465033
0.762314 0.098175 0.473065
0.807220 0.102204 0.473562
0.024546 0.093971 0.429050
0.069451 0.098000 0.429548
0.186692 0.109564 0.437579
0.303933 0.121128 0.445611
0.421173 0.132691 0.453643
0.538414 0.144255 0.461675
0.655654 0.155819 0.469707
0.772895 0.167383 0.477739
0.817801 0.171412 0.478236
0.044988 0.216240 0.443586
0.089894 0.220269 0.444083
0.207134 0.231833 0.452115
0.324375 0.243397 0.460147
0.441615 0.254961 0.468179
0.558856 0.266525 0.476211
0.676097 0.278089 0.484243
0.793337 0.289652 0.492274
0.838243 0.294239 0.495839
0.065430 0.338510 0.458122
0.110336 0.342539 0.458619
0.227577 0.354103 0.466651
0.344817 0.365667 0.474683
0.462058 0.377230 0.482714
0.579298 0.388794 0.490746
0.696539 0.400887 0.501687
0.813779 0.413236 0.514036
0.858685 0.418050 0.518850
0.085873 0.460780 0.472657
0.130778 0.464809 0.473154
0.248019 0.476372 0.481186
0.365259 0.487936 0.489218
0.482500 0.500000 0.500000
0.599741 0.512349 0.512349
0.716981 0.524697 0.524697
0.834222 0.537046 0.537046
0.879127 0.541860 0.541860
0.106315 0.583049 0.487193
0.151221 0.587078 0.487690
0.268461 0.599113 0.498313
0.385702 0.611462 0.510662
0.502942 0.623810 0.523010
0.620183 0.636159 0.535359
0.737423 0.648508 0.547708
0.854664 0.660857 0.560056
0.899570 0.665670 0.564870
0.126757 0.705761 0.504161
0.171663 0.710575 0.508975
0.288903 0.722923 0.521323
0.406144 0.735272 0.533672
0.523385 0.747621 0.546021
0.640625 0.759969 0.558369
0.757866 0.772318 0.570718
0.875106 0.784667 0.583067
0.920012 0.789481 0.587881
0.147199 0.829571 0.527171
0.192105 0.834385 0.531985
0.309346 0.846734 0.544334
0.426586 0.859082 0.556682
0.543827 0.871431 0.569031
0.661067 0.883780 0.581380
0.778308 0.896129 0.593729
0.895549 0.908477 0.606077
0.940454 0.913291 0.610891
0.157780 0.900320 0.540320
0.202686 0.905134 0.545134
0.319926 0.917483 0.557483
0.437167 0.929831 0.569831
0.554408 0.942180 0.582180
0.671648 0.954529 0.594529
0.788889 0.966877 0.606877
0.906129 0.979226 0.619226
0.951035 0.984040 0.624040
0.017775 0.028773 0.524240
0.062681 0.032802 0.524737
0.179922 0.044366 0.532769
0.297162 0.055930 0.540801
0.414403 0.067493 0.548833
0.531644 0.079057 0.556864
0.648884 0.090621 0.564896
0.766125 0.102185 0.572928
0.811030 0.106214 0.573425
0.028356 0.097981 0.528914
0.073262 0.102010 0.529411
0.190502 0.113574 0.537443
0.307743 0.125138 0.545475
0.424984 0.136701 0.553507
0.542224 0.148265 0.561538
0.659465 0.159829 0.569570
0.776705 0.171393 0.577602
0.821611 0.175422 0.578099
0.048798 0.220250 0.543449
0.093704 0.224279 0.543946
0.210945 0.235843 0.551978
0.328185 0.247407 0.560010
0.445426 0.258971 0.568042
0.562666 0.270535 0.576074
0.679907 0.282099 0.584106
0.797148 0.293735 0.592534
0.842053 0.298548 0.597348
0.069241 0.342520 0.557985
0.114146 0.346549 0.558482
0.231387 0.358113 0.566514
0.348628 0.369677 0.574546
0.465868 0.381240 0.582578
0.583109 0.392848 0.590847
0.700349 0.405196 0.603196
0.817590 0.417545 0.615545
0.862496 0.422359 0.620359
0.089683 0.464789 0.572521
0.134589 0.468818 0.573018
0.251829 0.480382 0.581050
0.369070 0.491961 0.589160
0.486310 0.504309 0.601509
0.603551 0.516658 0.613858
0.720792 0.529007 0.626207
0.838032 0.541355 0.638555
0.882938 0.546169 0.643369
0.110125 0.587059 0.587056
0.155031 0.591088 0.587553
0.272272 0.603422 0.599822
0.389512 0.615771 0.612171
0.506753 0.628120 0.624520
0.623993 0.640468 0.636868
0.741234 0.652817 0.649217
0.858474 0.665166 0.661566
0.903380 0.669980 0.666380
0.130568 0.710070 0.605670
0.175473 0.714884 0.610484
0.292714 0.727233 0.622833
0.409954 0.739581 0.635181
0.527195 0.751930 0.647530
0.644436 0.764279 0.659879
0.761676 0.776627 0.672227
0.878917 0.788976 0.684576
0.923822 0.793790 0.689390
0.151010 0.833880 0.628680
0.195916 0.838694 0.633494
0.313156 0.851043 0.645843
0.430397 0.863392 0.658192
0.547637 0.875740 0.670540
0.664878 0.888089 0.682889
0.782118 0.900438 0.695238
0.899359 0.912787 0.707587
0.944265 0.917600 0.712400
0.161590 0.904629 0.641829
0.206496 0.909443 0.646643
0.323737 0.921792 0.658992
0.440977 0.934141 0.671341
0.558218 0.946489 0.683689
0.675459 0.958838 0.696038
0.792699 0.971187 0.708387
0.909940 0.983535 0.720735
0.954845 0.988349 0.725549
0.021586 0.032783 0.624103
0.066492 0.036812 0.624600
0.183732 0.048376 0.632632
0.300973 0.059940 0.640664
0.418213 0.071503 0.648696
0.535454 0.083067 0.656728
0.652695 0.094631 0.664760
0.769935 0.106195 0.672792
0.814841 0.110224 0.673289
0.032167 0.101991 0.628777
0.077072 0.106020 0.629274
0.194313 0.117584 0.637306
0.311553 0.129147 0.645338
0.428794 0.140711 0.653370
0.546035 0.152275 0.661402
0.663275 0.163839 0.669434
0.780516 0.175403 0.677466
0.825422 0.179432 0.677963
0.052609 0.224260 0.643313
0.097515 0.228289 0.643810
0.214755 0.239853 0.651842
0.331996 0.251417 0.659874
0.449236 0.262981 0.667905
0.566477 0.274545 0.675937
0.683717 0.286108 0.683969
0.800958 0.298044 0.694044
0.845864 0.302858 0.698858
0.073051 0.346530 0.657848
0.117957 0.350559 0.658345
0.235197 0.362123 0.666377
0.352438 0.373687 0.674409
0.469679 0.385250 0.682441
0.586919 0.397157 0.692357
0.704160 0.409505 0.704705
0.821400 0.421854 0.717054
0.866306 0.426668 0.721868
0.093493 0.468799 0.672384
0.138399 0.472828 0.672881
0.255640 0.484392 0.680913
0.372880 0.496270 0.690670
0.490121 0.508618 0.703018
0.607361 0.520967 0.715367
0.724602 0.533316 0.727716
0.841843 0.545664 0.740065
0.886748 0.550478 0.744878
0.113936 0.591069 0.686919
0.158841 0.595383 0.688983
0.276082 0.607731 0.701331
0.393323 0.620080 0.713680
0.510563 0.632429 0.726029
0.627804 0.644778 0.738378
0.745044 0.657126 0.750726
0.862285 0.669475 0.763075
0.907191 0.674289 0.767889
0.134378 0.714379 0.707179
0.179284 0.719193 0.711993
0.296524 0.731542 0.724342
0.413765 0.743891 0.736691
0.531005 0.756239 0.749039
0.648246 0.768588 0.761388
0.765487 0.780937 0.773737
0.882727 0.793285 0.786085
0.927633 0.798099 0.790899
0.154820 0.838190 0.730190
0.199726 0.843004 0.735004
0.316967 0.855352 0.747352
0.434207 0.867701 0.759701
0.551448 0.880050 0.772050
0.668688 0.892398 0.784398
0.785929 0.904747 0.796747
0.903169 0.917096 0.809096
0.948075 0.921910 0.813910
0.165401 0.908938 0.743338
0.210307 0.913752 0.748152
0.327547 0.926101 0.760501
0.444788 0.938450 0.772850
0.562028 0.950798 0.785198
0.679269 0.963147 0.797547
0.796510 0.975496 0.809896
0.913750 0.987845 0.822245
0.958656 0.992658 0.827058
0.025396 0.036793 0.723966
0.070302 0.040822 0.724464
0.187543 0.052386 0.732495
0.304783 0.063950 0.740527
0.422024 0.075513 0.748559
0.539264 0.087077 0.756591
0.656505 0.098641 0.764623
0.773746 0.110205 0.772655
0.818651 0.114234 0.773152
0.035977 0.106001 0.728640
0.080883 0.110030 0.729138
0.198123 0.121594 0.737169
0.315364 0.133157 0.745201
0.432605 0.144721 0.753233
0.549845 0.156285 0.761265
0.667086 0.167849 0.769297
0.784326 0.179413 0.777329
0.829232 0.183442 0.777826
0.056419 0.228270 0.743176
0.101325 0.232299 0.743673
0.218566 0.243863 0.751705
0.335806 0.255427 0.759737
0.453047 0.266991 0.767769
0.570287 0.278555 0.775801
0.687528 0.290118 0.783833
0.804769 0.302353 0.795553
0.849674 0.307167 0.800367
0.076862 0.350540 0.757712
0.121767 0.354569 0.758209
0.239008 0.366133 0.766241
0.356248 0.377696 0.774272
0.473489 0.389260 0.782304
0.590730 0.401466 0.793866
0.707970 0.413815 0.806215
0.825211 0.426163 0.818563
0.870117 0.430977 0.823377
0.097304 0.472809 0.772247
0.142210 0.476838 0.772744
0.259450 0.488402 0.780776
0.376691 0.500579 0.792179
0.493931 0.512928 0.804528
0.611172 0.525276 0.816876
0.728412 0.537625 0.829225
0.845653 0.549974 0.841574
0.890559 0.554788 0.846388
0.117746 0.595079 0.786783
0.162652 0.599692 0.790492
0.279892 0.612041 0.802841
0.397133 0.624389 0.815189
0.514374 0.636738 0.827538
0.631614 0.649087 0.839887
0.748855 0.661435 0.852235
0.866095 0.673784 0.864584
0.911001 0.678598 0.869398
0.138188 0.718688 0.808688
0.183094 0.723502 0.813502
0.300335 0.735851 0.825851
0.417575 0.748200 0.838200
0.534816 0.760548 0.850548
0.652056 0.772897 0.862897
0.769297 0.785246 0.875246
0.886538 0.797594 0.887594
0.931443 0.802408 0.892408
0.158631 0.842499 0.831699
0.203536 0.847313 0.836513
0.320777 0.859661 0.848861
0.438018 0.872010 0.861210
0.555258 0.884359 0.873559
0.672499 0.896707 0.885907
0.789739 0.909056 0.898256
0.906980 0.921405 0.910605
0.951886 0.926219 0.915419
0.169211 0.913248 0.844848
0.214117 0.918061 0.849661
0.331358 0.930410 0.862010
0.448598 0.942759 0.874359
0.565839 0.955108 0.886708
0.683079 0.967456 0.899056
0.800320 0.979805 0.911405
0.917561 0.992154 0.923754
0.962466 0.996968 0.928568
0.027930 0.039526 0.793753
0.072836 0.043555 0.794250
0.190076 0.055119 0.802282
0.307317 0.066683 0.810314
0.424557 0.078247 0.818346
0.541798 0.089810 0.826378
0.659039 0.101374 0.834410
0.776279 0.112938 0.842441
0.821185 0.116967 0.842938
0.038511 0.108734 0.798427
0.083416 0.112763 0.798924
0.200657 0.124327 0.806956
0.317898 0.135891 0.814988
0.435138 0.147454 0.823020
0.552379 0.159018 0.831052
0.669619 0.170582 0.839084
0.786860 0.182146 0.847115
0.831766 0.186389 0.848789
0.058953 0.231003 0.812963
0.103859 0.235032 0.813460
0.221099 0.246596 0.821492
0.338340 0.258160 0.829523
0.455580 0.269724 0.837555
0.572821 0.281288 0.845587
0.690062 0.293037 0.854637
0.807302 0.305385 0.866985
0.852208 0.310199 0.871799
0.079395 0.353273 0.827498
0.124301 0.357302 0.827995
0.241542 0.368866 0.836027
0.358782 0.380430 0.844059
0.476023 0.392150 0.852950
0.593263 0.404498 0.865298
0.710504 0.416847 0.877647
0.827744 0.429196 0.889996
0.872650 0.434010 0.894810
0.099837 0.475542 0.842034
0.144743 0.479572 0.842531
0.261984 0.491263 0.851263
0.379224 0.503611 0.863611
0.496465 0.515960 0.875960
0.613706 0.528309 0.888309
0.730946 0.540657 0.900657
0.848187 0.553006 0.913006
0.893092 0.557820 0.917820
0.120280 0.597910 0.857110
0.165186 0.602724 0.861924
0.282426 0.615073 0.874273
0.399667 0.627422 0.886622
0.516907 0.639770 0.898970
0.634148 0.652119 0.911319
0.751388 0.664468 0.923668
0.868629 0.676817 0.936017
0.913535 0.681630 0.940830
0.140722 0.721721 0.880121
0.185628 0.726535 0.884935
0.302868 0.738883 0.897283
0.420109 0.751232 0.909632
0.537350 0.763581 0.921981
0.654590 0.775930 0.934330
0.771831 0.788278 0.946678
0.889071 0.800627 0.959027
0.933977 0.805441 0.963841
0.161164 0.845531 0.903131
0.206070 0.850345 0.907945
0.323311 0.862694 0.920294
0.440551 0.875043 0.932643
0.557792 0.887391 0.944991
0.675032 0.899740 0.957340
0.792273 0.912089 0.969689
0.909514 0.924437 0.982037
0.954419 0.929251 0.986851
0.171745 0.916280 0.916280
0.216651 0.921094 0.921094
0.333891 0.933443 0.933443
0.451132 0.945791 0.945791
0.568373 0.958140 0.958140
0.685613 0.970489 0.970489
0.802854 0.982837 0.982837
0.920094 0.995186 0.995186
0.965000 1.000000 1.000000
