docs/luts/fresh-cine-teal.cube
TITLE "FreshLUTs??-????"
LUT_3D_SIZE 9
DOMAIN_MIN 0.0 0.0 0.0
DOMAIN_MAX 1.0 1.0 1.0
0.000000 0.035000 0.080000
0.052355 0.032253 0.073721
0.194709 0.029506 0.067442
0.337064 0.026759 0.061163
0.479419 0.024012 0.054884
0.621773 0.021265 0.048605
0.764128 0.018518 0.042326
0.906482 0.015771 0.036047
0.988837 0.013024 0.029768
0.000000 0.124607 0.067673
0.056977 0.121860 0.061394
0.199332 0.119113 0.055115
0.341687 0.116366 0.048836
0.484041 0.113619 0.042557
0.626396 0.110872 0.036278
0.768750 0.108125 0.029999
0.911105 0.105377 0.023720
0.993460 0.102630 0.017441
0.000000 0.254214 0.055346
0.061600 0.251467 0.049067
0.203954 0.248720 0.042788
0.346309 0.245973 0.036509
0.488664 0.243226 0.030230
0.631018 0.240479 0.023951
0.773373 0.237731 0.017672
0.915728 0.234984 0.011393
0.998082 0.232237 0.005114
0.000000 0.383821 0.043019
0.066222 0.381074 0.036740
0.208577 0.378327 0.030461
0.350932 0.375580 0.024182
0.493286 0.372833 0.017903
0.635641 0.370086 0.011624
0.777996 0.367338 0.005345
0.920000 0.365000 0.000000
1.000000 0.365000 0.000000
0.000000 0.513428 0.030692
0.070845 0.510681 0.024413
0.213200 0.507934 0.018134
0.355554 0.505187 0.011855
0.497909 0.502440 0.005576
0.640000 0.500000 0.000000
0.780000 0.500000 0.000000
0.920000 0.500000 0.000000
1.000000 0.500000 0.000000
0.000000 0.643035 0.018365
0.075468 0.640288 0.012086
0.217822 0.637541 0.005807
0.360000 0.635000 0.000000
0.500000 0.635000 0.000000
0.640000 0.635000 0.000000
0.780000 0.635000 0.000000
0.920000 0.635000 0.000000
1.000000 0.635000 0.000000
0.000000 0.772642 0.006038
0.080000 0.770000 0.000000
0.220000 0.770000 0.000000
0.360000 0.770000 0.000000
0.500000 0.770000 0.000000
0.640000 0.770000 0.000000
0.780000 0.770000 0.000000
0.920000 0.770000 0.000000
1.000000 0.770000 0.000000
0.000000 0.905000 0.000000
0.080000 0.905000 0.000000
0.220000 0.905000 0.000000
0.360000 0.905000 0.000000
0.500000 0.905000 0.000000
0.640000 0.905000 0.000000
0.780000 0.905000 0.000000
0.920000 0.905000 0.000000
1.000000 0.905000 0.000000
0.000000 1.000000 0.000000
0.080000 1.000000 0.000000
0.220000 1.000000 0.000000
0.360000 1.000000 0.000000
0.500000 1.000000 0.000000
0.640000 1.000000 0.000000
0.780000 1.000000 0.000000
0.920000 1.000000 0.000000
1.000000 1.000000 0.000000
0.000000 0.033953 0.157606
0.053252 0.031206 0.151327
0.195607 0.028459 0.145048
0.337962 0.025711 0.138769
0.480316 0.022964 0.132490
0.622671 0.020217 0.126211
0.765026 0.017470 0.119932
0.907380 0.014723 0.113653
0.989735 0.011976 0.107374
0.000000 0.123560 0.145279
0.057875 0.120812 0.139000
0.200230 0.118065 0.132721
0.342584 0.115318 0.126442
0.484939 0.112571 0.120163
0.627294 0.109824 0.113884
0.769648 0.107077 0.107605
0.912003 0.104330 0.101326
0.994357 0.101583 0.095047
0.000000 0.253166 0.132952
0.062498 0.250419 0.126673
0.204852 0.247672 0.120394
0.347207 0.244925 0.114115
0.489561 0.242178 0.107836
0.631916 0.239431 0.101557
0.774271 0.236684 0.095278
0.916625 0.233937 0.088999
0.998980 0.231190 0.082720
0.000000 0.382773 0.120625
0.067120 0.380026 0.114346
0.209475 0.377279 0.108067
0.351829 0.374532 0.101788
0.494184 0.371785 0.095509
0.636539 0.369038 0.089230
0.778893 0.366291 0.082951
0.920000 0.365000 0.080000
1.000000 0.365000 0.080000
0.000000 0.512380 0.108298
0.071743 0.509633 0.102019
0.214097 0.506886 0.095740
0.356452 0.504139 0.089461
0.498807 0.501392 0.083182
0.640000 0.500000 0.080000
0.780000 0.500000 0.080000
0.920000 0.500000 0.080000
1.000000 0.500000 0.080000
0.000000 0.641987 0.095971
0.076365 0.639240 0.089692
0.218720 0.636493 0.083413
0.360000 0.635000 0.080000
0.500000 0.635000 0.080000
0.640000 0.635000 0.080000
0.780000 0.635000 0.080000
0.920000 0.635000 0.080000
1.000000 0.635000 0.080000
0.000000 0.771594 0.083644
0.080000 0.770000 0.080000
0.220000 0.770000 0.080000
0.360000 0.770000 0.080000
0.500000 0.770000 0.080000
0.640000 0.770000 0.080000
0.780000 0.770000 0.080000
0.920000 0.770000 0.080000
1.000000 0.770000 0.080000
0.000000 0.905000 0.080000
0.080000 0.905000 0.080000
0.220000 0.905000 0.080000
0.360000 0.905000 0.080000
0.500000 0.905000 0.080000
0.640000 0.905000 0.080000
0.780000 0.905000 0.080000
0.920000 0.905000 0.080000
1.000000 0.905000 0.080000
0.000000 1.000000 0.080000
0.080000 1.000000 0.080000
0.220000 1.000000 0.080000
0.360000 1.000000 0.080000
0.500000 1.000000 0.080000
0.640000 1.000000 0.080000
0.780000 1.000000 0.080000
0.920000 1.000000 0.080000
1.000000 1.000000 0.080000
0.000000 0.032905 0.295212
0.054150 0.030158 0.288933
0.196505 0.027411 0.282654
0.338859 0.024664 0.276375
0.481214 0.021917 0.270096
0.623569 0.019170 0.263817
0.765923 0.016423 0.257538
0.908278 0.013676 0.251259
0.990633 0.010929 0.244980
0.000000 0.122512 0.282885
0.058773 0.119765 0.276606
0.201127 0.117018 0.270327
0.343482 0.114271 0.264048
0.485837 0.111524 0.257769
0.628191 0.108777 0.251490
0.770546 0.106030 0.245211
0.912901 0.103283 0.238932
0.995255 0.100536 0.232653
0.000000 0.252119 0.270558
0.063395 0.249372 0.264279
0.205750 0.246625 0.258000
0.348105 0.243878 0.251721
0.490459 0.241131 0.245442
0.632814 0.238384 0.239163
0.775169 0.235637 0.232884
0.917523 0.232890 0.226605
0.999878 0.230143 0.220326
0.000000 0.381726 0.258231
0.068018 0.378979 0.251952
0.210373 0.376232 0.245673
0.352727 0.373485 0.239394
0.495082 0.370738 0.233115
0.637436 0.367991 0.226836
0.779791 0.365244 0.220557
0.920000 0.365000 0.220000
1.000000 0.365000 0.220000
0.000000 0.511333 0.245904
0.072641 0.508586 0.239625
0.214995 0.505839 0.233346
0.357350 0.503092 0.227067
0.499704 0.500345 0.220788
0.640000 0.500000 0.220000
0.780000 0.500000 0.220000
0.920000 0.500000 0.220000
1.000000 0.500000 0.220000
0.000000 0.640940 0.233577
0.077263 0.638193 0.227298
0.219618 0.635446 0.221019
0.360000 0.635000 0.220000
0.500000 0.635000 0.220000
0.640000 0.635000 0.220000
0.780000 0.635000 0.220000
0.920000 0.635000 0.220000
1.000000 0.635000 0.220000
0.000000 0.770547 0.221250
0.080000 0.770000 0.220000
0.220000 0.770000 0.220000
0.360000 0.770000 0.220000
0.500000 0.770000 0.220000
0.640000 0.770000 0.220000
0.780000 0.770000 0.220000
0.920000 0.770000 0.220000
1.000000 0.770000 0.220000
0.000000 0.905000 0.220000
0.080000 0.905000 0.220000
0.220000 0.905000 0.220000
0.360000 0.905000 0.220000
0.500000 0.905000 0.220000
0.640000 0.905000 0.220000
0.780000 0.905000 0.220000
0.920000 0.905000 0.220000
1.000000 0.905000 0.220000
0.000000 1.000000 0.220000
0.080000 1.000000 0.220000
0.220000 1.000000 0.220000
0.360000 1.000000 0.220000
0.500000 1.000000 0.220000
0.640000 1.000000 0.220000
0.780000 1.000000 0.220000
0.920000 1.000000 0.220000
1.000000 1.000000 0.220000
0.000000 0.031858 0.432818
0.055048 0.029111 0.426539
0.197402 0.026364 0.420260
0.339757 0.023617 0.413981
0.482112 0.020870 0.407702
0.624466 0.018123 0.401423
0.766821 0.015375 0.395144
0.909176 0.012628 0.388865
0.991530 0.009881 0.382586
0.000000 0.121465 0.420491
0.059670 0.118718 0.414212
0.202025 0.115971 0.407933
0.344380 0.113224 0.401654
0.486734 0.110477 0.395375
0.629089 0.107729 0.389096
0.771444 0.104982 0.382817
0.913798 0.102235 0.376538
0.996153 0.099488 0.370259
0.000000 0.251072 0.408164
0.064293 0.248325 0.401885
0.206648 0.245578 0.395606
0.349002 0.242831 0.389327
0.491357 0.240083 0.383048
0.633712 0.237336 0.376769
0.776066 0.234589 0.370490
0.918421 0.231842 0.364211
1.000000 0.230000 0.360000
0.000000 0.380679 0.395837
0.068916 0.377932 0.389558
0.211270 0.375185 0.383279
0.353625 0.372437 0.377000
0.495980 0.369690 0.370721
0.638334 0.366943 0.364442
0.780000 0.365000 0.360000
0.920000 0.365000 0.360000
1.000000 0.365000 0.360000
0.000000 0.510286 0.383510
0.073538 0.507539 0.377231
0.215893 0.504791 0.370952
0.358248 0.502044 0.364673
0.500000 0.500000 0.360000
0.640000 0.500000 0.360000
0.780000 0.500000 0.360000
0.920000 0.500000 0.360000
1.000000 0.500000 0.360000
0.000000 0.639893 0.371183
0.078161 0.637146 0.364904
0.220000 0.635000 0.360000
0.360000 0.635000 0.360000
0.500000 0.635000 0.360000
0.640000 0.635000 0.360000
0.780000 0.635000 0.360000
0.920000 0.635000 0.360000
1.000000 0.635000 0.360000
0.000000 0.770000 0.360000
0.080000 0.770000 0.360000
0.220000 0.770000 0.360000
0.360000 0.770000 0.360000
0.500000 0.770000 0.360000
0.640000 0.770000 0.360000
0.780000 0.770000 0.360000
0.920000 0.770000 0.360000
1.000000 0.770000 0.360000
0.000000 0.905000 0.360000
0.080000 0.905000 0.360000
0.220000 0.905000 0.360000
0.360000 0.905000 0.360000
0.500000 0.905000 0.360000
0.640000 0.905000 0.360000
0.780000 0.905000 0.360000
0.920000 0.905000 0.360000
1.000000 0.905000 0.360000
0.000000 1.000000 0.360000
0.080000 1.000000 0.360000
0.220000 1.000000 0.360000
0.360000 1.000000 0.360000
0.500000 1.000000 0.360000
0.640000 1.000000 0.360000
0.780000 1.000000 0.360000
0.920000 1.000000 0.360000
1.000000 1.000000 0.360000
0.000000 0.030811 0.570424
0.055946 0.028063 0.564145
0.198300 0.025316 0.557866
0.340655 0.022569 0.551587
0.483009 0.019822 0.545308
0.625364 0.017075 0.539029
0.767719 0.014328 0.532750
0.910073 0.011581 0.526471
0.992428 0.008834 0.520192
0.000000 0.120417 0.558097
0.060568 0.117670 0.551818
0.202923 0.114923 0.545539
0.345278 0.112176 0.539260
0.487632 0.109429 0.532981
0.629987 0.106682 0.526702
0.772341 0.103935 0.520423
0.914696 0.101188 0.514144
0.997051 0.098441 0.507865
0.000000 0.250024 0.545770
0.065191 0.247277 0.539491
0.207545 0.244530 0.533212
0.349900 0.241783 0.526933
0.492255 0.239036 0.520654
0.634609 0.236289 0.514375
0.776964 0.233542 0.508096
0.919319 0.230795 0.501817
1.000000 0.230000 0.500000
0.000000 0.379631 0.533443
0.069813 0.376884 0.527164
0.212168 0.374137 0.520885
0.354523 0.371390 0.514606
0.496877 0.368643 0.508327
0.639232 0.365896 0.502048
0.780000 0.365000 0.500000
0.920000 0.365000 0.500000
1.000000 0.365000 0.500000
0.000000 0.509238 0.521116
0.074436 0.506491 0.514837
0.216791 0.503744 0.508558
0.359145 0.500997 0.502279
0.500000 0.500000 0.500000
0.640000 0.500000 0.500000
0.780000 0.500000 0.500000
0.920000 0.500000 0.500000
1.000000 0.500000 0.500000
0.000000 0.638845 0.508789
0.079059 0.636098 0.502510
0.220000 0.635000 0.500000
0.360000 0.635000 0.500000
0.500000 0.635000 0.500000
0.640000 0.635000 0.500000
0.780000 0.635000 0.500000
0.920000 0.635000 0.500000
1.000000 0.635000 0.500000
0.000000 0.770000 0.500000
0.080000 0.770000 0.500000
0.220000 0.770000 0.500000
0.360000 0.770000 0.500000
0.500000 0.770000 0.500000
0.640000 0.770000 0.500000
0.780000 0.770000 0.500000
0.920000 0.770000 0.500000
1.000000 0.770000 0.500000
0.000000 0.905000 0.500000
0.080000 0.905000 0.500000
0.220000 0.905000 0.500000
0.360000 0.905000 0.500000
0.500000 0.905000 0.500000
0.640000 0.905000 0.500000
0.780000 0.905000 0.500000
0.920000 0.905000 0.500000
1.000000 0.905000 0.500000
0.000000 1.000000 0.500000
0.080000 1.000000 0.500000
0.220000 1.000000 0.500000
0.360000 1.000000 0.500000
0.500000 1.000000 0.500000
0.640000 1.000000 0.500000
0.780000 1.000000 0.500000
0.920000 1.000000 0.500000
1.000000 1.000000 0.500000
0.000000 0.029763 0.708030
0.056843 0.027016 0.701751
0.199198 0.024269 0.695472
0.341553 0.021522 0.689193
0.483907 0.018775 0.682914
0.626262 0.016028 0.676635
0.768617 0.013281 0.670356
0.910971 0.010534 0.664077
0.993326 0.007787 0.657798
0.000000 0.119370 0.695703
0.061466 0.116623 0.689424
0.203821 0.113876 0.683145
0.346175 0.111129 0.676866
0.488530 0.108382 0.670587
0.630885 0.105635 0.664308
0.773239 0.102888 0.658029
0.915594 0.100141 0.651750
0.997948 0.097394 0.645471
0.000000 0.248977 0.683376
0.066089 0.246230 0.677097
0.208443 0.243483 0.670818
0.350798 0.240736 0.664539
0.493152 0.237989 0.658260
0.635507 0.235242 0.651981
0.777862 0.232495 0.645702
0.920000 0.230000 0.640000
1.000000 0.230000 0.640000
0.000000 0.378584 0.671049
0.070711 0.375837 0.664770
0.213066 0.373090 0.658491
0.355420 0.370343 0.652212
0.497775 0.367596 0.645933
0.640000 0.365000 0.640000
0.780000 0.365000 0.640000
0.920000 0.365000 0.640000
1.000000 0.365000 0.640000
0.000000 0.508191 0.658722
0.075334 0.505444 0.652443
0.217688 0.502697 0.646164
0.360000 0.500000 0.640000
0.500000 0.500000 0.640000
0.640000 0.500000 0.640000
0.780000 0.500000 0.640000
0.920000 0.500000 0.640000
1.000000 0.500000 0.640000
0.000000 0.637798 0.646395
0.079956 0.635051 0.640116
0.220000 0.635000 0.640000
0.360000 0.635000 0.640000
0.500000 0.635000 0.640000
0.640000 0.635000 0.640000
0.780000 0.635000 0.640000
0.920000 0.635000 0.640000
1.000000 0.635000 0.640000
0.000000 0.770000 0.640000
0.080000 0.770000 0.640000
0.220000 0.770000 0.640000
0.360000 0.770000 0.640000
0.500000 0.770000 0.640000
0.640000 0.770000 0.640000
0.780000 0.770000 0.640000
0.920000 0.770000 0.640000
1.000000 0.770000 0.640000
0.000000 0.905000 0.640000
0.080000 0.905000 0.640000
0.220000 0.905000 0.640000
0.360000 0.905000 0.640000
0.500000 0.905000 0.640000
0.640000 0.905000 0.640000
0.780000 0.905000 0.640000
0.920000 0.905000 0.640000
1.000000 0.905000 0.640000
0.000000 1.000000 0.640000
0.080000 1.000000 0.640000
0.220000 1.000000 0.640000
0.360000 1.000000 0.640000
0.500000 1.000000 0.640000
0.640000 1.000000 0.640000
0.780000 1.000000 0.640000
0.920000 1.000000 0.640000
1.000000 1.000000 0.640000
0.000000 0.028716 0.845636
0.057741 0.025969 0.839357
0.200096 0.023222 0.833078
0.342450 0.020475 0.826799
0.484805 0.017728 0.820520
0.627160 0.014980 0.814241
0.769514 0.012233 0.807962
0.911869 0.009486 0.801683
0.994224 0.006739 0.795404
0.000000 0.118323 0.833309
0.062364 0.115576 0.827030
0.204718 0.112829 0.820751
0.347073 0.110081 0.814472
0.489428 0.107334 0.808193
0.631782 0.104587 0.801914
0.774137 0.101840 0.795635
0.916492 0.099093 0.789356
0.998846 0.096346 0.783077
0.000000 0.247930 0.820982
0.066986 0.245183 0.814703
0.209341 0.242435 0.808424
0.351696 0.239688 0.802145
0.494050 0.236941 0.795866
0.636405 0.234194 0.789587
0.778760 0.231447 0.783308
0.920000 0.230000 0.780000
1.000000 0.230000 0.780000
0.000000 0.377537 0.808655
0.071609 0.374789 0.802376
0.213964 0.372042 0.796097
0.356318 0.369295 0.789818
0.498673 0.366548 0.783539
0.640000 0.365000 0.780000
0.780000 0.365000 0.780000
0.920000 0.365000 0.780000
1.000000 0.365000 0.780000
0.000000 0.507143 0.796328
0.076232 0.504396 0.790049
0.218586 0.501649 0.783770
0.360000 0.500000 0.780000
0.500000 0.500000 0.780000
0.640000 0.500000 0.780000
0.780000 0.500000 0.780000
0.920000 0.500000 0.780000
1.000000 0.500000 0.780000
0.000000 0.636750 0.784001
0.080000 0.635000 0.780000
0.220000 0.635000 0.780000
0.360000 0.635000 0.780000
0.500000 0.635000 0.780000
0.640000 0.635000 0.780000
0.780000 0.635000 0.780000
0.920000 0.635000 0.780000
1.000000 0.635000 0.780000
0.000000 0.770000 0.780000
0.080000 0.770000 0.780000
0.220000 0.770000 0.780000
0.360000 0.770000 0.780000
0.500000 0.770000 0.780000
0.640000 0.770000 0.780000
0.780000 0.770000 0.780000
0.920000 0.770000 0.780000
1.000000 0.770000 0.780000
0.000000 0.905000 0.780000
0.080000 0.905000 0.780000
0.220000 0.905000 0.780000
0.360000 0.905000 0.780000
0.500000 0.905000 0.780000
0.640000 0.905000 0.780000
0.780000 0.905000 0.780000
0.920000 0.905000 0.780000
1.000000 0.905000 0.780000
0.000000 1.000000 0.780000
0.080000 1.000000 0.780000
0.220000 1.000000 0.780000
0.360000 1.000000 0.780000
0.500000 1.000000 0.780000
0.640000 1.000000 0.780000
0.780000 1.000000 0.780000
0.920000 1.000000 0.780000
1.000000 1.000000 0.780000
0.000000 0.027668 0.983242
0.058639 0.024921 0.976963
0.200993 0.022174 0.970684
0.343348 0.019427 0.964405
0.485703 0.016680 0.958126
0.628057 0.013933 0.951847
0.770412 0.011186 0.945568
0.912767 0.008439 0.939289
0.995121 0.005692 0.933010
0.000000 0.117275 0.970915
0.063261 0.114528 0.964636
0.205616 0.111781 0.958357
0.347971 0.109034 0.952078
0.490325 0.106287 0.945799
0.632680 0.103540 0.939520
0.775035 0.100793 0.933241
0.917389 0.098046 0.926962
0.999744 0.095299 0.920683
0.000000 0.246882 0.958588
0.067884 0.244135 0.952309
0.210239 0.241388 0.946030
0.352593 0.238641 0.939751
0.494948 0.235894 0.933472
0.637303 0.233147 0.927193
0.779657 0.230400 0.920914
0.920000 0.230000 0.920000
1.000000 0.230000 0.920000
0.000000 0.376489 0.946261
0.072507 0.373742 0.939982
0.214861 0.370995 0.933703
0.357216 0.368248 0.927424
0.499571 0.365501 0.921145
0.640000 0.365000 0.920000
0.780000 0.365000 0.920000
0.920000 0.365000 0.920000
1.000000 0.365000 0.920000
0.000000 0.506096 0.933934
0.077129 0.503349 0.927655
0.219484 0.500602 0.921376
0.360000 0.500000 0.920000
0.500000 0.500000 0.920000
0.640000 0.500000 0.920000
0.780000 0.500000 0.920000
0.920000 0.500000 0.920000
1.000000 0.500000 0.920000
0.000000 0.635703 0.921607
0.080000 0.635000 0.920000
0.220000 0.635000 0.920000
0.360000 0.635000 0.920000
0.500000 0.635000 0.920000
0.640000 0.635000 0.920000
0.780000 0.635000 0.920000
0.920000 0.635000 0.920000
1.000000 0.635000 0.920000
0.000000 0.770000 0.920000
0.080000 0.770000 0.920000
0.220000 0.770000 0.920000
0.360000 0.770000 0.920000
0.500000 0.770000 0.920000
0.640000 0.770000 0.920000
0.780000 0.770000 0.920000
0.920000 0.770000 0.920000
1.000000 0.770000 0.920000
0.000000 0.905000 0.920000
0.080000 0.905000 0.920000
0.220000 0.905000 0.920000
0.360000 0.905000 0.920000
0.500000 0.905000 0.920000
0.640000 0.905000 0.920000
0.780000 0.905000 0.920000
0.920000 0.905000 0.920000
1.000000 0.905000 0.920000
0.000000 1.000000 0.920000
0.080000 1.000000 0.920000
0.220000 1.000000 0.920000
0.360000 1.000000 0.920000
0.500000 1.000000 0.920000
0.640000 1.000000 0.920000
0.780000 1.000000 0.920000
0.920000 1.000000 0.920000
1.000000 1.000000 0.920000
0.000000 0.026621 1.000000
0.059537 0.023874 1.000000
0.201891 0.021127 1.000000
0.344246 0.018380 1.000000
0.486600 0.015633 1.000000
0.628955 0.012886 1.000000
0.771310 0.010139 1.000000
0.913664 0.007392 1.000000
0.996019 0.004645 1.000000
0.000000 0.116228 1.000000
0.064159 0.113481 1.000000
0.206514 0.110734 1.000000
0.348868 0.107987 1.000000
0.491223 0.105240 1.000000
0.633578 0.102493 1.000000
0.775932 0.099746 1.000000
0.918287 0.096998 1.000000
1.000000 0.095000 1.000000
0.000000 0.245835 1.000000
0.068782 0.243088 1.000000
0.211136 0.240341 1.000000
0.353491 0.237594 1.000000
0.495846 0.234847 1.000000
0.638200 0.232100 1.000000
0.780000 0.230000 1.000000
0.920000 0.230000 1.000000
1.000000 0.230000 1.000000
0.000000 0.375442 1.000000
0.073404 0.372695 1.000000
0.215759 0.369948 1.000000
0.358114 0.367201 1.000000
0.500000 0.365000 1.000000
0.640000 0.365000 1.000000
0.780000 0.365000 1.000000
0.920000 0.365000 1.000000
1.000000 0.365000 1.000000
0.000000 0.505049 1.000000
0.078027 0.502302 1.000000
0.220000 0.500000 1.000000
0.360000 0.500000 1.000000
0.500000 0.500000 1.000000
0.640000 0.500000 1.000000
0.780000 0.500000 1.000000
0.920000 0.500000 1.000000
1.000000 0.500000 1.000000
0.000000 0.635000 1.000000
0.080000 0.635000 1.000000
0.220000 0.635000 1.000000
0.360000 0.635000 1.000000
0.500000 0.635000 1.000000
0.640000 0.635000 1.000000
0.780000 0.635000 1.000000
0.920000 0.635000 1.000000
1.000000 0.635000 1.000000
0.000000 0.770000 1.000000
0.080000 0.770000 1.000000
0.220000 0.770000 1.000000
0.360000 0.770000 1.000000
0.500000 0.770000 1.000000
0.640000 0.770000 1.000000
0.780000 0.770000 1.000000
0.920000 0.770000 1.000000
1.000000 0.770000 1.000000
0.000000 0.905000 1.000000
0.080000 0.905000 1.000000
0.220000 0.905000 1.000000
0.360000 0.905000 1.000000
0.500000 0.905000 1.000000
0.640000 0.905000 1.000000
0.780000 0.905000 1.000000
0.920000 0.905000 1.000000
1.000000 0.905000 1.000000
0.000000 1.000000 1.000000
0.080000 1.000000 1.000000
0.220000 1.000000 1.000000
0.360000 1.000000 1.000000
0.500000 1.000000 1.000000
0.640000 1.000000 1.000000
0.780000 1.000000 1.000000
0.920000 1.000000 1.000000
1.000000 1.000000 1.000000
